<?xml version="1.0" encoding="UTF-8"?>
<map version="1.10" tiledversion="1.12.2" orientation="orthogonal" renderorder="right-down" width="55" height="66" tilewidth="32" tileheight="32" infinite="0" nextlayerid="6" nextobjectid="61">
 <tileset firstgid="1" source="../outside.tsx"/>
 <tileset firstgid="4017" source="../Sea.tsj"/>
 <tileset firstgid="4115" source="../Outside_pallet.tsx"/>
 <tileset firstgid="8131" source="../pokemon_emerald_exterior_32.tsj"/>
 <layer id="1" name="ground" width="55" height="66">
  <data encoding="csv">
6,4,5,5,5,3,6,6,3,6,3,6,5,4,5,3,4,4,5,4,4,4,5,6,3,5,154,155,155,156,4,6,4,4,3,5,6,3,6,6,4,6,4,3,6,3,5,6,4,4,4,3,6,3,6,
3,6,5,5,4,3,6,5,3,3,3,6,5,5,6,5,3,5,3,3,3,6,5,6,3,4,162,163,163,164,6,4,4,6,3,4,3,3,3,3,3,6,5,4,5,4,4,3,4,3,4,4,5,3,6,
4,5,4,3,4,4,6,4,6,5,5,6,4,3,3,4,5,6,5,6,4,4,6,5,6,5,162,163,163,164,6,6,4,3,4,5,4,5,4,6,5,6,4,3,6,5,3,4,4,6,5,5,6,5,6,
6,4,3,5,3,3,6,5,4,4,4,4,6,3,4,6,5,3,4,4,4,6,5,5,4,4,162,163,163,164,4,3,6,5,3,3,6,3,4,5,4,3,6,5,5,3,4,4,3,4,6,4,6,3,6,
3,6,3,6,4,6,4,6,4,4,6,6,4,3,6,3,5,5,3,4,5,4,6,6,3,5,162,163,163,164,6,3,3,5,5,3,6,5,6,6,4,4,3,3,4,5,6,4,5,4,3,6,4,4,3,
4,4,5,6,6,6,3,3,3,3,6,3,5,4,4,4,4,4,3,6,3,6,3,4,3,5,162,163,163,164,4,3,4,4,3,4,4,4,3,5,4,6,5,5,5,5,6,5,6,3,6,6,5,4,4,
6,5,3,5,3,6,694,695,695,695,696,4,4,5,3,3,4,3,5,5,4,5,5,5,5,5,162,163,163,164,4,5,4,5,6,3,5,6,5,6,5,3,3,3,3,4,3,3,4,6,5,3,6,5,4,
3,3,5,6,6,4,710,711,711,711,712,3,5,4,5,5,5,4,5,3,4,6,5,6,6,3,162,163,163,164,6,3,6,5,3,6,5,4,3,3,5,5,6,6,6,3,5,4,6,4,4,6,5,4,5,
6,5,4,5,4,4,3,5,4,4,6,5,6,3,5,4,6,6,3,3,6,3,6,3,6,5,162,163,163,164,4,6,5,3,4,6,4,3,3,4,3,6,5,4,6,3,3,4,4,3,6,5,3,6,5,
5,4,6,5,4,6,3,3,3,3,5,5,6,5,6,5,6,4,3,4,3,6,5,6,6,3,162,163,163,164,6,6,6,4,6,6,6,3,5,3,3,4,6,6,5,3,6,5,3,5,3,5,5,6,6,
4,3,5,6,5,3,6,5,3,5,5,5,6,4,4,3,3,3,4,4,6,6,4,4,5,4,162,163,163,164,3,3,5,3,5,3,6,4,5,3,6,5,4,6,4,6,3,4,6,4,5,6,6,3,6,
5,3,5,5,6,4,3,4,6,4,6,5,5,5,5,3,4,4,5,6,6,3,6,3,3,4,162,163,163,164,6,6,6,6,3,4,5,3,4,5,6,6,3,4,6,4,3,6,4,5,6,5,6,6,4,
3,4,4,5,6,4,5,6,5,6,3,5,5,4,5,6,3,3,3,3,5,5,6,4,3,6,162,163,163,164,3,3,4,3,6,6,3,4,5,4,5,6,6,6,6,6,4,4,5,4,5,5,5,3,5,
4,6,5,5,6,6,6,3,4,3,5,6,6,4,5,5,6,5,3,3,6,5,6,4,6,3,162,163,163,164,4,6,5,5,4,4,5,6,5,6,3,5,4,6,4,3,6,3,4,3,4,3,5,6,3,
3,6,4,5,3,3,3,4,6,5,5,5,4,6,4,6,4,3,4,5,4,6,5,5,5,5,162,163,163,164,4,4,5,6,6,3,6,5,5,3,5,3,6,5,4,6,3,6,3,4,3,5,5,5,6,
4,3,4,6,6,4,3,5,6,4,5,5,3,6,4,5,5,6,3,5,5,6,4,5,4,4,162,163,163,164,3,4,3,5,4,6,3,5,5,4,3,6,5,3,4,6,3,6,5,4,6,3,5,6,4,
4,3,4,4,4,4,4,6,6,4,4,4,3,6,6,5,3,5,4,6,3,3,5,5,6,4,162,163,163,164,3,1118,1119,1120,6,4,3,5,6,4,6,3,6,6,5,5,6,6,5,6,5,5,4,4,6,
4,4,6,4,6,6,5,3,4,4,4,4,6,6,5,3,6,3,6,6,6,3,3,5,5,5,162,163,163,164,5,1126,1127,1128,3,5,3,4,3,6,6,3,4,3,3,3,6,3,6,4,5,6,3,4,6,
6,5,6,3,6,4,5,4,3,4,3,3,4,3,6,5,5,6,5,3,5,3,5,3,4,5,162,163,163,164,3,1134,1135,1136,5,5,5,5,4,6,6,6,3,5,3,6,3,4,4,5,4,4,6,6,6,
5,4,6,5,3,3,4,5,5,4,6,4,3,4,6,4,3,5,3,5,4,6,4,6,6,6,162,163,163,164,5,1142,1143,1144,6,5,5,4,6,6,3,4,6,5,4,3,3,3,3,4,5,5,4,4,3,
6,5,6,3,154,155,155,155,155,155,155,155,155,155,155,155,155,155,155,155,155,155,155,155,155,155,163,163,163,163,155,155,155,155,155,155,155,155,155,155,155,155,155,155,155,155,155,155,155,155,155,156,5,6,5,
6,3,5,6,162,163,163,163,163,163,163,163,163,163,163,163,163,163,163,163,163,163,163,163,163,163,163,163,163,163,163,163,163,163,163,163,163,163,163,163,163,163,163,163,163,163,163,163,163,163,163,164,6,4,4,
5,4,5,4,162,163,163,163,163,163,163,163,163,163,163,163,163,163,163,163,163,163,163,163,163,163,163,163,163,163,163,163,163,163,163,163,163,163,163,163,163,163,163,163,163,163,163,163,163,163,163,164,4,3,6,
5,3,6,6,170,171,171,171,171,171,171,171,171,171,171,171,171,171,171,171,171,171,171,171,171,171,163,163,163,163,171,171,171,171,163,163,163,163,171,171,171,171,171,171,171,171,171,171,171,171,171,172,6,3,5,
5,6,4,6,6,3,5,3,6,5,6,4,6,4,6,5,6,4,4,4,4,3,5,5,5,3,162,163,163,164,3,5,4,5,162,163,163,164,6,4,4,5,6,3,6,3,6,4,6,4,3,5,6,6,4,
4,4,6,3,4,4,5,5,6,4,4,3,6,3,4,6,6,5,3,6,5,3,4,3,3,5,162,163,163,164,4,4,6,6,162,163,163,164,4,5,4,4,4,5,6,5,5,5,4,6,5,6,4,6,3,
6,6,3,6,3,3,5,4,4,6,5,4,5,4,4,5,5,5,3,4,3,3,5,5,4,3,162,163,163,164,6,3,3,3,162,163,163,164,6,4,5,5,6,4,6,5,3,5,5,3,5,3,5,5,5,
6,3,3,6,3,4,3,6,6,5,4,4,3,5,6,5,4,3,6,6,4,3,3,4,4,4,162,163,163,164,6,5,5,3,162,163,163,164,5,4,3,6,5,4,5,6,6,6,6,4,6,3,3,5,5,
5,4,3,6,3,4,5,5,3,3,3,4,6,5,4,6,3,4,6,4,4,4,5,3,4,4,162,163,163,164,4,4,3,3,162,163,163,164,4,6,3,6,5,4,3,6,6,6,6,3,4,6,5,5,5,
6,5,4,4,3,5,3,4,4,4,4,3,3,6,6,4,4,5,4,4,5,4,4,3,4,4,162,163,163,164,6,3,4,4,162,163,163,164,3,3,3,5,4,4,4,6,6,3,6,3,6,5,4,6,3,
6,5,5,154,5,3,3,3,154,155,155,155,155,155,155,155,155,155,155,155,155,155,155,155,155,155,163,163,163,164,6,4,5,4,162,163,163,164,3,6,6,6,3,6,6,3,4,5,4,5,5,5,5,4,3,
4,6,3,162,3,5,4,5,162,163,163,163,163,163,163,163,163,163,163,163,163,163,163,163,163,163,163,163,163,164,6,6,6,3,162,163,163,164,3,4,6,4,3,3,3,3,5,3,5,6,5,3,3,5,5,
3,5,4,162,5,3,6,6,162,163,163,163,163,163,163,163,163,163,163,163,163,163,163,163,163,163,163,163,163,164,5,4,4,6,162,163,163,164,6,6,5,6,3,4,694,695,695,695,695,696,6,5,4,5,3,
3,3,3,162,6,5,4,4,162,163,163,163,163,163,163,163,163,163,163,163,163,163,163,163,163,163,163,163,163,164,5,6,6,3,162,163,163,164,3,5,3,4,3,3,702,703,703,703,703,704,4,4,3,4,3,
3,4,5,162,5,4,4,4,162,163,163,163,163,163,163,163,163,163,163,163,163,163,163,163,163,163,163,163,163,164,5,4,3,3,162,163,163,164,5,4,4,6,5,3,702,703,703,703,703,704,5,4,5,4,5,
5,5,5,162,6,6,3,3,162,163,163,163,163,163,163,163,163,163,163,163,163,163,163,163,163,163,163,163,163,164,6,3,6,4,162,163,163,164,6,5,4,6,6,5,710,711,711,711,711,712,5,5,4,5,3,
4,3,6,162,4,6,5,5,162,163,163,163,163,163,163,163,163,163,163,163,163,163,163,163,163,163,163,163,163,164,5,5,3,3,162,163,163,164,5,4,3,4,4,6,4,4,4,6,5,3,4,5,4,5,5,
6,6,4,162,4,3,4,6,170,171,171,171,171,171,171,171,171,171,171,171,171,171,171,171,171,171,163,163,163,164,3,6,3,4,162,163,163,164,4,4,6,4,3,4,4,4,4,6,3,6,6,5,3,6,6,
4,4,3,162,4,4,4,5,6,4,5,6,6,5,5,3,6,3,6,4,3,3,4,6,3,4,162,163,163,164,4,3,5,4,162,163,163,164,5,3,6,5,6,4,6,3,5,5,6,4,4,4,3,4,6,
5,3,4,170,6,5,6,4,5,4,6,4,6,6,6,6,6,4,3,5,4,3,6,3,5,6,162,163,163,164,5,4,3,6,162,163,163,164,5,4,3,4,4,5,6,3,4,4,5,4,6,3,3,5,4,
3,5,4,3,3,3,5,6,5,4,4,5,6,4,4,6,3,4,5,6,3,5,6,5,3,3,162,163,163,164,5,4,5,5,162,163,163,164,6,4,6,4,4,5,4,5,6,5,3,5,3,5,6,4,5,
6,6,3,6,6,3,6,3,5,6,6,5,6,4,3,3,4,6,4,4,3,4,5,5,6,4,162,163,163,164,6,6,4,5,162,163,163,164,3,4,6,5,154,5,5,4,6,6,154,5,6,5,4,6,3,
3,3,4,5,5,5,3,4,4,4,5,3,3,3,4,3,6,3,5,6,3,6,5,5,5,6,162,163,163,164,5,4,3,6,162,163,163,163,155,155,155,155,163,155,155,155,155,155,163,156,4,5,3,6,4,
3,3,6,6,4,3,3,5,3,6,5,5,4,6,3,4,6,3,3,3,4,5,4,4,3,6,162,163,163,164,4,6,5,3,162,163,163,163,163,163,163,163,163,163,163,163,163,163,163,164,5,3,6,4,5,
6,5,6,3,3,5,5,5,5,5,4,6,3,4,3,3,4,3,4,6,5,3,5,5,3,6,162,163,163,164,3,4,6,3,162,163,163,163,163,163,163,163,163,163,163,163,163,163,163,164,4,6,5,6,3,
6,3,5,4,5,6,4,3,4,5,4,4,5,6,4,6,5,3,3,6,3,5,5,5,6,3,162,163,163,164,4,4,4,4,170,171,171,171,171,171,171,171,171,171,171,171,171,171,171,172,4,3,3,3,4,
4,5,5,6,5,5,6,4,5,6,3,5,3,5,4,5,4,3,3,4,5,5,3,3,3,6,162,163,163,164,6,4,3,4,6,4,4,3,5,3,3,5,3,4,3,4,6,6,4,5,6,5,6,4,4,
5,4,3,4,5,5,3,5,6,5,6,5,6,5,5,3,6,3,5,4,4,5,4,3,5,5,162,163,163,164,3,3,5,5,4,4,5,6,6,5,5,4,6,3,5,4,4,3,3,3,5,3,6,3,6,
6,3,3,3,6,6,6,5,6,5,6,6,5,6,5,3,5,3,4,5,5,3,4,5,3,3,162,163,163,164,3,5,5,3,4,6,4,3,5,5,3,5,3,4,3,6,4,4,6,6,3,6,6,5,6,
6,5,5,6,4,4,4,4,3,4,5,3,3,4,6,5,6,3,3,6,5,5,5,4,6,5,162,163,163,164,3,5,4,5,6,5,6,5,3,5,3,4,5,4,6,6,4,3,4,3,5,4,3,6,6,
6,5,5,4,6,3,3,4,4,3,4,5,4,6,3,6,5,4,4,3,4,4,4,3,4,5,162,163,163,164,6,3,3,4,3,6,6,3,6,6,5,6,3,5,5,3,5,3,6,5,3,6,3,5,4,
4,5,3,4,5,4,4,5,6,6,6,6,3,6,5,5,4,4,4,3,5,4,6,5,5,6,162,163,163,164,5,6,5,4,3,6,5,6,3,6,6,4,5,6,4,6,5,6,3,4,3,6,4,4,5,
5,3,6,6,6,5,3,6,6,3,4,6,6,3,3,6,5,3,3,3,3,3,3,3,4,6,162,163,163,164,3,3,4,4,5,6,6,5,6,5,5,5,3,3,5,4,4,5,4,3,5,4,4,5,6,
6,3,6,6,6,3,3,4,4,4,6,5,3,6,6,3,6,5,5,3,3,3,3,4,6,6,162,163,163,164,5,5,3,4,6,3,5,6,5,5,3,5,6,6,5,5,3,6,3,4,4,3,6,3,5,
4,6,4,6,3,4,6,6,4,3,5,5,3,6,3,6,5,3,4,4,5,4,3,5,5,3,162,163,163,164,4,3,5,4,5,4,5,6,6,4,3,3,5,6,5,6,5,3,3,4,4,4,3,3,3,
6,6,5,4,5,3,3,3,4,4,5,6,3,3,3,5,5,5,4,6,6,6,4,4,5,5,162,163,163,164,3,4,6,5,5,3,6,5,4,5,3,5,5,5,3,6,5,5,6,5,5,3,6,3,6,
3,4,6,5,5,6,4,6,6,4,5,6,6,5,3,4,4,5,5,3,5,4,4,5,3,4,162,163,163,164,3,5,6,5,3,6,4,6,4,6,5,4,5,3,3,5,3,6,4,5,5,6,5,5,4,
5,5,4,4,4,6,5,5,3,6,5,3,4,3,4,6,6,6,6,4,3,6,4,5,5,6,162,163,163,164,3,5,6,5,5,6,3,4,5,5,5,6,6,5,5,3,4,3,3,4,5,3,5,4,6,
5,4,6,3,6,5,6,4,3,6,5,4,6,4,5,6,5,4,5,6,3,3,6,4,4,4,162,163,163,164,3,3,3,6,6,6,6,5,6,3,6,6,3,6,6,6,6,5,3,6,6,3,6,5,4,
4,3,3,3,5,6,3,5,3,4,6,5,3,6,4,5,3,6,3,6,6,5,6,6,4,3,170,171,171,172,3,5,3,4,6,3,6,6,6,3,3,5,4,6,4,4,5,3,4,4,6,6,4,3,5,
4041,4042,4042,4042,4042,4042,4042,4042,4042,4042,4042,4042,4042,4042,4042,4042,4042,4042,4042,4042,4042,4042,4042,4042,4042,4042,4042,4042,4042,4042,4042,4042,4042,4042,4042,4042,4042,4042,4042,4042,4042,4042,4042,4042,4042,4042,4042,4042,4042,4042,4042,4042,4042,4042,4043,
4065,4066,4066,4066,4066,4066,4066,4066,4066,4066,4066,4066,4066,4066,4066,4066,4066,4066,4066,4066,4066,4066,4066,4066,4066,4066,4066,4066,4066,4066,4066,4066,4066,4066,4066,4066,4066,4066,4066,4066,4066,4066,4066,4066,4066,4066,4066,4066,4066,4066,4066,4066,4066,4066,4067,
4065,4066,4066,4066,4066,4066,4066,4066,4066,4066,4066,4066,4066,4066,4066,4066,4066,4066,4066,4066,4066,4066,4066,4066,4066,4066,4066,4066,4066,4066,4066,4066,4066,4066,4066,4066,4066,4066,4066,4066,4066,4066,4066,4066,4066,4066,4066,4066,4066,4066,4066,4066,4066,4066,4067,
4065,4066,4066,4066,4066,4066,4066,4066,4066,4066,4066,4066,4066,4066,4066,4066,4066,4066,4066,4066,4066,4066,4066,4066,4066,4066,4066,4066,4066,4066,4066,4066,4066,4066,4066,4066,4066,4066,4066,4066,4066,4066,4066,4066,4066,4066,4066,4066,4066,4066,4066,4066,4066,4066,4067,
4065,4066,4066,4066,4066,4066,4066,4066,4066,4066,4066,4066,4066,4066,4066,4066,4066,4066,4066,4066,4066,4066,4066,4066,4066,4066,4066,4066,4066,4066,4066,4066,4066,4066,4066,4066,4066,4066,4066,4066,4066,4066,4066,4066,4066,4066,4066,4066,4066,4066,4066,4066,4066,4066,4067,
4089,4090,4090,4090,4090,4090,4090,4090,4090,4090,4090,4090,4090,4090,4090,4090,4090,4090,4090,4090,4090,4090,4090,4090,4090,4090,4090,4090,4090,4090,4090,4090,4090,4090,4090,4090,4090,4090,4090,4090,4090,4090,4090,4090,4090,4090,4090,4090,4090,4090,4090,4090,4090,4090,4091
</data>
 </layer>
 <layer id="2" name="deco_sotto" width="55" height="66">
  <data encoding="csv">
0,0,0,0,0,0,0,0,0,0,0,0,0,0,0,0,0,0,0,0,0,0,0,0,0,0,0,0,0,0,0,0,0,0,0,0,0,0,0,0,0,0,0,0,0,0,0,0,0,0,0,0,0,0,0,
0,0,0,0,0,0,0,0,0,0,0,0,0,0,0,0,0,0,0,0,0,0,0,0,0,0,0,0,0,0,0,0,0,0,0,0,0,0,0,0,0,0,0,0,0,0,0,0,0,0,0,0,0,0,0,
0,0,0,0,0,0,0,0,0,0,0,0,0,0,0,0,0,0,0,0,0,0,0,0,0,0,0,0,0,0,0,0,0,0,0,0,0,0,0,0,0,0,0,0,0,0,0,0,0,0,0,0,0,0,0,
0,0,0,0,0,0,0,0,0,0,0,0,0,0,0,0,0,0,0,0,0,0,0,0,0,0,0,0,0,0,0,0,0,0,0,0,4979,5051,5051,5051,5051,5051,5051,5051,5051,5051,5051,5051,5051,5051,4981,0,0,0,0,
0,0,0,0,0,0,0,0,0,0,0,0,0,0,0,0,0,0,0,0,0,0,0,0,0,0,0,0,0,0,0,0,0,0,0,0,4987,0,4979,5051,0,0,0,0,0,0,0,5051,4981,0,4989,0,0,0,0,
0,0,0,0,0,0,0,0,0,0,0,0,0,0,0,0,957,957,957,957,957,957,957,0,0,0,0,0,0,0,0,0,0,0,0,0,4987,0,4987,0,0,0,0,0,0,0,0,0,4989,0,4989,0,0,0,0,
0,0,0,0,0,0,0,0,0,0,0,0,0,0,0,0,957,957,957,957,957,957,957,0,0,0,0,0,0,0,0,0,0,0,0,0,4987,0,4987,0,0,0,0,0,0,0,0,0,4989,0,4989,0,0,0,0,
0,0,0,0,0,0,0,0,0,0,0,0,0,0,0,0,957,957,957,957,957,957,957,0,0,0,0,0,0,0,0,0,0,0,0,0,4987,0,4987,0,0,0,0,0,0,0,0,0,4989,0,4989,0,0,0,0,
0,0,0,0,0,0,0,0,0,0,0,0,0,0,0,0,957,957,957,957,957,957,957,0,0,0,0,0,0,0,0,0,0,0,0,0,4987,0,4987,0,0,0,0,0,0,0,0,0,4989,0,4989,0,0,0,0,
0,0,0,0,0,0,0,0,0,0,0,0,0,0,0,0,0,0,0,0,0,0,0,0,0,0,0,0,0,0,0,0,0,0,0,0,4987,0,4987,0,0,0,0,0,0,0,0,0,4989,0,4989,0,0,0,0,
0,0,0,0,0,0,0,0,0,0,0,0,0,0,0,0,0,0,0,0,0,0,0,0,0,0,0,0,0,0,0,0,0,0,0,0,4987,0,4987,0,0,0,0,0,0,0,0,0,4989,0,4989,0,0,0,0,
0,0,0,0,0,0,0,0,0,0,0,0,0,0,0,0,0,0,0,0,0,0,0,0,0,0,0,0,0,0,0,0,0,0,0,0,4987,0,4987,0,0,0,0,0,0,0,0,0,4989,0,4989,0,0,0,0,
0,0,0,0,0,0,0,0,0,0,0,0,0,0,0,0,0,0,0,0,0,0,0,0,0,0,0,0,0,0,0,0,0,0,0,0,4987,0,4995,4996,4996,4996,4996,4996,4996,4996,4996,4996,4997,0,4989,0,0,0,0,
0,0,0,0,0,0,0,0,0,957,957,957,957,957,957,957,0,0,0,0,0,0,0,0,0,0,0,0,0,0,0,0,0,0,0,0,4987,0,0,0,0,0,0,0,0,0,0,0,0,0,4989,0,0,0,0,
0,0,0,0,0,0,0,0,0,957,957,957,957,957,957,957,0,0,0,0,0,0,0,0,0,0,0,0,0,0,0,0,0,0,0,0,4995,4996,4996,4996,4996,4996,4996,4996,4996,4996,4996,4996,4996,4996,4997,0,0,0,0,
0,0,0,0,0,0,0,0,0,957,957,957,957,957,957,957,0,0,0,0,0,0,0,0,0,0,0,0,0,0,0,0,0,0,0,0,0,0,0,0,0,0,0,0,0,0,0,0,0,0,0,0,0,0,0,
0,0,0,0,0,0,0,0,0,957,957,957,957,957,957,957,0,0,0,0,0,0,0,0,0,0,0,0,0,0,0,0,0,0,0,0,0,0,0,0,0,0,0,0,0,0,0,0,0,0,0,0,0,0,0,
0,0,0,0,0,0,0,0,0,0,0,0,0,0,0,0,0,0,0,0,0,0,0,0,0,0,0,0,0,0,0,0,0,0,0,0,0,0,0,0,0,0,0,0,0,0,0,0,0,0,0,0,0,0,0,
0,0,0,0,0,0,0,0,0,0,0,0,0,0,0,0,0,0,0,0,0,0,0,0,0,0,0,0,0,0,0,0,0,0,0,0,0,0,0,0,0,0,0,0,0,0,0,0,0,0,0,0,0,0,0,
0,0,0,0,0,0,0,0,0,0,0,0,0,0,0,0,0,0,0,0,0,0,0,0,0,0,0,0,0,0,0,0,0,0,0,0,0,0,0,0,0,0,0,0,0,4800,0,0,0,0,0,0,0,0,0,
0,0,0,0,0,0,0,0,0,0,0,0,0,0,0,0,0,0,0,0,0,0,0,0,0,0,0,0,0,0,0,0,0,0,0,0,0,0,0,0,0,0,0,0,0,0,0,0,0,0,0,0,0,0,0,
0,0,0,0,0,0,0,0,0,0,0,0,0,0,0,0,0,0,0,0,0,0,0,0,0,0,0,0,0,0,0,0,0,0,0,0,0,0,0,0,0,0,0,0,0,0,0,0,0,0,0,0,0,0,0,
0,0,0,0,0,0,0,0,0,0,0,0,0,0,0,0,0,0,0,0,0,0,0,0,0,0,0,0,0,0,0,0,0,0,0,0,0,0,0,0,0,0,0,0,0,0,0,0,0,0,0,0,0,0,0,
0,0,0,0,4276,4277,4277,0,0,0,0,0,0,0,0,0,0,0,0,0,0,0,0,0,0,0,0,0,0,0,0,0,0,0,0,0,0,0,0,0,0,0,0,0,0,0,0,0,0,0,0,0,0,0,0,
0,0,0,4268,4277,4277,4278,0,0,0,0,0,0,0,0,0,0,0,0,0,0,0,0,0,0,0,0,0,0,0,0,0,0,0,0,0,0,0,0,0,0,0,0,0,0,0,0,0,0,0,0,0,0,0,0,
4269,4269,4269,4277,4277,4277,4278,0,0,0,0,0,0,0,0,0,0,0,0,0,0,0,0,0,0,0,0,0,0,0,0,0,0,0,0,0,0,0,0,0,0,0,0,0,0,0,0,0,0,0,0,0,0,0,0,
4285,4285,4285,4285,4285,4285,4286,0,0,0,0,0,0,0,0,0,0,0,0,0,0,0,0,0,0,0,0,0,0,0,0,0,0,0,0,0,0,0,0,0,0,0,0,0,0,0,0,0,0,0,0,0,0,0,0,
0,0,0,0,0,0,0,0,0,0,0,0,0,0,0,0,0,0,0,0,0,0,0,0,0,0,0,0,0,0,0,0,0,0,0,0,0,0,0,0,0,0,0,0,0,0,0,0,0,0,0,0,0,0,0,
0,0,0,0,0,0,0,0,0,0,0,0,0,0,0,0,0,0,0,0,0,0,0,0,0,0,0,0,0,0,0,0,0,0,0,0,0,0,0,0,0,0,0,0,0,0,0,0,0,0,0,0,0,0,0,
0,0,0,0,0,0,0,0,0,0,0,0,0,0,0,0,0,0,0,0,0,0,0,0,0,0,0,0,0,0,0,0,0,0,0,0,0,0,0,0,0,0,0,0,0,0,0,0,0,0,0,0,0,0,0,
0,0,0,0,0,0,0,0,0,0,0,0,0,0,0,0,0,0,0,0,0,0,0,0,0,0,0,0,0,0,0,0,0,0,0,0,0,0,0,0,0,0,0,0,0,0,0,0,0,0,0,0,0,0,0,
0,0,0,0,0,0,0,0,0,0,0,0,0,0,0,0,0,0,0,0,0,0,0,0,0,0,0,0,0,0,0,0,0,0,0,0,0,0,0,0,0,0,0,0,0,0,0,0,0,0,0,0,0,0,0,
0,0,0,0,0,0,0,0,0,0,0,0,0,0,0,0,0,0,0,0,0,0,0,0,0,0,0,0,0,0,0,0,0,0,0,0,0,0,0,0,0,0,0,0,0,0,0,0,0,0,0,0,0,0,0,
0,0,0,0,0,0,0,0,0,0,0,0,0,0,0,0,0,0,0,0,0,0,0,0,0,0,0,0,0,0,0,0,0,0,0,0,0,0,0,0,0,0,0,0,0,0,0,0,0,0,0,0,0,0,0,
0,0,0,0,0,0,0,0,0,0,0,0,0,0,0,0,0,0,0,0,0,0,0,0,0,0,0,0,0,0,0,0,0,0,0,0,0,0,0,0,0,0,0,0,0,0,0,0,0,0,0,0,0,0,0,
0,0,0,0,0,0,0,0,0,0,0,0,0,0,0,0,0,0,0,0,0,0,0,0,0,0,0,0,0,0,0,0,0,0,0,0,0,0,0,0,0,0,0,0,0,0,0,0,0,0,0,0,0,0,0,
0,0,0,0,0,0,0,0,0,0,0,0,0,0,0,0,0,0,0,0,0,0,0,0,0,0,0,0,0,0,0,0,0,0,0,0,0,0,0,0,0,0,0,0,0,0,0,0,0,0,0,0,0,0,0,
0,0,0,0,0,0,0,0,0,0,0,0,0,0,0,0,0,0,0,0,0,0,0,0,0,0,0,0,0,0,0,0,0,0,0,0,0,0,0,0,0,0,0,0,0,0,0,0,0,0,0,0,0,0,0,
0,0,0,0,0,0,0,0,0,0,0,0,0,0,0,0,0,0,0,0,0,0,0,0,0,0,0,0,0,0,0,0,0,0,0,0,0,0,0,0,0,0,0,0,0,0,0,0,0,0,0,0,0,0,0,
0,0,0,0,0,0,0,0,0,0,0,0,0,0,0,0,0,0,0,0,0,0,0,0,0,0,0,0,0,0,0,0,0,0,0,0,0,0,0,0,0,0,0,0,0,0,0,0,0,0,0,0,0,0,0,
0,0,0,0,0,0,0,0,0,0,0,0,0,0,0,0,0,0,0,0,0,0,0,0,0,0,0,0,0,0,0,0,0,0,0,0,0,0,0,0,0,0,0,0,0,0,0,0,0,0,0,0,0,0,0,
0,0,0,0,0,0,0,0,0,0,0,0,0,0,0,0,0,0,0,0,0,0,0,0,0,0,0,0,0,0,0,0,0,0,0,0,0,0,0,0,0,0,0,0,0,0,0,0,0,0,0,0,0,0,0,
0,0,0,0,0,0,0,0,0,0,0,0,0,0,0,0,0,0,0,0,0,0,0,0,0,0,0,0,0,0,0,0,0,0,0,0,0,0,0,0,0,0,0,0,0,0,0,0,0,0,0,0,0,0,0,
0,0,0,0,0,0,0,0,0,0,0,0,0,0,0,0,0,0,0,0,0,0,0,0,0,0,0,0,0,0,0,0,0,0,0,0,0,0,0,0,0,0,0,0,0,0,0,0,0,0,0,0,0,0,0,
0,0,0,0,0,0,0,0,0,0,0,0,0,0,0,0,0,0,0,0,0,0,0,0,0,0,0,0,0,0,0,0,0,0,0,0,0,0,0,0,0,0,0,0,0,0,0,0,0,0,0,0,0,0,0,
0,0,0,0,0,0,0,0,0,0,0,0,0,0,0,0,0,0,0,0,0,0,0,0,0,0,0,0,0,0,0,0,0,0,0,0,0,0,0,0,0,0,0,0,0,0,0,0,0,0,0,0,0,0,0,
0,0,0,0,0,0,0,0,0,0,0,0,0,0,0,0,0,0,0,0,0,0,0,0,0,0,0,0,0,0,0,0,0,0,0,0,0,0,0,0,0,0,0,0,0,0,0,0,0,0,0,0,0,0,0,
0,0,0,0,0,0,0,0,0,0,0,0,0,0,0,0,0,0,0,0,0,0,0,0,0,0,0,0,0,0,0,0,0,0,0,0,0,0,0,0,0,0,0,0,0,0,0,0,0,0,0,0,0,0,0,
0,0,0,0,0,0,0,0,0,0,0,0,0,0,0,0,0,0,0,0,0,0,0,0,0,0,0,0,0,0,0,0,0,0,0,0,0,0,0,0,0,0,0,0,0,0,0,0,0,0,0,0,0,0,0,
0,0,0,4121,4121,4121,4121,4121,4121,4121,4121,4121,4121,4121,4121,4121,4121,4121,4121,4121,0,0,0,0,0,0,0,0,0,0,0,0,0,0,0,0,0,0,0,0,0,0,0,0,0,0,0,0,0,0,0,0,0,0,0,
0,0,0,4121,4121,4121,4121,4121,4121,4121,4121,4121,4121,4121,4121,4121,4121,4121,4121,4121,0,0,0,0,0,0,0,0,0,0,0,0,0,0,0,0,0,0,0,0,0,0,0,0,0,0,0,0,0,0,0,0,0,0,0,
0,0,0,4121,4121,4121,4121,4121,4121,4121,4121,4121,4121,4121,4121,4121,4121,4121,4121,4121,0,0,0,0,0,0,0,0,0,0,0,0,0,0,0,0,0,0,0,0,0,0,0,0,0,0,0,0,0,0,0,0,0,0,0,
0,0,0,4121,4121,4121,4121,4121,4121,4121,4121,4121,4121,4121,4121,4121,4121,4121,4121,4121,0,0,0,0,0,0,0,0,0,0,0,0,0,0,0,0,0,0,0,0,0,0,0,0,0,0,0,0,0,0,0,0,0,0,0,
0,0,0,4121,4121,4121,4121,4121,4121,4121,4121,4121,4121,4121,4121,4121,4121,4121,4121,4121,0,0,0,0,0,0,0,0,0,0,0,0,0,0,0,0,0,0,0,0,0,0,0,0,0,0,0,0,0,0,0,0,0,0,0,
0,0,0,4121,4121,4121,4121,4121,4121,4121,4121,4121,4121,4121,4121,4121,4121,4121,4121,4121,0,0,0,0,0,0,0,0,0,0,0,0,0,0,0,0,0,0,0,0,0,0,0,0,0,0,0,0,0,0,0,0,0,0,0,
0,0,0,4121,4121,4121,4121,4121,4121,4121,4121,4121,4121,4121,4121,4121,4121,4121,4121,4121,0,0,0,0,0,0,0,0,0,0,0,0,0,0,0,0,0,0,0,0,0,0,0,0,0,0,0,0,0,0,0,0,0,0,0,
0,0,0,4121,4121,4121,4121,4121,4121,4121,4121,4121,4121,4121,4121,4121,4121,4121,4121,4121,0,0,0,0,0,0,0,0,0,0,0,0,0,0,0,0,0,0,0,0,0,0,0,0,0,0,0,0,0,0,0,0,0,0,0,
0,0,0,4121,4121,4121,4121,4121,4121,4121,4121,4121,4121,4121,4121,4121,4121,4121,4121,4121,0,0,0,0,0,0,0,0,0,0,0,0,0,0,0,0,0,0,0,0,0,0,0,0,0,0,0,0,0,0,0,0,0,0,0,
0,0,0,4121,4121,4121,4121,4121,4121,4121,4121,4121,4121,4121,4121,4121,4121,4121,4121,4121,0,0,0,0,0,0,0,0,0,0,0,0,0,0,0,0,0,0,0,0,0,0,0,0,0,0,0,0,0,0,0,0,0,0,0,
0,0,0,0,0,0,0,0,0,0,0,0,0,0,0,0,0,0,0,0,0,0,0,0,0,0,0,0,0,0,0,0,0,0,0,0,0,0,0,0,0,0,0,0,0,0,0,0,0,0,0,0,0,0,0,
0,0,0,0,0,0,0,0,0,0,0,0,0,0,0,0,0,0,0,0,0,0,0,0,0,0,0,0,0,0,0,0,0,0,0,0,0,0,0,0,0,0,0,0,0,0,0,0,0,0,0,0,0,0,0,
0,0,0,0,0,0,0,0,0,0,0,0,0,0,0,0,0,0,0,0,0,0,0,0,0,0,0,0,0,0,0,0,0,0,0,0,0,0,0,0,0,0,0,0,0,0,0,0,0,0,0,0,0,0,0,
0,0,0,0,0,0,0,0,0,0,0,0,0,0,0,0,0,0,0,0,0,0,0,0,0,0,0,0,0,0,0,0,0,0,0,0,0,0,0,0,0,0,0,0,0,0,0,0,0,0,0,0,0,0,0,
0,0,0,0,0,0,0,0,0,0,0,0,0,0,0,0,0,0,0,0,0,0,0,0,0,0,0,0,0,0,0,0,0,0,0,0,0,0,0,0,0,0,0,0,0,0,0,0,0,0,0,0,0,0,0,
0,0,0,0,0,0,0,0,0,0,0,0,0,0,0,0,0,0,0,0,0,0,0,0,0,0,0,0,0,0,0,0,0,0,0,0,0,0,0,0,0,0,0,0,0,0,0,0,0,0,0,0,0,0,0,
0,0,0,0,0,0,0,0,0,0,0,0,0,0,0,0,0,0,0,0,0,0,0,0,0,0,0,0,0,0,0,0,0,0,0,0,0,0,0,0,0,0,0,0,0,0,0,0,0,0,0,0,0,0,0
</data>
 </layer>
 <layer id="3" name="edifici" width="55" height="66">
  <data encoding="csv">
421,422,421,422,421,422,421,422,421,422,421,422,421,422,421,422,421,422,421,422,421,422,421,422,421,422,0,0,0,0,421,422,421,422,421,422,421,422,421,422,421,422,421,422,421,422,421,422,421,422,421,422,421,422,0,
429,430,429,430,429,430,429,430,429,430,429,430,429,430,429,430,429,430,429,430,429,430,429,430,429,430,0,0,0,0,429,430,429,430,429,430,429,430,429,430,429,430,429,430,429,430,429,430,429,430,429,430,429,430,0,
437,438,437,438,437,438,437,438,437,438,437,438,437,438,437,438,437,438,437,438,437,438,437,438,437,438,0,0,0,0,437,438,437,438,437,438,437,438,437,438,437,438,437,438,437,438,437,438,437,438,437,438,437,438,0,
421,422,421,422,0,0,0,0,0,0,0,0,0,421,422,0,0,0,0,0,0,0,0,0,421,422,0,0,0,0,421,422,421,422,421,422,0,5071,5071,5071,5071,5071,5071,5071,5071,5071,5071,5071,5071,5071,0,4783,4555,4556,4557,
429,430,429,430,670,687,687,687,687,687,687,687,671,429,430,670,687,687,687,687,687,687,687,671,429,430,0,0,0,0,429,430,429,430,429,430,0,5071,0,5071,6571,6572,6573,6574,6575,6576,6577,5071,0,5071,0,4791,4563,4564,4565,
437,438,437,438,677,0,0,0,0,0,0,0,677,437,438,677,0,0,0,0,0,0,0,677,437,438,0,0,0,0,437,438,437,438,437,438,0,5071,0,5071,6579,6580,6581,6582,6583,6584,6585,5071,0,5071,0,4791,4571,4572,4573,
421,422,421,422,677,0,0,0,0,0,0,0,677,421,422,677,0,0,0,0,0,0,0,677,421,422,0,0,0,0,421,422,421,422,421,422,0,5071,0,5071,6587,6588,6589,6590,6591,6592,6593,5071,0,5071,0,4791,4555,4556,4557,
429,430,429,430,677,0,0,0,0,0,0,0,677,429,430,677,0,0,0,0,0,0,0,677,429,430,0,0,0,0,429,430,429,430,429,430,0,5071,0,5071,6595,6596,6597,6598,6599,6600,6601,5071,0,5071,0,4791,4563,4564,4565,
437,438,437,438,677,0,0,0,0,0,0,0,677,437,438,677,0,0,0,0,0,0,0,677,437,438,0,0,0,0,437,438,437,438,437,438,0,5071,0,5071,6603,6604,6605,6606,6607,6608,6609,5071,0,5071,0,4791,4571,4572,4573,
421,422,421,422,678,687,687,687,0,687,687,687,679,421,422,678,687,687,687,0,687,687,687,679,421,422,0,0,0,0,421,422,421,422,421,422,0,5071,0,5071,5071,5071,6613,6614,6615,5071,5071,5071,0,5071,0,4791,4555,4556,4557,
429,430,429,430,421,422,421,422,0,0,0,0,0,429,430,0,0,421,422,421,422,421,422,0,429,430,0,0,0,0,429,430,429,430,429,430,0,5071,0,5071,5071,5071,6621,6622,6623,5071,5071,5071,0,5071,0,4791,4563,4564,4565,
437,438,437,438,429,430,429,430,0,0,0,0,0,437,438,0,0,429,430,429,430,429,430,0,437,438,0,0,0,0,437,438,437,438,437,438,0,5071,0,5071,5071,5071,0,0,0,5071,5071,5071,0,5071,0,4791,4571,4572,4573,
421,422,421,422,437,438,437,438,670,687,687,687,687,687,687,687,671,437,438,437,438,437,438,421,422,959,0,0,0,0,421,422,421,422,421,422,0,5071,0,0,0,0,8108,8109,8110,0,0,0,0,5071,0,4791,4555,4556,4557,
429,430,429,430,421,422,421,422,677,0,0,0,0,0,0,0,677,421,422,421,422,421,422,429,430,0,0,0,0,0,429,430,429,430,429,430,0,5071,5071,5071,5071,5071,8116,8117,8118,5071,5071,5071,5071,5071,0,4791,4563,4564,4565,
437,438,437,438,429,430,429,430,677,0,0,0,0,0,0,0,677,429,430,429,430,429,430,437,438,0,0,0,0,0,437,438,437,438,437,438,0,0,0,0,0,0,8108,8109,8110,0,0,0,0,0,0,4791,4571,4572,4573,
421,422,421,422,437,438,437,438,677,0,0,0,0,0,0,0,677,437,438,437,438,437,438,421,422,0,0,0,0,0,0,0,0,0,421,422,0,4783,0,0,4783,0,8116,8117,8118,0,0,0,0,0,0,4791,4555,4556,4557,
429,430,429,430,421,422,421,422,677,0,0,0,0,0,0,0,677,421,422,421,422,421,422,429,430,0,0,0,0,0,0,0,0,0,429,430,0,4791,0,0,4791,0,0,0,0,4800,4801,4801,4801,4801,4802,4791,4563,4564,4565,
437,438,437,438,429,430,429,430,678,687,687,687,0,687,687,687,679,429,430,429,430,429,430,437,438,959,0,0,0,0,0,0,0,0,437,438,0,4791,0,0,4791,0,0,0,0,0,0,0,0,0,0,4791,4571,4572,4573,
421,422,421,422,437,438,437,438,0,0,0,0,0,0,0,0,0,437,438,437,438,437,438,0,0,0,0,0,0,0,0,0,0,0,0,0,0,4791,0,0,4791,0,0,0,0,0,0,0,0,0,0,4791,4555,4556,4557,
429,430,429,430,0,0,959,0,0,0,0,0,959,0,0,0,0,0,959,0,0,0,0,0,959,0,0,0,0,0,959,0,0,0,0,0,0,4799,0,4800,4793,0,0,0,0,4800,4801,4801,4801,4801,4801,4793,4563,4564,4565,
437,438,437,438,0,0,0,0,0,0,0,0,0,0,0,0,0,0,0,0,0,0,0,0,0,0,0,0,0,0,0,0,0,0,0,0,0,0,0,0,0,0,0,0,0,0,0,0,0,0,0,0,4571,4572,4573,
421,422,421,422,0,0,0,0,0,0,0,0,0,0,0,0,0,0,0,0,0,0,0,0,0,0,0,0,0,0,0,0,0,0,0,0,0,0,0,0,0,0,0,0,0,0,0,0,0,0,0,0,4555,4556,4557,
429,430,429,430,0,0,0,0,0,0,0,0,0,0,0,0,0,0,0,0,0,0,0,0,0,959,0,0,0,0,0,0,0,0,0,0,0,0,0,0,0,0,0,0,0,0,0,0,0,0,0,0,4563,4564,4565,
437,438,437,438,0,0,0,0,0,0,0,0,0,0,0,0,0,0,0,0,0,0,0,0,0,0,0,0,0,0,0,0,0,0,0,0,0,0,0,0,0,0,0,0,0,0,0,0,0,0,0,0,4571,4572,4573,
0,0,0,0,0,0,0,0,0,0,0,0,0,0,0,0,0,0,0,0,0,0,0,0,0,0,0,0,0,0,421,422,421,422,0,0,0,0,421,422,421,422,421,422,421,422,421,422,421,422,421,422,4555,4556,4557,
0,0,0,0,0,0,0,0,0,2609,2610,2611,2612,2613,0,0,0,0,0,0,0,0,0,0,0,0,0,0,0,0,429,430,429,430,0,0,0,0,429,430,429,430,429,430,429,430,429,430,429,430,429,430,4563,4564,4565,
0,0,0,0,0,0,0,0,0,2617,2618,2619,2620,2621,0,0,2649,2650,2651,2652,0,0,0,0,0,0,0,0,0,0,437,438,437,438,0,0,0,0,437,438,437,438,437,438,437,438,437,438,437,438,437,438,4571,4572,4573,
0,0,1653,1654,1655,1656,0,0,0,2625,2626,2627,2628,2629,0,0,2657,2658,2659,2660,0,1649,1650,1651,1652,959,0,0,0,0,421,422,421,422,0,0,0,0,421,422,421,422,421,422,421,422,421,422,421,422,421,422,4555,4556,4557,
0,0,1661,1662,1663,1664,0,0,0,2633,2634,2635,2636,2637,0,0,2665,2666,2667,2668,0,1657,1658,1659,1660,0,0,0,0,0,429,430,429,430,0,0,0,0,429,430,429,430,429,430,429,430,429,430,429,430,429,430,4563,4564,4565,
0,0,1681,1682,1683,1684,0,0,0,2641,2642,2643,2644,2645,0,0,2673,2674,2675,2676,0,1681,1682,1683,1684,0,0,0,0,0,437,438,437,438,0,0,0,0,437,438,437,438,437,438,437,438,437,438,437,438,437,438,4571,4572,4573,
0,4580,0,0,0,0,0,0,0,0,0,0,0,0,0,0,0,0,0,0,0,0,0,0,0,0,0,0,0,0,421,422,421,422,0,0,0,0,421,422,421,422,421,422,0,0,0,0,0,0,421,422,4555,4556,4557,
4587,4588,4589,0,421,422,421,422,0,0,0,0,0,0,0,0,0,0,0,0,0,0,0,0,0,0,0,0,0,0,429,430,429,430,0,0,0,0,429,430,429,430,429,430,0,0,0,0,0,0,429,430,4563,4564,4565,
4595,4596,4597,0,429,430,429,430,0,0,0,0,0,0,0,0,0,0,0,0,0,0,0,0,0,0,0,0,0,0,437,438,437,438,0,0,0,0,437,438,437,438,437,438,0,0,0,0,0,0,437,438,4571,4572,4573,
4603,4604,4605,0,437,438,437,438,0,0,0,0,0,0,0,0,0,0,0,0,0,0,0,0,0,0,0,0,0,0,421,422,421,422,0,0,0,0,0,0,0,0,0,0,0,0,0,0,0,0,421,422,4555,4556,4557,
4611,4612,4613,0,421,422,421,422,0,0,0,0,0,0,0,0,0,0,0,0,0,0,0,0,0,0,0,0,0,0,429,430,429,430,0,0,0,0,0,0,0,0,0,0,0,0,0,0,0,0,429,430,4563,4564,4565,
4619,4620,4621,0,429,430,429,430,0,0,0,0,0,0,0,0,0,0,0,0,0,0,0,0,0,0,0,0,0,0,437,438,437,438,0,0,0,0,0,0,0,0,0,0,0,0,0,0,0,0,437,438,4571,4572,4573,
0,4580,0,0,437,438,437,438,0,0,0,0,0,0,0,0,0,0,0,0,0,0,0,0,0,0,0,0,0,0,421,422,421,422,0,0,0,0,0,0,1537,1538,1539,1540,1541,0,0,0,0,0,0,0,4555,4556,4557,
4587,4588,4589,0,421,422,421,422,0,0,0,0,0,0,0,0,0,0,0,0,0,0,0,0,0,0,0,0,0,0,429,430,429,430,0,0,0,0,0,0,1545,1546,1547,1548,1549,0,0,0,0,0,0,0,4563,4564,4565,
4595,4596,4597,0,429,430,429,430,0,0,0,0,0,0,0,0,0,0,0,0,0,0,0,0,0,0,0,0,0,0,437,438,437,438,0,0,0,0,0,0,1553,1554,1555,1556,1557,0,0,1665,1666,1667,1668,0,4571,4572,4573,
4603,4604,4605,0,437,438,437,438,0,0,0,0,0,0,0,0,0,0,0,0,0,0,0,0,0,0,0,0,0,0,421,422,421,422,0,0,0,0,0,0,1561,1562,1563,1564,1565,0,0,1673,1674,1675,1676,0,4555,4556,4557,
4611,4612,4613,0,0,0,0,0,0,0,0,0,0,0,0,0,0,0,0,0,0,0,0,0,0,0,0,0,0,0,429,430,429,430,0,0,0,0,0,0,1569,1570,1571,1572,1573,0,0,1681,1682,1683,1684,0,4563,4564,4565,
4619,4620,4621,0,0,0,0,0,0,0,0,0,0,0,0,0,0,0,0,0,0,0,0,0,0,0,0,0,0,0,437,438,437,438,0,0,0,0,0,0,0,0,0,0,0,0,0,0,0,0,0,0,4571,4572,4573,
0,4580,0,0,4580,0,0,4580,0,0,4580,0,0,4580,0,0,4580,0,0,4580,0,0,4580,0,0,0,0,0,0,0,421,422,421,422,0,0,0,0,0,0,0,0,0,0,0,0,0,0,0,0,421,422,4555,4556,4557,
4587,4588,4589,4587,4588,4589,4587,4588,4589,4587,4588,4589,4587,4588,4589,4587,4588,4589,4587,4588,4589,4587,4588,4589,0,0,0,0,0,0,429,430,429,430,0,0,0,0,0,0,0,0,0,0,0,0,0,0,0,0,429,430,4563,4564,4565,
4595,4596,4597,4595,4596,4597,4595,4596,4597,4595,4596,4597,4595,4596,4597,4595,4596,4597,4595,4596,4597,4595,4596,4597,0,0,0,0,0,0,437,438,437,438,0,0,0,0,0,0,0,0,0,0,0,0,0,0,0,0,437,438,4571,4572,4573,
4603,4604,4605,4603,4604,4605,4603,4604,4605,4603,4604,4605,4603,4604,4605,4603,4604,4605,4603,4604,4605,4603,4604,4605,0,0,0,0,0,0,421,422,421,422,0,0,0,0,0,0,0,0,0,0,0,0,0,0,0,0,421,422,4555,4556,4557,
4611,4612,4613,4611,4612,4613,4611,4612,4613,4611,4612,4613,4611,4612,4613,4611,4612,4613,4611,4612,4613,4611,4612,4613,0,0,0,0,0,0,429,430,429,430,0,0,0,0,0,0,0,0,0,0,0,0,0,0,0,0,429,430,4563,4564,4565,
4619,4620,4621,4619,4620,4621,4619,4620,4621,4619,4620,4621,4619,4620,4621,4619,4620,4621,4619,4620,4621,4619,4620,4621,0,0,0,0,0,0,437,438,437,438,0,0,0,0,0,0,0,0,0,0,0,0,0,0,0,0,437,438,4571,4572,4573,
0,4580,0,0,0,0,0,0,0,0,0,0,0,0,0,0,0,0,0,0,0,4590,4580,4590,0,0,0,0,0,0,421,422,421,422,0,0,0,0,0,0,0,0,0,0,0,0,0,0,0,0,421,422,4555,4556,4557,
4587,4588,4589,0,0,0,0,0,0,0,0,0,0,0,0,0,0,0,0,0,0,4587,4588,4589,0,0,0,0,0,0,429,430,429,430,0,0,0,0,0,0,0,0,0,0,0,0,0,0,0,0,429,430,4563,4564,4565,
4595,4596,4597,0,0,0,0,0,0,0,0,0,0,0,0,0,0,0,0,0,0,4595,4596,4597,0,0,0,0,0,0,437,438,437,438,0,0,0,0,0,0,0,0,0,0,0,0,0,0,0,0,437,438,4571,4572,4573,
4603,4604,4605,0,0,0,0,0,0,0,0,0,0,0,0,0,0,0,0,0,0,4603,4604,4605,0,0,0,0,0,0,421,422,421,422,0,0,0,0,0,0,0,0,0,0,0,0,0,0,0,0,421,422,4555,4556,4557,
4611,4612,4613,0,0,0,0,0,0,0,0,0,0,0,0,0,0,0,0,0,0,4611,4612,4613,0,0,0,0,0,0,429,430,429,430,0,0,0,0,0,0,0,0,0,0,0,0,0,0,0,0,429,430,4563,4564,4565,
4619,4620,4621,0,0,0,0,0,0,0,0,0,0,0,0,0,0,0,0,0,0,4619,4620,4621,0,0,0,0,0,0,437,438,437,438,0,0,0,0,0,0,0,0,0,0,0,0,0,0,0,0,437,438,4571,4572,4573,
0,4580,0,0,0,0,0,0,0,0,0,0,0,0,0,0,0,0,0,0,0,4590,4580,4590,0,0,0,0,0,0,421,422,421,422,0,0,0,0,0,0,0,0,0,0,0,0,0,0,0,0,421,422,4555,4556,4557,
4587,4588,4589,0,0,0,0,0,0,0,0,0,0,0,0,0,0,0,0,0,0,4587,4588,4589,0,0,0,0,0,0,429,430,429,430,0,0,0,0,0,0,0,0,0,0,0,0,0,0,0,0,429,430,4563,4564,4565,
4595,4596,4597,0,0,0,0,0,0,0,0,0,0,0,0,0,0,0,0,0,0,4595,4596,4597,0,0,0,0,0,0,437,438,437,438,0,0,0,0,0,0,0,0,0,0,0,0,0,0,0,0,437,438,4571,4572,4573,
4603,4604,4605,0,0,0,0,0,0,0,0,0,0,0,0,0,0,0,0,0,0,4603,4604,4605,0,0,0,0,0,0,421,422,421,422,0,0,0,0,0,0,0,0,0,0,0,0,0,0,0,0,421,422,4555,4556,4557,
4611,4612,4613,0,0,0,0,0,0,0,0,0,0,0,0,0,0,0,0,0,0,4611,4612,4613,0,0,0,0,0,0,429,430,429,430,0,0,0,0,0,0,0,0,0,0,0,0,0,0,0,0,429,430,4563,4564,4565,
4619,4620,4621,0,0,0,0,0,0,0,0,0,0,0,0,0,0,0,0,0,0,4619,4620,4621,0,0,0,0,0,0,437,438,437,438,0,0,0,0,0,0,0,0,0,0,0,0,0,0,0,0,437,438,4571,4572,4573,
0,0,0,0,0,0,0,0,0,0,0,0,0,0,0,0,0,0,0,0,0,0,0,0,0,0,0,0,5211,5212,5213,5214,5215,12535,0,0,0,0,0,0,0,0,0,0,0,0,0,0,0,0,0,12535,0,0,0,
0,0,0,0,0,0,0,0,0,0,0,0,0,0,0,0,0,0,0,0,0,0,0,0,0,0,0,0,5219,5220,5221,5222,5223,0,12535,0,0,0,0,0,0,0,0,0,0,0,0,0,0,0,12535,0,0,0,0,
0,0,0,0,0,0,0,0,0,0,0,0,0,0,0,0,0,0,0,0,0,0,0,0,0,0,0,0,5227,5228,5229,5230,5231,0,0,12535,0,0,0,0,12535,0,0,0,0,12535,0,0,0,12535,0,0,0,0,0,
0,0,0,0,0,0,0,0,0,0,0,0,0,0,0,0,0,0,0,0,0,0,0,0,0,0,0,0,0,0,0,0,0,0,0,0,12535,12535,12535,12535,0,12535,12535,12535,12535,0,12535,12535,12535,0,0,0,0,0,0,
0,0,0,0,0,0,0,0,0,0,0,0,0,0,0,0,0,0,0,0,0,0,0,0,0,0,0,0,0,0,0,0,0,0,0,0,0,0,0,0,0,0,0,0,0,0,0,0,0,0,0,0,0,0,0,
0,0,0,11827,11828,11827,11828,11827,11828,11827,11828,11827,11828,11827,11828,11827,11828,11827,11828,11827,11828,11827,11828,11827,11828,11827,11828,11827,11828,11827,11828,11827,11828,11827,11828,11827,11828,11827,11828,11827,11828,11827,11828,11827,11828,11827,11828,11827,11828,11827,11828,11827,11828,11827,11828
</data>
 </layer>
 <objectgroup color="#ff0000" id="4" name="collisioni" opacity="0.5">
  <object id="1" name="pen" type="solid" x="128" y="128" width="32" height="32"/>
  <object id="2" name="pen" type="solid" x="384" y="128" width="32" height="32"/>
  <object id="3" name="pen" type="solid" x="128" y="288" width="32" height="32"/>
  <object id="4" name="pen" type="solid" x="384" y="288" width="32" height="32"/>
  <object id="5" name="pen" type="solid" x="160" y="128" width="32" height="32"/>
  <object id="6" name="pen" type="solid" x="160" y="288" width="32" height="32"/>
  <object id="7" name="pen" type="solid" x="192" y="128" width="32" height="32"/>
  <object id="8" name="pen" type="solid" x="192" y="288" width="32" height="32"/>
  <object id="9" name="pen" type="solid" x="224" y="128" width="32" height="32"/>
  <object id="10" name="pen" type="solid" x="224" y="288" width="32" height="32"/>
  <object id="11" name="pen" type="solid" x="256" y="128" width="32" height="32"/>
  <object id="12" name="pen" type="solid" x="288" y="128" width="32" height="32"/>
  <object id="13" name="pen" type="solid" x="288" y="288" width="32" height="32"/>
  <object id="14" name="pen" type="solid" x="320" y="128" width="32" height="32"/>
  <object id="15" name="pen" type="solid" x="320" y="288" width="32" height="32"/>
  <object id="16" name="pen" type="solid" x="352" y="128" width="32" height="32"/>
  <object id="17" name="pen" type="solid" x="352" y="288" width="32" height="32"/>
  <object id="18" name="pen" type="solid" x="128" y="160" width="32" height="32"/>
  <object id="19" name="pen" type="solid" x="384" y="160" width="32" height="32"/>
  <object id="20" name="pen" type="solid" x="128" y="192" width="32" height="32"/>
  <object id="21" name="pen" type="solid" x="384" y="192" width="32" height="32"/>
  <object id="22" name="pen" type="solid" x="128" y="224" width="32" height="32"/>
  <object id="23" name="pen" type="solid" x="384" y="224" width="32" height="32"/>
  <object id="24" name="pen" type="solid" x="128" y="256" width="32" height="32"/>
  <object id="25" name="pen" type="solid" x="384" y="256" width="32" height="32"/>
  <object id="26" name="laghetto" type="solid" x="192" y="192" width="32" height="32"/>
  <object id="27" name="laghetto" type="solid" x="224" y="192" width="32" height="32"/>
  <object id="28" name="laghetto" type="solid" x="256" y="192" width="32" height="32"/>
  <object id="29" name="laghetto" type="solid" x="288" y="192" width="32" height="32"/>
  <object id="30" name="laghetto" type="solid" x="320" y="192" width="32" height="32"/>
  <object id="31" name="laghetto" type="solid" x="192" y="224" width="32" height="32"/>
  <object id="32" name="laghetto" type="solid" x="224" y="224" width="32" height="32"/>
  <object id="33" name="laghetto" type="solid" x="256" y="224" width="32" height="32"/>
  <object id="34" name="laghetto" type="solid" x="288" y="224" width="32" height="32"/>
  <object id="35" name="laghetto" type="solid" x="320" y="224" width="32" height="32"/>
  <object id="36" name="pen" type="solid" x="480" y="128" width="32" height="32"/>
  <object id="37" name="pen" type="solid" x="736" y="128" width="32" height="32"/>
  <object id="38" name="pen" type="solid" x="480" y="288" width="32" height="32"/>
  <object id="39" name="pen" type="solid" x="736" y="288" width="32" height="32"/>
  <object id="40" name="pen" type="solid" x="512" y="128" width="32" height="32"/>
  <object id="41" name="pen" type="solid" x="512" y="288" width="32" height="32"/>
  <object id="42" name="pen" type="solid" x="544" y="128" width="32" height="32"/>
  <object id="43" name="pen" type="solid" x="544" y="288" width="32" height="32"/>
  <object id="44" name="pen" type="solid" x="576" y="128" width="32" height="32"/>
  <object id="45" name="pen" type="solid" x="576" y="288" width="32" height="32"/>
  <object id="46" name="pen" type="solid" x="608" y="128" width="32" height="32"/>
  <object id="47" name="pen" type="solid" x="640" y="128" width="32" height="32"/>
  <object id="48" name="pen" type="solid" x="640" y="288" width="32" height="32"/>
  <object id="49" name="pen" type="solid" x="672" y="128" width="32" height="32"/>
  <object id="50" name="pen" type="solid" x="672" y="288" width="32" height="32"/>
  <object id="51" name="pen" type="solid" x="704" y="128" width="32" height="32"/>
  <object id="52" name="pen" type="solid" x="704" y="288" width="32" height="32"/>
  <object id="53" name="pen" type="solid" x="480" y="160" width="32" height="32"/>
  <object id="54" name="pen" type="solid" x="736" y="160" width="32" height="32"/>
  <object id="55" name="pen" type="solid" x="480" y="192" width="32" height="32"/>
  <object id="56" name="pen" type="solid" x="736" y="192" width="32" height="32"/>
  <object id="57" name="pen" type="solid" x="480" y="224" width="32" height="32"/>
  <object id="58" name="pen" type="solid" x="736" y="224" width="32" height="32"/>
  <object id="59" name="pen" type="solid" x="480" y="256" width="32" height="32"/>
  <object id="60" name="pen" type="solid" x="736" y="256" width="32" height="32"/>
  <object id="61" name="pen" type="solid" x="256" y="384" width="32" height="32"/>
  <object id="62" name="pen" type="solid" x="512" y="384" width="32" height="32"/>
  <object id="63" name="pen" type="solid" x="256" y="544" width="32" height="32"/>
  <object id="64" name="pen" type="solid" x="512" y="544" width="32" height="32"/>
  <object id="65" name="pen" type="solid" x="288" y="384" width="32" height="32"/>
  <object id="66" name="pen" type="solid" x="288" y="544" width="32" height="32"/>
  <object id="67" name="pen" type="solid" x="320" y="384" width="32" height="32"/>
  <object id="68" name="pen" type="solid" x="320" y="544" width="32" height="32"/>
  <object id="69" name="pen" type="solid" x="352" y="384" width="32" height="32"/>
  <object id="70" name="pen" type="solid" x="352" y="544" width="32" height="32"/>
  <object id="71" name="pen" type="solid" x="384" y="384" width="32" height="32"/>
  <object id="72" name="pen" type="solid" x="416" y="384" width="32" height="32"/>
  <object id="73" name="pen" type="solid" x="416" y="544" width="32" height="32"/>
  <object id="74" name="pen" type="solid" x="448" y="384" width="32" height="32"/>
  <object id="75" name="pen" type="solid" x="448" y="544" width="32" height="32"/>
  <object id="76" name="pen" type="solid" x="480" y="384" width="32" height="32"/>
  <object id="77" name="pen" type="solid" x="480" y="544" width="32" height="32"/>
  <object id="78" name="pen" type="solid" x="256" y="416" width="32" height="32"/>
  <object id="79" name="pen" type="solid" x="512" y="416" width="32" height="32"/>
  <object id="80" name="pen" type="solid" x="256" y="448" width="32" height="32"/>
  <object id="81" name="pen" type="solid" x="512" y="448" width="32" height="32"/>
  <object id="82" name="pen" type="solid" x="256" y="480" width="32" height="32"/>
  <object id="83" name="pen" type="solid" x="512" y="480" width="32" height="32"/>
  <object id="84" name="pen" type="solid" x="256" y="512" width="32" height="32"/>
  <object id="85" name="pen" type="solid" x="512" y="512" width="32" height="32"/>
  <object id="86" name="pokecenter_wall" type="solid" x="288" y="800" width="32" height="32"/>
  <object id="87" name="pokecenter_wall" type="solid" x="320" y="800" width="32" height="32"/>
  <object id="88" name="pokecenter_wall" type="solid" x="352" y="800" width="32" height="32"/>
  <object id="89" name="pokecenter_wall" type="solid" x="384" y="800" width="32" height="32"/>
  <object id="90" name="pokecenter_wall" type="solid" x="416" y="800" width="32" height="32"/>
  <object id="91" name="pokecenter_wall" type="solid" x="288" y="832" width="32" height="32"/>
  <object id="92" name="pokecenter_wall" type="solid" x="320" y="832" width="32" height="32"/>
  <object id="93" name="pokecenter_wall" type="solid" x="352" y="832" width="32" height="32"/>
  <object id="94" name="pokecenter_wall" type="solid" x="384" y="832" width="32" height="32"/>
  <object id="95" name="pokecenter_wall" type="solid" x="416" y="832" width="32" height="32"/>
  <object id="96" name="pokecenter_wall" type="solid" x="288" y="864" width="32" height="32"/>
  <object id="97" name="pokecenter_wall" type="solid" x="320" y="864" width="32" height="32"/>
  <object id="98" name="pokecenter_wall" type="solid" x="352" y="864" width="32" height="32"/>
  <object id="99" name="pokecenter_wall" type="solid" x="384" y="864" width="32" height="32"/>
  <object id="100" name="pokecenter_wall" type="solid" x="416" y="864" width="32" height="32"/>
  <object id="101" name="pokecenter_wall" type="solid" x="288" y="896" width="32" height="32"/>
  <object id="102" name="pokecenter_wall" type="solid" x="320" y="896" width="32" height="32"/>
  <object id="103" name="pokecenter_wall" type="solid" x="352" y="896" width="32" height="32"/>
  <object id="104" name="pokecenter_wall" type="solid" x="384" y="896" width="32" height="32"/>
  <object id="105" name="pokecenter_wall" type="solid" x="416" y="896" width="32" height="32"/>
  <object id="106" name="pokecenter_wall" type="solid" x="288" y="928" width="32" height="32"/>
  <object id="107" name="pokecenter_wall" type="solid" x="320" y="928" width="32" height="32"/>
  <object id="108" name="pokecenter_wall" type="solid" x="384" y="928" width="32" height="32"/>
  <object id="109" name="pokecenter_wall" type="solid" x="416" y="928" width="32" height="32"/>
  <object id="110" name="market_wall" type="solid" x="512" y="832" width="32" height="32"/>
  <object id="111" name="market_wall" type="solid" x="544" y="832" width="32" height="32"/>
  <object id="112" name="market_wall" type="solid" x="576" y="832" width="32" height="32"/>
  <object id="113" name="market_wall" type="solid" x="608" y="832" width="32" height="32"/>
  <object id="114" name="market_wall" type="solid" x="512" y="864" width="32" height="32"/>
  <object id="115" name="market_wall" type="solid" x="544" y="864" width="32" height="32"/>
  <object id="116" name="market_wall" type="solid" x="576" y="864" width="32" height="32"/>
  <object id="117" name="market_wall" type="solid" x="608" y="864" width="32" height="32"/>
  <object id="118" name="market_wall" type="solid" x="512" y="896" width="32" height="32"/>
  <object id="119" name="market_wall" type="solid" x="544" y="896" width="32" height="32"/>
  <object id="120" name="market_wall" type="solid" x="576" y="896" width="32" height="32"/>
  <object id="121" name="market_wall" type="solid" x="608" y="896" width="32" height="32"/>
  <object id="122" name="market_wall" type="solid" x="512" y="928" width="32" height="32"/>
  <object id="123" name="market_wall" type="solid" x="544" y="928" width="32" height="32"/>
  <object id="124" name="market_wall" type="solid" x="608" y="928" width="32" height="32"/>
  <object id="125" name="casa_rossa_wall" type="solid" x="672" y="864" width="32" height="32"/>
  <object id="126" name="casa_rossa_wall" type="solid" x="704" y="864" width="32" height="32"/>
  <object id="127" name="casa_rossa_wall" type="solid" x="736" y="864" width="32" height="32"/>
  <object id="128" name="casa_rossa_wall" type="solid" x="768" y="864" width="32" height="32"/>
  <object id="129" name="casa_rossa_wall" type="solid" x="672" y="896" width="32" height="32"/>
  <object id="130" name="casa_rossa_wall" type="solid" x="704" y="896" width="32" height="32"/>
  <object id="131" name="casa_rossa_wall" type="solid" x="736" y="896" width="32" height="32"/>
  <object id="132" name="casa_rossa_wall" type="solid" x="768" y="896" width="32" height="32"/>
  <object id="133" name="casa_rossa_wall" type="solid" x="672" y="928" width="32" height="32"/>
  <object id="134" name="casa_rossa_wall" type="solid" x="704" y="928" width="32" height="32"/>
  <object id="135" name="casa_rossa_wall" type="solid" x="736" y="928" width="32" height="32"/>
  <object id="136" name="casa_rossa_wall" type="solid" x="768" y="928" width="32" height="32"/>
  <object id="137" name="casa_verde_wall" type="solid" x="64" y="864" width="32" height="32"/>
  <object id="138" name="casa_verde_wall" type="solid" x="96" y="864" width="32" height="32"/>
  <object id="139" name="casa_verde_wall" type="solid" x="128" y="864" width="32" height="32"/>
  <object id="140" name="casa_verde_wall" type="solid" x="160" y="864" width="32" height="32"/>
  <object id="141" name="casa_verde_wall" type="solid" x="64" y="896" width="32" height="32"/>
  <object id="142" name="casa_verde_wall" type="solid" x="96" y="896" width="32" height="32"/>
  <object id="143" name="casa_verde_wall" type="solid" x="128" y="896" width="32" height="32"/>
  <object id="144" name="casa_verde_wall" type="solid" x="160" y="896" width="32" height="32"/>
  <object id="145" name="casa_verde_wall" type="solid" x="64" y="928" width="32" height="32"/>
  <object id="146" name="casa_verde_wall" type="solid" x="96" y="928" width="32" height="32"/>
  <object id="147" name="casa_verde_wall" type="solid" x="128" y="928" width="32" height="32"/>
  <object id="148" name="casa_verde_wall" type="solid" x="160" y="928" width="32" height="32"/>
  <object id="149" name="casa_gialla_grande_wall" type="solid" x="1280" y="1152" width="32" height="32"/>
  <object id="150" name="casa_gialla_grande_wall" type="solid" x="1312" y="1152" width="32" height="32"/>
  <object id="151" name="casa_gialla_grande_wall" type="solid" x="1344" y="1152" width="32" height="32"/>
  <object id="152" name="casa_gialla_grande_wall" type="solid" x="1376" y="1152" width="32" height="32"/>
  <object id="153" name="casa_gialla_grande_wall" type="solid" x="1408" y="1152" width="32" height="32"/>
  <object id="154" name="casa_gialla_grande_wall" type="solid" x="1280" y="1184" width="32" height="32"/>
  <object id="155" name="casa_gialla_grande_wall" type="solid" x="1312" y="1184" width="32" height="32"/>
  <object id="156" name="casa_gialla_grande_wall" type="solid" x="1344" y="1184" width="32" height="32"/>
  <object id="157" name="casa_gialla_grande_wall" type="solid" x="1376" y="1184" width="32" height="32"/>
  <object id="158" name="casa_gialla_grande_wall" type="solid" x="1408" y="1184" width="32" height="32"/>
  <object id="159" name="casa_gialla_grande_wall" type="solid" x="1280" y="1216" width="32" height="32"/>
  <object id="160" name="casa_gialla_grande_wall" type="solid" x="1312" y="1216" width="32" height="32"/>
  <object id="161" name="casa_gialla_grande_wall" type="solid" x="1344" y="1216" width="32" height="32"/>
  <object id="162" name="casa_gialla_grande_wall" type="solid" x="1376" y="1216" width="32" height="32"/>
  <object id="163" name="casa_gialla_grande_wall" type="solid" x="1408" y="1216" width="32" height="32"/>
  <object id="164" name="casa_gialla_grande_wall" type="solid" x="1280" y="1248" width="32" height="32"/>
  <object id="165" name="casa_gialla_grande_wall" type="solid" x="1312" y="1248" width="32" height="32"/>
  <object id="166" name="casa_gialla_grande_wall" type="solid" x="1344" y="1248" width="32" height="32"/>
  <object id="167" name="casa_gialla_grande_wall" type="solid" x="1376" y="1248" width="32" height="32"/>
  <object id="168" name="casa_gialla_grande_wall" type="solid" x="1408" y="1248" width="32" height="32"/>
  <object id="169" name="casa_gialla_grande_wall" type="solid" x="1280" y="1280" width="32" height="32"/>
  <object id="170" name="casa_gialla_grande_wall" type="solid" x="1312" y="1280" width="32" height="32"/>
  <object id="171" name="casa_gialla_grande_wall" type="solid" x="1376" y="1280" width="32" height="32"/>
  <object id="172" name="casa_gialla_grande_wall" type="solid" x="1408" y="1280" width="32" height="32"/>
  <object id="173" name="casa_blu_wall" type="solid" x="1504" y="1216" width="32" height="32"/>
  <object id="174" name="casa_blu_wall" type="solid" x="1536" y="1216" width="32" height="32"/>
  <object id="175" name="casa_blu_wall" type="solid" x="1568" y="1216" width="32" height="32"/>
  <object id="176" name="casa_blu_wall" type="solid" x="1600" y="1216" width="32" height="32"/>
  <object id="177" name="casa_blu_wall" type="solid" x="1504" y="1248" width="32" height="32"/>
  <object id="178" name="casa_blu_wall" type="solid" x="1536" y="1248" width="32" height="32"/>
  <object id="179" name="casa_blu_wall" type="solid" x="1568" y="1248" width="32" height="32"/>
  <object id="180" name="casa_blu_wall" type="solid" x="1600" y="1248" width="32" height="32"/>
  <object id="181" name="casa_blu_wall" type="solid" x="1504" y="1280" width="32" height="32"/>
  <object id="182" name="casa_blu_wall" type="solid" x="1536" y="1280" width="32" height="32"/>
  <object id="183" name="casa_blu_wall" type="solid" x="1568" y="1280" width="32" height="32"/>
  <object id="184" name="casa_blu_wall" type="solid" x="1600" y="1280" width="32" height="32"/>
  <object id="185" name="piscina" type="solid" x="1408" y="1024" width="32" height="32"/>
  <object id="186" name="piscina" type="solid" x="1440" y="1024" width="32" height="32"/>
  <object id="187" name="piscina" type="solid" x="1472" y="1024" width="32" height="32"/>
  <object id="188" name="piscina" type="solid" x="1504" y="1024" width="32" height="32"/>
  <object id="189" name="piscina" type="solid" x="1536" y="1024" width="32" height="32"/>
  <object id="190" name="piscina" type="solid" x="1568" y="1024" width="32" height="32"/>
  <object id="191" name="piscina" type="solid" x="1408" y="1056" width="32" height="32"/>
  <object id="192" name="piscina" type="solid" x="1440" y="1056" width="32" height="32"/>
  <object id="193" name="piscina" type="solid" x="1472" y="1056" width="32" height="32"/>
  <object id="194" name="piscina" type="solid" x="1504" y="1056" width="32" height="32"/>
  <object id="195" name="piscina" type="solid" x="1536" y="1056" width="32" height="32"/>
  <object id="196" name="piscina" type="solid" x="1568" y="1056" width="32" height="32"/>
  <object id="197" name="piscina" type="solid" x="1408" y="1088" width="32" height="32"/>
  <object id="198" name="piscina" type="solid" x="1440" y="1088" width="32" height="32"/>
  <object id="199" name="piscina" type="solid" x="1472" y="1088" width="32" height="32"/>
  <object id="200" name="piscina" type="solid" x="1504" y="1088" width="32" height="32"/>
  <object id="201" name="piscina" type="solid" x="1536" y="1088" width="32" height="32"/>
  <object id="202" name="piscina" type="solid" x="1568" y="1088" width="32" height="32"/>
  <object id="203" name="piscina" type="solid" x="1408" y="1120" width="32" height="32"/>
  <object id="204" name="piscina" type="solid" x="1440" y="1120" width="32" height="32"/>
  <object id="205" name="piscina" type="solid" x="1472" y="1120" width="32" height="32"/>
  <object id="206" name="piscina" type="solid" x="1504" y="1120" width="32" height="32"/>
  <object id="207" name="piscina" type="solid" x="1536" y="1120" width="32" height="32"/>
  <object id="208" name="piscina" type="solid" x="1568" y="1120" width="32" height="32"/>
  <object id="209" name="fontana" type="solid" x="1024" y="512" width="32" height="32"/>
  <object id="210" name="fontana" type="solid" x="992" y="544" width="32" height="32"/>
  <object id="211" name="fontana" type="solid" x="1024" y="544" width="32" height="32"/>
  <object id="212" name="fontana" type="solid" x="1056" y="544" width="32" height="32"/>
  <object id="213" name="fontana" type="solid" x="992" y="576" width="32" height="32"/>
  <object id="214" name="fontana" type="solid" x="1024" y="576" width="32" height="32"/>
  <object id="215" name="fontana" type="solid" x="1056" y="576" width="32" height="32"/>
  <object id="216" name="fontana" type="solid" x="992" y="608" width="32" height="32"/>
  <object id="217" name="fontana" type="solid" x="1024" y="608" width="32" height="32"/>
  <object id="218" name="fontana" type="solid" x="1056" y="608" width="32" height="32"/>
  <object id="219" name="bosco_0_0" type="solid" x="0" y="0" width="64" height="96"/>
  <object id="220" name="bosco_0_2" type="solid" x="64" y="0" width="64" height="96"/>
  <object id="221" name="bosco_0_4" type="solid" x="128" y="0" width="64" height="96"/>
  <object id="222" name="bosco_0_6" type="solid" x="192" y="0" width="64" height="96"/>
  <object id="223" name="bosco_0_8" type="solid" x="256" y="0" width="64" height="96"/>
  <object id="224" name="bosco_0_10" type="solid" x="320" y="0" width="64" height="96"/>
  <object id="225" name="bosco_0_12" type="solid" x="384" y="0" width="64" height="96"/>
  <object id="226" name="bosco_0_14" type="solid" x="448" y="0" width="64" height="96"/>
  <object id="227" name="bosco_0_16" type="solid" x="512" y="0" width="64" height="96"/>
  <object id="228" name="bosco_0_18" type="solid" x="576" y="0" width="64" height="96"/>
  <object id="229" name="bosco_0_20" type="solid" x="640" y="0" width="64" height="96"/>
  <object id="230" name="bosco_0_22" type="solid" x="704" y="0" width="64" height="96"/>
  <object id="231" name="bosco_0_24" type="solid" x="768" y="0" width="64" height="96"/>
  <object id="232" name="bosco_0_30" type="solid" x="960" y="0" width="64" height="96"/>
  <object id="233" name="bosco_0_32" type="solid" x="1024" y="0" width="64" height="96"/>
  <object id="234" name="bosco_0_34" type="solid" x="1088" y="0" width="64" height="96"/>
  <object id="235" name="bosco_0_36" type="solid" x="1152" y="0" width="64" height="96"/>
  <object id="236" name="bosco_0_38" type="solid" x="1216" y="0" width="64" height="96"/>
  <object id="237" name="bosco_0_40" type="solid" x="1280" y="0" width="64" height="96"/>
  <object id="238" name="bosco_0_42" type="solid" x="1344" y="0" width="64" height="96"/>
  <object id="239" name="bosco_0_44" type="solid" x="1408" y="0" width="64" height="96"/>
  <object id="240" name="bosco_0_46" type="solid" x="1472" y="0" width="64" height="96"/>
  <object id="241" name="bosco_0_48" type="solid" x="1536" y="0" width="64" height="96"/>
  <object id="242" name="bosco_0_50" type="solid" x="1600" y="0" width="64" height="96"/>
  <object id="243" name="bosco_0_52" type="solid" x="1664" y="0" width="64" height="96"/>
  <object id="244" name="bosco_3_0" type="solid" x="0" y="96" width="64" height="96"/>
  <object id="245" name="bosco_3_2" type="solid" x="64" y="96" width="64" height="96"/>
  <object id="246" name="bosco_3_13" type="solid" x="416" y="96" width="64" height="96"/>
  <object id="247" name="bosco_3_24" type="solid" x="768" y="96" width="64" height="96"/>
  <object id="248" name="bosco_3_30" type="solid" x="960" y="96" width="64" height="96"/>
  <object id="249" name="bosco_3_32" type="solid" x="1024" y="96" width="64" height="96"/>
  <object id="250" name="bosco_3_34" type="solid" x="1088" y="96" width="64" height="96"/>
  <object id="251" name="bosco_3_51" type="solid" x="1683.09" y="97.7618" width="64" height="96"/>
  <object id="252" name="bosco_6_0" type="solid" x="0" y="192" width="64" height="96"/>
  <object id="253" name="bosco_6_2" type="solid" x="64" y="192" width="64" height="96"/>
  <object id="254" name="bosco_6_13" type="solid" x="416" y="192" width="64" height="96"/>
  <object id="255" name="bosco_6_24" type="solid" x="768" y="192" width="64" height="96"/>
  <object id="256" name="bosco_6_30" type="solid" x="960" y="192" width="64" height="96"/>
  <object id="257" name="bosco_6_32" type="solid" x="1024" y="192" width="64" height="96"/>
  <object id="258" name="bosco_6_34" type="solid" x="1088" y="192" width="64" height="96"/>
  <object id="259" name="bosco_6_51" type="solid" x="1683.09" y="193.762" width="64" height="96"/>
  <object id="260" name="bosco_9_0" type="solid" x="0" y="288" width="64" height="96"/>
  <object id="261" name="bosco_9_2" type="solid" x="64" y="288" width="64" height="96"/>
  <object id="262" name="bosco_9_13" type="solid" x="416" y="288" width="64" height="96"/>
  <object id="263" name="bosco_9_24" type="solid" x="768" y="288" width="64" height="96"/>
  <object id="264" name="bosco_9_30" type="solid" x="960" y="288" width="64" height="96"/>
  <object id="265" name="bosco_9_32" type="solid" x="1024" y="288" width="64" height="96"/>
  <object id="266" name="bosco_9_34" type="solid" x="1088" y="288" width="64" height="96"/>
  <object id="267" name="bosco_9_51" type="solid" x="1286.69" y="127.676" width="211.992" height="155.901"/>
  <object id="268" name="bosco_10_4" type="solid" x="128" y="320" width="64" height="96"/>
  <object id="269" name="bosco_10_6" type="solid" x="192" y="320" width="64" height="96"/>
  <object id="270" name="bosco_10_17" type="solid" x="544" y="320" width="64" height="96"/>
  <object id="271" name="bosco_10_19" type="solid" x="608" y="320" width="64" height="96"/>
  <object id="272" name="bosco_10_21" type="solid" x="672" y="320" width="64" height="96"/>
  <object id="273" name="bosco_12_0" type="solid" x="0" y="384" width="64" height="96"/>
  <object id="274" name="bosco_12_2" type="solid" x="64" y="384" width="64" height="96"/>
  <object id="275" name="bosco_12_23" type="solid" x="736" y="384" width="64" height="96"/>
  <object id="276" name="bosco_12_30" type="solid" x="960" y="384" width="64" height="96"/>
  <object id="277" name="bosco_12_32" type="solid" x="1024" y="384" width="64" height="96"/>
  <object id="278" name="bosco_12_34" type="solid" x="1088" y="384" width="64" height="96"/>
  <object id="279" name="bosco_12_51" type="solid" x="1683.09" y="385.762" width="64" height="96"/>
  <object id="280" name="bosco_13_4" type="solid" x="128" y="416" width="64" height="96"/>
  <object id="281" name="bosco_13_6" type="solid" x="192" y="416" width="64" height="96"/>
  <object id="282" name="bosco_13_17" type="solid" x="544" y="416" width="64" height="96"/>
  <object id="283" name="bosco_13_19" type="solid" x="608" y="416" width="64" height="96"/>
  <object id="284" name="bosco_13_21" type="solid" x="672" y="416" width="64" height="96"/>
  <object id="285" name="bosco_15_0" type="solid" x="0" y="480" width="64" height="96"/>
  <object id="286" name="bosco_15_2" type="solid" x="64" y="480" width="64" height="96"/>
  <object id="287" name="bosco_15_23" type="solid" x="736" y="480" width="64" height="96"/>
  <object id="288" name="bosco_15_34" type="solid" x="1088" y="480" width="64" height="96"/>
  <object id="289" name="bosco_15_51" type="solid" x="1683.09" y="481.762" width="64" height="96"/>
  <object id="290" name="bosco_16_4" type="solid" x="128" y="512" width="64" height="96"/>
  <object id="291" name="bosco_16_6" type="solid" x="192" y="512" width="64" height="96"/>
  <object id="292" name="bosco_16_17" type="solid" x="544" y="512" width="64" height="96"/>
  <object id="293" name="bosco_16_19" type="solid" x="608" y="512" width="64" height="96"/>
  <object id="294" name="bosco_16_21" type="solid" x="672" y="512" width="64" height="96"/>
  <object id="302" name="bosco_18_0" type="solid" x="0" y="576" width="64" height="96"/>
  <object id="303" name="bosco_18_2" type="solid" x="64" y="576" width="64" height="96"/>
  <object id="304" name="bosco_18_52" type="solid" x="1664" y="576" width="64" height="96"/>
  <object id="305" name="bosco_21_0" type="solid" x="0" y="672" width="64" height="96"/>
  <object id="306" name="bosco_21_2" type="solid" x="64" y="672" width="64" height="96"/>
  <object id="307" name="bosco_21_52" type="solid" x="1664" y="672" width="64" height="96"/>
  <object id="308" name="bosco_24_30" type="solid" x="960" y="768" width="64" height="96"/>
  <object id="309" name="bosco_24_32" type="solid" x="1024" y="768" width="64" height="96"/>
  <object id="310" name="bosco_24_38" type="solid" x="1216" y="768" width="64" height="96"/>
  <object id="311" name="bosco_24_40" type="solid" x="1280" y="768" width="64" height="96"/>
  <object id="312" name="bosco_24_42" type="solid" x="1344" y="768" width="64" height="96"/>
  <object id="313" name="bosco_24_44" type="solid" x="1408" y="768" width="64" height="96"/>
  <object id="314" name="bosco_24_46" type="solid" x="1472" y="768" width="64" height="96"/>
  <object id="315" name="bosco_24_48" type="solid" x="1536" y="768" width="64" height="96"/>
  <object id="316" name="bosco_24_50" type="solid" x="1600" y="768" width="64" height="96"/>
  <object id="317" name="bosco_24_52" type="solid" x="1664" y="768" width="64" height="96"/>
  <object id="318" name="bosco_27_30" type="solid" x="960" y="864" width="64" height="96"/>
  <object id="319" name="bosco_27_32" type="solid" x="1024" y="864" width="64" height="96"/>
  <object id="320" name="bosco_27_38" type="solid" x="1216" y="864" width="64" height="96"/>
  <object id="321" name="bosco_27_40" type="solid" x="1280" y="864" width="64" height="96"/>
  <object id="322" name="bosco_27_42" type="solid" x="1344" y="864" width="64" height="96"/>
  <object id="323" name="bosco_27_44" type="solid" x="1408" y="864" width="64" height="96"/>
  <object id="324" name="bosco_27_46" type="solid" x="1472" y="864" width="64" height="96"/>
  <object id="325" name="bosco_27_48" type="solid" x="1536" y="864" width="64" height="96"/>
  <object id="326" name="bosco_27_50" type="solid" x="1600" y="864" width="64" height="96"/>
  <object id="327" name="bosco_27_52" type="solid" x="1664" y="864" width="64" height="96"/>
  <object id="328" name="bosco_30_30" type="solid" x="960" y="960" width="64" height="96"/>
  <object id="329" name="bosco_30_32" type="solid" x="1024" y="960" width="64" height="96"/>
  <object id="330" name="bosco_30_38" type="solid" x="1216" y="960" width="64" height="96"/>
  <object id="331" name="bosco_30_40" type="solid" x="1280" y="960" width="64" height="96"/>
  <object id="332" name="bosco_30_42" type="solid" x="1344" y="960" width="64" height="96"/>
  <object id="333" name="bosco_30_50" type="solid" x="1600" y="960" width="64" height="96"/>
  <object id="334" name="bosco_30_52" type="solid" x="1664" y="960" width="64" height="96"/>
  <object id="335" name="bosco_31_0" type="solid" x="0" y="992" width="64" height="96"/>
  <object id="336" name="bosco_31_4" type="solid" x="128" y="992" width="64" height="96"/>
  <object id="337" name="bosco_31_6" type="solid" x="192" y="992" width="64" height="96"/>
  <object id="338" name="bosco_33_30" type="solid" x="960" y="1056" width="64" height="96"/>
  <object id="339" name="bosco_33_32" type="solid" x="1024" y="1056" width="64" height="96"/>
  <object id="340" name="bosco_33_50" type="solid" x="1600" y="1056" width="64" height="96"/>
  <object id="341" name="bosco_33_52" type="solid" x="1664" y="1056" width="64" height="96"/>
  <object id="342" name="bosco_34_0" type="solid" x="0" y="1088" width="64" height="96"/>
  <object id="343" name="bosco_34_4" type="solid" x="128" y="1088" width="64" height="96"/>
  <object id="344" name="bosco_34_6" type="solid" x="192" y="1088" width="64" height="96"/>
  <object id="345" name="bosco_36_30" type="solid" x="960" y="1152" width="64" height="96"/>
  <object id="346" name="bosco_36_32" type="solid" x="1024" y="1152" width="64" height="96"/>
  <object id="347" name="bosco_36_52" type="solid" x="1664" y="1152" width="64" height="96"/>
  <object id="348" name="bosco_37_0" type="solid" x="0" y="1184" width="64" height="96"/>
  <object id="349" name="bosco_37_4" type="solid" x="128" y="1184" width="64" height="96"/>
  <object id="350" name="bosco_37_6" type="solid" x="192" y="1184" width="64" height="96"/>
  <object id="360" name="bosco_39_30" type="solid" x="960" y="1248" width="64" height="96"/>
  <object id="361" name="bosco_39_32" type="solid" x="1024" y="1248" width="64" height="96"/>
  <object id="362" name="bosco_39_52" type="solid" x="1664" y="1248" width="64" height="96"/>
  <object id="363" name="bosco_40_0" type="solid" x="0" y="1280" width="64" height="96"/>
  <object id="364" name="bosco_40_2" type="solid" x="64" y="1280" width="64" height="96"/>
  <object id="376" name="bosco_42_30" type="solid" x="960" y="1344" width="64" height="96"/>
  <object id="377" name="bosco_42_32" type="solid" x="1024" y="1344" width="64" height="96"/>
  <object id="378" name="bosco_42_50" type="solid" x="1600" y="1344" width="64" height="96"/>
  <object id="379" name="bosco_42_52" type="solid" x="1664" y="1344" width="64" height="96"/>
  <object id="380" name="bosco_43_0" type="solid" x="0" y="1376" width="64" height="96"/>
  <object id="381" name="bosco_43_2" type="solid" x="56.8207" y="1408.1" width="65.3053" height="97.958"/>
  <object id="382" name="bosco_43_4" type="solid" x="43.9404" y="1382.99" width="80.5341" height="120.801"/>
  <object id="383" name="bosco_43_6" type="solid" x="128.984" y="1385.26" width="80.5341" height="120.801"/>
  <object id="384" name="bosco_44_8" type="solid" x="207.264" y="1382.67" width="80.5341" height="120.801"/>
  <object id="385" name="bosco_44_10" type="solid" x="287.798" y="1382.67" width="80.5341" height="120.801"/>
  <object id="386" name="bosco_44_12" type="solid" x="368.332" y="1382.67" width="80.5341" height="120.801"/>
  <object id="387" name="bosco_44_14" type="solid" x="448.866" y="1382.67" width="80.5341" height="120.801"/>
  <object id="388" name="bosco_44_16" type="solid" x="529.4" y="1382.67" width="80.5341" height="120.801"/>
  <object id="389" name="bosco_44_18" type="solid" x="609.934" y="1382.67" width="80.5341" height="120.801"/>
  <object id="390" name="bosco_44_20" type="solid" x="690.468" y="1382.67" width="80.5341" height="120.801"/>
  <object id="393" name="bosco_45_30" type="solid" x="960" y="1440" width="64" height="96"/>
  <object id="394" name="bosco_45_32" type="solid" x="1024" y="1440" width="64" height="96"/>
  <object id="395" name="bosco_45_50" type="solid" x="1600" y="1440" width="64" height="96"/>
  <object id="396" name="bosco_45_52" type="solid" x="1664" y="1440" width="64" height="96"/>
  <object id="397" name="bosco_46_0" type="solid" x="0" y="1472" width="64" height="96"/>
  <object id="415" name="bosco_47_20" type="solid" x="670.471" y="1521.92" width="64" height="96"/>
  <object id="416" name="bosco_47_22" type="solid" x="700.415" y="1504" width="64" height="96"/>
  <object id="418" name="bosco_48_30" type="solid" x="960" y="1536" width="64" height="96"/>
  <object id="419" name="bosco_48_32" type="solid" x="1024" y="1536" width="64" height="96"/>
  <object id="420" name="bosco_48_50" type="solid" x="1600" y="1536" width="64" height="96"/>
  <object id="421" name="bosco_48_52" type="solid" x="1664" y="1536" width="64" height="96"/>
  <object id="422" name="bosco_49_0" type="solid" x="0" y="1568" width="64" height="96"/>
  <object id="440" name="bosco_50_20" type="solid" x="690.188" y="1616.13" width="64" height="96"/>
  <object id="441" name="bosco_50_22" type="solid" x="704" y="1600" width="64" height="96"/>
  <object id="443" name="bosco_51_30" type="solid" x="960" y="1632" width="64" height="96"/>
  <object id="444" name="bosco_51_32" type="solid" x="1024" y="1632" width="64" height="96"/>
  <object id="445" name="bosco_51_50" type="solid" x="1600" y="1632" width="64" height="96"/>
  <object id="446" name="bosco_51_52" type="solid" x="1664" y="1632" width="64" height="96"/>
  <object id="447" name="bosco_52_0" type="solid" x="0" y="1664" width="64" height="96"/>
  <object id="465" name="bosco_53_20" type="solid" x="672.264" y="1696" width="64" height="96"/>
  <object id="466" name="bosco_53_22" type="solid" x="704" y="1696" width="64" height="96"/>
  <object id="468" name="bosco_54_30" type="solid" x="960" y="1728" width="64" height="96"/>
  <object id="469" name="bosco_54_32" type="solid" x="1024" y="1728" width="64" height="96"/>
  <object id="470" name="bosco_54_50" type="solid" x="1600" y="1728" width="64" height="96"/>
  <object id="471" name="bosco_54_52" type="solid" x="1664" y="1728" width="64" height="96"/>
  <object id="472" name="bosco_55_0" type="solid" x="0" y="1760" width="64" height="96"/>
  <object id="490" name="bosco_56_20" type="solid" x="675.849" y="1792" width="64" height="110"/>
  <object id="491" name="bosco_56_22" type="solid" x="704" y="1792" width="64" height="113.333"/>
  <object id="493" name="bosco_57_30" type="solid" x="960" y="1824" width="64" height="96"/>
  <object id="494" name="bosco_57_32" type="solid" x="1024" y="1824" width="64" height="96"/>
  <object id="495" name="bosco_57_50" type="solid" x="1600" y="1824" width="64" height="96"/>
  <object id="496" name="bosco_57_52" type="solid" x="1664" y="1824" width="64" height="96"/>
  <object id="15" name="bosco_57_50" type="solid" x="1162.37" y="2022.93" width="402.164" height="14.5435"/>
  <object id="16" name="bosco_57_50" type="solid" x="914.406" y="1939.81" width="121.358" height="67.321"/>
  <object id="17" name="bosco_57_50" type="solid" x="1057.8" y="1921.89" width="22.774" height="26.095"/>
  <object id="18" name="bosco_57_50" type="solid" x="1090.68" y="1955.68" width="22.774" height="26.095"/>
  <object id="19" name="bosco_57_50" type="solid" x="1125.02" y="1990.9" width="22.774" height="17.9158"/>
  <object id="20" name="bosco_57_50" type="solid" x="1283" y="1990.17" width="22.774" height="26.095"/>
  <object id="21" name="bosco_57_50" type="solid" x="1443.69" y="1989.54" width="22.774" height="26.095"/>
  <object id="22" name="bosco_57_50" type="solid" x="1574.19" y="1986.78" width="22.774" height="26.095"/>
  <object id="23" name="bosco_57_50" type="solid" x="1606.27" y="1954.51" width="22.774" height="26.095"/>
  <object id="24" name="bosco_57_50" type="solid" x="1636.55" y="1924.48" width="22.774" height="26.095"/>
  <object id="25" name="bosco_9_51" type="solid" x="1347.49" y="272.649" width="86.9039" height="71.3344"/>
  <object id="26" name="bosco_9_51" type="solid" x="1151.05" y="99.9917" width="21.7171" height="367.317"/>
  <object id="28" name="bosco_9_51" type="solid" x="1604.72" y="91.1829" width="21.7171" height="367.317"/>
  <object id="29" name="bosco_9_51" type="solid" x="1446.15" y="461.162" width="166.185" height="14.9562"/>
  <object id="30" name="bosco_9_51" type="solid" x="1169.55" y="459.4" width="166.185" height="14.9562"/>
  <object id="31" name="bosco_9_51" type="solid" x="1231.21" y="390.69" width="100.998" height="14.9562"/>
  <object id="32" name="bosco_9_51" type="solid" x="1448.8" y="394.213" width="100.998" height="14.9562"/>
  <object id="33" name="bosco_9_51" type="solid" x="1540.41" y="147.561" width="19.955" height="245.753"/>
  <object id="34" name="bosco_9_51" type="solid" x="1219.76" y="139.632" width="19.955" height="245.753"/>
  <object id="48" x="113.844" y="2097.99" width="1632.45" height="10.1647"/>
  <object id="49" x="1192.51" y="488.77" width="10.6952" height="141.176"/>
  <object id="50" x="1289.84" y="485.561" width="9.62567" height="143.316"/>
  <object id="51" x="1260.96" y="618.182" width="29.9465" height="8.55615"/>
  <object id="52" x="1450.27" y="520.856" width="195.722" height="7.48663"/>
  <object id="53" x="1452.41" y="621.39" width="205.348" height="1.06952"/>
  <object id="54" x="1642.78" y="119.786" width="13.9037" height="503.743"/>
 </objectgroup>
 <objectgroup color="#00ff00" id="5" name="eventi">
  <object id="1" name="npc_1" type="npc" x="928" y="544" width="32" height="32">
   <properties>
    <property name="facing" value="E"/>
    <property name="note" value="cittadino alla fontana"/>
   </properties>
  </object>
  <object id="2" name="npc_2" type="npc" x="795.925" y="1096.39" width="32" height="32">
   <properties>
    <property name="facing" value="S"/>
    <property name="note" value="davanti al pokecenter"/>
   </properties>
  </object>
  <object id="3" name="npc_3" type="npc" x="527.547" y="1111.06" width="32" height="32">
   <properties>
    <property name="facing" value="S"/>
    <property name="note" value="davanti al market"/>
   </properties>
  </object>
  <object id="4" name="npc_4" type="npc" x="315.326" y="602.788" width="32" height="32">
   <properties>
    <property name="facing" value="E"/>
    <property name="note" value="giardiniere nel recinto del laghetto"/>
   </properties>
  </object>
  <object id="5" name="npc_5" type="npc" x="452.386" y="424.558" width="32" height="32">
   <properties>
    <property name="facing" value="S"/>
    <property name="note" value="curatrice dei giardini fioriti"/>
   </properties>
  </object>
  <object id="6" name="npc_6" type="npc" x="1214" y="1308" width="32" height="32">
   <properties>
    <property name="facing" value="S"/>
    <property name="note" value="residente vicino alla piscina"/>
   </properties>
  </object>
  <object id="7" name="npc_7" type="npc" x="1057.55" y="637.888" width="32" height="32">
   <properties>
    <property name="facing" value="N"/>
    <property name="note" value="custode davanti allo spazio della Villa"/>
   </properties>
  </object>
  <object id="12" name="pokecenter_door" type="warp" x="350.822" y="931.533" width="32" height="32">
   <properties>
    <property name="destinazione" value="interno_pokecenter"/>
    <property name="note" value="pokecenter_door"/>
   </properties>
  </object>
  <object id="13" name="market_door" type="warp" x="573.645" y="926.822" width="32" height="32">
   <properties>
    <property name="destinazione" value="interno_market"/>
    <property name="note" value="market_door"/>
   </properties>
  </object>
  <object id="14" name="casa_gialla_grande_door" type="warp" x="1344" y="1280" width="32" height="32">
   <properties>
    <property name="destinazione" value="interno_casa_gialla_grande"/>
    <property name="note" value="casa_gialla_grande_door"/>
   </properties>
  </object>
  <object id="35" name="gdf-villa-1" type="trainer" x="1155.26" y="608.712" width="32" height="32">
   <properties>
    <property name="dialogo_intro" value="Grunt GdF: Ehi tu! Questa e' zona riservata. La Villa e' sotto il nostro controllo!"/>
    <property name="facing" value="S"/>
    <property name="livello_max" type="int" value="40"/>
   </properties>
  </object>
  <object id="36" name="gdf-villa-2" type="trainer" x="1215.78" y="609.788" width="32" height="32">
   <properties>
    <property name="dialogo_intro" value="Grunt GdF: Un ragazzino? Il Comandante Crasso ci ha detto di non far passare NESSUNO."/>
    <property name="facing" value="S"/>
    <property name="livello_max" type="int" value="41"/>
   </properties>
  </object>
  <object id="37" name="gdf-villa-3" type="trainer" x="1445.52" y="579.585" width="20.6667" height="22.6667">
   <properties>
    <property name="dialogo_intro" value="Grunt GdF: Cerchiamo un documento negli archivi pontifici. Ma tu non hai visto niente, chiaro?"/>
    <property name="facing" value="W"/>
    <property name="livello_max" type="int" value="42"/>
   </properties>
  </object>
  <object id="38" name="gdf-villa-4" type="trainer" x="1322.84" y="516.587" width="17.3333" height="22.6667">
   <properties>
    <property name="dialogo_intro" value="Grunt GdF: Il meteo dei Castelli sara' nostro! Immagina: pioggia a comando sulle vigne dei concorrenti..."/>
    <property name="facing" value="E"/>
    <property name="livello_max" type="int" value="42"/>
   </properties>
  </object>
  <object id="39" name="gdf-villa-5" type="trainer" x="1442.11" y="484.178" width="28.6667" height="23.3333">
   <properties>
    <property name="dialogo_intro" value="Grunt GdF: Fulvia dice che sei tu quello che ci da' fastidio da Frascati. Ora ci penso io!"/>
    <property name="facing" value="W"/>
    <property name="livello_max" type="int" value="43"/>
   </properties>
  </object>
  <object id="40" name="gdf-villa-6" type="trainer" x="1321.35" y="424.169" width="19.3333" height="20.6667">
   <properties>
    <property name="dialogo_intro" value="Grunt GdF: Sei arrivato fin qui? Non importa. Quello che cercavamo l'abbiamo gia' trovato."/>
    <property name="facing" value="E"/>
    <property name="livello_max" type="int" value="44"/>
   </properties>
  </object>
  <object id="41" name="gdf-villa-7" type="trainer" x="1379.31" y="355.303" width="21.3333" height="24.6667">
   <properties>
    <property name="dialogo_intro" value="Grunt GdF: Vuoi il documento? Tieni, tanto non serve piu'... gia' ci siamo diretti li'!"/>
    <property name="dialogo_vittoria" value="Il documento dice: 'Le pietre riposano al Museo delle Barche di Nemi'. ...Aspetta, se ve ne siete gia' andati li'... devo correre a Nemi!"/>
    <property name="facing" value="S"/>
    <property name="flagVittoria" value="documentoVillaOttenuto"/>
    <property name="livello_max" type="int" value="45"/>
    <property name="oggetto_ricompensa" value="documento_navi"/>
   </properties>
  </object>
  <object id="42" name="warp_lago" type="warp" x="14.0769" y="2090.07" width="74.6916" height="15.7279">
   <properties>
    <property name="destinazione" value="lago_albano_acqua"/>
    <property name="required_hm" value="surf"/>
    <property name="spawn_id" value="spawn_da_castelgandolfo_acqua"/>
    <property name="type" value="warp"/>
   </properties>
  </object>
  <object id="43" name="warp_percorso 5" type="warp" x="1.7128" y="792.548" width="13.1597" height="71.8406">
   <properties>
    <property name="destinazione" value="percorso 5"/>
    <property name="type" value="warp"/>
   </properties>
  </object>
  <object id="44" name="spawn_da_percorso 5" type="spawn" x="93.557" y="803.019" width="32" height="32">
   <properties>
    <property name="spawn_id" value="spawn_da_percorso 5"/>
    <property name="type" value="spawn"/>
   </properties>
  </object>
  <object id="45" name="warp_marino" type="warp" x="837.624" y="15.1226" width="117.373" height="11.9822">
   <properties>
    <property name="destinazione" value="percorso 4"/>
    <property name="type" value="warp"/>
   </properties>
  </object>
  <object id="46" name="spawn_da_percorso 4" type="spawn" x="875.306" y="90.28" width="32" height="32">
   <properties>
    <property name="spawn_id" value="spawn_da_percorso 4"/>
    <property name="type" value="spawn"/>
   </properties>
  </object>
  <object id="47" name="spawn_dal_lago" type="spawn" x="47.2189" y="2039.98" width="32" height="32">
   <properties>
    <property name="spawn_id" value="spawn_dal_lago_albano"/>
    <property name="type" value="spawn"/>
   </properties>
  </object>
  <object id="56" name="trainer" type="trainer" x="1118.96" y="1820.84" width="32" height="32">
   <properties>
    <property name="direzione" value="est"/>
    <property name="direzione_ciclo" value="EO"/>
    <property name="id" value="all-gm-3"/>
    <property name="pattuglia" type="bool" value="true"/>
    <property name="sprite" value="BUGCATCHER"/>
    <property name="type" value="trainer"/>
    <property name="vista" type="int" value="4"/>
   </properties>
  </object>
  <object id="57" name="trainer" type="trainer" x="1152" y="1564.32" width="32" height="32">
   <properties>
    <property name="direzione" value="est"/>
    <property name="id" value="all-gm-4"/>
    <property name="sprite" value="YOUNGSTER"/>
    <property name="type" value="trainer"/>
    <property name="vista" type="int" value="5"/>
   </properties>
  </object>
  <object id="58" name="trainer" type="trainer" x="1521.43" y="1712.97" width="32" height="32">
   <properties>
    <property name="direzione" value="ovest"/>
    <property name="direzione_ciclo" value="EO"/>
    <property name="id" value="all-gm-5"/>
    <property name="pattuglia" type="bool" value="true"/>
    <property name="sprite" value="BIRDKEEPER"/>
    <property name="type" value="trainer"/>
    <property name="vista" type="int" value="5"/>
   </properties>
  </object>
  <object id="59" name="acqua_castel_gandolfo_surf" type="acqua_surf" x="16.9218" y="1941" width="1714.77" height="128.642">
   <properties>
    <property name="id" value="acqua_marino_surf"/>
    <property name="type" value="acqua surf"/>
   </properties>
  </object>
  <object id="60" name="erba alta castel gandolfo" x="104.199" y="1583.36" width="526.374" height="292.828">
   <properties>
    <property name="id" value="incontri castel gandolfo"/>
    <property name="type" value="erba_alta"/>
   </properties>
  </object>
 </objectgroup>
</map>
