<?xml version="1.0" encoding="UTF-8"?>
<map version="1.10" tiledversion="1.12.2" orientation="orthogonal" renderorder="right-down" width="45" height="45" tilewidth="32" tileheight="32" infinite="0" nextlayerid="7" nextobjectid="118">
 <properties>
  <property name="zone_id" value="lago_di_albano-spiaggia"/>
 </properties>
 <tileset firstgid="1" source="../Sea.tsj"/>
 <tileset firstgid="99" source="../../outside.tsx"/>
 <tileset firstgid="4115" source="../pokemon_emerald_exterior_32.tsj"/>
 <tileset firstgid="10187" source="../Outside_pallet.tsx"/>
 <tileset firstgid="14203" source="../outside.tsx"/>
 <layer id="1" name="ground" width="45" height="45">
  <data encoding="csv">
987,980,980,980,980,980,980,980,980,980,980,980,980,980,980,980,980,980,980,980,980,980,980,980,980,980,980,980,980,980,980,980,980,980,980,980,980,980,980,980,980,980,980,980,988,
973,987,980,980,980,980,980,980,980,980,980,980,980,980,980,980,980,980,980,980,980,980,980,980,980,980,980,980,980,980,980,980,980,980,980,980,980,980,980,980,980,980,980,988,971,
976,973,987,980,980,980,980,980,980,980,980,980,980,980,980,980,980,980,980,980,980,980,980,980,980,980,980,980,980,980,980,980,980,980,980,980,980,980,980,980,980,980,988,971,971,
976,973,973,987,980,980,980,980,980,980,980,980,980,980,980,980,980,980,980,980,980,980,980,980,980,980,980,980,980,980,980,980,980,980,980,980,980,980,980,980,980,988,971,971,971,
976,973,973,973,987,980,980,980,980,980,980,980,980,980,980,980,980,980,980,980,980,980,980,980,980,980,980,980,980,980,980,980,980,980,980,980,980,980,980,980,988,971,971,971,971,
976,973,973,973,973,987,980,980,980,980,980,980,980,980,980,980,980,980,980,980,980,980,980,980,980,980,980,980,980,980,980,980,980,980,980,980,980,980,980,988,971,971,971,971,971,
976,973,973,973,973,973,987,980,980,980,980,980,980,980,980,980,980,980,980,980,980,980,980,980,980,980,980,980,980,980,980,980,980,980,980,980,980,980,988,974,974,974,974,971,971,
976,973,973,973,973,973,973,972,972,972,972,972,972,972,972,972,972,972,972,972,972,972,972,972,972,972,972,972,972,972,972,972,972,972,972,972,972,988,974,974,974,974,974,971,971,
976,973,973,973,973,973,973,15076,15076,15076,15076,15076,15076,15076,15076,15076,15076,15076,15076,15076,15076,15076,15076,15076,15076,15076,15076,15076,15076,15076,15076,15076,15076,15076,15076,15076,15076,974,974,974,974,974,974,971,971,
976,973,973,973,973,973,973,15076,15076,15076,15076,15076,15076,15076,15076,15076,15076,15076,15076,15076,15076,15076,15076,15076,15076,15076,15076,15076,15076,15076,15076,15076,15076,15076,15076,15076,15076,974,974,974,974,974,974,971,971,
976,973,973,973,973,973,973,15076,15076,15076,15076,15076,15076,15076,15076,15076,15076,15076,15076,15076,15076,15076,15076,15076,15076,15076,15076,15076,15076,15076,15076,15076,15076,15076,15076,15076,15076,974,974,974,974,974,974,971,971,
976,973,973,973,973,973,973,15076,15076,15076,15076,15076,15076,15076,15076,15076,15076,15076,15076,15076,15076,15076,15076,15076,15076,15076,15076,15076,15076,15076,15076,15076,15076,15076,15076,15076,15076,974,974,974,974,974,974,971,971,
976,973,973,973,973,973,973,15076,15076,15076,15076,15076,15076,15076,15076,15076,15076,15076,15076,15076,15076,15076,15076,15076,15076,15076,15076,15076,15076,15076,15076,15076,15076,15076,15076,15076,15076,974,974,974,974,974,974,971,971,
976,973,973,973,973,973,973,15076,15076,15076,15076,53,53,53,53,53,53,53,53,53,53,53,53,53,53,53,53,53,53,53,53,53,53,15076,15076,15076,15076,974,974,974,974,974,974,971,971,
976,973,973,973,973,973,973,15076,15076,15076,15076,53,53,53,53,53,53,53,53,53,53,53,53,53,53,53,53,53,53,53,53,53,53,15076,15076,15076,15076,974,974,974,974,974,974,971,971,
976,973,973,973,973,973,973,15076,15076,15076,15076,53,53,53,53,53,53,53,53,53,53,53,53,53,53,53,53,53,53,53,53,53,53,15076,15076,15076,15076,974,974,974,974,974,974,971,971,
976,973,973,973,973,973,973,15076,15076,15076,15076,53,53,53,53,53,53,53,53,53,53,53,53,53,53,53,53,53,53,53,53,53,53,15076,15076,15076,15076,974,974,974,974,974,974,971,971,
976,973,973,973,973,973,973,15076,15076,15076,15076,53,53,53,53,53,53,53,53,53,53,53,53,53,53,53,53,53,53,53,53,53,53,15076,15076,15076,15076,974,974,974,974,974,974,971,971,
976,973,973,973,973,973,973,15076,15076,15076,15076,53,53,53,53,53,53,53,53,53,53,8812,53,53,53,53,53,53,53,53,53,53,53,15076,15076,15076,15076,974,974,974,974,974,974,971,971,
976,973,973,973,973,973,973,15076,15076,15076,15076,53,53,53,53,53,53,53,53,53,8812,8812,8812,53,53,53,53,53,53,53,53,53,53,15076,15076,15076,15076,974,974,974,974,974,974,971,971,
976,973,973,973,973,973,973,15076,15076,15076,15076,53,53,53,53,53,53,53,53,8812,8812,8812,8812,8812,53,53,53,53,53,53,53,53,53,15076,15076,15076,15076,974,974,974,974,974,974,971,971,
976,973,973,973,973,973,973,15076,15076,15076,15076,53,53,53,53,53,53,53,8812,8812,8812,8812,8812,8812,8812,53,53,53,53,53,53,53,53,15076,15076,15076,15076,974,974,974,974,974,974,971,971,
976,973,973,973,973,973,973,15076,15076,15076,15076,53,53,53,53,53,53,8812,8812,8812,8812,8812,8812,8812,8812,8812,53,53,53,53,53,53,53,15076,15076,15076,15076,974,974,974,974,974,974,971,971,
976,973,973,973,973,973,973,15076,15076,15076,15076,53,53,53,53,53,8812,8812,8812,8812,8812,8812,8812,8812,8812,8812,8812,53,53,53,53,53,53,15076,15076,15076,15076,974,974,974,974,974,974,971,971,
976,973,973,973,973,973,973,15076,15076,15076,15076,53,53,53,53,8812,8812,8812,8812,8812,8812,8812,8812,8812,8812,8812,8812,8812,53,53,53,53,53,15076,15076,15076,15076,974,974,974,974,974,974,971,971,
976,973,973,973,973,973,973,15076,15076,15076,15076,53,53,53,53,53,8812,8812,8812,8812,8812,8812,8812,8812,8812,8812,8812,53,53,53,53,53,53,15076,15076,15076,15076,974,974,974,974,974,974,971,971,
976,973,973,973,973,973,973,15076,15076,15076,15076,53,53,53,53,53,53,8812,8812,8812,8812,8812,8812,8812,8812,8812,53,53,53,53,53,53,53,15076,15076,15076,15076,974,974,974,974,974,974,971,971,
976,973,973,973,973,973,973,15076,15076,15076,15076,53,53,53,53,53,53,53,8812,8812,8812,8812,8812,8812,8812,53,53,53,53,53,53,53,53,15076,15076,15076,15076,974,974,974,974,974,974,971,971,
976,973,973,973,973,973,973,15076,15076,15076,15076,53,53,53,53,53,53,53,53,8812,8812,8812,8812,8812,53,53,53,53,53,53,53,53,53,15076,15076,15076,15076,974,974,974,974,974,974,971,971,
976,973,973,973,973,973,973,15076,15076,15076,15076,53,53,53,53,53,53,53,53,53,8812,8812,8812,53,53,53,53,53,53,53,53,53,53,15076,15076,15076,15076,974,974,974,974,974,974,971,971,
976,973,973,973,973,973,973,15076,15076,15076,15076,53,53,53,53,53,53,53,53,53,53,8812,53,53,53,53,53,53,53,53,53,53,53,15076,15076,15076,15076,974,974,974,974,974,974,971,971,
976,973,973,973,973,973,973,15076,15076,15076,15076,53,53,53,53,53,53,53,53,53,53,53,53,53,53,53,53,53,53,53,53,53,53,15076,15076,15076,15076,974,974,974,974,974,974,971,971,
976,973,973,973,973,973,973,15076,15076,15076,15076,53,53,53,53,53,53,53,53,53,53,53,53,53,53,53,53,53,53,53,53,53,53,15076,15076,15076,15076,974,974,974,974,974,974,971,971,
976,973,973,973,973,973,973,15076,15076,15076,15076,53,53,53,53,53,53,53,53,53,53,53,53,53,53,53,53,53,53,53,53,53,53,15076,15076,15076,15076,974,974,974,974,974,974,971,971,
976,973,973,973,973,973,973,15076,15076,15076,15076,53,53,53,53,53,53,53,53,53,53,53,53,53,53,53,53,53,53,53,53,53,53,15076,15076,15076,15076,974,974,974,974,974,974,971,971,
976,973,973,973,973,973,973,15076,15076,15076,15076,53,53,53,53,53,53,53,53,53,53,53,53,53,53,53,53,53,53,53,53,53,53,15076,15076,15076,15076,974,974,974,974,974,974,971,971,
976,973,973,973,973,973,973,15076,15076,15076,15076,53,53,53,53,53,53,53,53,53,53,53,53,53,53,53,53,53,53,53,53,53,53,15076,15076,15076,15076,974,974,974,974,974,974,971,971,
976,973,973,973,973,973,973,15076,15076,15076,15076,53,53,53,53,53,53,53,53,53,53,53,53,53,53,53,53,53,53,53,53,53,53,15076,15076,15076,15076,974,974,974,974,974,974,971,971,
976,973,973,973,973,973,973,15076,15076,15076,15076,53,53,53,53,53,53,53,53,53,53,53,53,53,53,53,53,53,53,53,53,53,53,15076,15076,15076,15076,974,974,974,974,974,974,971,971,
976,973,973,973,973,973,973,15076,15076,15076,15076,15076,15076,15076,15076,15076,15076,15076,15076,15076,15076,15076,15076,15076,15076,15076,15076,15076,15076,15076,15076,15076,15076,15076,15076,15076,15076,974,974,974,974,974,974,971,971,
976,973,973,973,973,973,973,15076,15076,15076,15076,15076,15076,15076,15076,15076,15076,15076,15076,15076,15076,15076,15076,15076,15076,15076,15076,15076,15076,15076,15076,15076,15076,15076,15076,15076,15076,974,974,974,974,974,974,971,971,
976,973,973,973,973,973,973,15076,15076,15076,15076,15076,15076,15076,15076,15076,15076,15076,15076,15076,15076,15076,15076,15076,15076,15076,15076,15076,15076,15076,15076,15076,15076,15076,15076,15076,15076,974,974,974,974,974,974,971,971,
976,973,973,973,973,973,973,15076,15076,15076,15076,15076,15076,15076,15076,15076,15076,15076,15076,15076,15076,15076,15076,15076,15076,15076,15076,15076,15076,15076,15076,15076,15076,15076,15076,15076,15076,974,974,974,974,974,974,971,971,
976,973,973,973,973,973,973,972,972,972,972,972,972,972,972,972,972,972,972,972,972,972,972,972,972,972,972,972,972,972,972,972,972,972,972,972,972,974,974,974,974,974,974,971,971,
995,964,964,964,964,964,964,964,964,964,964,964,964,964,964,964,964,964,964,964,964,964,964,964,964,964,964,964,964,964,964,964,964,964,964,964,964,964,964,964,964,964,964,964,964
</data>
 </layer>
 <layer id="3" name="deco_sotto" width="45" height="45">
  <data encoding="csv">
0,0,0,0,0,0,0,0,0,0,0,0,0,0,0,0,0,0,0,0,0,0,0,0,0,0,0,0,0,0,0,0,0,0,0,0,0,0,0,0,0,0,0,0,0,
0,0,0,0,0,0,0,0,0,0,15085,15076,15076,15076,15076,15076,15076,15076,15076,15076,15076,15076,15076,15076,15076,15076,15076,15076,15076,15076,15076,15076,15076,15076,15076,15076,15076,15076,15076,15076,15076,15076,15076,15076,0,
0,0,0,0,0,0,0,0,0,0,0,14981,14981,0,0,0,0,0,0,0,0,0,0,0,0,0,0,0,0,0,0,0,0,0,0,0,0,0,0,0,0,0,0,15076,0,
0,0,0,0,0,0,0,0,0,0,0,15079,15079,15079,15079,15079,15079,15079,15079,15079,15079,15079,15079,15079,15079,15079,15079,15079,15079,15079,15079,15067,0,0,0,0,0,0,0,0,0,0,0,15076,0,
0,0,0,0,0,0,0,0,0,0,0,15087,15087,15087,15087,15087,15087,15087,15087,15087,15087,15087,15087,15087,15087,15087,15087,15087,15087,14980,14980,0,0,0,0,0,0,0,0,0,0,0,0,15076,0,
0,0,15076,15076,0,0,0,0,0,0,0,0,0,0,0,0,0,0,0,0,0,0,0,0,0,0,0,0,0,14980,14980,0,0,0,0,0,0,0,0,0,0,0,0,15076,0,
0,0,15076,15076,0,0,0,0,0,0,0,0,0,0,0,0,0,0,0,0,0,0,0,0,0,0,0,0,0,14980,14980,0,0,0,0,0,0,0,0,0,15076,15076,0,15076,0,
0,0,15076,15076,0,0,0,0,0,0,0,0,0,0,0,0,0,0,0,0,0,0,0,0,0,0,0,0,0,0,0,0,0,0,0,0,0,0,0,15075,15076,15076,0,15076,0,
0,0,15076,15076,0,0,0,0,0,0,0,0,0,0,0,0,0,0,0,0,0,0,0,0,0,0,0,0,0,0,0,0,0,0,0,0,0,0,0,15075,15076,15076,0,15076,0,
0,0,15076,15076,0,0,0,0,0,0,0,0,0,0,0,0,0,0,0,0,0,0,0,0,0,0,0,0,0,0,0,0,0,0,0,0,0,0,0,15075,15076,15076,0,15076,0,
0,0,15076,15076,0,0,0,0,0,0,0,0,0,0,0,0,0,0,0,0,0,0,0,0,0,0,0,0,0,0,0,0,0,0,0,0,0,0,0,15075,15076,15076,0,15076,0,
0,0,15076,15076,0,0,0,0,0,0,0,0,0,0,0,0,0,0,0,0,0,0,0,0,0,0,0,0,0,0,0,0,0,0,0,0,0,0,0,15075,15076,15076,0,15076,0,
0,0,15076,15076,0,0,0,0,0,0,0,0,0,0,0,0,0,0,0,0,0,0,0,0,0,0,0,0,0,0,0,0,0,0,0,0,0,0,0,15075,15076,15076,0,15076,0,
0,0,15076,15076,0,0,0,0,0,0,0,0,0,0,0,0,0,0,0,0,0,0,0,0,0,0,0,0,0,0,0,0,0,0,0,0,0,0,0,15075,15076,15076,0,15076,0,
0,0,15076,15076,0,0,0,0,0,0,0,0,0,0,0,0,0,0,0,0,0,0,0,0,0,0,0,0,0,0,0,0,0,0,0,0,0,0,0,15075,15076,15076,0,15076,0,
0,0,15076,15076,0,0,0,0,0,0,0,0,0,0,0,0,0,0,0,0,0,0,0,0,0,0,0,0,0,0,0,0,0,0,0,0,0,0,0,15075,15076,15076,0,15076,0,
0,0,15076,15076,0,0,0,0,0,0,0,0,0,0,0,0,0,0,0,0,0,0,0,0,0,0,0,0,0,0,0,0,0,0,0,0,0,0,0,15075,15076,15076,0,15076,0,
0,0,15076,15076,0,0,0,0,0,0,0,0,0,0,0,0,0,0,0,0,0,0,0,0,0,0,0,0,0,0,0,0,0,0,0,0,0,0,0,15075,15076,15076,0,15076,0,
0,0,15076,15076,0,0,0,0,0,0,0,0,0,0,0,0,0,0,0,0,0,0,0,0,0,0,0,0,0,0,0,0,0,0,0,0,0,0,0,15075,15076,15076,0,15076,0,
0,0,15076,15076,0,0,0,0,0,0,0,0,0,0,0,0,0,0,0,0,0,0,0,0,0,0,0,0,0,0,0,0,0,0,0,0,0,0,0,15075,15076,15076,0,15076,0,
0,0,15076,15076,0,0,0,0,0,0,0,0,0,0,0,0,0,0,0,0,0,0,0,0,0,0,0,0,0,0,0,0,0,0,0,0,0,0,0,15075,15076,15076,0,15076,0,
0,0,15076,15076,0,0,0,0,0,0,0,0,0,0,0,0,0,0,0,0,0,0,0,0,0,0,0,0,0,0,0,0,0,0,0,0,0,0,0,15075,15076,15076,0,15076,0,
0,0,15076,15076,0,0,0,0,0,0,0,0,0,0,0,0,0,0,0,0,0,0,0,0,0,0,0,0,0,0,0,0,0,0,0,0,0,0,0,15075,15076,15076,0,975,0,
0,0,15076,15076,0,0,0,0,0,0,0,0,0,0,0,0,0,0,0,0,0,0,0,0,0,0,0,0,0,0,0,0,0,0,0,0,0,0,0,15075,15076,15076,0,975,0,
0,0,15076,15076,0,0,0,0,0,0,0,0,0,0,0,0,0,0,0,0,0,0,0,0,0,0,0,0,0,0,0,0,0,0,0,0,0,0,0,15075,15076,15076,0,975,0,
0,0,15076,15076,0,0,0,0,0,0,0,0,0,0,0,0,0,0,0,0,0,0,0,0,0,0,0,0,0,0,0,0,0,0,0,0,0,0,0,15075,15076,15076,0,975,0,
0,0,15076,15076,0,0,0,0,0,0,0,0,0,0,0,0,0,0,0,0,0,0,0,0,0,0,0,0,0,0,0,0,0,0,0,0,0,0,0,15075,15076,15076,0,975,0,
0,0,15076,15076,0,0,0,0,0,0,0,0,0,0,0,0,0,0,0,0,0,0,0,0,0,0,0,0,0,0,0,0,0,0,0,0,0,0,0,15075,15076,15076,0,975,0,
0,0,15076,15076,0,0,0,0,0,0,0,0,0,0,0,0,0,0,0,0,0,0,0,0,0,0,0,0,0,0,0,0,0,0,0,0,0,0,0,15075,15076,15076,0,975,0,
0,0,15076,15076,0,0,0,0,0,0,0,0,0,0,0,0,0,0,0,0,0,0,0,0,0,0,0,0,0,0,0,0,0,0,0,0,0,0,0,15075,15076,15076,0,975,0,
0,0,15076,15076,0,0,0,0,0,0,0,0,0,0,0,0,0,0,0,0,0,0,0,0,0,0,0,0,0,0,0,0,0,0,0,0,0,0,0,15075,15076,15076,0,975,0,
0,0,15076,15076,0,0,0,0,0,0,0,0,0,0,0,0,0,0,0,0,0,0,0,0,0,0,0,0,0,0,0,0,0,0,0,0,0,0,0,15075,15076,15076,0,975,0,
0,0,15076,15076,0,0,0,0,0,0,0,0,0,0,0,0,0,0,0,0,0,0,0,0,0,0,0,0,0,0,0,0,0,0,0,0,0,0,0,15075,15076,15076,0,975,0,
0,0,15076,15076,0,0,0,0,0,0,0,0,0,0,0,0,0,0,0,0,0,0,0,0,0,0,0,0,0,0,0,0,0,0,0,0,0,0,0,15075,15076,15076,0,975,0,
0,0,15076,15076,0,0,0,0,0,0,0,0,0,0,0,0,0,0,0,0,0,0,0,0,0,0,0,0,0,0,0,0,0,0,0,0,0,0,0,15075,15076,15076,0,975,0,
0,0,15076,15076,0,0,0,0,0,0,0,0,0,0,0,0,0,0,0,0,0,0,0,0,0,0,0,0,0,0,0,0,0,0,0,0,0,0,0,15075,15076,15076,0,975,0,
0,0,15076,15076,0,0,0,0,0,0,0,0,0,0,0,0,0,0,0,0,0,0,0,0,0,0,0,0,0,0,0,0,0,0,0,0,0,0,0,15075,15076,15076,0,975,0,
0,0,15076,15076,0,0,0,0,0,0,0,0,0,0,0,0,0,0,0,0,0,0,0,0,0,0,0,0,0,0,0,0,0,0,0,0,0,0,0,15075,15076,15076,0,975,0,
0,0,15076,15076,0,0,0,0,0,0,0,0,0,0,0,0,0,0,0,0,0,0,0,0,0,0,0,0,0,0,0,0,0,0,0,0,0,0,0,15075,15076,15076,0,975,0,
0,0,15076,15076,0,0,0,0,0,0,0,0,0,0,0,0,0,0,0,0,0,0,0,0,0,0,0,0,0,0,0,0,0,0,0,0,0,0,0,15075,15076,15076,0,975,0,
0,0,15076,15076,0,0,0,0,0,0,0,0,0,0,0,0,0,0,0,0,0,0,0,0,0,0,0,0,0,0,0,0,0,0,0,0,0,0,0,0,15076,15076,0,975,0,
0,0,15076,15076,0,0,0,0,0,0,0,0,0,0,0,0,0,0,0,0,0,0,0,0,0,0,0,0,0,0,0,0,0,0,0,0,0,0,0,0,15076,15076,0,975,0,
0,0,15076,15076,0,0,0,0,0,0,0,0,0,0,0,0,0,0,0,0,0,0,0,0,0,0,0,0,0,0,0,0,0,0,0,0,0,0,0,0,15076,15076,0,975,0,
964,964,964,964,964,964,964,964,964,964,964,964,964,964,964,964,964,964,964,964,964,964,964,964,964,964,964,964,964,964,964,964,964,964,964,964,964,964,964,964,964,964,964,877,975,
948,948,948,948,948,948,948,948,948,948,948,948,948,948,948,948,948,948,948,948,948,948,948,948,948,948,948,948,948,948,948,948,948,948,948,948,948,948,948,948,948,948,948,101,948
</data>
 </layer>
 <layer id="4" name="edifici" width="45" height="45">
  <data encoding="csv">
0,0,0,0,0,0,0,0,0,0,0,0,0,0,0,0,0,0,0,0,0,0,0,0,0,0,0,0,0,0,0,0,0,0,0,0,0,0,0,0,0,0,0,0,0,
0,0,0,0,0,0,0,0,0,0,0,0,0,0,0,0,0,0,0,0,0,0,0,0,0,0,0,0,0,0,0,0,0,0,0,0,0,0,0,0,0,0,0,0,0,
0,0,0,0,0,0,0,0,0,0,0,0,0,0,0,0,0,0,0,0,0,0,0,0,0,0,0,0,0,0,0,0,0,0,0,0,0,0,0,0,0,0,0,0,0,
0,0,0,0,0,0,0,0,0,0,0,0,0,0,0,0,0,0,0,0,0,0,0,0,0,0,0,0,0,0,0,0,0,0,0,0,0,0,0,0,0,0,0,0,0,
0,0,0,0,0,0,0,0,0,0,0,0,0,0,0,0,0,0,0,0,0,0,0,0,0,0,0,0,0,0,0,0,0,0,0,0,0,0,0,0,0,0,0,0,0,
0,0,14623,14624,0,0,0,0,0,0,0,0,0,0,0,0,0,0,0,0,0,0,0,0,0,0,0,0,0,0,0,0,0,0,0,0,0,0,0,0,0,0,0,0,0,
0,0,14631,14632,0,0,0,0,0,0,0,0,0,0,0,0,0,0,0,0,0,0,0,0,0,0,0,0,0,0,0,0,0,0,0,0,0,0,0,0,14623,14624,0,0,0,
0,0,14639,14640,0,0,0,14673,14673,14673,14673,0,0,0,0,0,0,0,0,0,0,0,0,0,0,0,0,0,0,0,0,0,0,14673,14673,14673,14673,0,0,0,14631,14632,0,0,0,
0,0,14623,14624,0,0,0,14681,14681,14681,14681,0,14209,14209,14209,14209,14209,14209,14209,14209,14209,14209,14209,14209,14209,14209,14209,14209,14209,14209,14209,14209,0,14681,14681,14681,14681,0,0,0,14639,14640,0,0,0,
0,0,14631,14632,0,0,0,14689,14689,14689,14689,0,14209,14209,14209,14209,14209,14209,14209,14209,14209,14209,14209,14209,14209,14209,14209,14209,14209,14209,14209,14209,0,14689,14689,14689,14689,0,0,0,14623,14624,0,0,0,
0,0,14639,14640,0,0,0,14673,0,0,0,0,14209,14209,14209,14209,14209,14209,14209,14209,14209,14209,14209,14209,14209,14209,14209,14209,14209,14209,14209,14209,0,0,0,0,14681,0,0,0,14631,14632,0,0,0,
0,0,14623,14624,0,0,0,14681,0,0,0,0,0,0,0,0,0,0,0,0,0,0,0,0,0,0,0,0,0,0,0,0,0,0,0,0,14689,0,0,0,14639,14640,0,0,0,
0,0,14631,14632,0,0,0,14689,0,0,0,0,0,0,0,0,0,0,0,0,0,0,0,0,0,0,0,0,0,0,0,0,0,0,0,0,14673,0,0,0,14623,14624,0,0,0,
0,0,14639,14640,0,0,0,14673,0,0,0,0,0,0,0,0,0,0,0,0,0,0,0,0,0,0,0,0,0,0,0,0,0,0,0,0,14681,0,0,0,14631,14632,0,0,0,
0,0,14623,14624,0,0,0,14681,0,0,0,0,0,0,0,0,0,0,0,0,0,0,0,0,0,0,0,0,0,0,0,0,0,0,0,0,14689,0,0,0,14639,14640,0,0,0,
0,0,14631,14632,0,0,0,14689,0,0,0,0,0,0,0,0,0,0,0,0,0,0,0,0,0,0,0,0,0,0,0,0,0,0,0,0,14673,0,0,0,14623,14624,0,0,0,
0,0,14639,14640,0,0,0,14673,0,0,0,0,0,0,0,0,0,0,0,0,0,0,0,0,0,0,0,0,0,0,0,0,0,0,0,0,14681,0,0,0,14631,14632,0,0,0,
0,0,14623,14624,0,0,0,14681,0,0,0,0,0,0,0,0,0,0,0,0,0,0,0,0,0,0,0,0,0,0,0,0,0,0,0,0,14689,0,0,0,14639,14640,0,0,0,
0,0,14631,14632,0,0,0,14689,0,0,0,0,0,0,0,0,0,0,0,0,0,0,0,0,0,0,0,0,0,0,0,0,0,0,0,0,14673,0,0,0,14623,14624,0,0,0,
0,0,14639,14640,0,0,0,14673,0,0,0,0,0,0,0,0,0,0,0,0,0,0,0,0,0,0,0,0,0,0,0,0,0,0,0,0,14681,0,0,0,14631,14632,0,0,0,
0,0,0,0,0,0,0,14681,0,0,0,0,0,0,0,0,0,0,0,0,0,0,0,0,0,0,0,0,0,0,0,0,0,0,0,0,14689,0,0,0,14639,14640,0,0,0,
0,0,14623,14624,0,0,0,14689,0,0,0,0,0,0,0,0,0,0,0,0,0,0,0,0,0,0,0,0,0,0,0,0,0,0,0,0,14673,0,0,0,14623,14624,0,0,0,
0,0,14631,14632,0,0,0,14673,0,0,0,0,0,0,0,0,0,0,0,0,0,0,0,0,0,0,0,0,0,0,0,0,0,0,0,0,14681,0,0,0,14631,14632,0,0,0,
0,0,14639,14640,0,0,0,14681,0,0,0,0,0,0,0,0,0,0,0,0,0,0,0,0,0,0,0,0,0,0,0,0,0,0,0,0,14689,0,0,0,14639,14640,0,0,0,
0,0,0,0,0,0,0,14689,0,0,0,0,0,0,0,0,0,0,0,0,0,0,0,0,0,0,0,0,0,0,0,0,0,0,0,0,14673,0,0,0,14623,14624,0,0,0,
0,0,14623,14624,0,0,0,14673,0,0,0,0,0,0,0,0,0,0,0,0,0,0,0,0,0,0,0,0,0,0,0,0,0,0,0,0,14681,0,0,0,14631,14632,0,0,0,
0,0,14631,14632,0,0,0,14681,0,0,0,0,0,0,0,0,0,0,0,0,0,0,0,0,0,0,0,0,0,0,0,0,0,0,0,0,14689,0,0,0,14639,14640,0,0,0,
0,0,14639,14640,0,0,0,14689,0,0,0,0,0,0,0,0,0,0,0,0,0,0,0,0,0,0,0,0,0,0,0,0,0,0,0,0,14673,0,0,0,14623,14624,0,0,0,
0,0,14623,14624,0,0,0,14673,0,0,0,0,0,0,0,0,0,0,0,0,0,0,0,0,0,0,0,0,0,0,0,0,0,0,0,0,14681,0,0,0,14631,14632,0,0,0,
0,0,14631,14632,0,0,0,14681,0,0,0,0,0,0,0,0,0,0,0,0,0,0,0,0,0,0,0,0,0,0,0,0,0,0,0,0,14689,0,0,0,14639,14640,0,0,0,
0,0,14639,14640,0,0,0,14689,0,0,0,0,0,0,0,0,0,0,0,0,0,0,0,0,0,0,0,0,0,0,0,0,0,0,0,0,14673,0,0,0,14623,14624,0,0,0,
0,0,14623,14624,0,0,0,14673,0,0,0,0,0,0,0,0,0,0,0,0,0,0,0,0,0,0,0,0,0,0,0,0,0,0,0,0,14681,0,0,0,14631,14632,0,0,0,
0,0,14631,14632,0,0,0,14681,0,0,0,0,0,0,0,0,0,0,0,0,0,0,0,0,0,0,0,0,0,0,0,0,0,0,0,0,14689,0,0,0,14639,14640,0,0,0,
0,0,14639,14640,0,0,0,14689,0,0,0,0,0,0,0,0,0,0,0,0,0,0,0,0,0,0,0,0,0,0,0,0,0,0,0,0,14673,0,0,0,14623,14624,0,0,0,
0,0,14623,14624,0,0,0,14673,0,0,0,0,0,0,0,0,0,0,0,0,0,0,0,0,0,0,0,0,0,0,0,0,0,0,0,0,14681,0,0,0,14631,14632,0,0,0,
0,0,14631,14632,0,0,0,14681,0,0,0,0,0,0,0,0,0,0,0,0,0,0,0,0,0,0,0,0,0,0,0,0,0,0,0,0,14689,0,0,0,14639,14640,0,0,0,
0,0,14639,14640,0,0,0,14689,0,0,0,0,0,0,0,0,0,0,0,0,0,0,0,0,0,0,0,0,0,0,0,0,0,0,0,0,14673,0,0,0,14623,14624,0,0,0,
0,0,14623,14624,0,0,0,14673,0,0,0,0,0,0,0,0,0,0,0,0,0,0,0,0,0,0,0,0,0,0,0,0,0,0,0,0,14681,0,0,0,14631,14632,0,0,0,
0,0,14631,14632,0,0,0,14681,0,0,0,0,0,0,0,0,0,0,0,0,0,0,0,0,0,0,0,0,0,0,0,0,0,0,0,0,14689,0,0,0,14639,14640,0,0,0,
0,0,14639,14640,0,0,0,14689,0,0,0,15116,15116,15116,15116,15116,15116,15116,15116,15116,15116,15116,15116,15116,15116,15116,15116,15116,15116,15116,15116,15116,15116,0,0,0,14673,0,0,0,14623,14624,0,0,0,
0,0,14623,14624,0,0,0,14673,0,0,0,14365,14365,14365,14365,14365,14365,14365,14365,14365,14365,14365,14365,14365,14365,14365,14365,14365,14365,14365,14365,14365,14365,0,0,0,14681,0,0,0,14631,14632,0,0,0,
0,0,14631,14632,0,0,0,14681,0,0,0,14365,14365,14365,14365,14365,14365,14365,14365,14365,14365,14365,14365,14365,14365,14365,14365,14365,14365,14365,14365,14365,14365,0,0,0,14689,0,0,0,14639,14640,0,0,0,
0,0,14639,14640,0,0,0,14689,0,0,0,14365,14365,14365,14365,14365,14365,14365,14365,14365,14365,14365,14365,14365,14365,14365,14365,14365,14365,14365,14365,14365,14365,0,0,0,0,0,0,0,0,0,0,0,0,
0,0,0,0,0,0,0,0,0,0,0,0,0,0,0,0,0,0,0,0,0,0,0,0,0,0,0,0,0,0,0,0,0,0,0,0,0,0,0,0,0,0,0,0,0,
0,0,0,0,0,0,0,0,0,0,0,0,0,0,0,0,0,0,0,0,14364,14365,14366,0,0,0,0,0,0,0,0,0,0,0,0,0,0,0,0,0,0,0,0,0,0
</data>
 </layer>
 <layer id="6" name="sopra_testa" width="45" height="45">
  <data encoding="csv">
0,0,0,0,0,0,0,0,0,0,0,0,0,0,0,0,0,0,0,0,0,0,0,0,0,0,0,0,0,0,0,0,0,0,0,0,0,0,0,0,0,0,0,0,0,
0,0,0,0,0,0,0,0,0,0,0,0,0,0,0,0,0,0,0,0,0,0,0,0,0,0,0,0,0,0,0,0,0,0,0,0,0,0,0,0,0,0,0,0,0,
0,0,0,0,0,0,0,0,0,0,0,0,0,0,0,0,0,0,0,0,0,0,0,0,0,0,0,0,0,0,0,0,0,0,0,0,0,0,0,0,0,0,0,0,0,
0,0,0,0,0,0,0,0,0,0,0,0,0,0,0,0,0,0,0,0,0,0,0,0,0,0,0,0,0,0,0,0,0,0,0,0,0,0,0,0,0,0,0,0,0,
0,0,0,0,0,0,0,0,0,0,0,0,0,0,0,0,0,0,0,0,0,0,0,0,0,0,0,0,0,0,0,0,0,0,0,0,0,0,0,0,0,0,0,0,0,
0,0,0,0,0,0,0,0,0,0,0,0,0,0,0,0,0,0,0,0,0,0,0,0,0,0,0,0,0,0,0,0,0,0,0,0,0,0,0,0,0,0,0,0,0,
0,0,0,0,0,0,0,0,0,0,0,0,0,0,0,0,0,0,0,0,0,0,0,0,0,0,0,0,0,0,0,0,0,0,0,0,0,0,0,0,0,0,0,0,0,
0,0,0,0,0,0,0,0,0,0,0,0,0,0,0,0,0,0,0,0,0,0,0,0,0,0,0,0,0,0,0,0,0,0,0,0,0,0,0,0,0,0,0,0,0,
0,0,0,0,0,0,0,0,0,0,0,0,0,0,0,0,0,0,0,0,0,0,0,0,0,0,0,0,0,0,0,0,0,0,0,0,0,0,0,0,0,0,0,0,0,
0,0,0,0,0,0,0,0,0,0,0,0,0,0,0,0,0,0,0,0,0,0,0,0,0,0,0,0,0,0,0,0,0,0,0,0,14673,0,0,0,0,0,0,0,0,
0,0,0,0,0,0,0,0,0,0,0,0,0,0,0,0,0,0,0,0,0,0,0,0,0,0,0,0,0,0,0,0,0,0,0,0,14681,0,0,0,0,0,0,0,0,
0,0,0,0,0,0,0,0,0,0,0,0,0,0,0,0,0,0,0,0,0,0,0,0,0,0,0,0,0,0,0,0,0,0,0,0,14689,0,0,0,0,0,0,0,0,
0,0,0,0,0,0,0,0,0,0,15091,15084,15084,15084,15084,15084,15084,15084,15084,15084,15084,15084,15084,15084,15084,15084,15084,15084,15084,15084,15084,15084,15084,15092,0,0,0,0,0,0,0,0,0,0,0,
0,0,0,0,0,0,0,0,0,0,15077,0,0,0,0,0,0,0,0,0,0,0,0,0,0,0,0,0,0,0,0,0,0,15075,0,0,0,0,0,0,0,0,0,0,0,
0,0,0,0,0,0,0,0,0,0,15077,0,0,0,0,0,0,0,0,0,0,0,0,0,0,0,0,0,0,0,0,0,0,15075,0,0,0,0,0,0,0,0,0,0,0,
0,0,0,0,0,0,0,0,0,0,15077,0,0,0,0,0,0,0,0,0,0,0,0,0,0,0,0,0,0,0,0,0,0,15075,0,0,0,0,0,0,0,0,0,0,0,
0,0,0,0,0,0,0,0,0,0,15077,0,0,0,0,0,0,0,0,0,0,0,0,0,0,0,0,0,0,0,0,0,0,15075,0,0,0,0,0,0,0,0,0,0,0,
0,0,0,0,0,0,0,0,0,0,15077,0,0,0,0,0,0,0,0,0,0,0,0,0,0,0,0,0,0,0,0,0,0,15075,0,0,0,0,0,0,0,0,0,0,0,
0,0,0,0,0,0,0,0,0,0,15077,0,0,0,0,0,0,0,0,0,0,0,0,0,0,0,0,0,0,0,0,0,0,15075,0,0,0,0,0,0,0,0,0,0,0,
0,0,0,0,0,0,0,0,0,0,15077,0,0,0,0,0,0,0,0,0,0,0,0,0,0,0,0,0,0,0,0,0,0,15075,0,0,0,0,0,0,0,0,0,0,0,
0,0,0,0,0,0,0,0,0,0,15077,0,0,0,0,0,0,0,0,0,0,0,0,0,0,0,0,0,0,0,0,0,0,15075,0,0,0,0,0,0,0,0,0,0,0,
0,0,0,0,0,0,0,0,0,0,15077,0,0,0,0,0,0,0,0,0,0,0,0,0,0,0,0,0,0,0,0,0,0,15075,0,0,0,0,0,0,0,0,0,0,0,
0,0,0,0,0,0,0,0,0,0,15077,0,0,0,0,0,0,0,0,0,0,0,0,0,0,0,0,0,0,0,0,0,0,15075,0,0,0,0,0,0,0,0,0,0,0,
0,0,0,0,0,0,0,0,0,0,15077,0,0,0,0,0,0,0,0,0,0,0,0,0,0,0,0,0,0,0,0,0,0,15075,0,0,0,0,0,0,0,0,0,0,0,
0,0,0,0,0,0,0,0,0,0,15077,0,0,0,0,0,0,0,0,0,0,0,0,0,0,0,0,0,0,0,0,0,0,15075,0,0,0,0,0,0,0,0,0,0,0,
0,0,0,0,0,0,0,0,0,0,15077,0,0,0,0,0,0,0,0,0,0,0,0,0,0,0,0,0,0,0,0,0,0,15075,0,0,0,0,0,0,0,0,0,0,0,
0,0,0,0,0,0,0,0,0,0,15077,0,0,0,0,0,0,0,0,0,0,0,0,0,0,0,0,0,0,0,0,0,0,15075,0,0,0,0,0,0,0,0,0,0,0,
0,0,0,0,0,0,0,0,0,0,15077,0,0,0,0,0,0,0,0,0,0,0,0,0,0,0,0,0,0,0,0,0,0,15075,0,0,0,0,0,0,0,0,0,0,0,
0,0,0,0,0,0,0,0,0,0,15077,0,0,0,0,0,0,0,0,0,0,0,0,0,0,0,0,0,0,0,0,0,0,15075,0,0,0,0,0,0,0,0,0,0,0,
0,0,0,0,0,0,0,0,0,0,15077,0,0,0,0,0,0,0,0,0,0,0,0,0,0,0,0,0,0,0,0,0,0,15075,0,0,0,0,0,0,0,0,0,0,0,
0,0,0,0,0,0,0,0,0,0,15077,0,0,0,0,0,0,0,0,0,0,0,0,0,0,0,0,0,0,0,0,0,0,15075,0,0,0,0,0,0,0,0,0,0,0,
0,0,0,0,0,0,0,0,0,0,15077,0,0,0,0,0,0,0,0,0,0,0,0,0,0,0,0,0,0,0,0,0,0,15075,0,0,0,0,0,0,0,0,0,0,0,
0,0,0,0,0,0,0,0,0,0,15077,0,0,0,0,0,0,0,0,0,0,0,0,0,0,0,0,0,0,0,0,0,0,15075,0,0,0,0,0,0,0,0,0,0,0,
0,0,0,0,0,0,0,0,0,0,15077,0,0,0,0,0,0,0,0,0,0,0,0,0,0,0,0,0,0,0,0,0,0,15075,0,0,0,0,0,0,0,0,0,0,0,
0,0,0,0,0,0,0,0,0,0,15077,0,0,0,0,0,0,0,0,0,0,0,0,0,0,0,0,0,0,0,0,0,0,15075,0,0,0,0,0,0,0,0,0,0,0,
0,0,0,0,0,0,0,0,0,0,15077,0,0,0,0,0,0,0,0,0,0,0,0,0,0,0,0,0,0,0,0,0,0,15075,0,0,0,0,0,0,0,0,0,0,0,
0,0,0,0,0,0,0,0,0,0,15077,0,0,0,0,0,0,0,0,0,0,0,0,0,0,0,0,0,0,0,0,0,0,15075,0,0,0,0,0,0,0,0,0,0,0,
0,0,0,0,0,0,0,0,0,0,15077,0,0,0,0,0,0,0,0,0,0,0,0,0,0,0,0,0,0,0,0,0,0,15075,0,0,0,0,0,0,0,0,0,0,0,
0,0,0,0,0,0,0,0,0,0,15077,0,0,0,0,0,0,0,0,0,0,0,0,0,0,0,0,0,0,0,0,0,0,15075,0,0,0,0,0,0,0,0,0,0,0,
0,0,0,0,0,0,0,0,0,0,0,0,0,0,0,0,0,0,0,0,0,0,0,0,0,0,0,0,0,0,0,0,0,0,0,0,0,0,0,0,0,0,0,0,0,
0,0,0,0,0,0,0,0,0,0,0,0,0,0,0,0,0,0,0,0,0,0,0,0,0,0,0,0,0,0,0,0,0,0,0,0,0,0,0,0,0,0,0,0,0,
0,0,0,0,0,0,0,0,0,0,0,0,0,0,0,0,0,0,0,0,0,0,0,0,0,0,0,0,0,0,0,0,0,0,0,0,0,0,0,0,0,0,0,0,0,
0,0,0,0,0,0,0,0,0,0,0,0,0,0,0,0,0,0,0,0,0,0,0,0,0,0,0,0,0,0,0,0,0,0,0,0,0,0,0,0,0,0,0,0,0,
0,0,0,0,0,0,0,0,0,0,0,0,0,0,0,0,0,0,0,0,0,0,0,0,0,0,0,0,0,0,0,0,0,0,0,0,0,0,0,0,0,0,0,0,0,
0,0,0,0,0,0,0,0,0,0,0,0,0,0,0,0,0,0,0,0,0,0,0,0,0,0,0,0,0,0,0,0,0,0,0,0,0,0,0,0,0,0,0,0,0
</data>
 </layer>
 <objectgroup id="5" name="collisioni">
  <object id="77" x="2.91498" y="0" width="207.935" height="1371.98"/>
  <object id="78" x="212.794" y="6.80162" width="133.117" height="210.85"/>
  <object id="79" x="337.166" y="12.6316" width="1077.57" height="8.74494"/>
  <object id="80" x="1414.74" y="10.6883" width="22.3482" height="1354.49"/>
  <object id="81" x="1278.7" y="86.4777" width="60.2429" height="1278.7"/>
  <object id="82" x="1010.53" y="70.9312" width="292.47" height="140.891"/>
  <object id="83" x="348.826" y="135.061" width="566.478" height="68.0162"/>
  <object id="84" x="427.53" y="77.7328" width="658.785" height="9.7166"/>
  <object id="85" x="1190.28" y="225.425" width="76.7611" height="1141.7"/>
  <object id="86" x="1069.8" y="248.745" width="129.231" height="38.8664"/>
  <object id="87" x="222.51" y="237.085" width="124.372" height="51.498"/>
  <object id="88" x="225.425" y="348.826" width="15.5466" height="1016.36"/>
  <object id="89" x="1161.13" y="310.931" width="10.6883" height="1018.3"/>
  <object id="90" x="336.194" y="387.692" width="744.291" height="19.4332"/>
  <object id="91" x="1066.88" y="401.296" width="8.74494" height="830.769"/>
  <object id="92" x="331.336" y="397.409" width="11.6599" height="842.429"/>
  <object id="93" x="226.397" y="1367.13" width="962.915" height="4.8583"/>
  <object id="94" name="erba alta lago di albano" x="392.255" y="262.095" width="619.538" height="85.0405">
   <properties>
    <property name="id" value="incontri lago di nemi spiaggia"/>
    <property name="type" value="erba_alta"/>
   </properties>
  </object>
  <object id="95" name="acqua_lago di nemi" type="albero_taglio" x="362.033" y="427.598" width="685.813" height="809.258">
   <properties>
    <property name="id" value="acqua_lago di nemi"/>
    <property name="type" value="acqua surf"/>
   </properties>
  </object>
  <object id="114" name="acqua surf e sub lago di nemi" x="583.968" y="674.332" width="233.198" height="223.482">
   <properties>
    <property name="id" value="acqua profonda lago di nemi"/>
    <property name="type" value="acqua surf e sub "/>
   </properties>
   <ellipse/>
  </object>
  <object id="115" x="1790.77" y="-24.2915">
   <ellipse/>
  </object>
  <object id="116" name="warplago__albano" type="warp" x="650.019" y="1441.24" width="32" height="60.1813" rotation="269.423">
   <properties>
    <property name="destinazione" value="percorso 4"/>
    <property name="type" value="warp"/>
   </properties>
  </object>
  <object id="117" name="spawn_da_percorso4" type="spawn" x="666.645" y="1375.67" width="32" height="32">
   <properties>
    <property name="spawn_id" value="spawn_da_percorso 4"/>
    <property name="type" value="spawn"/>
   </properties>
  </object>
 </objectgroup>
 <objectgroup id="2" name="eventi"/>
</map>
