<?xml version="1.0" encoding="UTF-8"?>
<map version="1.10" tiledversion="1.12.2" orientation="orthogonal" renderorder="right-down" width="45" height="45" tilewidth="32" tileheight="32" infinite="0" nextlayerid="7" nextobjectid="77">
 <properties>
  <property name="zone_id" value="lago_di_albano-spiaggia"/>
 </properties>
 <tileset firstgid="1" source="../Sea.tsj"/>
 <tileset firstgid="99" source="../../outside.tsx"/>
 <tileset firstgid="4115" source="../pokemon_emerald_exterior_32.tsj"/>
 <tileset firstgid="10187" source="../Outside_pallet.tsx"/>
 <layer id="1" name="ground" width="45" height="45">
  <data encoding="csv">
9147,9147,9147,9147,9147,9147,9147,9147,9147,9147,9147,9147,9147,9147,9147,9147,9147,9147,9147,9147,9147,9147,9147,9147,9147,9147,9147,9147,9147,9147,9147,9147,9147,9147,9147,9147,9147,9147,9147,9147,9147,9147,9147,9147,9147,
9147,9147,9147,9147,9147,9147,9147,9147,9147,9147,9147,9147,9147,9147,9147,9147,9147,9147,9147,9147,9147,9147,9147,9147,9147,9147,9147,9147,9147,9147,9147,9147,9147,9147,9147,9147,9147,9147,9147,9147,9147,9147,9147,9147,9147,
9147,9147,9147,9147,9147,9147,9147,9147,9147,9147,9147,9147,9147,9147,9147,9147,9147,9147,9147,9147,9147,9147,9147,9147,9147,9147,9147,9147,9147,9147,9147,9147,9147,9147,9147,9147,9147,9147,9147,9147,9147,9147,9147,9147,9147,
9147,9147,9147,9147,9147,9147,9147,9147,9147,9147,9147,9147,9147,9147,9147,9147,9147,9147,9147,9147,9147,9147,9147,9147,9147,9147,9147,9147,9147,9147,9147,9147,9147,9147,9147,9147,9147,9147,9147,9147,9147,9147,9147,9147,9147,
9147,9147,9147,9147,9147,9147,9147,9147,9147,9147,9147,9147,9147,9147,9147,9147,9147,9147,9147,9147,9147,9147,9147,9147,9147,9147,9147,9147,9147,9147,9147,9147,9147,9147,9147,9147,9147,9147,9147,9147,9147,9147,9147,9147,9147,
9147,9147,9147,9147,9147,9147,9147,9147,9147,9147,9147,9147,9147,9147,9147,9147,9147,9147,9147,9147,9147,9147,9147,9147,9147,9147,9147,9147,9147,9147,9147,9147,9147,9147,9147,9147,9147,9147,9147,9147,9147,9147,9147,9147,9147,
9147,9147,9147,9147,9147,9147,9147,9147,9147,9147,9147,9147,9147,9147,9147,9147,9147,9147,9147,9147,9147,9147,9147,9147,9147,9147,9147,9147,9147,9147,9147,9147,9147,9147,9147,9147,9147,9147,9147,9147,9147,9147,9147,9147,9147,
9147,9147,9147,9147,9147,9147,9147,9147,9147,9147,9147,9147,9147,9147,9147,9147,9147,9147,9147,9147,9147,9147,9147,9147,9147,9147,9147,9147,9147,9147,9147,9147,9147,9147,9147,9147,9147,9147,9147,9147,9147,9147,9147,9147,9147,
9147,9147,9147,9147,9147,9147,9147,9147,9147,9147,9147,9147,9147,9147,9147,9147,9147,9147,9147,9147,9147,9147,9147,9147,9147,9147,9147,9147,9147,9147,9147,9147,9147,9147,9147,9147,9147,9147,9147,9147,9147,9147,9147,9147,9147,
9147,9147,9147,9147,9147,9147,9147,9147,9147,9147,9147,9147,9147,9147,9147,9147,9147,9147,9147,9147,9147,9147,9147,9147,9147,9147,9147,9147,9147,9147,9147,9147,9147,9147,9147,9147,9147,9147,9147,9147,9147,9147,9147,9147,9147,
9147,9147,9147,9147,9147,9147,9147,9147,9147,9147,9147,9147,9147,9147,9147,9147,9147,9147,9147,9147,9147,9147,9147,9147,9147,9147,9147,9147,9147,9147,9147,9147,9147,9147,9147,9147,9147,9147,9147,9147,9147,9147,9147,9147,9147,
9147,9147,9147,9147,9147,9147,9147,9147,9147,9147,9147,9147,9147,9147,9147,9147,9147,9147,9147,9147,9147,9147,9147,9147,9147,9147,9147,9147,9147,9147,9147,9147,9147,9147,9147,9147,9147,9147,9147,9147,9147,9147,9147,9147,9147,
9147,9147,9147,9147,9147,9147,9147,9147,9147,9147,9147,9147,9147,9147,9147,9147,9147,9147,9147,9147,9147,9147,9147,9147,9147,9147,9147,9147,9147,9147,9147,9147,9147,9147,9147,9147,9147,9147,9147,9147,9147,9147,9147,9147,9147,
9147,9147,9147,9147,9147,9147,9147,9147,9147,9147,9147,9147,9147,9147,9147,9147,9147,9147,9147,9147,9147,9147,9147,9147,9147,9147,9147,9147,9147,9147,9147,9147,9147,9147,9147,9147,9147,9147,9147,9147,9147,9147,9147,9147,9147,
9147,9147,9147,9147,9147,9147,9147,9147,9147,9147,9147,9147,9147,9147,9147,9147,9147,9147,9147,9147,9147,9147,9147,9147,9147,9147,9147,9147,9147,9147,9147,9147,9147,9147,9147,9147,9147,9147,9147,9147,9147,9147,9147,9147,9147,
9147,9147,9147,9147,9147,9147,9147,9147,9147,9147,9147,9147,9147,9147,9147,9147,9147,9147,9147,9147,9147,9147,9147,9147,9147,9147,9147,9147,9147,9147,9147,9147,9147,9147,9147,9147,9147,9147,9147,9147,9147,9147,9147,9147,9147,
9147,9147,9147,9147,9147,9147,9147,9147,9147,9147,9147,9147,9147,9147,9147,9147,9147,9147,9147,9147,9147,9147,9147,9147,9147,9147,9147,9147,9147,9147,9147,9147,9147,9147,9147,9147,9147,9147,9147,9147,9147,9147,9147,9147,9147,
9147,9147,9147,9147,9147,9147,9147,9147,9147,9147,9147,9147,9147,9147,9147,9147,9147,9147,9147,9147,9147,9147,9147,9147,9147,9147,9147,9147,9147,9147,9147,9147,9147,9147,9147,9147,9147,9147,9147,9147,9147,9147,9147,9147,9147,
9147,9147,9147,9147,9147,9147,9147,9147,9147,9147,9147,9147,9147,9147,9147,9147,9147,9147,9147,9147,9147,9147,9147,9147,9147,9147,9147,9147,9147,9147,9147,9147,9147,9147,9147,9147,9147,9147,9147,261,261,261,261,261,261,
9147,9147,9147,9147,9147,9147,9147,9147,9147,9147,9147,9147,9147,9147,9147,9147,9147,9147,9147,9147,9147,9147,9147,9147,9147,9147,9147,9147,9147,9147,9147,9147,9147,9147,9147,9147,9147,9147,9147,261,53,53,53,53,53,
9147,9147,9147,9147,9147,9147,9147,9147,9147,9147,9147,9147,9147,9147,9147,9147,9147,9147,9147,9147,9147,9147,9147,9147,9147,9147,9147,9147,9147,9147,9147,9147,9147,9147,9147,9147,9147,9147,9147,261,53,53,53,53,53,
9147,9147,9147,9147,9147,9147,9147,9147,9147,9147,9147,9147,9147,9147,9147,9147,9147,9147,9147,9147,9147,9147,9147,9147,9147,9147,9147,9147,9147,9147,9147,9147,9147,9147,9147,9147,9147,9147,9147,261,53,53,53,53,53,
9147,9147,9147,9147,9147,9147,9147,9147,9147,9147,9147,9147,9147,9147,9147,9147,9147,9147,9147,9147,9147,9147,9147,9147,9147,9147,9147,9147,9147,9147,9147,9147,9147,9147,9147,9147,9147,9147,9147,261,53,53,53,53,53,
9147,9147,9147,9147,9147,9147,9147,9147,9147,9147,9147,9147,9147,9147,9147,9147,9147,9147,53,53,53,53,9147,9147,9147,9147,9147,9147,9147,9147,9147,9147,9147,9147,9147,9147,9147,9147,9147,261,53,53,53,53,53,
9147,9147,9147,9147,9147,9147,9147,9147,9147,9147,9147,9147,9147,9147,9147,9147,9147,9147,53,53,53,53,9147,9147,9147,9147,9147,9147,9147,9147,9147,9147,9147,9147,9147,9147,9147,9147,9147,261,53,53,53,53,53,
9147,9147,9147,9147,9147,9147,9147,9147,9147,9147,9147,9147,9147,9147,9147,9147,9147,9147,9147,8608,53,9147,9147,9147,9147,9147,9147,9147,9147,9147,9147,9147,9147,9147,9147,9147,9147,9147,9147,261,53,53,53,53,53,
9147,9147,9147,9147,9147,9147,9147,9147,9147,9147,9147,9147,9147,9147,9147,9147,9147,9147,9147,8608,53,9147,9147,9147,9147,9147,9147,9147,9147,9147,9147,9147,9147,9147,9147,9147,9147,9147,9147,261,53,53,53,53,53,
9147,9147,9147,9147,9147,9147,9147,9147,9147,9147,9147,9147,9147,9147,9147,9147,9147,9147,9147,8608,53,9147,9147,9147,9147,9147,9147,9147,9147,9147,9147,9147,9147,9147,9147,9147,9147,9147,9147,261,53,53,53,53,53,
9147,9147,9147,9147,9147,9147,9147,9147,9147,9147,9147,9147,9147,9147,9147,9147,9147,9147,9147,8608,53,9147,9147,9147,9147,9147,9147,9147,9147,9147,9147,9147,9147,9147,9147,9147,9147,9147,9147,261,53,53,53,53,53,
53,53,53,53,53,53,53,53,53,53,53,53,53,53,53,53,53,53,53,261,53,53,53,53,53,53,53,53,53,53,53,53,53,53,53,53,53,53,53,261,53,53,53,53,53,
53,53,53,53,53,53,53,53,53,53,53,53,53,53,53,53,53,53,53,53,53,53,53,53,53,53,53,53,53,53,53,53,53,53,53,53,53,53,53,261,261,53,53,53,53,
53,53,53,53,53,53,53,53,53,53,53,53,53,53,53,53,53,53,53,53,53,53,53,53,53,53,53,53,53,53,53,53,53,53,53,53,53,53,53,261,261,53,53,53,53,
53,53,53,53,53,53,53,53,53,53,53,53,53,53,53,53,53,53,53,53,53,53,53,53,53,53,53,53,53,53,53,53,53,53,53,53,53,53,53,261,261,53,53,53,53,
261,261,261,261,261,261,261,261,261,261,261,261,261,261,261,261,53,53,53,53,53,53,53,53,53,53,53,53,53,53,53,53,53,53,53,53,53,53,53,261,261,53,53,53,53,
53,53,53,53,53,53,53,53,53,53,53,53,53,53,53,53,53,53,53,53,53,53,53,53,53,53,53,53,53,53,53,53,53,53,53,53,53,53,53,261,261,53,53,53,53,
53,53,53,53,53,53,53,53,53,53,53,53,53,53,53,53,53,53,53,53,53,53,53,53,53,53,53,53,53,53,53,53,53,53,53,53,53,53,53,261,261,53,53,53,53,
53,53,53,53,53,53,53,53,53,53,53,53,53,53,53,53,53,53,53,53,53,53,53,53,53,53,53,53,53,53,53,53,53,53,53,53,53,53,53,261,261,53,53,53,53,
53,53,53,53,53,53,53,53,53,53,53,53,53,53,53,53,53,53,53,53,53,53,53,53,53,53,53,53,53,53,53,53,53,53,53,53,53,53,53,261,261,53,53,53,53,
53,53,53,53,53,53,53,53,53,53,53,53,53,53,53,53,53,53,53,53,53,53,53,53,53,53,53,53,53,53,53,53,53,53,53,53,53,53,53,261,261,53,53,53,53,
53,53,53,53,53,53,53,53,53,53,53,53,53,53,53,53,53,53,53,53,53,53,53,53,53,53,53,53,53,53,53,53,53,53,53,53,53,53,53,261,261,53,53,53,53,
53,53,53,53,53,53,53,53,53,53,53,53,53,53,53,53,261,261,261,261,261,261,261,261,261,261,261,261,261,261,261,261,261,261,261,261,261,261,261,261,261,53,53,53,53,
53,53,53,53,53,53,53,53,53,53,53,53,53,53,53,53,53,53,53,53,53,53,53,53,53,53,53,53,53,53,53,53,53,53,53,53,53,53,53,53,53,53,53,53,53,
53,53,53,53,53,53,53,53,53,53,53,53,53,53,53,53,53,53,53,53,53,53,53,53,53,53,53,53,53,53,53,53,53,53,53,53,53,53,53,53,53,53,53,53,53,
53,53,53,53,53,53,53,53,53,53,53,53,53,53,53,53,53,53,53,53,53,53,53,53,53,53,53,53,53,53,53,53,53,53,53,53,53,53,53,53,53,53,53,53,53,
53,53,53,53,53,53,53,53,53,53,53,53,53,53,53,53,53,53,53,53,53,53,53,53,53,53,53,53,53,53,53,53,53,53,53,53,53,53,53,53,53,53,53,53,53
</data>
 </layer>
 <layer id="3" name="deco_sotto" width="45" height="45">
  <data encoding="csv">
4242,4242,4242,4242,4242,4242,4242,4153,4153,0,0,0,0,0,7811,7812,7811,7812,7811,7812,7811,7812,7811,7812,7811,7812,7811,7812,7811,7812,7811,7812,7811,7812,7811,7812,7811,7812,7811,7812,0,0,0,7811,7812,
4242,4242,4242,4242,4242,4242,4153,4153,0,0,0,0,0,0,7899,7900,7899,7900,7899,7900,7899,7900,7899,7900,7899,7900,7899,7900,7899,7900,7899,7900,7899,7900,7899,7900,7899,7900,7899,7900,0,0,0,7899,7900,
4242,4242,4242,4242,4242,4153,4153,0,0,0,0,0,0,0,0,0,0,0,0,0,0,0,0,0,0,0,0,0,0,0,0,0,7811,7812,0,0,0,0,0,0,0,0,0,7811,7812,
4242,4242,4242,4242,4153,4153,0,0,0,0,0,0,0,0,0,0,0,0,0,0,0,0,0,0,0,0,0,0,0,0,0,0,7899,7900,0,0,0,0,0,0,0,0,0,7899,7900,
4242,4242,4242,4153,4153,0,0,0,0,0,0,0,0,0,0,0,0,7811,7812,0,0,0,0,0,0,0,0,0,0,0,0,0,0,0,0,0,0,0,0,0,0,0,0,7811,7812,
4242,4242,4153,4153,0,0,0,0,0,0,0,0,0,0,0,0,0,7899,7900,0,0,0,0,0,0,0,0,0,0,0,0,0,0,0,0,0,0,0,0,0,0,0,0,7899,7900,
4242,4153,4153,0,0,0,0,0,0,0,0,0,0,0,0,0,0,0,0,0,0,0,0,0,0,0,0,0,0,0,0,0,0,0,0,0,0,0,0,0,0,7811,7812,7811,7812,
4153,4153,0,0,0,0,0,0,0,0,0,0,0,0,0,0,0,0,0,0,0,0,0,0,0,0,0,0,0,0,0,0,0,0,0,0,0,0,0,0,0,7899,7900,7899,7900,
4153,0,0,0,0,0,0,0,0,7811,7812,0,0,0,0,0,0,0,0,0,0,0,0,0,0,0,0,0,0,0,0,0,0,0,0,0,0,0,0,0,0,0,0,0,0,
0,0,0,0,0,0,0,0,0,7899,7900,0,0,0,0,0,0,0,0,0,0,0,0,0,0,0,0,0,0,0,0,0,0,0,0,0,0,0,0,0,0,0,0,0,0,
0,0,7811,7812,0,0,0,0,0,0,0,0,0,0,0,0,0,0,0,0,0,0,0,0,0,0,0,0,0,0,0,0,0,0,0,0,0,0,0,0,0,0,0,0,0,
0,0,7899,7900,0,0,0,0,0,0,0,0,0,0,0,0,0,0,0,0,0,0,0,0,0,0,0,7198,7552,7553,7200,0,0,0,0,0,0,0,0,0,0,0,0,0,0,
0,0,0,0,7811,7812,0,0,0,0,0,0,0,0,0,0,0,0,0,0,0,0,0,0,0,0,0,7286,7552,7553,7288,0,0,0,0,0,0,0,0,0,0,0,0,0,0,
0,0,0,0,7899,7900,0,0,0,0,0,0,0,0,0,0,0,0,0,0,0,0,0,0,0,0,0,7286,7552,7553,7288,0,0,0,0,0,0,0,0,0,0,0,0,9329,9330,
0,0,7811,7812,0,0,0,0,0,0,0,0,0,0,0,0,0,0,0,0,0,0,0,0,0,0,0,7374,7375,7375,7376,0,0,0,0,0,0,0,0,0,0,0,0,9417,9418,
0,0,7899,7900,0,0,0,0,0,0,0,0,0,0,0,0,0,0,0,0,0,0,0,0,0,0,0,0,0,0,0,0,0,0,0,0,0,9147,9148,9149,0,0,0,9505,9506,
0,0,0,0,0,0,0,0,0,0,0,0,0,0,0,0,0,0,0,0,0,0,0,0,0,0,0,0,0,0,0,0,0,0,0,0,0,9235,9236,9237,0,0,0,0,0,
0,0,0,0,0,0,0,0,0,0,0,0,0,0,0,0,0,0,0,0,0,0,0,0,0,0,0,0,0,0,0,0,0,0,0,0,0,9323,9324,9325,0,0,0,0,0,
0,0,0,0,0,0,0,0,0,0,0,0,0,0,0,0,0,0,0,0,0,0,0,0,0,0,0,0,0,0,0,0,0,0,0,0,0,0,0,971,972,972,972,972,972,
0,0,0,0,0,0,0,0,0,0,0,0,0,0,0,0,0,0,0,0,0,0,0,0,0,0,0,0,0,0,0,0,0,0,0,0,0,0,0,971,972,972,972,972,972,
0,0,0,0,0,0,0,0,0,0,0,0,0,0,0,0,0,0,0,0,0,0,0,0,0,0,0,0,0,0,0,0,0,0,0,0,0,0,0,971,972,972,972,972,972,
0,7198,7199,7200,0,0,0,0,0,0,0,0,0,0,0,0,0,0,0,0,0,0,0,0,0,0,0,0,0,0,0,0,0,0,0,0,0,0,0,971,972,972,972,972,972,
0,7286,7287,7288,0,0,0,0,0,0,0,0,0,0,0,0,0,0,0,7552,7552,0,0,0,0,0,0,0,0,0,0,0,0,0,0,0,0,0,0,971,972,972,972,972,972,
0,7374,7375,7376,0,0,0,0,0,0,0,0,0,0,0,0,0,0,7552,7552,7552,7552,0,0,0,0,0,0,0,0,0,0,0,0,0,0,0,0,0,971,972,972,972,972,972,
0,0,0,0,0,0,0,0,0,0,0,0,0,0,0,0,0,0,7552,7552,7552,7552,0,0,0,0,0,0,0,0,0,0,0,0,0,0,0,0,0,971,972,972,972,972,972,
0,0,0,0,0,0,0,0,0,0,0,0,0,0,0,0,0,0,0,0,8610,0,0,0,0,0,0,0,0,0,0,0,0,0,0,0,0,0,0,971,972,972,972,972,972,
0,0,0,0,0,0,0,0,0,0,0,0,0,0,0,0,0,0,0,0,8610,0,0,0,0,0,0,0,0,0,0,0,0,0,0,0,0,0,0,971,972,972,972,972,972,
0,0,0,0,0,0,0,0,0,0,0,0,0,0,0,0,0,0,0,0,8610,0,0,0,0,0,0,0,0,0,0,0,0,0,0,0,0,0,0,971,972,972,972,972,972,
0,0,0,0,0,0,0,0,0,0,0,0,0,0,0,0,0,0,0,0,8610,0,0,0,0,0,0,0,0,0,0,0,0,0,0,0,0,0,0,971,972,972,972,972,972,
932,932,932,932,932,932,932,932,932,932,932,932,932,932,932,932,932,932,932,261,261,261,932,932,932,932,932,932,932,932,932,932,932,932,932,932,932,932,932,971,972,972,972,972,972,
261,261,261,261,261,261,261,261,261,261,261,261,261,261,261,261,261,261,261,261,261,261,261,261,261,261,261,261,261,261,261,261,261,261,261,261,261,261,261,971,972,972,972,972,972,
261,261,261,261,261,261,261,261,261,261,261,261,261,261,261,261,261,261,261,261,261,261,261,261,261,261,261,261,261,261,261,261,261,261,261,261,261,261,261,971,972,972,972,972,972,
261,261,261,261,261,261,261,261,261,261,261,261,261,261,261,261,261,261,261,261,261,261,261,261,261,261,261,261,261,261,261,261,261,261,261,261,261,261,261,971,972,972,972,972,972,
964,964,964,964,964,964,964,964,964,964,964,964,964,964,964,965,261,261,261,261,261,261,261,261,261,261,261,261,261,261,261,261,261,261,261,261,261,261,261,971,972,972,972,972,972,
972,972,972,972,972,972,972,972,972,972,972,972,972,972,972,973,261,261,261,261,261,261,261,261,261,261,261,261,261,261,261,261,261,261,261,261,261,261,261,971,972,972,972,972,972,
972,972,972,972,972,972,972,972,972,972,972,10193,972,972,972,973,261,261,261,261,261,261,261,261,261,261,261,261,261,261,261,261,261,261,261,261,261,261,261,971,972,972,972,972,972,
972,972,972,10193,10193,10193,10193,10193,10193,10193,10193,10193,10193,972,972,973,261,261,261,261,261,261,261,261,261,261,261,261,261,261,261,261,261,261,261,261,261,261,261,971,972,972,972,972,972,
972,972,972,10193,10193,10193,10193,10193,10193,10193,10193,10193,10193,972,972,973,261,261,261,261,261,261,261,261,261,261,261,261,261,261,261,261,261,261,261,261,261,261,261,971,972,972,972,972,972,
972,972,972,10193,10193,10193,10193,10193,10193,10193,10193,10193,10193,972,972,973,261,261,261,261,261,261,261,261,261,261,261,261,261,261,261,261,261,261,261,261,261,261,261,971,972,972,972,972,972,
972,972,972,10193,10193,10193,10193,10193,10193,10193,10193,10193,10193,972,972,973,261,261,261,261,261,261,261,261,261,261,261,261,261,261,261,261,261,261,261,261,261,261,261,971,972,972,972,972,972,
972,972,972,10193,10193,10193,10193,10193,10193,10193,10193,10193,10193,972,972,972,964,964,964,964,964,964,964,964,964,964,964,964,964,964,964,964,964,964,964,964,964,964,964,972,972,972,972,972,972,
972,972,972,10193,10193,10193,10193,10193,10193,10193,10193,10193,10193,972,972,972,972,972,972,972,972,972,972,972,972,373,373,972,972,972,972,972,972,972,972,972,972,972,972,972,972,972,972,972,972,
972,972,972,972,972,972,972,972,972,972,972,972,972,972,972,972,972,972,972,373,373,373,373,373,373,373,373,972,972,972,972,972,972,972,972,972,972,972,972,972,972,972,972,972,972,
972,972,972,972,972,972,972,972,972,972,972,972,972,972,972,972,972,972,972,373,373,373,373,373,373,373,373,972,972,972,972,972,972,972,972,972,972,972,972,972,972,972,972,972,972,
972,972,972,972,972,972,972,972,972,972,972,972,972,972,972,972,972,972,972,373,373,972,972,972,972,972,972,972,972,972,972,972,972,972,972,972,972,972,972,972,972,972,972,972,972
</data>
 </layer>
 <layer id="4" name="edifici" width="45" height="45">
  <data encoding="csv">
0,0,0,0,0,0,0,0,0,0,0,0,0,0,0,0,0,0,0,0,0,0,0,0,0,0,0,0,0,0,0,0,0,0,0,0,0,0,0,0,0,0,0,0,0,
0,0,0,0,0,0,0,0,0,0,0,0,0,0,0,0,0,0,0,0,0,0,0,0,0,0,0,0,0,0,0,0,0,0,0,0,0,0,0,0,0,0,0,0,0,
0,0,0,0,0,0,0,0,0,0,0,0,0,0,0,0,0,0,0,0,0,0,0,0,0,0,0,0,0,0,0,0,0,0,0,0,0,0,0,0,0,0,0,0,0,
0,0,0,0,0,0,0,0,0,0,0,0,0,0,0,0,0,0,0,0,0,0,0,0,0,0,0,0,0,0,0,0,0,0,0,0,0,0,0,0,0,0,0,0,0,
0,0,0,0,0,0,0,0,0,0,0,0,0,0,0,0,0,0,0,0,0,0,0,0,0,0,0,0,0,0,0,0,0,0,0,0,0,0,0,0,0,0,0,0,0,
0,0,0,0,0,0,0,0,0,0,0,0,0,0,0,0,0,0,0,0,0,0,0,0,0,0,0,0,0,0,0,0,0,0,0,0,0,0,0,0,0,0,0,0,0,
0,0,0,0,0,0,0,0,0,0,0,0,0,0,0,0,0,0,0,0,0,0,0,0,0,0,0,0,0,0,0,0,0,0,0,0,0,0,0,0,0,0,0,0,0,
0,0,0,0,0,0,0,0,0,0,0,0,0,0,0,0,0,0,0,0,0,0,0,0,0,0,0,0,0,0,0,0,0,0,0,0,0,0,0,0,0,0,0,0,0,
0,0,0,0,0,0,0,0,0,0,0,0,0,0,0,0,0,0,0,0,0,0,0,0,0,0,0,0,0,0,0,0,0,0,0,0,0,0,0,0,8011,8012,8013,8014,8015,
0,0,0,0,0,0,0,0,0,0,0,0,0,0,0,0,0,0,0,0,0,0,0,0,0,0,0,0,0,0,0,0,0,0,0,0,0,0,0,0,8099,8100,8101,8102,8103,
0,0,0,0,0,0,0,0,0,0,0,0,0,0,0,0,0,0,0,0,0,0,0,0,0,0,0,0,0,0,0,0,0,0,0,0,0,0,0,0,8187,8188,8189,8190,8191,
0,0,0,0,0,0,0,0,0,0,0,0,0,0,0,0,0,0,0,0,0,0,0,0,0,0,0,0,0,0,0,0,0,0,0,0,0,0,0,0,8275,8276,8277,8278,8279,
0,0,0,0,0,0,0,0,0,0,0,0,0,0,0,0,0,0,0,0,0,0,0,0,0,0,0,0,0,0,0,0,0,0,0,0,0,9147,9148,9149,8363,8364,8365,8366,8367,
0,0,0,0,0,0,0,0,0,0,0,0,0,0,0,0,0,0,0,0,0,0,0,0,0,0,0,0,0,0,0,0,0,0,0,0,0,9235,9236,9237,0,8803,8804,0,0,
0,0,0,0,0,0,0,0,0,0,0,0,0,0,0,0,0,0,0,0,0,0,0,0,0,0,0,0,0,0,0,0,0,0,0,0,0,9323,9324,9325,0,8803,8804,0,0,
0,0,0,0,0,0,0,0,0,0,0,0,0,0,0,0,0,0,0,0,0,0,0,0,0,0,0,0,0,0,0,0,0,0,0,0,0,0,0,0,0,8803,8804,0,0,
0,0,0,0,0,0,0,0,0,0,0,0,0,0,0,0,0,0,0,0,0,0,0,0,0,0,0,0,0,0,0,0,0,0,0,0,0,0,0,0,0,8803,8804,0,0,
0,0,0,0,0,0,0,0,0,0,0,0,0,0,0,0,0,0,0,0,0,0,0,0,0,0,0,0,0,0,0,0,0,0,0,0,0,0,0,0,0,8803,8804,0,0,
0,0,0,0,9147,9148,9149,0,0,0,0,0,0,0,0,0,0,0,0,0,0,0,0,0,0,0,0,0,0,0,0,0,0,0,0,0,0,0,0,0,0,868,869,0,519,
0,0,0,0,9235,9236,9237,0,0,0,0,0,0,0,0,0,0,0,0,0,0,0,0,0,0,0,0,0,0,0,0,0,0,0,0,0,0,0,0,0,0,0,519,520,527,
0,0,0,0,9323,9324,9325,0,0,0,0,0,0,0,0,0,0,0,0,0,0,0,0,0,0,0,0,0,0,0,0,0,0,0,0,0,0,0,0,0,0,0,527,528,535,
0,0,0,0,0,0,0,0,0,0,0,0,0,0,0,0,0,0,0,0,0,0,0,0,0,0,0,0,0,0,0,0,0,0,0,0,0,0,0,0,0,0,535,536,519,
0,0,0,0,0,0,0,0,0,0,0,0,0,0,0,0,0,0,0,0,0,0,0,0,0,0,0,0,0,0,0,0,0,0,0,0,0,0,0,0,0,0,519,520,527,
0,0,0,0,0,0,0,0,0,0,0,0,0,0,0,0,0,0,0,0,0,0,0,0,0,0,0,0,0,0,0,0,0,0,0,0,0,0,0,0,0,0,527,528,535,
0,0,0,0,0,0,0,0,0,0,0,0,0,0,0,0,0,0,0,0,0,0,0,0,0,0,0,0,0,0,0,0,0,0,0,0,0,0,0,0,0,0,535,536,519,
0,0,0,0,0,0,0,0,0,0,0,0,0,0,0,0,0,0,0,0,0,0,0,0,0,0,0,0,0,0,0,0,0,0,0,0,0,0,0,0,0,0,519,520,527,
0,0,0,0,0,0,0,0,0,0,0,0,0,0,0,0,0,0,0,0,0,0,0,0,0,0,0,0,0,0,0,0,0,0,0,0,0,0,0,0,0,0,527,528,535,
0,0,0,0,0,0,0,0,0,0,0,0,0,0,0,0,0,0,0,0,0,0,0,0,0,0,0,0,0,0,0,0,0,0,0,0,0,0,0,0,0,0,535,536,519,
0,0,0,0,0,0,0,0,0,0,0,0,0,0,0,0,0,0,0,0,0,0,0,0,0,0,0,0,0,0,0,0,0,0,0,0,0,0,0,0,0,0,519,520,527,
0,0,0,0,0,0,0,0,0,0,0,0,0,0,0,0,0,0,0,0,0,0,0,0,0,0,0,0,0,0,0,0,0,0,0,0,0,0,0,0,0,0,527,528,535,
0,539,540,541,105,105,105,105,105,105,105,105,105,105,105,0,0,0,0,0,0,0,0,0,0,0,0,0,0,0,0,0,0,0,0,0,539,540,541,0,0,0,535,536,519,
0,547,548,549,105,105,105,105,105,105,105,105,105,105,105,0,0,0,8181,8182,0,0,0,0,0,0,0,0,0,0,0,0,0,0,0,0,547,548,549,0,0,0,519,520,527,
0,555,556,557,105,105,105,105,105,105,105,105,105,105,105,0,0,8180,8269,8270,8180,0,0,0,0,0,0,0,0,8180,8185,8186,8180,0,8185,8186,555,556,557,0,0,0,527,528,535,
520,519,520,519,520,519,520,519,520,519,520,519,520,0,0,0,0,8268,8357,8358,8268,0,0,0,0,0,0,0,0,8268,8273,8274,8268,0,8273,8274,0,0,8179,0,0,0,535,536,519,
528,527,528,527,528,527,528,527,528,527,528,527,528,0,0,0,0,8356,8181,8182,8356,0,0,0,0,0,0,0,0,8356,8361,8362,8356,0,8361,8362,0,0,8267,0,0,0,519,520,527,
536,535,536,535,536,535,536,535,536,535,536,535,536,0,0,0,0,0,8269,8270,0,0,0,0,0,0,0,0,0,0,0,0,0,0,0,0,8185,8186,8355,0,0,0,527,528,535,
520,0,0,0,0,0,0,0,0,0,0,0,0,0,0,0,0,0,8357,8358,0,8181,8182,0,0,0,0,0,0,8179,8185,8186,0,0,0,0,8273,8274,0,0,0,0,535,536,519,
528,0,0,0,0,0,0,0,0,0,0,0,0,0,0,0,539,540,541,0,0,8269,8270,0,0,0,0,0,0,8267,8273,8274,0,0,0,0,8361,8362,0,0,0,0,519,520,527,
536,0,0,0,0,0,0,0,0,0,0,0,0,0,0,0,547,548,549,0,0,8357,8358,0,0,0,0,0,0,8355,8361,8362,0,0,0,0,0,0,0,0,0,0,527,528,535,
520,0,0,0,0,0,0,0,0,0,0,0,0,0,0,0,555,556,557,0,0,0,0,0,0,0,0,0,0,0,0,0,0,0,0,0,0,0,0,0,0,0,535,536,519,
528,0,0,0,0,0,0,0,0,0,0,0,0,0,0,0,0,0,0,0,0,0,0,0,0,868,869,0,0,0,0,0,0,0,0,0,0,0,0,0,0,0,519,520,527,
536,0,0,0,0,0,0,0,0,0,0,0,0,0,0,0,0,0,0,0,0,0,0,0,0,0,0,0,0,0,0,0,0,0,0,0,0,0,0,0,0,0,527,528,535,
520,519,520,519,520,519,520,519,520,519,520,519,520,519,520,0,0,0,0,0,0,0,0,0,0,0,0,0,0,519,520,519,520,519,520,519,520,519,520,519,520,0,535,536,519,
528,527,528,527,528,527,528,527,528,527,528,527,528,527,528,0,0,0,0,0,0,0,0,0,0,0,0,0,0,527,528,527,528,527,528,527,528,527,528,527,528,0,0,0,527,
536,535,536,535,536,535,536,535,536,535,536,535,536,535,536,0,0,0,0,0,0,0,0,0,0,0,0,0,0,535,536,535,536,535,536,535,536,535,536,535,536,0,0,0,535
</data>
 </layer>
 <layer id="6" name="sopra_testa" width="45" height="45">
  <data encoding="csv">
0,0,0,0,0,0,0,0,0,0,0,0,0,0,0,0,0,0,0,0,0,0,0,0,0,0,0,0,0,0,0,0,0,0,0,0,0,0,0,0,0,0,0,0,0,
0,0,0,0,0,0,0,0,0,0,0,0,0,0,0,0,0,0,0,0,0,0,0,0,0,0,0,0,0,0,0,0,0,0,0,0,0,0,0,0,0,0,0,0,0,
0,0,0,0,0,0,0,0,0,0,0,0,0,0,0,0,0,0,0,0,0,0,0,0,0,0,0,0,0,0,0,0,0,0,0,0,0,0,0,0,0,0,0,0,0,
0,0,0,0,0,0,0,0,0,0,0,0,0,0,0,0,0,0,0,0,0,0,0,0,0,0,0,0,0,0,0,0,0,0,0,0,0,0,0,0,0,0,0,0,0,
0,0,0,0,0,0,0,0,0,0,0,0,0,0,0,0,0,0,0,0,0,0,0,0,0,0,0,0,0,0,0,0,0,0,0,0,0,0,0,0,0,0,0,0,0,
0,0,0,0,0,0,0,0,0,0,0,0,0,0,0,0,0,0,0,0,0,0,0,0,0,0,0,0,0,0,0,0,0,0,0,0,0,0,0,0,0,0,0,0,0,
0,0,0,0,0,0,0,0,0,0,0,0,0,0,0,0,0,0,0,0,0,0,0,0,0,0,0,0,0,0,0,0,0,0,0,0,0,0,0,0,0,0,0,0,0,
0,0,0,0,0,0,0,0,0,0,0,0,0,0,0,0,0,0,0,0,0,0,0,0,0,0,0,0,0,0,0,0,0,0,0,0,0,0,0,0,0,0,0,0,0,
0,0,0,0,0,0,0,0,0,0,0,0,0,0,0,0,0,0,0,0,0,0,0,0,0,0,0,0,0,0,0,0,0,0,0,0,0,0,0,0,0,0,0,0,0,
0,0,0,0,0,0,0,0,0,0,0,0,0,0,0,0,0,0,0,0,0,0,0,0,0,0,0,0,0,0,0,0,0,0,0,0,0,0,0,0,0,0,0,0,0,
0,0,0,0,0,0,0,0,0,0,0,0,0,0,0,0,0,0,0,0,0,0,0,0,0,0,0,0,0,0,0,0,0,0,0,0,0,0,0,0,0,0,0,0,0,
0,0,0,0,0,0,0,0,0,0,0,0,0,0,0,0,0,0,0,0,0,0,0,0,0,0,0,0,0,0,0,0,0,0,0,0,0,0,0,0,0,0,0,0,0,
0,0,0,0,0,0,0,0,0,0,0,0,0,0,0,0,0,0,0,0,0,0,0,0,0,0,0,0,0,0,0,0,0,0,0,0,0,0,0,0,0,0,0,0,0,
0,0,0,0,0,0,0,0,0,0,0,0,0,0,0,0,0,0,0,0,0,0,0,0,0,0,0,0,0,0,0,0,0,0,0,0,0,0,0,0,0,0,0,0,0,
0,0,0,0,0,0,0,0,0,0,0,0,0,0,0,0,0,0,0,0,0,0,0,0,0,0,0,0,0,0,0,0,0,0,0,0,0,0,0,0,0,0,0,0,0,
0,0,0,0,0,0,0,0,0,0,0,0,0,0,0,0,0,0,0,0,0,0,0,0,0,0,0,0,0,0,0,0,0,0,0,0,0,0,0,0,0,0,0,0,0,
0,0,0,0,0,0,0,0,0,0,0,0,0,0,0,0,0,0,0,0,0,0,0,0,0,0,0,0,0,0,0,0,0,0,0,0,0,0,0,0,0,0,0,0,0,
0,0,0,0,0,0,0,0,0,0,0,0,0,0,0,0,0,0,0,0,0,0,0,0,0,0,0,0,0,0,0,0,0,0,0,0,0,0,0,0,0,0,0,0,0,
0,0,0,0,0,0,0,0,0,0,0,0,0,0,0,0,0,0,0,0,0,0,0,0,0,0,0,0,0,0,0,0,0,0,0,0,0,0,0,0,0,0,0,0,0,
0,0,0,0,0,0,0,0,0,0,0,0,0,0,0,0,0,0,0,0,0,0,0,0,0,0,0,0,0,0,0,0,0,0,0,0,0,0,0,0,0,0,0,0,0,
0,0,0,0,0,0,0,0,0,0,0,0,0,0,0,0,0,0,0,0,0,0,0,0,0,0,0,0,0,0,0,0,0,0,0,0,0,0,0,0,0,0,0,0,0,
0,0,0,0,0,0,0,0,0,0,0,0,0,0,0,0,0,0,0,0,0,0,0,0,0,0,0,0,0,0,0,0,0,0,0,0,0,0,0,0,0,0,0,0,0,
0,0,0,0,0,0,0,0,0,0,0,0,0,0,0,0,0,0,0,0,0,0,0,0,0,0,0,0,0,0,0,0,0,0,0,0,0,0,0,0,0,0,0,0,0,
0,0,0,0,0,0,0,0,0,0,0,0,0,0,0,0,0,0,0,0,0,0,0,0,0,0,0,0,0,0,0,0,0,0,0,0,0,0,0,0,0,0,0,0,0,
0,0,0,0,0,0,0,0,0,0,0,0,0,0,0,0,0,0,0,0,0,0,0,0,0,0,0,0,0,0,0,0,0,0,0,0,0,0,0,0,0,0,0,0,0,
0,0,0,0,0,0,0,0,0,0,0,0,0,0,0,0,0,0,0,0,0,0,0,0,0,0,0,0,0,0,0,0,0,0,0,0,0,0,0,0,0,0,0,0,0,
0,0,0,0,0,0,0,0,0,0,0,0,0,0,0,0,0,0,0,0,0,0,0,0,0,0,0,0,0,0,0,0,0,0,0,0,0,0,0,0,0,0,0,0,0,
0,0,0,0,0,0,0,0,0,0,0,0,0,0,0,0,0,0,0,0,0,0,0,0,0,0,0,0,0,0,0,0,0,0,0,0,0,0,0,0,0,0,0,0,0,
0,0,0,0,0,0,0,0,0,0,0,0,0,0,0,0,0,0,0,0,0,0,0,0,0,0,0,0,0,0,0,0,0,0,0,0,0,0,0,0,0,0,0,0,0,
0,0,0,0,0,0,0,0,0,0,0,0,0,0,0,0,0,0,0,0,0,0,0,0,0,0,0,0,0,0,0,0,0,0,0,0,0,0,0,0,0,0,0,0,0,
0,0,0,0,0,0,0,0,0,0,0,0,0,0,0,0,0,0,0,0,0,0,0,0,0,0,0,0,0,0,0,0,0,0,0,0,0,0,0,0,0,0,0,0,0,
0,0,0,0,0,0,0,0,0,0,0,0,0,0,0,0,0,0,0,0,0,0,0,0,0,0,0,0,0,0,0,0,0,0,0,0,0,0,0,0,0,0,0,0,0,
0,0,0,0,0,0,0,0,0,0,0,0,0,0,0,0,0,0,0,0,0,0,0,0,0,0,0,0,0,0,0,0,0,0,0,0,0,0,0,0,0,0,0,0,0,
0,0,0,0,0,0,0,0,0,0,0,0,0,0,0,0,0,0,0,0,0,0,0,0,0,0,0,0,0,0,0,0,0,0,0,0,0,0,0,0,0,0,0,0,0,
0,0,0,0,0,0,0,0,0,0,0,0,0,0,0,0,0,0,0,0,0,0,0,0,0,0,0,0,0,0,0,0,0,0,0,0,0,0,0,0,0,0,0,0,0,
0,0,0,0,0,0,0,0,0,0,0,0,0,0,0,0,0,0,0,0,0,0,0,0,0,0,0,0,0,0,0,0,0,0,0,0,0,0,0,0,0,0,0,0,0,
0,0,0,0,0,0,0,0,0,0,0,0,0,0,0,0,0,0,0,0,0,0,0,0,0,0,0,0,0,0,0,0,0,0,0,0,0,0,0,0,0,0,0,0,0,
0,0,0,0,0,0,0,0,0,0,0,0,0,0,0,0,0,0,0,0,0,0,0,0,0,0,0,0,0,0,0,0,0,0,0,0,0,0,0,0,0,0,0,0,0,
0,0,0,0,0,0,0,0,0,0,0,0,0,0,0,0,0,0,0,0,0,0,0,0,0,0,0,0,0,0,0,0,0,0,0,0,0,0,0,0,0,0,0,0,0,
0,0,0,0,0,0,0,0,0,0,0,0,0,0,0,0,0,0,0,0,0,0,0,0,0,0,0,0,0,0,0,0,0,0,0,0,0,0,0,0,0,0,0,0,0,
0,0,0,0,0,0,0,0,0,0,0,0,0,0,0,0,0,0,0,0,0,0,0,0,0,0,0,0,0,0,0,0,0,0,0,0,0,0,0,0,0,0,0,0,0,
0,0,0,0,0,0,0,0,0,0,0,0,0,0,0,0,0,0,0,0,0,0,0,0,0,0,0,0,0,0,0,0,0,0,0,0,0,0,0,0,0,0,0,0,0,
0,0,0,0,0,0,0,0,0,0,0,0,0,0,0,0,0,0,0,0,0,0,0,0,0,0,0,0,0,0,0,0,0,0,0,0,0,0,0,0,0,0,519,520,0,
0,0,0,0,0,0,0,0,0,0,0,0,0,0,0,0,0,0,0,0,0,0,0,0,0,0,0,0,0,0,0,0,0,0,0,0,0,0,0,0,0,0,527,528,0,
0,0,0,0,0,0,0,0,0,0,0,0,0,0,0,0,0,0,0,0,0,0,0,0,0,0,0,0,0,0,0,0,0,0,0,0,0,0,0,0,0,0,535,536,0
</data>
 </layer>
 <objectgroup id="5" name="collisioni">
  <object id="1" x="453.179" y="0" width="820.547" height="57.8035"/>
  <object id="2" x="1391.91" y="13.8728" width="46.2428" height="1424.28"/>
  <object id="3" x="1361.85" y="624.277" width="70.1373" height="809.32"/>
  <object id="4" x="941.04" y="1368.79" width="349.133" height="62.8676"/>
  <object id="5" x="0" y="1359.54" width="439.306" height="71.6763"/>
  <object id="6" x="-2.31214" y="1070.52" width="13.8728" height="293.642"/>
  <object id="7" x="43.9306" y="1075.14" width="353.757" height="41.6185"/>
  <object id="8" x="57.8035" y="980.347" width="34.6821" height="73.9884"/>
  <object id="9" x="541.04" y="1202.31" width="32.3699" height="67.052"/>
  <object id="10" x="1181.5" y="984.971" width="30.0578" height="55.4913"/>
  <object id="11" x="1225.43" y="1082.08" width="13.8728" height="34.6821"/>
  <object id="12" x="1192.36" y="405.069" width="74.7819" height="170.337"/>
  <object id="13" x="77.1803" y="337.021" width="36.0175" height="28.2995"/>
  <object id="14" x="146.643" y="406.483" width="30.8721" height="23.1541"/>
  <object id="15" x="79.753" y="469.514" width="30.8721" height="23.1541"/>
  <object id="16" x="306.149" y="276.563" width="30.8721" height="23.1541"/>
  <object id="17" x="563.417" y="147.929" width="30.8721" height="23.1541"/>
  <object id="18" x="1039.36" y="86.1847" width="30.8721" height="23.1541"/>
  <object id="19" x="1327.5" y="214.819" width="30.8721" height="23.1541"/>
  <object id="21" x="591.716" y="1126.83" width="33.4448" height="36.0175"/>
  <object id="22" x="648.315" y="1062.52" width="12.8634" height="33.4448"/>
  <object id="23" x="553.126" y="1057.37" width="10.2907" height="43.7355"/>
  <object id="24" x="596.861" y="1031.64" width="25.7268" height="38.5902"/>
  <object id="25" x="686.905" y="1186" width="25.7268" height="48.8809"/>
  <object id="26" x="941.6" y="1175.71" width="7.71803" height="46.3082"/>
  <object id="27" x="977.618" y="1183.43" width="28.2995" height="46.3082"/>
  <object id="28" x="980.19" y="1054.8" width="25.7268" height="48.8809"/>
  <object id="29" x="1034.22" y="1049.65" width="10.2907" height="38.5902"/>
  <object id="30" x="936.455" y="1047.08" width="12.8634" height="51.4536"/>
  <object id="31" x="1108.82" y="1052.23" width="20.5814" height="51.4536"/>
  <object id="32" x="1173.14" y="1155.13" width="23.1541" height="48.8809"/>
  <object id="33" x="149.215" y="607.152" width="59.1716" height="38.5902"/>
  <object id="36" x="5.14536" y="231.541" width="10.2907" height="481.091"/>
  <object id="37" x="7.71803" y="818.112" width="10.2907" height="97.7618"/>
  <object id="38" x="2.57268" y="725.495" width="12.8634" height="100.334"/>
  <object id="39" x="236.686" y="7.71803" width="213.532" height="7.71803"/>
  <object id="70" x="3.88664" y="1061.05" width="494.575" height="14.5749"/>
  <object id="71" x="487.773" y="1070.77" width="3.88664" height="207.935"/>
  <object id="72" x="495.547" y="1273.85" width="296.356" height="7.77328"/>
  <object id="73" x="869.636" y="1276.76" width="389.636" height="8.74494"/>
  <object id="74" x="1258.3" y="584.939" width="8.74494" height="693.765"/>
  <object id="75" x="1265.1" y="581.053" width="33.0364" height="7.77328"/>
  <object id="76" x="1392.39" y="577.166" width="40.8097" height="10.6883"/>
 </objectgroup>
 <objectgroup id="2" name="eventi">
  <object id="40" name="warplago__albano" type="warp" x="610.018" y="1442.64" width="32" height="60.1813" rotation="269.423">
   <properties>
    <property name="destinazione" value="percorso 4"/>
    <property name="type" value="warp"/>
   </properties>
  </object>
  <object id="41" name="spawn_da_percorso4" type="spawn" x="622.758" y="1358.61" width="32" height="32">
   <properties>
    <property name="spawn_id" value="spawn_da_percorso 4"/>
    <property name="type" value="spawn"/>
   </properties>
  </object>
  <object id="42" name="warp_lago" type="warp" x="1239.42" y="3.57781" width="201.979" height="15.7279">
   <properties>
    <property name="destinazione" value="lago_castel gandolfo"/>
    <property name="required_hm" value="surf"/>
    <property name="spawn_id" value="spawn_da_lago_albano"/>
    <property name="type" value="warp"/>
   </properties>
  </object>
  <object id="43" name="spawn_dal_lago" type="spawn" x="1317.25" y="37.0506" width="32" height="32">
   <properties>
    <property name="spawn_id" value="spawn_da castel gandolfo"/>
    <property name="type" value="spawn"/>
   </properties>
  </object>
  <object id="45" name="warp_interno_lago" type="warp" x="215.21" y="2.09593" width="14.5102" height="214.655" rotation="89.8621">
   <properties>
    <property name="destinazione" value="interno lago"/>
    <property name="type" value="warp"/>
   </properties>
  </object>
  <object id="46" name="spawn_da_interno_lago" type="spawn" x="57.1765" y="55.1045" width="32" height="32" rotation="179.397">
   <properties>
    <property name="spawn_id" value="spawn_da_percorso 4"/>
    <property name="type" value="spawn"/>
   </properties>
  </object>
  <object id="47" name="warp_interno_lago" type="warp" x="2.02882" y="15.4052" width="14.5102" height="214.655" rotation="359.72">
   <properties>
    <property name="destinazione" value="interno lago"/>
    <property name="type" value="warp"/>
   </properties>
  </object>
  <object id="49" name="erba alta lago di albano" x="106.101" y="1162.34" width="295.975" height="163.745">
   <properties>
    <property name="id" value="incontri lago di albano spiaggia"/>
    <property name="type" value="erba_alta"/>
   </properties>
  </object>
  <object id="50" name="erba alta lago di albano" x="142.053" y="968.978" width="324.153" height="78.2391">
   <properties>
    <property name="id" value="incontri lago di albano spiaggia"/>
    <property name="type" value="erba_alta"/>
   </properties>
  </object>
  <object id="51" name="acqua_lago di albano_surf" type="acqua_surf" x="9.20613" y="61.2538" width="859.968" height="600.407">
   <properties>
    <property name="id" value="acqua_lago di albano_surf"/>
    <property name="type" value="acqua surf"/>
   </properties>
  </object>
  <object id="52" name="acqua_lago di albano_surf" type="acqua_surf" x="4.83229" y="14.6141" width="442.157" height="40.7313">
   <properties>
    <property name="id" value="acqua_lago di albano_surf"/>
    <property name="type" value="acqua surf"/>
   </properties>
  </object>
  <object id="53" name="acqua_lago di albano_surf" type="acqua_surf" x="1267.99" y="-1.90411" width="103.048" height="276.845">
   <properties>
    <property name="id" value="acqua_lago di albano_surf"/>
    <property name="type" value="acqua surf"/>
   </properties>
  </object>
  <object id="54" name="acqua_lago di albano_surf" type="acqua_surf" x="128.233" y="718.096" width="447.987" height="203.97">
   <properties>
    <property name="id" value="acqua_lago di albano_surf"/>
    <property name="type" value="acqua surf"/>
   </properties>
  </object>
  <object id="55" name="acqua_lago di albano_surf" type="acqua_surf" x="705.885" y="710.809" width="538.352" height="208.828">
   <properties>
    <property name="id" value="acqua_lago di albano_surf"/>
    <property name="type" value="acqua surf"/>
   </properties>
  </object>
  <object id="57" name="acqua_lago di albano_surf" type="acqua_surf" x="33.4964" y="755.019" width="73.8979" height="153.444">
   <properties>
    <property name="id" value="acqua_lago di albano_surf"/>
    <property name="type" value="acqua surf"/>
   </properties>
  </object>
  <object id="58" name="acqua_lago di albano_surf" type="acqua_surf" x="681.108" y="813.318" width="73.8979" height="110.691">
   <properties>
    <property name="id" value="acqua_lago di albano_surf"/>
    <property name="type" value="acqua surf"/>
   </properties>
  </object>
  <object id="59" name="acqua_lago di albano_surf" type="acqua_surf" x="528.557" y="615.1" width="73.8979" height="110.691">
   <properties>
    <property name="id" value="acqua_lago di albano_surf"/>
    <property name="type" value="acqua surf"/>
   </properties>
  </object>
  <object id="60" name="acqua_lago di albano_surf" type="acqua_surf" x="530.5" y="768.622" width="73.8979" height="110.691">
   <properties>
    <property name="id" value="acqua_lago di albano_surf"/>
    <property name="type" value="acqua surf"/>
   </properties>
  </object>
  <object id="61" name="acqua_lago di albano_surf" type="acqua_surf" x="684.023" y="613.157" width="73.8979" height="110.691">
   <properties>
    <property name="id" value="acqua_lago di albano_surf"/>
    <property name="type" value="acqua surf"/>
   </properties>
  </object>
  <object id="62" name="acqua_lago di albano_surf" type="acqua_surf" x="879.814" y="486.841" width="298.349" height="206.885">
   <properties>
    <property name="id" value="acqua_lago di albano_surf"/>
    <property name="type" value="acqua surf"/>
   </properties>
  </object>
  <object id="63" name="acqua_lago di albano_surf" type="acqua_surf" x="990.583" y="151.132" width="181.75" height="310.853">
   <properties>
    <property name="id" value="acqua_lago di albano_surf"/>
    <property name="type" value="acqua surf"/>
   </properties>
  </object>
  <object id="64" name="acqua_lago di albano_surf" type="acqua_surf" x="883.7" y="82.6302" width="99.1589" height="261.298">
   <properties>
    <property name="id" value="acqua_lago di albano_surf"/>
    <property name="type" value="acqua surf"/>
   </properties>
  </object>
  <object id="65" name="acqua_lago di albano_surf" type="acqua_surf" x="1107.67" y="82.1445" width="158.43" height="290.448">
   <properties>
    <property name="id" value="acqua_lago di albano_surf"/>
    <property name="type" value="acqua surf"/>
   </properties>
  </object>
  <object id="66" name="acqua_lago di albano_surf" type="acqua_surf" x="1180.06" y="578.663" width="60.2923" height="125.266">
   <properties>
    <property name="id" value="acqua_lago di albano_surf"/>
    <property name="type" value="acqua surf"/>
   </properties>
  </object>
  <object id="67" name="acqua_lago di albano_surf" type="acqua_surf" x="1279.65" y="430.97" width="22.3976" height="125.266">
   <properties>
    <property name="id" value="acqua_lago di albano_surf"/>
    <property name="type" value="acqua surf"/>
   </properties>
  </object>
  <object id="68" name="acqua_lago di albano_surf" type="acqua_surf" x="777.789" y="666.112" width="87.4988" height="32.9583">
   <properties>
    <property name="id" value="acqua_lago di albano_surf"/>
    <property name="type" value="acqua surf"/>
   </properties>
  </object>
  <object id="69" name="acqua_lago di albano_surf" type="acqua_surf" x="129.206" y="665.626" width="625.798" height="32.9583">
   <properties>
    <property name="id" value="acqua_lago di albano_surf"/>
    <property name="type" value="acqua surf"/>
   </properties>
  </object>
 </objectgroup>
</map>
