<?xml version="1.0" encoding="UTF-8"?>
<map version="1.10" tiledversion="1.12.2" orientation="orthogonal" renderorder="right-down" width="25" height="30" tilewidth="32" tileheight="32" infinite="0" nextlayerid="6" nextobjectid="26">
 <editorsettings>
  <export target="Osservatorio.tmj" format="json"/>
 </editorsettings>
 <tileset firstgid="1" source="../outside.tsx"/>
 <tileset firstgid="4017" source="../../outside.tsx"/>
 <layer id="3" name="ground" width="25" height="30">
  <data encoding="csv">
107,107,107,107,107,107,107,107,107,107,107,107,107,107,107,107,107,107,107,107,107,107,107,107,107,
107,107,107,107,107,107,107,107,107,107,107,107,107,107,107,107,107,107,107,107,107,107,107,107,107,
107,107,107,107,107,107,107,107,107,107,107,107,107,107,107,107,107,107,107,107,107,107,107,107,107,
107,107,107,107,107,107,107,107,107,107,107,107,107,107,107,107,107,107,107,107,107,107,107,107,107,
107,107,107,107,107,107,107,107,107,107,107,107,107,107,107,107,107,107,107,107,107,107,107,107,107,
107,107,107,107,107,107,107,107,107,107,107,107,107,107,107,107,107,107,107,107,107,107,107,107,107,
107,107,107,107,107,107,107,107,107,107,107,107,107,107,107,107,107,107,107,107,107,107,107,107,107,
107,107,107,107,107,107,107,107,107,107,107,107,107,107,107,107,107,107,107,107,107,107,107,107,107,
107,107,107,107,107,107,107,107,107,107,107,107,107,107,107,107,107,107,107,107,107,107,107,107,107,
107,107,107,107,107,107,107,107,107,107,107,107,107,107,107,107,107,107,107,107,107,107,107,107,107,
107,107,107,107,107,107,107,107,107,107,107,107,107,107,107,107,107,107,107,107,107,107,107,107,107,
107,107,107,107,107,107,107,107,107,107,107,107,107,107,107,107,107,107,107,107,107,107,107,107,107,
107,107,107,107,107,107,107,107,107,107,107,107,107,107,107,107,107,107,107,107,107,107,107,107,107,
107,107,107,107,107,107,107,107,107,107,107,107,107,107,107,107,107,107,107,107,107,107,107,107,107,
107,107,107,107,107,107,107,107,107,107,107,107,107,107,107,107,107,107,107,107,107,107,107,107,107,
107,107,107,107,107,107,107,107,107,107,107,107,107,107,107,107,107,107,107,107,107,107,107,107,107,
107,107,107,107,107,107,107,107,107,107,107,107,107,107,107,107,107,107,107,107,107,107,107,107,107,
107,107,107,107,107,107,107,107,107,107,107,107,107,107,107,107,107,107,107,107,107,107,107,107,107,
107,107,107,107,107,107,107,107,107,107,107,107,107,107,107,107,107,107,107,107,107,107,107,107,107,
107,107,107,107,107,107,107,107,107,107,107,107,107,107,107,107,107,107,107,107,107,107,107,107,107,
107,107,107,107,107,107,107,107,107,107,107,107,107,107,107,107,107,107,107,107,107,107,107,107,107,
107,107,107,107,107,107,107,107,107,107,107,107,107,107,107,107,107,107,107,107,107,107,107,107,107,
107,107,107,107,107,107,107,107,107,107,107,107,107,107,107,107,107,107,107,107,107,107,107,107,107,
107,714,714,714,107,107,107,107,107,107,107,107,107,107,107,107,107,107,107,107,107,107,107,107,107,
107,714,714,714,107,107,107,107,107,107,107,107,107,107,107,107,107,107,107,107,107,107,107,107,107,
107,714,714,714,107,107,107,107,107,107,107,107,107,107,107,107,107,107,107,107,107,107,107,107,107,
107,107,107,107,107,107,107,107,107,107,107,107,107,107,107,107,107,107,107,107,107,107,107,107,107,
107,107,107,107,107,107,107,107,107,107,107,107,107,107,107,107,107,107,107,107,107,107,107,107,107,
107,107,107,107,107,107,107,107,107,107,107,107,107,107,107,107,107,107,107,107,107,107,107,107,107,
107,107,107,107,107,107,107,107,107,107,107,107,107,107,107,107,107,107,107,107,107,107,107,107,107
</data>
 </layer>
 <layer id="2" name="deco_sotto" width="25" height="30">
  <data encoding="csv">
0,0,0,793,793,788,786,786,786,786,786,786,786,786,786,786,786,786,786,790,795,795,7,7,7,
0,0,0,793,793,793,788,786,786,786,786,786,786,786,786,786,786,786,790,795,795,795,7,107,7,
0,0,0,793,793,793,793,788,842,842,842,842,842,842,842,842,842,790,795,795,795,795,107,107,107,
0,0,0,793,793,793,793,793,0,0,0,0,0,0,0,0,0,795,795,795,795,795,7,107,7,
0,0,0,793,793,793,793,793,0,0,0,0,0,0,0,0,0,795,795,795,795,795,7,7,7,
0,0,0,793,793,793,793,793,0,0,0,0,0,0,0,0,0,795,795,795,795,795,7,7,7,
0,0,0,793,793,793,793,793,0,0,0,0,0,0,0,0,0,795,795,795,795,795,7,7,7,
0,0,0,793,793,793,793,793,0,0,0,0,0,0,0,0,0,795,795,795,795,795,7,7,7,
0,0,0,793,793,793,793,793,0,0,0,0,0,0,0,0,0,795,795,795,795,795,7,7,7,
0,0,0,793,793,793,793,793,0,0,0,0,0,0,0,0,0,795,795,795,795,795,7,7,7,
0,0,0,793,793,793,793,793,0,0,0,0,0,0,0,0,0,795,795,795,795,795,7,7,7,
0,0,0,793,793,793,793,793,0,0,0,0,0,0,0,0,0,795,795,795,795,795,7,7,7,
0,0,0,793,793,793,793,793,0,0,0,0,0,0,0,0,0,795,795,795,795,795,7,7,7,
0,0,0,793,793,793,793,793,0,0,0,0,0,0,0,0,0,795,795,795,795,795,7,7,7,
0,0,0,793,793,793,793,793,0,0,0,0,0,0,0,0,0,795,795,795,795,795,7,7,7,
0,0,0,793,793,793,793,801,805,805,805,778,779,779,805,805,805,803,795,795,795,795,7,7,7,
617,618,619,793,793,793,801,805,805,805,805,778,779,779,805,805,805,805,803,795,795,795,7,7,7,
625,626,627,793,793,801,805,805,805,805,805,778,779,779,805,805,805,805,805,803,795,795,7,7,7,
0,0,0,793,801,805,805,805,805,805,805,778,779,779,805,805,805,805,805,805,803,795,7,7,7,
0,0,0,801,805,805,805,805,805,805,805,778,779,779,805,805,805,805,805,805,805,803,7,7,7,
0,0,0,0,0,0,0,0,0,0,0,0,0,0,0,0,0,0,0,0,0,0,0,0,0,
617,618,619,0,0,0,0,0,0,0,0,0,0,0,0,0,617,618,619,0,0,617,618,619,0,
625,626,627,0,0,0,0,0,0,0,0,0,0,0,0,0,625,626,627,0,0,625,626,627,0,
0,742,743,744,0,0,0,0,0,0,0,0,0,0,0,0,0,0,0,0,617,618,619,0,0,
0,750,714,752,0,0,0,0,0,0,0,0,0,0,0,0,0,0,0,0,625,626,627,0,0,
0,758,759,760,0,0,0,0,0,0,0,0,0,0,0,0,0,0,0,0,0,0,0,0,0,
0,0,0,0,0,0,0,0,0,0,0,0,0,0,0,0,0,0,0,617,618,619,0,0,0,
0,0,0,0,0,0,0,0,0,0,0,0,0,0,0,0,0,0,0,625,626,627,0,0,0,
0,0,0,617,618,619,0,0,0,0,0,0,0,0,0,0,617,618,619,0,0,0,0,0,0,
0,0,0,625,626,627,0,0,0,0,0,0,0,0,0,0,625,626,627,0,0,0,0,0,0
</data>
 </layer>
 <layer id="1" name="edifici" width="25" height="30">
  <data encoding="csv">
0,533,0,0,0,0,0,0,0,0,0,0,0,0,0,0,0,0,0,0,0,0,0,0,0,
540,541,542,0,0,0,0,0,0,0,0,3451,3452,3453,0,0,0,0,0,0,0,0,0,0,0,
548,549,550,0,0,0,0,0,0,3457,3458,3459,3460,3461,3462,3463,0,0,0,0,0,0,0,0,0,
556,557,558,0,0,0,0,0,0,3465,3466,3467,3468,3469,3470,3471,0,0,0,0,0,0,0,0,0,
0,533,0,0,0,0,0,0,0,3473,3474,3475,3476,3477,3478,3479,0,0,0,0,0,0,0,0,0,
540,541,542,0,0,0,0,0,0,3481,3482,3483,3484,3485,3486,3487,0,0,0,0,0,0,0,0,0,
548,549,550,0,0,0,0,0,0,3489,3490,3491,3492,3493,3494,3495,0,0,0,0,0,0,0,0,0,
556,557,558,0,0,0,0,0,0,3497,3498,3499,3500,3501,3502,3503,0,0,0,0,0,0,0,0,0,
0,533,0,0,0,0,0,0,0,3505,3506,3507,3508,3509,3510,3511,0,0,0,0,0,0,0,0,0,
540,541,542,0,0,0,0,0,0,3513,3514,3515,3516,3517,3518,3519,0,0,0,0,0,0,0,0,0,
548,549,550,0,0,0,0,0,0,3521,3522,3523,3524,3525,3526,3527,0,0,0,0,0,0,0,0,0,
556,557,558,0,0,0,0,0,0,3529,3530,3531,3532,3533,3534,3535,0,0,0,0,0,0,0,0,0,
0,533,0,0,0,0,0,0,0,3537,3538,3539,3540,3541,3542,3543,0,0,0,0,0,0,0,0,0,
540,541,542,0,0,0,0,0,0,3545,3546,3547,3548,3549,3550,3551,0,0,0,0,0,0,0,0,0,
548,549,550,0,0,0,0,0,0,0,0,0,0,0,0,0,0,0,0,0,0,0,0,0,0,
556,557,558,0,0,0,0,0,0,0,0,0,0,0,0,0,0,0,0,0,0,0,0,0,0,
0,0,0,0,0,0,0,0,0,0,0,0,0,0,0,0,0,0,0,0,0,0,0,0,0,
0,533,0,0,0,0,0,0,0,0,0,0,0,0,0,0,0,0,0,0,0,0,0,0,0,
540,541,542,0,0,0,0,0,0,0,0,0,0,0,0,0,0,0,0,0,0,0,0,0,0,
548,549,550,0,0,0,0,0,0,0,0,0,0,0,0,0,0,0,0,0,0,0,0,0,0,
556,557,558,0,98,99,123,123,123,123,123,115,115,116,816,0,0,0,0,0,0,0,0,0,0,
0,0,0,0,106,108,816,816,816,816,816,816,816,816,816,0,0,0,0,0,0,0,0,0,0,
0,0,0,0,106,117,99,99,99,99,99,99,99,99,99,99,99,99,99,99,100,0,0,533,0,
0,0,0,0,114,115,115,115,115,115,115,115,115,115,115,115,115,115,115,103,108,0,540,541,542,
0,0,0,0,785,786,786,786,786,786,786,786,786,786,786,786,786,786,787,106,108,0,548,549,550,
0,0,0,0,793,794,794,794,794,794,794,794,794,794,794,794,794,794,795,106,108,0,556,557,558,
0,533,0,0,801,802,802,802,802,802,802,802,802,802,802,802,802,802,803,106,108,0,0,533,0,
540,541,542,0,98,99,99,99,99,99,99,99,99,99,99,99,99,99,99,0,108,0,540,541,542,
548,549,550,0,106,101,115,115,115,115,115,115,115,115,115,115,115,115,115,115,116,0,548,549,550,
556,557,558,0,106,108,4832,4832,4832,0,4832,4832,4832,0,4832,0,0,4832,0,0,4832,0,556,557,558
</data>
 </layer>
 <objectgroup id="4" name="collisioni">
  <object id="1" x="1.28077" y="2.56154" width="238.223" height="625.015"/>
  <object id="2" x="548.016" y="3.23887" width="150.283" height="635.466"/>
  <object id="3" x="237.733" y="5.18219" width="325.83" height="53.7652"/>
  <object id="4" x="242.267" y="490.364" width="97.166" height="140.567"/>
  <object id="5" x="461.215" y="487.126" width="84.2105" height="141.215"/>
  <object id="6" x="457.328" y="640.648" width="9.7166" height="45.9919"/>
  <object id="7" x="209.231" y="685.992" width="257.166" height="7.12551"/>
  <object id="8" x="11.0121" y="858.947" width="68.0162" height="77.085"/>
  <object id="9" x="720.324" y="730.688" width="60.2429" height="79.6761"/>
  <object id="10" x="724.858" y="867.368" width="55.7085" height="69.9595"/>
  <object id="11" x="132.794" y="778.623" width="454.089" height="72.5506"/>
  <object id="17" x="301.215" y="73.8462" width="68.0162" height="369.231"/>
  <object id="18" x="428.502" y="73.1983" width="68.0162" height="369.231"/>
  <object id="19" x="366.964" y="34.9796" width="68.0162" height="369.231"/>
  <object id="20" x="198.219" y="930.202" width="78.3806" height="23.9676"/>
  <object id="21" x="330.688" y="933.765" width="78.3806" height="23.9676"/>
  <object id="22" x="652.632" y="935.061" width="12.9555" height="23.9676"/>
  <object id="23" x="554.494" y="937.004" width="12.9555" height="23.9676"/>
  <object id="24" x="456.032" y="936.356" width="12.9555" height="23.9676"/>
 </objectgroup>
 <objectgroup id="5" name="eventi">
  <object id="12" name="warp" type="warp" x="129.144" y="938.966" width="60.502" height="21.6356">
   <properties>
    <property name="destinazione" value="monteporzio"/>
    <property name="spawn_id" value="da_monteporzio"/>
    <property name="type" value="warp"/>
   </properties>
  </object>
  <object id="14" name="warp" type="warp" x="383.879" y="412.446" width="32" height="32">
   <properties>
    <property name="destinazione" value="osservatorio_interno"/>
    <property name="spawn_id" value="entrata_principale"/>
    <property name="type" value="warp"/>
   </properties>
  </object>
  <object id="15" name="spawn" type="spawn" x="145.125" y="889.5" width="32" height="32">
   <properties>
    <property name="id" value="da_monteporzio"/>
    <property name="type" value="spawn"/>
   </properties>
  </object>
  <object id="16" name="spawn" type="spawn" x="385.652" y="454.136" width="29.3333" height="28">
   <properties>
    <property name="id" value="da osservatorio_interno"/>
    <property name="type" value="spawn"/>
   </properties>
  </object>
  <object id="25" name="erba monteporzio" x="710.798" y="118.775" width="83.1817" height="510.628">
   <properties>
    <property name="id" value="incontri monteporzio"/>
    <property name="type" value="erba_alta"/>
   </properties>
  </object>
 </objectgroup>
</map>
