<?xml version="1.0" encoding="UTF-8"?>
<map version="1.10" tiledversion="1.12.2" orientation="orthogonal" renderorder="right-down" width="40" height="60" tilewidth="32" tileheight="32" infinite="0" nextlayerid="6" nextobjectid="22">
 <tileset firstgid="1" source="../../outside.tsx"/>
 <layer id="1" name="ground" width="40" height="60">
  <data encoding="csv">
785,786,786,786,786,786,786,786,786,786,786,786,786,786,786,786,786,786,786,786,786,786,154,155,156,786,786,786,786,786,786,786,786,786,786,786,786,786,786,787,
793,794,794,794,794,794,794,794,794,794,794,794,794,794,794,794,794,794,794,794,794,794,162,163,164,794,794,794,794,794,794,794,794,794,794,794,794,794,794,795,
793,794,794,794,794,794,794,794,794,794,794,794,794,794,794,794,794,794,794,794,794,794,162,163,164,794,794,794,794,794,794,794,794,794,794,794,794,794,794,795,
793,794,794,794,794,794,794,794,794,794,794,794,794,794,794,794,794,794,794,794,794,794,162,163,164,794,794,794,794,794,788,789,789,789,789,789,789,789,789,790,
793,794,794,794,794,794,794,794,794,794,794,794,794,794,794,794,794,794,794,794,794,794,162,163,164,794,794,794,794,794,796,797,797,797,797,797,797,797,797,798,
793,794,794,794,794,794,794,794,794,794,794,794,794,794,794,794,794,794,794,794,794,794,162,163,164,794,794,794,794,794,796,797,797,797,797,797,797,797,797,798,
793,794,794,794,794,794,794,794,794,794,794,794,794,794,794,794,794,794,794,794,794,794,162,163,164,794,794,794,794,794,796,797,797,797,797,797,797,797,797,798,
793,794,794,794,794,794,794,794,794,794,794,794,794,794,794,794,794,794,794,794,794,794,162,163,164,794,794,794,794,794,796,797,797,797,797,797,797,797,797,798,
793,794,794,794,794,794,794,794,794,794,794,794,794,794,794,794,794,794,794,794,794,794,162,163,164,794,794,794,794,794,796,797,797,797,797,797,797,797,797,798,
793,794,794,794,794,794,794,794,794,794,794,794,794,794,794,794,794,794,794,794,794,794,162,163,164,794,794,794,794,794,796,797,797,797,797,797,797,797,797,798,
793,794,794,794,794,794,794,794,794,794,794,794,794,794,794,794,794,794,794,794,794,794,162,163,164,794,794,794,794,794,796,797,797,794,797,797,797,797,797,798,
793,794,794,794,794,794,794,794,794,794,794,794,794,794,794,794,794,794,794,794,794,794,162,163,164,794,794,794,794,794,804,805,805,770,805,805,805,805,805,806,
793,794,794,794,794,794,794,794,794,794,794,794,794,794,794,794,794,794,794,794,794,794,162,163,164,794,794,794,794,794,794,794,162,163,164,794,794,794,794,795,
793,794,794,794,794,794,794,794,794,794,794,794,794,794,794,794,794,794,794,794,794,794,162,163,164,794,794,794,794,794,794,794,162,163,164,794,794,794,794,795,
793,794,794,794,794,794,794,794,794,794,794,794,794,794,794,794,794,794,794,794,794,794,162,163,164,794,794,794,794,794,794,794,162,163,164,794,794,794,794,795,
793,794,794,794,794,794,794,794,794,794,794,794,794,794,794,794,794,794,794,794,794,794,162,163,164,794,794,794,794,794,794,794,162,163,164,794,794,794,794,795,
793,794,794,794,794,794,794,794,794,794,794,794,794,794,794,794,794,794,794,794,794,794,162,163,164,794,794,794,794,794,794,794,162,163,164,794,794,794,794,795,
793,794,794,794,794,794,794,794,794,794,794,794,794,794,794,794,794,794,794,794,794,794,162,163,164,794,794,794,794,794,794,794,162,163,164,794,794,794,794,795,
793,794,794,794,794,794,794,794,794,794,794,794,794,794,794,794,794,794,794,794,794,794,162,163,164,794,794,794,794,794,794,794,162,163,164,794,794,794,794,795,
793,794,794,794,794,794,794,794,794,794,794,794,794,794,794,794,794,794,794,794,794,794,162,163,164,794,794,794,794,794,794,794,162,163,164,794,794,794,794,795,
793,794,794,794,794,794,794,794,794,794,794,794,794,794,794,794,794,794,794,794,794,794,162,163,164,794,794,794,794,794,794,794,162,163,164,794,794,794,794,795,
793,794,794,794,794,794,794,794,794,794,794,794,794,794,794,794,794,794,794,794,794,794,162,163,164,794,794,794,794,794,794,794,162,163,164,794,794,794,794,795,
793,794,794,794,794,794,794,794,794,794,794,794,794,794,794,794,794,794,794,794,794,794,162,163,164,794,794,794,794,794,794,794,162,163,164,794,794,794,794,795,
793,794,794,794,794,794,794,794,794,794,794,794,794,794,794,794,794,794,794,794,794,794,162,163,164,794,794,794,794,794,794,794,162,163,164,794,794,794,794,795,
793,794,794,794,794,794,794,794,794,794,794,794,794,794,794,794,794,794,794,794,794,794,162,163,164,794,794,794,794,794,794,794,162,163,164,794,794,794,794,795,
793,794,794,794,794,794,794,794,794,794,794,794,794,794,794,794,794,794,794,794,794,794,162,163,163,155,155,155,155,155,155,155,163,163,164,794,794,794,794,795,
793,794,794,794,794,794,794,794,794,794,794,794,794,794,794,794,794,794,794,794,794,794,162,163,163,163,163,163,163,163,163,163,163,163,164,794,794,794,794,795,
793,794,794,794,794,794,794,794,794,794,794,794,794,794,794,794,794,794,794,794,794,794,162,163,163,163,163,163,163,163,163,163,163,163,164,794,794,794,794,795,
463,463,463,463,463,463,463,463,163,163,163,163,463,463,463,463,463,463,463,463,463,463,162,163,163,163,163,163,163,163,163,163,163,163,164,794,794,794,794,795,
463,463,463,463,463,463,463,463,163,163,163,163,463,463,463,463,463,463,463,463,463,463,162,163,163,171,171,171,171,171,171,171,171,171,172,794,794,794,794,795,
463,463,463,463,463,463,463,463,163,163,163,163,463,463,463,463,463,463,463,463,463,463,162,163,164,794,794,794,794,794,794,794,794,794,794,794,794,794,794,795,
463,463,463,463,463,463,463,463,163,163,163,163,463,463,463,463,463,463,463,463,463,463,162,163,164,794,794,794,794,794,794,794,794,794,794,794,794,794,794,795,
463,463,463,463,463,463,463,463,163,163,163,163,463,463,463,463,463,463,463,463,463,463,162,163,164,794,794,794,794,794,794,794,794,794,794,794,794,794,794,795,
793,794,794,794,794,794,794,794,794,794,794,794,794,794,794,794,794,794,794,794,794,794,162,163,164,794,794,794,794,794,794,794,794,794,794,794,794,794,794,795,
793,794,794,794,794,794,794,794,794,794,794,794,794,794,794,794,794,794,794,794,794,794,162,163,164,794,794,794,794,794,794,794,794,794,794,794,794,794,794,795,
793,794,794,794,794,794,794,794,794,794,794,794,794,794,794,794,794,794,794,794,794,794,162,163,164,794,794,794,794,794,794,794,794,794,794,794,794,794,794,795,
793,794,794,794,794,794,794,794,794,794,794,794,794,794,794,794,794,794,794,794,794,794,162,163,164,794,794,794,794,794,794,794,794,794,794,794,794,794,794,795,
793,794,794,794,794,794,794,794,794,794,794,794,794,794,794,794,794,794,794,794,794,794,162,163,164,794,794,794,794,794,794,794,794,794,794,794,794,794,794,795,
793,794,794,794,794,794,794,794,794,794,794,794,794,794,794,794,794,794,794,794,794,794,162,163,164,794,794,794,794,794,794,794,794,794,794,794,794,794,794,795,
793,794,794,794,794,794,794,794,794,794,794,794,794,794,794,794,794,794,794,794,794,794,162,163,164,794,794,794,794,794,794,794,794,794,794,794,794,794,794,795,
793,794,794,794,794,794,794,794,794,794,794,794,794,794,794,794,794,794,794,794,794,794,162,163,164,794,794,794,794,794,794,794,794,794,794,794,794,794,794,795,
793,794,794,794,794,794,794,794,794,794,794,794,794,794,794,794,794,794,794,794,794,794,162,163,164,794,794,794,794,794,794,794,794,794,794,794,794,794,794,795,
793,794,794,794,794,794,794,794,794,794,794,794,794,794,794,794,794,794,794,794,794,794,162,163,164,794,794,794,794,794,794,794,794,794,794,794,794,794,794,795,
793,794,794,794,794,794,794,794,794,794,794,794,794,794,794,794,794,794,794,794,794,794,162,163,164,794,794,794,794,794,794,794,794,794,794,794,794,794,794,795,
793,794,794,794,794,794,794,794,794,794,794,794,794,794,794,794,794,794,794,794,794,794,162,163,164,794,794,794,794,794,794,794,794,794,794,794,794,794,794,795,
793,794,794,794,794,794,794,794,794,794,794,794,794,794,794,794,794,794,794,794,794,794,162,163,164,794,794,794,794,794,794,794,794,794,794,794,794,794,794,795,
793,794,794,794,794,794,794,794,794,794,794,794,794,794,794,794,794,794,794,794,794,794,162,163,164,794,794,794,794,794,794,794,794,794,794,794,794,794,794,795,
793,794,794,794,794,794,794,794,794,794,794,794,794,794,794,794,794,794,794,794,794,794,162,163,164,794,794,794,794,794,794,794,794,794,794,794,794,794,794,795,
793,794,794,794,794,794,794,794,794,794,794,794,794,794,794,794,794,794,794,794,794,794,162,163,164,794,794,794,794,794,794,794,794,794,794,794,794,794,794,795,
793,794,794,794,794,794,794,794,794,794,794,794,794,794,794,794,794,794,794,794,794,794,162,163,164,794,794,794,794,794,794,794,794,794,794,794,794,794,794,795,
793,794,794,794,794,794,794,794,794,794,794,794,794,794,794,794,154,155,155,155,155,155,163,163,164,794,794,794,794,794,794,794,794,794,794,794,794,794,794,795,
793,794,794,794,794,794,794,794,794,794,794,794,794,794,794,794,162,163,163,163,163,163,163,163,164,794,794,794,794,794,794,794,794,794,794,794,794,794,794,795,
793,794,794,794,794,794,794,794,794,794,794,794,794,794,794,794,162,163,163,163,163,163,163,163,172,794,794,794,794,794,794,794,794,794,794,794,794,794,794,795,
793,794,794,794,794,794,794,794,794,794,794,794,794,794,794,794,162,163,163,163,163,163,163,164,794,794,794,794,794,794,794,794,794,794,794,794,794,794,794,795,
793,794,794,794,794,794,794,794,794,794,794,794,794,794,794,794,162,163,163,171,171,171,171,172,794,794,794,794,794,794,794,794,794,794,794,794,794,794,794,795,
793,794,794,794,794,794,794,794,794,794,794,794,794,794,794,794,162,163,164,794,794,794,794,794,794,794,794,794,794,794,794,794,794,794,794,794,794,794,794,795,
793,794,794,794,794,794,794,794,794,794,794,794,794,794,794,794,162,163,164,794,794,794,794,794,794,794,794,794,794,794,794,794,794,794,794,794,794,794,794,795,
793,794,794,794,794,794,794,794,794,794,794,794,794,794,794,794,162,163,164,794,794,794,794,794,794,794,794,794,794,794,794,794,794,794,794,794,794,794,794,795,
793,794,794,794,794,794,794,794,794,794,794,794,794,794,794,794,162,163,164,794,794,794,794,794,794,794,794,794,794,794,794,794,794,794,794,794,794,794,794,795,
801,802,802,802,802,802,802,802,802,802,802,802,802,802,802,802,170,171,172,802,802,802,802,802,802,802,802,802,802,802,802,802,802,802,802,802,802,802,802,803
</data>
 </layer>
 <layer id="2" name="deco_sotto" width="40" height="60">
  <data encoding="csv">
0,0,0,0,0,0,0,0,0,0,0,0,0,0,0,0,0,0,0,0,0,795,0,0,0,793,0,0,0,0,0,0,0,0,0,0,0,0,0,0,
0,0,0,0,0,0,0,0,0,0,0,0,0,0,0,0,0,0,0,0,0,795,0,0,0,793,0,0,0,0,0,0,0,0,0,0,0,0,0,0,
0,0,0,0,0,0,0,0,0,0,0,0,0,0,0,0,0,0,0,0,0,795,0,0,0,793,0,0,0,0,0,0,0,0,0,0,0,0,0,0,
0,0,0,0,0,0,0,0,0,0,0,0,0,0,0,0,0,0,0,0,0,795,0,0,0,793,0,0,0,0,0,788,789,789,789,789,789,790,0,0,
0,0,0,0,0,0,0,0,0,0,0,0,0,0,0,809,802,802,802,802,802,803,0,0,0,793,0,0,0,0,0,796,788,789,789,789,790,798,0,0,
0,0,0,0,0,0,0,0,0,0,0,0,0,0,0,795,7,7,7,7,7,7,0,0,0,793,0,0,0,0,0,796,796,785,786,787,798,798,0,0,
0,0,0,0,0,0,0,0,0,0,0,0,0,0,0,795,7,7,7,7,7,7,0,0,0,793,0,0,0,0,0,796,796,793,794,795,798,798,0,0,
0,0,0,0,0,0,0,0,0,0,0,0,0,0,0,795,7,32,7,7,7,7,0,0,0,793,0,0,0,0,0,796,796,801,799,803,798,798,0,0,
0,0,0,0,0,0,0,0,0,0,0,0,0,0,0,795,7,32,7,7,7,7,0,0,0,793,0,0,0,0,0,796,801,805,778,805,806,798,0,0,
0,0,0,0,0,0,0,0,0,0,0,0,0,0,0,795,7,7,7,7,7,7,0,0,0,793,0,0,0,0,0,801,805,805,778,805,805,806,0,0,
0,0,0,0,0,0,0,0,0,0,0,0,0,0,0,795,7,7,7,7,7,7,0,0,0,793,0,0,0,0,0,0,0,0,0,0,0,0,0,0,
0,0,0,0,0,0,0,0,0,0,0,0,0,0,0,786,786,786,786,786,786,787,0,0,0,793,0,0,0,0,0,0,0,0,0,0,0,0,0,0,
0,0,0,0,0,0,0,0,0,0,0,0,0,0,0,0,0,0,0,0,0,795,0,0,0,793,0,0,0,0,0,0,0,0,0,793,0,0,0,0,
0,0,0,0,0,0,0,0,0,0,0,0,0,0,0,0,0,0,0,0,0,795,0,0,0,793,0,0,0,0,0,0,0,0,0,793,793,0,0,0,
0,0,0,0,0,0,0,0,0,0,0,0,0,0,0,0,0,0,0,0,0,795,0,0,0,793,0,0,0,0,0,0,0,0,0,793,793,0,0,0,
0,0,0,0,7,7,7,7,7,7,7,7,7,7,7,32,0,0,0,0,0,795,0,0,0,793,0,0,0,0,0,0,0,0,0,793,793,0,0,0,
0,0,0,0,7,7,7,7,7,7,7,7,7,7,7,7,0,0,0,0,0,795,0,0,0,793,0,0,0,0,0,0,0,0,0,793,793,0,0,0,
0,0,0,0,7,7,7,7,7,7,7,7,7,7,7,7,0,0,0,0,0,795,0,0,0,793,0,0,0,0,0,0,0,0,0,793,793,0,0,0,
0,0,0,0,7,7,7,7,7,7,32,7,7,7,7,7,0,0,0,0,0,795,0,0,0,793,0,0,0,0,0,0,0,0,0,793,0,0,0,0,
0,0,0,0,7,7,7,7,7,7,7,7,7,7,7,7,0,0,0,0,0,795,0,0,0,793,0,0,0,0,0,0,0,0,0,793,0,0,0,0,
0,0,0,0,7,7,7,7,7,7,7,7,7,7,7,7,0,0,0,0,0,795,0,0,0,793,0,0,0,0,0,0,0,0,0,793,0,0,0,0,
0,0,0,0,7,7,7,7,7,7,7,7,7,7,7,7,0,0,0,0,0,795,0,0,0,793,0,0,0,0,0,0,0,0,0,793,0,0,0,0,
0,0,0,0,7,7,7,7,7,7,7,7,7,7,7,7,0,0,0,0,0,795,0,0,0,793,0,0,0,0,0,0,0,0,0,793,0,0,0,0,
0,0,0,0,7,32,7,7,7,7,7,7,7,7,7,7,0,0,0,0,0,795,0,0,0,793,0,0,0,0,0,0,0,0,0,793,0,0,0,0,
0,0,0,0,7,7,7,32,7,7,7,7,7,7,7,7,0,0,0,0,0,795,0,0,0,801,802,802,802,802,802,0,0,0,0,793,0,0,0,0,
0,0,0,0,0,0,0,0,0,0,0,0,0,0,0,0,0,0,0,0,0,0,2935,0,0,0,0,0,0,0,0,0,0,0,0,793,0,0,0,0,
0,0,0,0,0,0,0,0,0,0,0,0,0,0,0,0,0,0,0,0,0,795,2943,0,0,0,0,0,0,0,0,0,0,0,0,793,0,0,0,0,
801,802,802,802,802,802,802,802,802,0,0,0,0,802,802,802,802,802,802,802,802,803,0,0,0,0,0,0,0,0,0,0,0,0,0,793,0,0,0,0,
0,0,0,0,0,0,0,0,0,0,0,0,0,0,0,0,0,0,0,0,0,0,0,0,0,0,0,0,0,0,0,0,0,0,0,793,0,0,0,0,
0,0,0,0,0,0,0,0,0,0,0,0,0,0,0,0,0,0,0,0,0,0,0,0,0,0,0,0,0,0,0,0,0,0,0,793,0,0,0,0,
0,0,0,0,0,0,0,0,0,0,0,0,0,0,0,0,0,0,0,0,0,0,0,0,0,785,0,0,0,0,0,0,0,0,0,0,0,0,0,0,
0,0,0,0,0,0,0,0,0,0,0,0,0,0,0,0,0,0,0,0,0,0,0,0,0,793,0,0,0,0,0,0,0,0,0,0,0,0,0,0,
0,0,0,0,0,0,0,0,0,0,0,0,0,0,0,0,0,0,0,0,0,0,0,0,0,793,0,0,0,0,0,0,0,0,0,0,0,0,0,0,
0,0,785,786,786,786,786,786,786,786,786,786,786,786,786,786,786,786,786,786,786,787,0,0,0,793,0,0,0,0,0,0,0,0,0,0,0,0,0,0,
0,0,793,0,0,0,0,0,0,0,0,0,0,0,0,0,0,0,0,0,0,795,0,0,0,793,0,0,0,0,0,0,0,0,0,0,0,0,0,0,
0,0,793,0,0,0,0,0,0,0,7,7,7,7,7,7,7,7,0,0,0,795,0,0,0,793,0,0,0,0,0,0,0,0,0,0,0,0,0,0,
0,0,793,0,0,0,0,0,0,0,7,7,7,7,7,7,32,7,0,0,0,795,0,0,0,793,0,0,0,0,0,0,0,0,0,0,0,0,0,0,
0,0,793,0,0,0,0,0,0,0,7,7,7,7,7,7,7,7,0,0,0,795,0,0,0,793,0,0,0,0,0,0,0,0,0,0,0,0,0,0,
0,0,793,0,0,0,0,0,0,0,7,7,7,7,7,7,7,7,0,0,0,795,0,0,0,793,0,0,0,0,0,0,0,0,0,0,0,0,0,0,
0,0,793,0,0,0,0,0,0,0,7,7,7,7,7,7,7,7,0,0,0,795,0,0,0,793,0,0,0,0,0,0,0,0,0,0,0,0,0,0,
0,0,793,0,0,0,0,0,0,0,7,7,7,7,7,7,7,7,0,0,0,795,0,0,0,793,7,7,7,7,7,7,7,7,0,0,0,0,0,0,
0,0,793,0,0,0,0,0,0,0,0,0,0,0,0,0,0,0,0,0,0,795,0,0,0,793,7,32,7,7,7,7,7,7,0,0,0,0,0,0,
0,0,793,0,0,0,0,0,0,0,0,0,0,0,0,0,0,0,0,0,0,795,0,0,0,793,7,7,7,7,7,7,7,32,0,0,0,0,0,0,
0,0,793,0,0,0,0,0,0,0,0,0,0,0,0,0,0,0,0,0,0,795,0,0,0,793,7,7,7,7,7,7,7,7,0,0,0,0,0,0,
0,0,793,0,0,0,0,0,0,0,0,0,0,0,0,0,0,0,0,0,0,795,0,0,0,793,7,7,7,7,7,7,7,7,0,0,0,0,0,0,
0,0,801,810,7,7,7,7,7,7,7,32,7,7,0,0,0,0,0,0,0,795,0,0,0,793,7,7,7,7,7,7,7,7,0,0,0,0,0,0,
0,0,0,793,7,7,7,7,7,7,7,7,7,7,0,0,0,0,0,0,0,795,0,0,0,793,7,7,7,7,7,7,7,7,0,0,0,0,0,0,
0,0,0,793,7,7,7,7,7,7,7,7,7,7,0,0,0,0,0,0,0,795,0,0,0,793,0,0,0,0,0,0,0,0,0,0,0,0,0,0,
0,0,0,793,32,7,7,7,7,7,7,7,7,7,0,0,0,0,0,0,0,795,0,0,0,793,0,0,0,0,0,0,0,0,0,0,0,0,0,0,
0,0,0,793,7,7,7,7,7,32,7,7,7,7,0,809,802,802,802,802,802,803,0,0,0,793,0,0,0,0,0,0,0,0,0,0,0,0,0,0,
0,0,0,793,7,7,7,7,7,7,7,7,7,7,0,795,0,0,0,0,0,0,0,0,0,793,0,0,0,0,0,0,0,0,0,0,0,0,0,0,
0,0,0,793,7,7,7,7,7,7,7,7,7,7,0,795,0,0,0,0,0,0,0,0,0,793,0,0,0,0,0,0,0,0,0,0,0,0,0,0,
0,0,0,793,7,7,7,7,7,7,7,7,7,7,0,795,0,0,0,0,0,0,0,0,0,793,0,0,0,0,0,0,0,0,0,0,0,0,0,0,
0,0,0,801,802,802,802,802,802,802,802,802,802,802,802,803,0,0,0,0,0,0,0,0,785,0,0,0,0,0,0,0,0,0,0,0,0,0,0,0,
0,0,0,0,0,0,0,0,0,0,0,0,0,0,0,795,0,0,0,0,0,0,0,0,793,0,0,0,0,0,0,0,0,0,0,0,0,0,0,0,
0,0,0,0,0,0,0,0,0,0,0,0,0,0,0,795,0,0,0,785,0,0,0,0,0,0,0,0,0,0,0,0,0,0,0,0,0,0,0,0,
0,0,0,0,0,0,0,0,0,0,0,0,0,0,0,795,0,0,0,793,0,0,0,0,0,0,0,0,0,0,0,0,0,0,0,0,0,0,0,0,
0,0,0,0,0,0,0,0,0,0,0,0,0,0,0,795,0,0,0,793,0,0,0,0,0,0,0,0,0,0,0,0,0,0,0,0,0,0,0,0,
0,0,0,0,0,0,0,0,0,0,0,0,0,0,0,795,0,0,0,793,0,0,0,0,0,0,0,0,0,0,0,0,0,0,0,0,0,0,0,0,
0,0,0,0,0,0,0,0,0,0,0,0,0,0,0,803,0,0,0,801,0,0,0,0,0,0,0,0,0,0,0,0,0,0,0,0,0,0,0,0
</data>
 </layer>
 <layer id="3" name="edifici" width="40" height="60">
  <data encoding="csv">
421,422,0,564,565,566,421,422,0,564,565,566,564,565,566,421,422,0,421,422,0,0,0,0,0,0,0,421,422,0,421,422,0,421,422,0,421,422,0,0,
429,430,0,572,573,574,429,430,0,572,573,574,572,573,574,429,430,0,429,430,0,0,0,0,0,0,0,429,430,0,429,430,0,429,430,0,429,430,0,0,
437,438,0,580,581,582,437,438,0,580,581,582,580,581,582,437,438,0,437,438,0,0,0,0,0,0,0,437,438,0,437,438,0,437,438,0,437,438,0,0,
564,565,566,588,589,590,421,422,0,588,589,590,588,589,590,0,0,0,0,0,0,0,0,0,0,0,0,564,565,566,0,0,0,0,0,0,0,0,0,0,
572,573,574,596,597,598,429,430,0,596,597,598,596,597,598,0,0,0,0,0,0,0,0,0,0,0,0,572,573,574,0,0,0,0,0,0,0,0,0,0,
580,581,582,604,605,606,437,438,0,604,605,606,604,605,606,0,0,0,0,0,0,0,0,0,0,0,0,580,581,582,0,0,0,0,0,0,0,0,0,0,
588,589,590,421,422,0,564,565,566,564,565,566,564,565,566,0,0,0,0,0,0,0,0,0,0,0,0,588,589,590,0,0,0,0,0,0,0,0,0,0,
596,597,598,429,430,0,572,573,574,572,573,574,572,573,574,0,0,0,0,0,0,0,0,0,0,0,0,596,597,598,0,0,0,0,0,0,0,0,0,0,
604,605,606,437,438,0,580,581,582,580,581,582,580,581,582,0,0,0,0,0,0,0,0,0,0,0,0,604,605,606,0,0,0,0,0,0,0,0,0,0,
421,422,0,564,565,566,588,589,590,588,589,590,588,589,590,0,0,0,0,0,0,0,0,0,0,0,0,564,565,566,0,0,0,0,0,0,0,0,0,0,
429,430,0,572,573,574,596,597,598,596,597,598,596,597,598,0,0,0,0,0,0,0,0,0,0,0,0,572,573,574,0,0,0,0,0,0,0,0,0,0,
437,438,0,580,581,582,604,605,606,604,605,606,604,605,606,0,0,0,0,0,0,0,0,0,0,0,0,580,581,582,0,0,0,0,0,0,0,0,0,0,
421,422,0,588,589,590,421,422,0,421,422,0,421,422,0,421,422,0,564,565,566,0,0,0,0,0,0,588,589,590,421,422,0,0,0,0,564,565,566,0,
429,430,0,596,597,598,429,430,0,429,430,0,429,430,0,429,430,0,572,573,574,0,0,0,0,0,0,596,597,598,429,430,0,0,0,0,572,573,574,0,
437,438,0,604,605,606,437,438,0,437,438,0,437,438,0,437,438,0,580,581,582,0,0,0,0,0,0,604,605,606,437,438,0,0,0,0,580,581,582,0,
564,565,566,0,0,0,0,0,0,0,0,0,0,0,0,0,0,0,588,589,590,0,0,0,0,0,0,421,422,0,421,422,0,0,0,0,588,589,590,0,
572,573,574,0,0,0,0,0,0,0,0,0,0,0,0,0,0,0,596,597,598,0,0,0,0,0,0,429,430,0,429,430,0,0,0,0,596,597,598,0,
580,581,582,0,0,0,0,0,0,0,0,0,0,0,0,0,0,0,604,605,606,0,0,0,0,0,0,437,438,0,437,438,0,0,0,0,604,605,606,0,
588,589,590,0,0,0,0,0,0,0,0,0,0,0,0,0,0,0,564,565,566,0,0,0,0,0,0,564,565,566,421,422,0,0,0,0,421,422,0,0,
596,597,598,0,0,0,0,0,0,0,0,0,0,0,0,0,0,0,572,573,574,0,0,0,0,0,0,572,573,574,429,430,0,0,0,0,429,430,0,0,
604,605,606,0,0,0,0,0,0,0,0,0,0,0,0,0,0,0,580,581,582,0,0,0,0,0,0,580,581,582,437,438,0,0,0,0,437,438,0,0,
564,565,566,0,0,0,0,0,0,0,0,0,0,0,0,0,0,0,588,589,590,0,0,0,0,0,0,588,589,590,421,422,0,0,0,0,564,565,566,0,
572,573,574,0,0,0,0,0,0,0,0,0,0,0,0,0,0,0,596,597,598,0,0,0,0,0,0,596,597,598,429,430,0,0,0,0,572,573,574,0,
580,581,582,0,0,0,0,0,0,0,0,0,0,0,0,0,0,0,604,605,606,0,0,0,0,0,0,604,605,606,437,438,0,0,0,0,580,581,582,0,
588,589,590,0,0,0,0,0,0,0,0,0,0,0,0,0,0,0,0,0,0,0,0,0,0,0,0,0,0,0,0,0,0,0,0,0,588,589,590,0,
596,597,598,0,0,0,0,0,0,0,0,0,0,0,0,0,0,0,0,0,0,0,0,0,0,0,0,0,0,0,0,0,0,0,0,0,596,597,598,0,
604,605,606,0,0,0,0,0,0,0,0,0,0,0,0,0,0,0,0,0,0,0,0,0,0,0,0,0,0,0,0,0,0,0,0,0,604,605,606,0,
564,565,566,564,565,566,421,422,0,778,779,802,802,565,566,564,565,566,564,565,566,0,0,0,0,0,0,0,0,0,0,0,0,0,0,0,564,565,566,0,
572,573,574,572,573,574,429,430,0,0,0,0,572,573,574,572,573,574,572,573,574,0,0,0,0,0,0,0,0,0,0,0,0,0,0,0,572,573,574,0,
580,581,582,580,581,582,437,438,0,0,0,0,580,581,582,580,581,582,580,581,582,0,0,0,0,0,0,0,0,0,0,0,0,0,0,0,580,581,582,0,
588,589,590,588,589,590,421,422,0,0,0,0,588,589,590,588,589,590,588,589,590,0,0,0,0,0,0,564,565,566,421,422,0,564,565,566,588,589,590,0,
596,597,598,596,597,598,429,430,0,0,0,0,596,597,598,596,597,598,596,597,598,0,0,0,0,0,0,572,573,574,429,430,0,572,573,574,596,597,598,0,
604,605,606,604,605,606,437,438,0,0,0,0,604,605,606,604,605,606,604,605,606,0,0,0,0,0,0,580,581,582,437,438,0,580,581,582,604,605,606,0,
421,422,0,564,565,566,421,422,0,770,771,0,0,0,0,0,0,0,564,565,566,0,0,0,0,0,0,588,589,590,564,565,566,588,589,590,421,422,0,0,
429,430,0,572,573,574,429,430,0,0,0,0,0,0,0,0,0,0,572,573,574,0,0,0,0,0,0,596,597,598,572,573,574,596,597,598,429,430,0,0,
437,438,0,580,581,582,437,438,0,0,0,0,0,0,0,0,0,0,580,581,582,0,0,0,0,0,0,604,605,606,580,581,582,604,605,606,437,438,0,0,
421,422,0,588,589,590,564,565,566,0,0,0,0,0,0,0,0,0,588,589,590,0,0,0,0,0,0,421,422,0,588,589,590,421,422,0,564,565,566,0,
429,430,0,596,597,598,572,573,574,0,0,0,0,0,0,0,0,0,596,597,598,0,0,0,0,0,0,429,430,0,596,597,598,429,430,0,572,573,574,0,
437,438,0,604,605,606,580,581,582,0,0,0,0,0,0,0,0,0,604,605,606,0,0,0,0,0,0,437,438,0,604,605,606,437,438,0,580,581,582,0,
421,422,0,421,422,0,588,589,590,0,0,0,0,0,0,0,0,0,564,565,566,0,0,0,0,0,0,0,0,0,0,0,0,0,0,0,588,589,590,0,
429,430,0,429,430,0,596,597,598,0,0,0,0,0,0,0,0,0,572,573,574,0,0,0,0,0,0,0,0,0,0,0,0,0,0,0,596,597,598,0,
437,438,0,437,438,0,604,605,606,0,0,0,0,0,0,0,0,0,580,581,582,0,0,0,0,0,0,0,0,0,0,0,0,0,0,0,604,605,606,0,
421,422,0,421,422,0,421,422,0,421,422,0,0,0,0,564,565,566,588,589,590,0,0,0,0,0,0,0,0,0,0,0,0,0,0,0,421,422,0,0,
429,430,0,429,430,0,429,430,0,429,430,0,0,0,0,572,573,574,596,597,598,0,0,0,0,0,0,0,0,0,0,0,0,0,0,0,429,430,0,0,
437,438,0,437,438,0,437,438,0,437,438,0,0,0,0,580,581,582,604,605,606,0,0,0,0,0,0,0,0,0,0,0,0,0,0,0,437,438,0,0,
421,422,0,0,0,0,0,0,0,0,0,0,0,0,0,588,589,590,421,422,0,0,0,0,0,0,0,0,0,0,0,0,0,0,0,0,421,422,0,0,
429,430,0,0,0,0,0,0,0,0,0,0,0,0,0,596,597,598,429,430,0,0,0,0,0,0,0,0,0,0,0,0,0,0,0,0,429,430,0,0,
437,438,0,0,0,0,0,0,0,0,0,0,0,0,0,604,605,606,437,438,0,0,0,0,0,0,0,0,0,0,0,0,0,0,0,0,437,438,0,0,
564,565,566,0,0,0,0,0,0,0,0,0,0,0,0,0,0,0,0,0,0,0,0,0,0,0,0,421,422,0,421,422,0,564,565,566,421,422,0,0,
572,573,574,0,0,0,0,0,0,0,0,0,0,0,0,0,0,0,0,0,0,0,0,0,0,0,0,429,430,0,429,430,0,572,573,574,429,430,0,0,
580,581,582,0,0,0,0,0,0,0,0,0,0,0,0,0,0,0,0,0,0,0,0,0,0,0,0,437,438,0,437,438,0,580,581,582,437,438,0,0,
588,589,590,0,0,0,0,0,0,0,0,0,0,0,0,0,0,0,0,0,0,0,0,0,0,0,0,564,565,566,421,422,0,588,589,590,421,422,0,0,
596,597,598,0,0,0,0,0,0,0,0,0,0,0,0,0,0,0,0,0,0,0,0,0,0,0,0,572,573,574,429,430,0,596,597,598,429,430,0,0,
604,605,606,0,0,0,0,0,0,0,0,0,0,0,0,0,0,0,0,0,0,0,0,0,0,0,0,580,581,582,437,438,0,604,605,606,437,438,0,0,
0,0,0,0,0,0,0,0,0,0,0,0,0,0,0,0,0,0,0,0,0,0,0,0,0,0,0,588,589,590,0,0,0,0,0,0,0,0,0,0,
0,0,0,0,0,0,0,0,0,0,0,0,0,0,0,0,0,0,0,0,0,0,0,0,0,0,0,596,597,598,0,0,0,0,0,0,0,0,0,0,
0,0,0,0,0,0,0,0,0,0,0,0,0,0,0,0,0,0,0,0,0,0,0,0,0,0,0,604,605,606,0,0,0,0,0,0,0,0,0,0,
0,0,0,0,0,0,0,0,0,0,0,0,0,0,0,0,0,0,0,0,0,0,0,0,0,0,0,0,0,0,0,0,0,0,0,0,0,0,0,0,
0,0,0,0,0,0,0,0,0,0,0,0,0,0,0,0,0,0,0,0,0,0,0,0,0,0,0,0,0,0,0,0,0,0,0,0,0,0,0,0,
0,0,0,0,0,0,0,0,0,0,0,0,0,0,0,0,0,0,0,0,0,0,0,0,0,0,0,0,0,0,0,0,0,0,0,0,0,0,0,0
</data>
 </layer>
 <objectgroup color="#ff0000" id="4" name="collisioni" visible="0" opacity="0.5">
  <object id="1" name="cima_bordo" type="solid" x="960" y="96" width="32" height="32"/>
  <object id="2" name="cima_bordo" type="solid" x="992" y="96" width="32" height="32"/>
  <object id="3" name="cima_bordo" type="solid" x="1024" y="96" width="32" height="32"/>
  <object id="4" name="cima_bordo" type="solid" x="1056" y="96" width="32" height="32"/>
  <object id="5" name="cima_bordo" type="solid" x="1088" y="96" width="32" height="32"/>
  <object id="6" name="cima_bordo" type="solid" x="1120" y="96" width="32" height="32"/>
  <object id="7" name="cima_bordo" type="solid" x="1152" y="96" width="32" height="32"/>
  <object id="8" name="cima_bordo" type="solid" x="1184" y="96" width="32" height="32"/>
  <object id="9" name="cima_bordo" type="solid" x="1216" y="96" width="32" height="32"/>
  <object id="10" name="cima_bordo" type="solid" x="1248" y="96" width="32" height="32"/>
  <object id="11" name="cima_bordo" type="solid" x="960" y="128" width="32" height="32"/>
  <object id="12" name="cima_bordo" type="solid" x="1248" y="128" width="32" height="32"/>
  <object id="13" name="cima_bordo" type="solid" x="960" y="160" width="32" height="32"/>
  <object id="14" name="cima_bordo" type="solid" x="1248" y="160" width="32" height="32"/>
  <object id="15" name="cima_bordo" type="solid" x="960" y="192" width="32" height="32"/>
  <object id="16" name="cima_bordo" type="solid" x="1248" y="192" width="32" height="32"/>
  <object id="17" name="cima_bordo" type="solid" x="960" y="224" width="32" height="32"/>
  <object id="18" name="cima_bordo" type="solid" x="1248" y="224" width="32" height="32"/>
  <object id="19" name="cima_bordo" type="solid" x="960" y="256" width="32" height="32"/>
  <object id="20" name="cima_bordo" type="solid" x="1248" y="256" width="32" height="32"/>
  <object id="21" name="cima_bordo" type="solid" x="960" y="288" width="32" height="32"/>
  <object id="22" name="cima_bordo" type="solid" x="1248" y="288" width="32" height="32"/>
  <object id="23" name="cima_bordo" type="solid" x="960" y="320" width="32" height="32"/>
  <object id="24" name="cima_bordo" type="solid" x="1248" y="320" width="32" height="32"/>
  <object id="25" name="cima_bordo" type="solid" x="960" y="352" width="32" height="32"/>
  <object id="26" name="cima_bordo" type="solid" x="992" y="352" width="32" height="32"/>
  <object id="27" name="cima_bordo" type="solid" x="1024" y="352" width="32" height="32"/>
  <object id="28" name="cima_bordo" type="solid" x="1056" y="352" width="32" height="32"/>
  <object id="29" name="cima_bordo" type="solid" x="1088" y="352" width="32" height="32"/>
  <object id="30" name="cima_bordo" type="solid" x="1120" y="352" width="32" height="32"/>
  <object id="31" name="cima_bordo" type="solid" x="1152" y="352" width="32" height="32"/>
  <object id="32" name="cima_bordo" type="solid" x="1184" y="352" width="32" height="32"/>
  <object id="33" name="cima_bordo" type="solid" x="1216" y="352" width="32" height="32"/>
  <object id="34" name="cima_bordo" type="solid" x="1248" y="352" width="32" height="32"/>
  <object id="35" name="bosco_single_0_0" type="solid" x="0" y="0" width="64" height="96"/>
  <object id="36" name="bosco_v3_0_3_0" type="solid" x="96" y="0" width="96" height="32"/>
  <object id="37" name="bosco_v3_0_3_1" type="solid" x="96" y="32" width="96" height="32"/>
  <object id="38" name="bosco_v3_0_3_2" type="solid" x="96" y="64" width="96" height="32"/>
  <object id="39" name="bosco_v3_0_3_3" type="solid" x="96" y="96" width="96" height="32"/>
  <object id="40" name="bosco_v3_0_3_4" type="solid" x="96" y="128" width="96" height="32"/>
  <object id="41" name="bosco_v3_0_3_5" type="solid" x="96" y="160" width="96" height="32"/>
  <object id="42" name="bosco_single_0_6" type="solid" x="192" y="0" width="64" height="96"/>
  <object id="43" name="bosco_v3_0_9_0" type="solid" x="288" y="0" width="96" height="32"/>
  <object id="44" name="bosco_v3_0_9_1" type="solid" x="288" y="32" width="96" height="32"/>
  <object id="45" name="bosco_v3_0_9_2" type="solid" x="288" y="64" width="96" height="32"/>
  <object id="46" name="bosco_v3_0_9_3" type="solid" x="288" y="96" width="96" height="32"/>
  <object id="47" name="bosco_v3_0_9_4" type="solid" x="288" y="128" width="96" height="32"/>
  <object id="48" name="bosco_v3_0_9_5" type="solid" x="288" y="160" width="96" height="32"/>
  <object id="49" name="bosco_v3_0_12_0" type="solid" x="384" y="0" width="96" height="32"/>
  <object id="50" name="bosco_v3_0_12_1" type="solid" x="384" y="32" width="96" height="32"/>
  <object id="51" name="bosco_v3_0_12_2" type="solid" x="384" y="64" width="96" height="32"/>
  <object id="52" name="bosco_v3_0_12_3" type="solid" x="384" y="96" width="96" height="32"/>
  <object id="53" name="bosco_v3_0_12_4" type="solid" x="384" y="128" width="96" height="32"/>
  <object id="54" name="bosco_v3_0_12_5" type="solid" x="384" y="160" width="96" height="32"/>
  <object id="55" name="bosco_single_0_15" type="solid" x="480" y="0" width="64" height="96"/>
  <object id="56" name="bosco_single_0_18" type="solid" x="576" y="0" width="64" height="96"/>
  <object id="57" name="bosco_single_0_27" type="solid" x="864" y="0" width="64" height="96"/>
  <object id="58" name="bosco_single_0_30" type="solid" x="960" y="0" width="64" height="96"/>
  <object id="59" name="bosco_single_0_33" type="solid" x="1056" y="0" width="64" height="96"/>
  <object id="60" name="bosco_single_0_36" type="solid" x="1152" y="0" width="64" height="96"/>
  <object id="61" name="bosco_v3_3_0_0" type="solid" x="0" y="96" width="96" height="32"/>
  <object id="62" name="bosco_v3_3_0_1" type="solid" x="0" y="128" width="96" height="32"/>
  <object id="63" name="bosco_v3_3_0_2" type="solid" x="0" y="160" width="96" height="32"/>
  <object id="64" name="bosco_v3_3_0_3" type="solid" x="0" y="192" width="96" height="32"/>
  <object id="65" name="bosco_v3_3_0_4" type="solid" x="0" y="224" width="96" height="32"/>
  <object id="66" name="bosco_v3_3_0_5" type="solid" x="0" y="256" width="96" height="32"/>
  <object id="67" name="bosco_single_3_6" type="solid" x="192" y="96" width="64" height="96"/>
  <object id="68" name="bosco_v3_3_27_0" type="solid" x="864" y="96" width="96" height="32"/>
  <object id="69" name="bosco_v3_3_27_1" type="solid" x="864" y="128" width="96" height="32"/>
  <object id="70" name="bosco_v3_3_27_2" type="solid" x="864" y="160" width="96" height="32"/>
  <object id="71" name="bosco_v3_3_27_3" type="solid" x="864" y="192" width="96" height="32"/>
  <object id="72" name="bosco_v3_3_27_4" type="solid" x="864" y="224" width="96" height="32"/>
  <object id="73" name="bosco_v3_3_27_5" type="solid" x="864" y="256" width="96" height="32"/>
  <object id="74" name="bosco_single_6_3" type="solid" x="96" y="192" width="64" height="96"/>
  <object id="75" name="bosco_v3_6_6_0" type="solid" x="192" y="192" width="96" height="32"/>
  <object id="76" name="bosco_v3_6_6_1" type="solid" x="192" y="224" width="96" height="32"/>
  <object id="77" name="bosco_v3_6_6_2" type="solid" x="192" y="256" width="96" height="32"/>
  <object id="78" name="bosco_v3_6_6_3" type="solid" x="192" y="288" width="96" height="32"/>
  <object id="79" name="bosco_v3_6_6_4" type="solid" x="192" y="320" width="96" height="32"/>
  <object id="80" name="bosco_v3_6_6_5" type="solid" x="192" y="352" width="96" height="32"/>
  <object id="81" name="bosco_v3_6_9_0" type="solid" x="288" y="192" width="96" height="32"/>
  <object id="82" name="bosco_v3_6_9_1" type="solid" x="288" y="224" width="96" height="32"/>
  <object id="83" name="bosco_v3_6_9_2" type="solid" x="288" y="256" width="96" height="32"/>
  <object id="84" name="bosco_v3_6_9_3" type="solid" x="288" y="288" width="96" height="32"/>
  <object id="85" name="bosco_v3_6_9_4" type="solid" x="288" y="320" width="96" height="32"/>
  <object id="86" name="bosco_v3_6_9_5" type="solid" x="288" y="352" width="96" height="32"/>
  <object id="87" name="bosco_v3_6_12_0" type="solid" x="384" y="192" width="96" height="32"/>
  <object id="88" name="bosco_v3_6_12_1" type="solid" x="384" y="224" width="96" height="32"/>
  <object id="89" name="bosco_v3_6_12_2" type="solid" x="384" y="256" width="96" height="32"/>
  <object id="90" name="bosco_v3_6_12_3" type="solid" x="384" y="288" width="96" height="32"/>
  <object id="91" name="bosco_v3_6_12_4" type="solid" x="384" y="320" width="96" height="32"/>
  <object id="92" name="bosco_v3_6_12_5" type="solid" x="384" y="352" width="96" height="32"/>
  <object id="93" name="bosco_single_9_0" type="solid" x="0" y="288" width="64" height="96"/>
  <object id="94" name="bosco_v3_9_3_0" type="solid" x="96" y="288" width="96" height="32"/>
  <object id="95" name="bosco_v3_9_3_1" type="solid" x="96" y="320" width="96" height="32"/>
  <object id="96" name="bosco_v3_9_3_2" type="solid" x="96" y="352" width="96" height="32"/>
  <object id="97" name="bosco_v3_9_3_3" type="solid" x="96" y="384" width="96" height="32"/>
  <object id="98" name="bosco_v3_9_3_4" type="solid" x="96" y="416" width="96" height="32"/>
  <object id="99" name="bosco_v3_9_3_5" type="solid" x="96" y="448" width="96" height="32"/>
  <object id="100" name="bosco_v3_9_27_0" type="solid" x="864" y="288" width="96" height="32"/>
  <object id="101" name="bosco_v3_9_27_1" type="solid" x="864" y="320" width="96" height="32"/>
  <object id="102" name="bosco_v3_9_27_2" type="solid" x="864" y="352" width="96" height="32"/>
  <object id="103" name="bosco_v3_9_27_3" type="solid" x="864" y="384" width="96" height="32"/>
  <object id="104" name="bosco_v3_9_27_4" type="solid" x="864" y="416" width="96" height="32"/>
  <object id="105" name="bosco_v3_9_27_5" type="solid" x="864" y="448" width="96" height="32"/>
  <object id="106" name="bosco_single_12_0" type="solid" x="0" y="384" width="64" height="96"/>
  <object id="107" name="bosco_single_12_6" type="solid" x="192" y="384" width="64" height="96"/>
  <object id="108" name="bosco_single_12_9" type="solid" x="288" y="384" width="64" height="96"/>
  <object id="109" name="bosco_single_12_12" type="solid" x="384" y="384" width="64" height="96"/>
  <object id="110" name="bosco_single_12_15" type="solid" x="480" y="384" width="64" height="96"/>
  <object id="111" name="bosco_v3_12_18_0" type="solid" x="576" y="384" width="96" height="32"/>
  <object id="112" name="bosco_v3_12_18_1" type="solid" x="576" y="416" width="96" height="32"/>
  <object id="113" name="bosco_v3_12_18_2" type="solid" x="576" y="448" width="96" height="32"/>
  <object id="114" name="bosco_v3_12_18_3" type="solid" x="576" y="480" width="96" height="32"/>
  <object id="115" name="bosco_v3_12_18_4" type="solid" x="576" y="512" width="96" height="32"/>
  <object id="116" name="bosco_v3_12_18_5" type="solid" x="576" y="544" width="96" height="32"/>
  <object id="117" name="bosco_single_12_30" type="solid" x="960" y="384" width="64" height="96"/>
  <object id="118" name="bosco_v3_12_36_0" type="solid" x="1152" y="384" width="96" height="32"/>
  <object id="119" name="bosco_v3_12_36_1" type="solid" x="1152" y="416" width="96" height="32"/>
  <object id="120" name="bosco_v3_12_36_2" type="solid" x="1152" y="448" width="96" height="32"/>
  <object id="121" name="bosco_v3_12_36_3" type="solid" x="1152" y="480" width="96" height="32"/>
  <object id="122" name="bosco_v3_12_36_4" type="solid" x="1152" y="512" width="96" height="32"/>
  <object id="123" name="bosco_v3_12_36_5" type="solid" x="1152" y="544" width="96" height="32"/>
  <object id="124" name="bosco_v3_15_0_0" type="solid" x="0" y="480" width="96" height="32"/>
  <object id="125" name="bosco_v3_15_0_1" type="solid" x="0" y="512" width="96" height="32"/>
  <object id="126" name="bosco_v3_15_0_2" type="solid" x="0" y="544" width="96" height="32"/>
  <object id="127" name="bosco_v3_15_0_3" type="solid" x="0" y="576" width="96" height="32"/>
  <object id="128" name="bosco_v3_15_0_4" type="solid" x="0" y="608" width="96" height="32"/>
  <object id="129" name="bosco_v3_15_0_5" type="solid" x="0" y="640" width="96" height="32"/>
  <object id="130" name="bosco_single_15_27" type="solid" x="864" y="480" width="64" height="96"/>
  <object id="131" name="bosco_single_15_30" type="solid" x="960" y="480" width="64" height="96"/>
  <object id="132" name="bosco_v3_18_18_0" type="solid" x="576" y="576" width="96" height="32"/>
  <object id="133" name="bosco_v3_18_18_1" type="solid" x="576" y="608" width="96" height="32"/>
  <object id="134" name="bosco_v3_18_18_2" type="solid" x="576" y="640" width="96" height="32"/>
  <object id="135" name="bosco_v3_18_18_3" type="solid" x="576" y="672" width="96" height="32"/>
  <object id="136" name="bosco_v3_18_18_4" type="solid" x="576" y="704" width="96" height="32"/>
  <object id="137" name="bosco_v3_18_18_5" type="solid" x="576" y="736" width="96" height="32"/>
  <object id="138" name="bosco_v3_18_27_0" type="solid" x="864" y="576" width="96" height="32"/>
  <object id="139" name="bosco_v3_18_27_1" type="solid" x="864" y="608" width="96" height="32"/>
  <object id="140" name="bosco_v3_18_27_2" type="solid" x="864" y="640" width="96" height="32"/>
  <object id="141" name="bosco_v3_18_27_3" type="solid" x="864" y="672" width="96" height="32"/>
  <object id="142" name="bosco_v3_18_27_4" type="solid" x="864" y="704" width="96" height="32"/>
  <object id="143" name="bosco_v3_18_27_5" type="solid" x="864" y="736" width="96" height="32"/>
  <object id="144" name="bosco_single_18_30" type="solid" x="960" y="576" width="64" height="96"/>
  <object id="145" name="bosco_single_18_36" type="solid" x="1152" y="576" width="64" height="96"/>
  <object id="146" name="bosco_v3_21_0_0" type="solid" x="0" y="672" width="96" height="32"/>
  <object id="147" name="bosco_v3_21_0_1" type="solid" x="0" y="704" width="96" height="32"/>
  <object id="148" name="bosco_v3_21_0_2" type="solid" x="0" y="736" width="96" height="32"/>
  <object id="149" name="bosco_v3_21_0_3" type="solid" x="0" y="768" width="96" height="32"/>
  <object id="150" name="bosco_v3_21_0_4" type="solid" x="0" y="800" width="96" height="32"/>
  <object id="151" name="bosco_v3_21_0_5" type="solid" x="0" y="832" width="96" height="32"/>
  <object id="152" name="bosco_single_21_30" type="solid" x="960" y="672" width="64" height="96"/>
  <object id="153" name="bosco_v3_21_36_0" type="solid" x="1152" y="672" width="96" height="32"/>
  <object id="154" name="bosco_v3_21_36_1" type="solid" x="1152" y="704" width="96" height="32"/>
  <object id="155" name="bosco_v3_21_36_2" type="solid" x="1152" y="736" width="96" height="32"/>
  <object id="156" name="bosco_v3_21_36_3" type="solid" x="1152" y="768" width="96" height="32"/>
  <object id="157" name="bosco_v3_21_36_4" type="solid" x="1152" y="800" width="96" height="32"/>
  <object id="158" name="bosco_v3_21_36_5" type="solid" x="1152" y="832" width="96" height="32"/>
  <object id="160" name="bosco_v3_27_0_0" type="solid" x="0" y="864" width="96" height="32"/>
  <object id="161" name="bosco_v3_27_0_1" type="solid" x="0" y="896" width="96" height="32"/>
  <object id="162" name="bosco_v3_27_0_2" type="solid" x="0" y="928" width="96" height="32"/>
  <object id="163" name="bosco_v3_27_0_3" type="solid" x="0" y="960" width="96" height="32"/>
  <object id="164" name="bosco_v3_27_0_4" type="solid" x="0" y="992" width="96" height="32"/>
  <object id="165" name="bosco_v3_27_0_5" type="solid" x="0" y="1024" width="96" height="32"/>
  <object id="166" name="bosco_v3_27_3_0" type="solid" x="96" y="864" width="96" height="32"/>
  <object id="167" name="bosco_v3_27_3_1" type="solid" x="96" y="896" width="96" height="32"/>
  <object id="168" name="bosco_v3_27_3_2" type="solid" x="96" y="928" width="96" height="32"/>
  <object id="169" name="bosco_v3_27_3_3" type="solid" x="96" y="960" width="96" height="32"/>
  <object id="170" name="bosco_v3_27_3_4" type="solid" x="96" y="992" width="96" height="32"/>
  <object id="171" name="bosco_v3_27_3_5" type="solid" x="96" y="1024" width="96" height="32"/>
  <object id="172" name="bosco_single_27_6" type="solid" x="192" y="864" width="64" height="96"/>
  <object id="174" name="bosco_v3_27_12_0" type="solid" x="384" y="864" width="96" height="32"/>
  <object id="175" name="bosco_v3_27_12_1" type="solid" x="384" y="896" width="96" height="32"/>
  <object id="176" name="bosco_v3_27_12_2" type="solid" x="384" y="928" width="96" height="32"/>
  <object id="177" name="bosco_v3_27_12_3" type="solid" x="384" y="960" width="96" height="32"/>
  <object id="178" name="bosco_v3_27_12_4" type="solid" x="384" y="992" width="96" height="32"/>
  <object id="179" name="bosco_v3_27_12_5" type="solid" x="384" y="1024" width="96" height="32"/>
  <object id="180" name="bosco_v3_27_15_0" type="solid" x="480" y="864" width="96" height="32"/>
  <object id="181" name="bosco_v3_27_15_1" type="solid" x="480" y="896" width="96" height="32"/>
  <object id="182" name="bosco_v3_27_15_2" type="solid" x="480" y="928" width="96" height="32"/>
  <object id="183" name="bosco_v3_27_15_3" type="solid" x="480" y="960" width="96" height="32"/>
  <object id="184" name="bosco_v3_27_15_4" type="solid" x="480" y="992" width="96" height="32"/>
  <object id="185" name="bosco_v3_27_15_5" type="solid" x="480" y="1024" width="96" height="32"/>
  <object id="186" name="bosco_v3_27_18_0" type="solid" x="576" y="864" width="96" height="32"/>
  <object id="187" name="bosco_v3_27_18_1" type="solid" x="576" y="896" width="96" height="32"/>
  <object id="188" name="bosco_v3_27_18_2" type="solid" x="576" y="928" width="96" height="32"/>
  <object id="189" name="bosco_v3_27_18_3" type="solid" x="576" y="960" width="96" height="32"/>
  <object id="190" name="bosco_v3_27_18_4" type="solid" x="576" y="992" width="96" height="32"/>
  <object id="191" name="bosco_v3_27_18_5" type="solid" x="576" y="1024" width="96" height="32"/>
  <object id="192" name="bosco_v3_27_36_0" type="solid" x="1152" y="864" width="96" height="32"/>
  <object id="193" name="bosco_v3_27_36_1" type="solid" x="1152" y="896" width="96" height="32"/>
  <object id="194" name="bosco_v3_27_36_2" type="solid" x="1152" y="928" width="96" height="32"/>
  <object id="195" name="bosco_v3_27_36_3" type="solid" x="1152" y="960" width="96" height="32"/>
  <object id="196" name="bosco_v3_27_36_4" type="solid" x="1152" y="992" width="96" height="32"/>
  <object id="197" name="bosco_v3_27_36_5" type="solid" x="1152" y="1024" width="96" height="32"/>
  <object id="198" name="bosco_single_30_6" type="solid" x="192" y="960" width="64" height="96"/>
  <object id="200" name="bosco_v3_30_27_0" type="solid" x="864" y="960" width="96" height="32"/>
  <object id="201" name="bosco_v3_30_27_1" type="solid" x="864" y="992" width="96" height="32"/>
  <object id="202" name="bosco_v3_30_27_2" type="solid" x="864" y="1024" width="96" height="32"/>
  <object id="203" name="bosco_v3_30_27_3" type="solid" x="864" y="1056" width="96" height="32"/>
  <object id="204" name="bosco_v3_30_27_4" type="solid" x="864" y="1088" width="96" height="32"/>
  <object id="205" name="bosco_v3_30_27_5" type="solid" x="864" y="1120" width="96" height="32"/>
  <object id="206" name="bosco_single_30_30" type="solid" x="960" y="960" width="64" height="96"/>
  <object id="207" name="bosco_v3_30_33_0" type="solid" x="1056" y="960" width="96" height="32"/>
  <object id="208" name="bosco_v3_30_33_1" type="solid" x="1056" y="992" width="96" height="32"/>
  <object id="209" name="bosco_v3_30_33_2" type="solid" x="1056" y="1024" width="96" height="32"/>
  <object id="210" name="bosco_v3_30_33_3" type="solid" x="1056" y="1056" width="96" height="32"/>
  <object id="211" name="bosco_v3_30_33_4" type="solid" x="1056" y="1088" width="96" height="32"/>
  <object id="212" name="bosco_v3_30_33_5" type="solid" x="1056" y="1120" width="96" height="32"/>
  <object id="213" name="bosco_single_33_0" type="solid" x="0" y="1056" width="64" height="96"/>
  <object id="214" name="bosco_v3_33_3_0" type="solid" x="96" y="1056" width="96" height="32"/>
  <object id="215" name="bosco_v3_33_3_1" type="solid" x="96" y="1088" width="96" height="32"/>
  <object id="216" name="bosco_v3_33_3_2" type="solid" x="96" y="1120" width="96" height="32"/>
  <object id="217" name="bosco_v3_33_3_3" type="solid" x="96" y="1152" width="96" height="32"/>
  <object id="218" name="bosco_v3_33_3_4" type="solid" x="96" y="1184" width="96" height="32"/>
  <object id="219" name="bosco_v3_33_3_5" type="solid" x="96" y="1216" width="96" height="32"/>
  <object id="220" name="bosco_single_33_6" type="solid" x="192" y="1056" width="64" height="96"/>
  <object id="221" name="bosco_v3_33_18_0" type="solid" x="576" y="1056" width="96" height="32"/>
  <object id="222" name="bosco_v3_33_18_1" type="solid" x="576" y="1088" width="96" height="32"/>
  <object id="223" name="bosco_v3_33_18_2" type="solid" x="576" y="1120" width="96" height="32"/>
  <object id="224" name="bosco_v3_33_18_3" type="solid" x="576" y="1152" width="96" height="32"/>
  <object id="225" name="bosco_v3_33_18_4" type="solid" x="576" y="1184" width="96" height="32"/>
  <object id="226" name="bosco_v3_33_18_5" type="solid" x="576" y="1216" width="96" height="32"/>
  <object id="227" name="bosco_v3_33_30_0" type="solid" x="960" y="1056" width="96" height="32"/>
  <object id="228" name="bosco_v3_33_30_1" type="solid" x="960" y="1088" width="96" height="32"/>
  <object id="229" name="bosco_v3_33_30_2" type="solid" x="960" y="1120" width="96" height="32"/>
  <object id="230" name="bosco_v3_33_30_3" type="solid" x="960" y="1152" width="96" height="32"/>
  <object id="231" name="bosco_v3_33_30_4" type="solid" x="960" y="1184" width="96" height="32"/>
  <object id="232" name="bosco_v3_33_30_5" type="solid" x="960" y="1216" width="96" height="32"/>
  <object id="233" name="bosco_single_33_36" type="solid" x="1152" y="1056" width="64" height="96"/>
  <object id="234" name="bosco_single_36_0" type="solid" x="0" y="1152" width="64" height="96"/>
  <object id="235" name="bosco_v3_36_6_0" type="solid" x="192" y="1152" width="96" height="32"/>
  <object id="236" name="bosco_v3_36_6_1" type="solid" x="192" y="1184" width="96" height="32"/>
  <object id="237" name="bosco_v3_36_6_2" type="solid" x="192" y="1216" width="96" height="32"/>
  <object id="238" name="bosco_v3_36_6_3" type="solid" x="192" y="1248" width="96" height="32"/>
  <object id="239" name="bosco_v3_36_6_4" type="solid" x="192" y="1280" width="96" height="32"/>
  <object id="240" name="bosco_v3_36_6_5" type="solid" x="192" y="1312" width="96" height="32"/>
  <object id="241" name="bosco_single_36_27" type="solid" x="864" y="1152" width="64" height="96"/>
  <object id="242" name="bosco_single_36_33" type="solid" x="1056" y="1152" width="64" height="96"/>
  <object id="243" name="bosco_v3_36_36_0" type="solid" x="1152" y="1152" width="96" height="32"/>
  <object id="244" name="bosco_v3_36_36_1" type="solid" x="1152" y="1184" width="96" height="32"/>
  <object id="245" name="bosco_v3_36_36_2" type="solid" x="1152" y="1216" width="96" height="32"/>
  <object id="246" name="bosco_v3_36_36_3" type="solid" x="1152" y="1248" width="96" height="32"/>
  <object id="247" name="bosco_v3_36_36_4" type="solid" x="1152" y="1280" width="96" height="32"/>
  <object id="248" name="bosco_v3_36_36_5" type="solid" x="1152" y="1312" width="96" height="32"/>
  <object id="249" name="bosco_single_39_0" type="solid" x="0" y="1248" width="64" height="96"/>
  <object id="250" name="bosco_single_39_3" type="solid" x="96" y="1248" width="64" height="96"/>
  <object id="251" name="bosco_v3_39_18_0" type="solid" x="576" y="1248" width="96" height="32"/>
  <object id="252" name="bosco_v3_39_18_1" type="solid" x="576" y="1280" width="96" height="32"/>
  <object id="253" name="bosco_v3_39_18_2" type="solid" x="576" y="1312" width="96" height="32"/>
  <object id="254" name="bosco_v3_39_18_3" type="solid" x="576" y="1344" width="96" height="32"/>
  <object id="255" name="bosco_v3_39_18_4" type="solid" x="576" y="1376" width="96" height="32"/>
  <object id="256" name="bosco_v3_39_18_5" type="solid" x="576" y="1408" width="96" height="32"/>
  <object id="257" name="bosco_single_42_0" type="solid" x="0" y="1344" width="64" height="96"/>
  <object id="258" name="bosco_single_42_3" type="solid" x="96" y="1344" width="64" height="96"/>
  <object id="259" name="bosco_single_42_6" type="solid" x="192" y="1344" width="64" height="96"/>
  <object id="260" name="bosco_single_42_9" type="solid" x="288" y="1344" width="64" height="96"/>
  <object id="261" name="bosco_single_42_12" type="solid" x="384" y="1344" width="64" height="96"/>
  <object id="262" name="bosco_v3_42_15_0" type="solid" x="480" y="1344" width="96" height="32"/>
  <object id="263" name="bosco_v3_42_15_1" type="solid" x="480" y="1376" width="96" height="32"/>
  <object id="264" name="bosco_v3_42_15_2" type="solid" x="480" y="1408" width="96" height="32"/>
  <object id="265" name="bosco_v3_42_15_3" type="solid" x="480" y="1440" width="96" height="32"/>
  <object id="266" name="bosco_v3_42_15_4" type="solid" x="480" y="1472" width="96" height="32"/>
  <object id="267" name="bosco_v3_42_15_5" type="solid" x="480" y="1504" width="96" height="32"/>
  <object id="268" name="bosco_single_42_36" type="solid" x="1152" y="1344" width="64" height="96"/>
  <object id="269" name="bosco_single_45_0" type="solid" x="0" y="1440" width="64" height="96"/>
  <object id="270" name="bosco_single_45_18" type="solid" x="576" y="1440" width="64" height="96"/>
  <object id="271" name="bosco_single_45_36" type="solid" x="1152" y="1440" width="64" height="96"/>
  <object id="272" name="bosco_v3_48_0_0" type="solid" x="0" y="1536" width="96" height="32"/>
  <object id="273" name="bosco_v3_48_0_1" type="solid" x="0" y="1568" width="96" height="32"/>
  <object id="274" name="bosco_v3_48_0_2" type="solid" x="0" y="1600" width="96" height="32"/>
  <object id="275" name="bosco_v3_48_0_3" type="solid" x="0" y="1632" width="96" height="32"/>
  <object id="276" name="bosco_v3_48_0_4" type="solid" x="0" y="1664" width="96" height="32"/>
  <object id="277" name="bosco_v3_48_0_5" type="solid" x="0" y="1696" width="96" height="32"/>
  <object id="278" name="bosco_single_48_27" type="solid" x="864" y="1536" width="64" height="96"/>
  <object id="279" name="bosco_single_48_30" type="solid" x="960" y="1536" width="64" height="96"/>
  <object id="280" name="bosco_v3_48_33_0" type="solid" x="1056" y="1536" width="96" height="32"/>
  <object id="281" name="bosco_v3_48_33_1" type="solid" x="1056" y="1568" width="96" height="32"/>
  <object id="282" name="bosco_v3_48_33_2" type="solid" x="1056" y="1600" width="96" height="32"/>
  <object id="283" name="bosco_v3_48_33_3" type="solid" x="1056" y="1632" width="96" height="32"/>
  <object id="284" name="bosco_v3_48_33_4" type="solid" x="1056" y="1664" width="96" height="32"/>
  <object id="285" name="bosco_v3_48_33_5" type="solid" x="1056" y="1696" width="96" height="32"/>
  <object id="286" name="bosco_single_48_36" type="solid" x="1152" y="1536" width="64" height="96"/>
  <object id="287" name="bosco_v3_51_27_0" type="solid" x="864" y="1632" width="96" height="32"/>
  <object id="288" name="bosco_v3_51_27_1" type="solid" x="864" y="1664" width="96" height="32"/>
  <object id="289" name="bosco_v3_51_27_2" type="solid" x="864" y="1696" width="96" height="32"/>
  <object id="290" name="bosco_v3_51_27_3" type="solid" x="864" y="1728" width="96" height="32"/>
  <object id="291" name="bosco_v3_51_27_4" type="solid" x="864" y="1760" width="96" height="32"/>
  <object id="292" name="bosco_v3_51_27_5" type="solid" x="864" y="1792" width="96" height="32"/>
  <object id="293" name="bosco_single_51_30" type="solid" x="960" y="1632" width="64" height="96"/>
  <object id="294" name="bosco_single_51_36" type="solid" x="1152" y="1632" width="64" height="96"/>
  <object id="7" x="811.194" y="973.433" width="7.09795" height="581.018"/>
  <object id="8" x="815.25" y="1540.26" width="1.01399" height="204.827"/>
  <object id="9" x="633.746" y="1778.54" width="171.365" height="104.441"/>
  <object id="10" x="786.859" y="1710.61" width="34.4758" height="63.8816"/>
  <object id="11" x="489.759" y="1582.84" width="12.1679" height="322.45"/>
  <object id="12" x="496.857" y="1575.75" width="191.645" height="12.1679"/>
  <object id="13" x="682.417" y="1059.62" width="16.2239" height="520.178"/>
  <object id="14" x="680.389" y="842.628" width="12.1679" height="44.6157"/>
  <object id="15" x="683.431" y="366.052" width="9.12594" height="416.751"/>
  <object id="16" x="486.717" y="137.903" width="16.2239" height="215.981"/>
  <object id="17" x="494.829" y="131.819" width="196.715" height="18.2519"/>
  <object id="18" x="683.431" y="8.11194" width="9.12594" height="124.721"/>
  <object id="19" x="810.18" y="-1.01399" width="15.2099" height="332.59"/>
  <object id="20" x="813.222" y="327.52" width="15.2099" height="446.157"/>
  <object id="21" x="820.32" y="781.789" width="193.673" height="11.1539"/>
 </objectgroup>
 <objectgroup color="#00ff00" id="5" name="eventi">
  <object id="1" name="warp_next_city" type="warp_next_city" x="736" y="0" width="32" height="32">
   <properties>
    <property name="note" value="uscita nord verso la prossima citta"/>
   </properties>
  </object>
  <object id="2" name="warp_summit" type="warp_summit" x="1085.97" y="219.615" width="32" height="32">
   <properties>
    <property name="note" value="uscita verso la vetta della montagna"/>
   </properties>
  </object>
  <object id="3" name="warp_prev_city" type="warp_prev_city" x="544" y="1856" width="32" height="32">
   <properties>
    <property name="note" value="ingresso sud, ritorno alla citta precedente"/>
   </properties>
  </object>
  <object id="4" name="trainer_4" type="trainer" x="640" y="1664" width="32" height="32">
   <properties>
    <property name="facing" value="S"/>
    <property name="note" value="presso la curva, guarda a sud"/>
   </properties>
  </object>
  <object id="5" name="trainer_5" type="trainer" x="736" y="896" width="32" height="32">
   <properties>
    <property name="facing" value="N"/>
    <property name="note" value="al bivio, guarda verso il ramo nord"/>
   </properties>
  </object>
  <object id="6" name="trainer_6" type="trainer" x="1056" y="576" width="32" height="32">
   <properties>
    <property name="facing" value="S"/>
    <property name="note" value="lungo il ramo verso la cima"/>
   </properties>
  </object>
 </objectgroup>
</map>
