<?xml version="1.0" encoding="UTF-8"?>
<map version="1.10" tiledversion="1.12.2" orientation="orthogonal" renderorder="right-down" width="40" height="60" tilewidth="32" tileheight="32" infinite="0" nextlayerid="6" nextobjectid="28">
 <tileset firstgid="1" source="../Outside_pallet.tsx"/>
 <tileset firstgid="4017" source="../Sea.tsj"/>
 <tileset firstgid="4115" source="../Waterfall crest.tsj"/>
 <tileset firstgid="4119" source="../Waterfall.tsj"/>
 <tileset firstgid="4126" source="../Waterfall bottom.tsj"/>
 <tileset firstgid="4130" source="../../outside.tsx"/>
 <layer id="1" name="ground" width="40" height="60">
  <data encoding="csv">
3,3,5,4,4,4,3,3,6,154,155,156,4,4,3,4,6,4,6,5,3,4,6,5,5,4,4,5,3,3,6,3,5,5,5,3,6,3,6,3,
5,5,4,3,3,4,5,3,4,162,163,164,6,5,4,5,5,4,5,3,4,4,4,6,6,5,4,5,3,4,3,5,6,5,3,4,5,4,6,6,
6,4,5,4,4,5,6,6,5,162,163,164,3,3,3,4,4,6,3,6,6,6,5,3,3,5,785,786,786,788,789,789,788,789,789,789,789,789,789,790,
4,3,5,6,3,3,5,5,4,162,163,164,3,6,3,4,4,6,4,5,6,4,4,5,6,5,793,794,794,796,797,797,796,797,797,797,797,797,797,798,
3,3,5,3,4,5,6,4,4,162,163,164,6,4,3,3,6,5,6,6,6,3,3,3,6,5,793,794,794,796,797,797,796,797,797,797,797,797,797,798,
3,3,3,4,4,6,6,6,4,162,163,164,6,3,6,5,6,5,6,6,4,4,5,4,3,3,793,794,794,796,797,797,796,797,797,797,797,797,797,798,
3,3,6,5,5,4,5,4,5,162,163,164,6,5,3,3,6,3,3,4,5,4,5,3,4,5,793,794,794,796,797,797,796,797,797,797,797,797,797,798,
4,5,4,5,6,5,3,3,6,162,163,164,5,4,5,4,6,6,3,3,3,4,3,5,4,6,793,794,794,796,797,797,804,805,805,805,805,805,805,806,
4,6,3,4,5,6,4,5,4,162,163,164,6,4,4,6,5,5,4,4,3,4,6,5,5,3,793,794,794,796,797,797,797,797,797,4114,4114,797,797,798,
6,3,6,4,5,3,6,3,4,162,163,164,5,5,3,5,5,6,5,6,5,4,4,6,6,4,793,794,794,796,797,797,797,797,797,4122,4122,797,797,798,
3,5,5,3,4,5,4,4,4,162,163,164,6,3,6,6,4,6,6,6,4,4,3,3,6,4,793,794,794,796,797,797,797,797,797,4122,4122,797,797,798,
6,5,4,5,6,4,5,6,3,162,163,164,5,5,3,4,4,4,6,4,4,3,6,6,5,6,793,794,794,796,797,797,797,797,797,4122,4122,797,797,798,
6,4,5,6,6,3,6,5,6,162,163,164,3,6,3,3,6,4,6,4,3,5,6,5,4,6,793,794,794,804,805,805,805,805,805,4122,4122,805,805,806,
3,4,4,3,4,4,4,6,3,162,163,164,5,4,3,4,5,3,3,5,6,6,4,3,4,3,793,794,794,794,794,794,794,794,794,4122,4122,794,794,795,
6,4,6,4,5,6,6,6,5,162,163,164,5,6,4,6,6,5,3,6,5,4,6,4,5,5,793,794,794,794,794,794,794,794,794,4122,4122,794,794,795,
3,5,4,6,4,5,5,6,5,162,163,164,6,5,5,5,4,3,4,5,3,4,4,4,6,5,793,794,794,794,794,794,794,794,794,4122,4122,794,794,795,
4,6,3,3,5,6,6,6,5,162,163,164,6,3,3,6,6,3,3,4,4,5,3,4,3,6,793,794,794,794,794,794,794,794,794,4122,4122,794,794,795,
4,4,3,4,3,6,6,6,5,162,163,164,5,6,3,4,5,4,6,3,4,4,5,4,3,3,793,794,794,794,794,794,794,794,794,4122,4122,794,794,795,
5,5,3,3,4,3,5,3,4,162,163,163,155,155,155,155,155,155,155,155,156,3,4,5,6,6,793,794,794,794,794,794,794,794,794,4122,4122,794,794,795,
4,5,6,6,3,4,5,4,5,162,163,163,163,163,163,163,163,163,163,163,164,6,3,4,6,5,801,802,802,802,802,802,802,802,802,4125,4125,802,802,803,
5,3,5,5,6,4041,4042,4042,4042,4042,4042,4042,4042,4042,4042,4042,4042,4042,1206,1207,1208,4042,4042,4042,4042,4042,4042,4042,4042,4042,4042,4042,4042,4042,4042,4042,4042,4042,4042,4043,
6,3,5,6,5,4089,4090,4090,4090,4090,4090,4090,4090,4090,4090,4090,4090,4090,1214,1215,1216,4090,4090,4090,4090,4090,4090,4090,4090,4090,4090,4090,4090,4090,4090,4090,4090,4090,4090,4091,
6,5,3,6,5,4,3,6,5,5,6,5,6,5,4,6,6,3,162,163,164,5,5,3,6,5,3,3,6,5,4,5,4,4,5,4,3,3,5,6,
3,5,4,3,5,5,6,4,4,4,5,5,4,5,6,5,5,3,162,163,164,4,6,5,3,6,3,5,3,6,5,5,6,5,3,4,6,3,5,4,
3,6,5,6,3,4,3,3,5,6,3,3,4,4,6,6,5,6,162,163,164,6,6,5,3,5,4,6,6,4,5,3,5,5,3,6,5,4,3,6,
3,4,3,3,5,4,4,4,3,4,4,4,5,4,3,5,4,4,162,163,164,3,4,3,5,4,5,3,4,5,3,4,6,3,3,6,6,5,3,6,
4,3,5,6,3,3,6,6,6,3,6,6,154,155,155,155,155,155,163,163,164,5,6,6,3,3,4,6,6,4,6,5,6,6,6,3,5,6,5,5,
5,4,6,3,3,3,3,6,3,5,4,3,162,163,163,163,163,163,163,163,164,3,4,4,6,4,3,5,5,3,5,4,6,3,5,3,4,5,5,5,
5,3,4,4,6,3,4,3,3,4,6,6,162,163,163,171,171,171,171,171,172,4,3,3,5,6,6,6,6,6,5,4,3,5,6,3,5,6,5,3,
4,6,3,3,4,5,4,4,5,5,5,3,162,163,164,4,4,6,4,5,3,6,3,6,3,6,3,5,6,6,6,5,3,6,3,5,4,6,5,3,
6,3,4,6,6,3,6,5,5,4,5,4,162,163,164,5,5,4,4,3,4,5,4,4,4,3,4,6,6,6,5,5,4,6,3,6,6,5,5,3,
5,3,5,6,6,3,3,5,5,3,3,6,162,163,164,4,5,6,4,3,6,3,5,3,4,3,4,6,6,4,5,5,5,6,6,5,3,5,3,5,
3,6,5,5,4,5,3,4,5,5,6,4,162,163,164,5,4,3,6,5,3,5,5,4,4,5,6,4,4,4,4,3,5,3,3,5,4,6,4,4,
4,4,6,3,6,5,4,6,5,6,4,4,162,163,164,5,6,6,5,6,6,4,4,4,5,3,6,5,3,3,5,3,4,5,6,4,6,3,4,6,
5,3,6,3,6,5,4,6,3,5,4,3,162,163,164,4,4,3,5,6,4,6,6,3,3,3,5,4,4,6,3,5,4,5,3,3,4,6,6,3,
3,6,3,4,4,5,6,3,5,4,6,4,162,163,164,3,6,6,3,6,5,5,3,5,3,5,4,3,5,4,3,5,5,4,6,6,4,4,3,6,
3,5,4,3,4,3,5,5,6,6,5,3,162,163,164,3,5,5,3,5,6,6,6,6,5,4,6,6,5,5,3,6,3,6,4,5,5,3,3,5,
5,5,6,6,4,6,5,6,3,5,6,5,162,163,164,5,4,3,4,6,3,4,3,4,5,5,6,3,4,6,5,5,6,3,4,5,6,5,5,4,
3,3,4,6,6,3,5,5,6,4,5,6,162,163,164,3,6,4,6,3,5,5,3,5,5,4,4,5,4,3,4,4,4,6,3,5,5,6,4,3,
3,5,6,6,6,6,3,4,5,3,6,6,162,163,164,4,6,3,3,4,5,4,4,5,4,5,5,3,5,4,5,4,5,3,4,4,4,5,3,3,
3,3,5,4,154,155,155,155,155,155,155,155,163,163,164,3,4,6,6,6,6,4,5,4,5,5,5,6,4,5,3,5,4,6,3,5,6,4,4,3,
3,5,6,6,162,163,163,163,163,163,163,163,163,163,164,3,3,6,6,4,4,5,3,3,5,6,6,5,3,3,6,4,5,5,6,5,3,6,3,4,
5,5,3,6,162,163,163,171,171,171,171,171,171,171,172,6,3,3,3,4,5,6,6,4,4,5,5,4,6,5,5,6,5,6,3,5,5,3,6,5,
3,6,5,4,162,163,164,6,4,4,3,3,4,3,6,5,6,4,6,4,6,6,3,4,4,5,6,6,5,4,6,5,5,5,6,4,4,5,5,4,
5,5,4,6,162,163,164,5,5,3,6,6,5,4,5,3,5,3,5,6,5,6,4,4,5,5,4,3,4,4,3,4,4,3,3,6,5,6,3,4,
3,4,6,6,162,163,164,5,5,3,3,4,3,4,6,4,3,6,6,4,5,3,3,5,4136,5,5,6,6,4,6,5,4,3,5,4,6,5,4,3,
5,5,4,4,162,163,164,3,6,3,4,4,6,5,4,3,5,6,4,6,5,5,5,3,5,5,4,3,3,6,5,4,6,5,3,5,5,4,4,4,
6,4,6,5,162,163,164,4,3,949,5,3,3,3,4,4,4,5,6,3,4,6,3,6,3,6,4,6,6,3,6,5,3,6,5,3,4,3,3,6,
5,3,3,3,162,163,164,6,4,4,6,5,6,6,6,6,3,4,5,3,4,6,4,4,3,3,5,6,6,6,4,4,6,5,4,5,4,3,3,6,
3,4,4,3,162,163,164,3,4,3,6,6,4,4,3,4,5,4,5,5,4,5,4,4,6,5,5,3,4,6,6,3,5,6,5,6,6,4,5,6,
4,6,4,4,162,163,164,3,6,6,4,6,4,5,4,5,3,6,5,3,4,3,5,6,3,3,4,4,6,4,5,5,3,4,4,3,6,4,4,6,
4,5,5,6,162,163,164,5,5,6,6,3,6,5,4,5,5,6,3,4,4,3,5,6,5,4,4,5,4,6,4,6,5,5,6,6,6,4,5,4,
4,6,4,3,162,163,164,3,6,4,4,3,4,3,4,6,5,3,6,6,3,3,6,3,3,5,5,3,6,4,3,3,4,4,4,5,5,5,6,3,
5,6,6,4,162,163,164,3,3,6,6,6,6,3,3,4,3,6,6,5,3,3,4,4,6,5,3,3,5,3,4,5,3,4,4,6,3,5,4,4,
6,5,6,4,162,163,164,3,6,4,3,5,6,5,3,5,6,6,4,5,6,6,4,6,3,5,4,3,3,5,4,6,4,6,5,5,3,3,3,5,
6,5,5,3,162,163,164,6,6,6,3,3,3,5,3,5,6,3,5,6,6,3,4,4,6,4,4,5,5,5,6,4,3,4,6,5,6,5,6,3,
5,5,4,6,162,163,164,4,5,3,6,5,6,5,6,5,6,4,5,5,4,6,5,4,6,5,5,6,4,5,6,5,6,5,3,4,4,3,6,4,
6,5,3,6,162,163,164,4,5,4,6,6,3,6,6,6,6,3,5,3,3,4,5,4,3,6,5,6,3,3,3,5,4,4,6,5,6,6,4,5,
3,6,3,5,162,163,164,4,5,5,5,6,4,6,5,6,3,6,6,5,3,5,3,3,3,5,3,4,4,4,4,5,6,6,4,6,4,4,6,6,
3,4,6,6,170,171,172,4,5,3,3,4,5,5,4,6,3,5,6,5,6,6,3,5,5,6,4,5,3,4,5,3,4,5,3,4,5,4,6,6
</data>
 </layer>
 <layer id="2" name="deco_sotto" width="40" height="60">
  <data encoding="csv">
0,0,0,0,0,0,0,0,0,0,0,0,0,0,0,0,0,0,0,0,0,0,0,0,0,0,0,0,0,0,0,0,0,0,0,0,0,0,0,0,
0,0,0,0,0,0,0,0,0,0,0,0,0,0,0,0,0,0,0,0,0,0,0,0,0,0,0,0,0,0,0,0,0,0,0,0,0,0,0,0,
0,0,0,0,0,0,0,0,0,0,0,0,0,0,0,0,0,0,0,0,0,0,0,0,0,0,0,0,0,0,0,0,0,0,0,0,0,0,0,0,
0,0,0,0,0,0,0,0,0,0,0,0,0,0,0,0,0,0,0,0,0,0,0,0,0,0,0,0,0,0,0,0,0,0,4044,4045,4045,4045,4045,4045,
0,0,0,0,0,0,0,0,0,0,0,0,0,0,0,0,0,0,0,0,0,0,0,0,0,0,0,0,0,0,0,0,0,0,4068,4069,4069,4069,4069,4069,
0,0,0,0,0,0,0,0,0,7,7,7,7,7,7,7,7,0,0,0,0,0,0,0,0,0,0,0,0,0,0,0,0,0,4092,4069,4069,4069,4069,4069,
0,0,0,0,0,0,0,0,0,7,7,7,7,7,7,7,7,0,0,0,0,0,0,0,0,0,0,0,0,0,0,0,0,0,746,4114,4114,746,746,746,
0,0,0,0,0,0,0,0,0,7,7,7,7,7,7,7,7,0,0,0,0,0,0,0,0,0,0,0,0,0,0,0,0,0,0,4114,4114,0,0,0,
0,0,0,0,0,0,0,0,0,7,7,7,7,7,7,7,7,0,0,0,0,0,0,0,0,0,0,0,0,0,0,0,0,0,0,4121,4121,0,0,0,
0,0,0,0,0,0,0,0,0,7,7,7,7,7,7,7,7,0,0,0,0,0,0,0,0,0,0,0,0,0,0,0,0,0,0,0,0,0,0,0,
0,0,0,0,0,0,0,0,0,7,7,7,7,7,7,7,7,0,0,0,0,0,0,0,0,0,0,0,0,0,0,0,0,0,0,0,0,0,0,0,
0,0,0,0,0,0,0,0,0,7,7,7,7,7,7,7,7,0,0,0,0,0,0,0,0,0,0,0,0,0,0,0,0,0,0,0,0,0,0,0,
0,0,0,0,0,0,0,0,0,7,7,32,7,32,7,7,7,0,0,0,0,0,0,0,0,0,0,0,0,0,0,0,0,0,0,0,0,0,0,0,
0,0,0,0,0,0,0,0,0,7,7,32,7,7,7,7,7,0,0,0,0,0,0,0,0,0,0,0,0,0,0,0,0,0,0,0,0,0,0,0,
0,0,0,0,0,0,0,0,0,7,7,7,7,7,7,7,7,0,0,0,0,0,0,0,0,0,0,0,0,0,0,0,0,0,0,0,0,0,0,0,
0,0,0,0,0,0,0,0,0,0,0,0,0,0,0,0,0,0,0,0,7,7,7,7,7,7,0,0,949,0,0,0,0,0,0,0,0,0,0,0,
0,0,0,0,0,0,0,0,0,0,0,0,0,0,0,0,0,0,0,0,7,32,7,7,7,7,0,0,0,0,0,0,0,0,0,0,0,0,0,0,
0,0,0,0,0,0,0,0,0,0,0,0,0,0,0,0,0,0,0,0,7,7,7,7,7,7,0,0,0,0,0,0,0,0,0,0,0,0,0,0,
0,0,0,0,0,0,0,0,0,0,0,0,0,0,0,0,0,0,0,0,7,7,7,7,7,7,0,0,0,0,0,0,0,0,0,0,0,0,0,0,
0,0,0,0,0,0,0,0,0,0,0,0,0,0,0,0,0,0,0,0,0,0,0,0,0,0,0,0,0,0,0,0,0,0,0,0,0,0,0,0,
0,0,0,0,0,0,0,0,0,0,0,0,0,0,0,0,0,0,0,0,0,0,0,0,0,0,0,0,0,0,0,0,0,0,0,0,0,0,0,4048,
0,0,0,0,0,0,0,0,0,0,0,0,0,0,0,0,0,0,0,0,0,0,0,0,0,0,0,0,0,0,0,0,0,0,0,0,0,0,0,4075,
0,0,0,0,0,4875,4875,4875,4875,4875,4875,4875,4875,4875,4875,4875,4875,4875,0,0,0,4875,4875,4875,4875,4875,4875,4875,4875,4875,4875,4875,4875,4875,4875,4875,4875,4875,4875,4875,
0,0,0,0,0,0,0,0,0,0,0,0,0,0,0,0,0,0,0,0,0,0,0,0,0,0,0,0,0,0,0,0,0,0,0,0,0,0,0,0,
0,0,0,0,0,0,0,0,0,0,0,0,0,0,0,0,0,0,0,0,0,0,0,0,0,0,0,0,0,0,0,0,0,0,0,0,0,0,0,0,
0,0,0,0,0,0,0,0,0,0,0,0,0,0,0,0,0,0,0,0,0,0,0,0,0,0,0,0,0,0,0,0,0,0,0,0,0,0,0,0,
0,0,0,0,0,0,0,0,0,0,0,0,0,0,0,0,0,0,0,0,0,0,0,0,0,0,0,0,0,0,0,0,0,0,0,0,0,0,0,0,
0,0,0,0,0,0,0,0,0,0,0,0,0,0,0,0,0,0,0,0,0,0,0,0,0,0,0,0,0,0,0,0,0,0,0,0,0,0,0,0,
0,0,0,0,0,0,0,0,0,0,0,0,0,0,0,0,0,0,0,0,0,0,0,0,0,0,0,0,0,0,0,0,0,0,0,0,0,0,0,0,
0,0,0,0,0,0,0,0,0,0,0,0,0,0,0,0,0,0,0,0,0,0,0,0,0,0,0,0,0,0,0,0,0,0,0,0,0,0,0,0,
0,0,0,0,0,0,0,0,0,0,0,0,7,7,7,0,0,0,0,0,0,0,0,0,0,0,0,0,0,0,0,0,0,0,0,0,0,0,0,0,
0,0,0,0,0,0,0,0,0,0,0,0,7,7,7,0,0,0,0,0,0,0,0,0,0,0,0,0,0,0,0,0,0,0,0,0,0,0,0,0,
0,0,0,0,0,0,0,0,0,0,0,0,7,7,7,0,0,0,0,0,0,0,0,0,0,0,0,0,0,0,0,0,0,0,0,0,0,0,0,0,
0,0,0,0,0,0,0,0,0,0,0,0,32,7,7,0,0,0,0,0,0,0,0,0,0,0,0,0,0,0,0,0,0,0,0,0,0,0,0,0,
0,0,0,0,0,0,0,0,0,0,0,0,0,0,0,0,0,0,0,0,0,0,0,0,0,0,0,0,0,0,0,0,0,0,0,0,0,0,0,0,
0,0,0,0,0,0,0,0,0,0,0,0,0,0,0,0,0,0,0,0,0,0,0,0,0,0,0,0,0,0,0,0,0,0,0,0,0,0,0,0,
0,0,0,0,0,0,0,0,0,0,0,0,0,0,0,0,0,0,0,0,0,0,0,0,0,0,0,0,0,0,0,0,0,0,0,0,0,0,0,0,
0,0,0,0,0,0,0,0,0,0,0,0,0,0,0,0,0,0,0,0,0,0,0,0,0,0,0,0,0,0,0,0,0,0,0,0,0,0,0,0,
0,0,0,0,0,0,0,0,0,0,0,0,0,0,0,0,0,0,0,0,0,0,0,0,0,0,0,0,0,0,0,0,0,0,0,0,0,0,0,0,
0,0,0,0,0,0,0,0,0,0,0,0,0,0,0,0,0,0,0,0,0,0,0,0,0,0,0,0,0,0,0,0,0,0,0,0,0,0,0,0,
0,0,0,0,0,0,0,0,0,0,0,0,0,0,0,0,0,0,0,0,0,0,0,0,0,0,0,0,0,0,0,0,0,0,0,0,0,0,0,0,
0,0,0,0,0,0,0,0,0,0,7,7,7,7,7,0,0,0,0,0,0,0,0,0,0,0,0,0,0,0,0,0,0,0,0,0,0,0,0,0,
0,0,0,0,0,0,0,0,0,0,7,7,7,7,7,0,0,0,0,0,0,0,0,0,0,0,0,0,0,0,0,0,0,0,0,0,0,0,0,0,
0,0,0,0,0,0,0,0,0,0,7,7,7,32,7,0,0,0,0,0,0,0,0,0,0,0,0,0,0,0,0,0,0,0,0,0,0,0,0,0,
0,0,0,0,0,0,0,0,0,0,0,0,0,0,0,0,0,0,0,0,0,0,0,0,0,0,0,0,0,0,0,0,0,0,0,0,0,0,0,0,
0,0,0,0,0,0,0,7,7,7,7,7,7,0,0,0,0,0,0,0,0,0,0,0,0,0,0,0,0,0,0,0,0,0,0,0,0,0,0,0,
0,0,0,0,0,0,0,7,7,7,7,7,7,0,0,0,0,0,0,0,0,0,0,0,0,0,0,0,0,0,0,0,0,0,0,0,0,0,0,0,
0,0,0,0,0,0,0,7,7,7,7,949,7,0,0,0,0,0,0,0,0,0,0,0,0,0,0,0,0,0,0,0,0,0,0,0,0,0,0,0,
0,0,0,0,0,0,0,7,7,7,7,7,7,0,0,0,0,0,0,0,0,0,0,0,0,0,0,0,0,0,0,0,0,0,0,0,0,0,0,0,
0,0,0,0,0,0,0,7,32,7,7,7,7,0,0,0,0,0,0,0,0,0,0,0,0,0,0,0,0,0,0,0,0,0,0,0,0,0,0,0,
0,0,0,0,0,0,0,7,7,7,7,7,7,0,0,0,0,0,0,0,0,0,0,0,0,0,0,0,0,0,0,0,0,0,0,0,0,0,0,0,
0,0,0,0,0,0,0,0,0,0,0,0,0,0,0,0,0,0,0,0,0,0,0,0,0,0,0,0,0,0,0,0,0,0,0,0,0,0,0,0,
0,0,0,0,0,0,0,0,0,0,0,0,0,0,0,0,0,0,0,0,0,0,0,0,0,0,0,0,0,0,0,0,0,0,0,0,0,0,0,0,
0,0,0,0,0,0,0,0,0,0,0,0,0,0,0,0,0,0,0,0,0,0,0,0,0,0,0,0,0,0,0,0,0,0,0,0,0,0,0,0,
0,0,0,0,0,0,0,0,0,0,0,0,0,0,0,0,0,0,0,0,0,0,0,0,0,0,0,0,0,0,0,0,0,0,0,0,0,0,0,0,
0,0,0,0,0,0,0,0,0,0,0,0,0,0,0,0,0,0,0,0,0,0,0,0,0,0,0,0,0,0,0,0,0,0,0,0,0,0,0,0,
0,0,0,0,0,0,0,0,0,0,0,0,0,0,0,0,0,0,0,0,0,0,0,0,0,0,0,0,0,0,0,0,0,0,0,0,0,0,0,0,
0,0,0,0,0,0,0,0,0,0,0,0,0,0,0,0,0,0,0,0,0,0,0,0,0,0,0,0,0,0,0,0,0,0,0,0,0,0,0,0,
0,0,0,0,0,0,0,0,0,0,0,0,0,0,0,0,0,0,0,0,0,0,0,0,0,0,0,0,0,0,0,0,0,0,0,0,0,0,0,0,
0,0,0,0,0,0,0,0,0,0,0,0,0,0,0,0,0,0,0,0,0,0,0,0,0,0,0,0,0,0,0,0,0,0,0,0,0,0,0,0
</data>
 </layer>
 <layer id="3" name="edifici" width="40" height="60">
  <data encoding="csv">
564,565,566,564,565,566,564,565,566,0,0,0,421,422,0,421,422,0,564,565,566,421,422,0,421,422,0,0,0,0,0,0,0,0,0,0,0,0,0,0,
572,573,574,572,573,574,572,573,574,954,0,0,429,430,0,429,430,0,572,573,574,429,430,0,429,430,0,0,0,0,0,0,0,0,0,0,0,0,0,0,
580,581,582,580,581,582,580,581,582,0,0,0,437,438,0,437,438,0,580,581,582,437,438,0,437,438,0,0,0,0,0,0,0,0,0,0,0,0,0,0,
588,589,590,588,589,590,588,589,590,0,0,0,0,0,0,0,0,0,588,589,590,564,565,566,421,422,0,0,0,0,0,0,0,0,0,0,0,0,0,0,
596,597,598,596,597,598,596,597,598,0,0,0,0,0,0,0,0,0,596,597,598,572,573,574,429,430,0,0,0,0,0,0,0,0,0,0,0,0,0,0,
604,605,606,604,605,606,604,605,606,0,0,0,0,0,0,0,0,0,604,605,606,580,581,582,437,438,0,0,0,0,0,0,0,0,0,0,0,0,0,0,
421,422,0,564,565,566,564,565,566,0,0,0,0,0,0,0,0,0,421,422,0,588,589,590,421,422,0,0,0,0,0,0,0,0,4885,4118,4118,4886,0,0,
429,430,0,572,573,574,572,573,574,0,0,0,0,0,0,0,0,0,429,430,0,596,597,598,429,430,0,0,0,0,0,0,0,0,0,4122,4122,0,0,0,
437,438,0,580,581,582,580,581,582,0,0,0,0,0,0,0,0,0,437,438,0,604,605,606,437,438,0,0,0,0,0,0,0,0,4885,0,0,4886,0,0,
564,565,566,588,589,590,588,589,590,0,0,0,0,0,0,0,0,0,421,422,0,421,422,0,421,422,0,0,0,0,0,0,0,0,4885,0,0,4886,0,0,
572,573,574,596,597,598,596,597,598,0,0,0,0,0,0,0,0,0,429,430,0,429,430,0,429,430,0,0,0,0,0,0,0,0,4885,0,0,4886,0,0,
580,581,582,604,605,606,604,605,606,0,0,0,0,0,0,0,0,0,437,438,0,437,438,0,437,438,0,0,0,0,0,0,0,0,4885,0,0,4886,0,0,
588,589,590,564,565,566,564,565,566,0,0,0,0,0,0,0,0,0,421,422,0,421,422,0,421,422,0,0,0,0,0,0,0,0,0,0,0,0,0,0,
596,597,598,572,573,574,572,573,574,0,0,0,0,0,0,0,0,0,429,430,0,429,430,0,429,430,0,0,0,0,0,0,0,0,4885,0,0,4886,0,0,
604,605,606,580,581,582,580,581,582,0,0,0,0,0,0,0,0,0,437,438,0,437,438,0,437,438,0,0,0,0,0,0,0,0,4885,0,0,4886,0,0,
421,422,0,588,589,590,588,589,590,0,0,0,421,422,0,421,422,0,421,422,0,0,0,0,0,0,0,0,0,0,0,0,0,0,4885,0,0,4886,0,0,
429,430,0,596,597,598,596,597,598,0,0,0,429,430,0,429,430,0,429,430,0,0,0,0,0,0,0,0,0,0,0,0,0,0,4885,0,0,4886,0,0,
437,438,0,604,605,606,604,605,606,0,0,0,437,438,0,437,438,0,437,438,0,0,0,0,0,0,0,0,0,0,0,0,0,0,4885,0,0,4886,0,0,
421,422,0,421,422,0,0,0,0,0,0,0,0,0,0,0,0,0,0,0,0,0,0,0,0,0,0,0,0,0,0,0,0,0,4885,0,0,4886,0,0,
429,430,0,429,430,0,0,0,0,0,0,0,0,0,0,0,0,0,0,0,0,0,0,0,0,0,0,0,0,0,0,0,0,0,0,4122,4122,0,0,0,
437,438,0,437,438,0,0,0,0,0,0,0,0,0,0,0,0,0,0,0,0,0,0,0,0,0,0,0,0,0,0,0,0,0,0,4127,4127,0,0,0,
421,422,0,421,422,0,0,0,0,0,0,0,0,0,0,0,0,0,0,0,0,0,0,0,0,0,0,0,0,0,0,0,0,0,0,0,0,0,0,0,
429,430,0,429,430,0,0,0,0,0,0,0,0,0,0,0,0,0,0,0,0,0,0,0,0,0,0,0,0,0,0,0,0,0,0,0,0,0,0,0,
437,438,0,437,438,0,0,0,0,0,0,0,0,0,0,0,0,0,0,0,0,0,0,0,0,0,0,0,0,0,0,0,0,0,0,0,0,0,0,0,
421,422,0,564,565,566,564,565,566,421,422,0,0,0,0,0,0,0,0,0,0,421,422,0,564,565,566,421,422,0,421,422,0,564,565,566,421,422,0,0,
429,430,0,572,573,574,572,573,574,429,430,0,0,0,0,0,0,0,0,0,0,429,430,0,572,573,574,429,430,0,429,430,0,572,573,574,429,430,0,0,
437,438,0,580,581,582,580,581,582,437,438,0,0,0,0,0,0,0,0,0,0,437,438,0,580,581,582,437,438,0,437,438,0,580,581,582,437,438,0,0,
421,422,0,588,589,590,588,589,590,564,565,566,0,0,0,0,0,0,0,0,0,564,565,566,588,589,590,564,565,566,564,565,566,588,589,590,564,565,566,0,
429,430,0,596,597,598,596,597,598,572,573,574,0,0,0,0,0,0,0,0,0,572,573,574,596,597,598,572,573,574,572,573,574,596,597,598,572,573,574,0,
437,438,0,604,605,606,604,605,606,580,581,582,0,0,0,0,0,0,0,0,0,580,581,582,604,605,606,580,581,582,580,581,582,604,605,606,580,581,582,0,
564,565,566,564,565,566,421,422,0,588,589,590,0,0,0,564,565,566,421,422,0,588,589,590,564,565,566,588,589,590,588,589,590,564,565,566,588,589,590,0,
572,573,574,572,573,574,429,430,0,596,597,598,0,0,0,572,573,574,429,430,0,596,597,598,572,573,574,596,597,598,596,597,598,572,573,574,596,597,598,0,
580,581,582,580,581,582,437,438,0,604,605,606,0,0,0,580,581,582,437,438,0,604,605,606,580,581,582,604,605,606,604,605,606,580,581,582,604,605,606,0,
588,589,590,588,589,590,421,422,0,421,422,0,0,0,0,588,589,590,421,422,0,564,565,566,588,589,590,421,422,0,421,422,0,588,589,590,421,422,0,0,
596,597,598,596,597,598,429,430,0,429,430,0,0,0,0,596,597,598,429,430,0,572,573,574,596,597,598,429,430,0,429,430,0,596,597,598,429,430,0,0,
604,605,606,604,605,606,437,438,0,437,438,0,0,0,0,604,605,606,437,438,0,580,581,582,604,605,606,437,438,0,437,438,0,604,605,606,437,438,0,0,
421,422,0,421,422,0,421,422,0,421,422,0,0,0,0,564,565,566,421,422,0,588,589,590,421,422,0,421,422,0,421,422,0,564,565,566,421,422,0,0,
429,430,0,429,430,0,429,430,0,429,430,0,0,0,0,572,573,574,429,430,0,596,597,598,429,430,0,429,430,0,429,430,0,572,573,574,429,430,0,0,
437,438,0,437,438,0,437,438,0,437,438,0,0,0,0,580,581,582,437,438,0,604,605,606,437,438,0,437,438,0,437,438,0,580,581,582,437,438,0,0,
564,565,566,0,0,0,0,0,0,0,0,0,0,0,0,588,589,590,421,422,0,564,565,566,421,422,0,564,565,566,421,422,0,588,589,590,564,565,566,0,
572,573,574,0,0,0,0,0,0,0,0,0,0,0,0,596,597,598,429,430,0,572,573,574,429,430,0,572,573,574,429,430,0,596,597,598,572,573,574,0,
580,581,582,0,0,0,0,0,0,0,0,0,0,0,0,604,605,606,437,438,0,580,581,582,437,438,0,580,581,582,437,438,0,604,605,606,580,581,582,0,
588,589,590,0,0,0,476,476,476,946,476,476,476,0,0,564,565,566,564,565,566,588,589,590,421,422,0,588,589,590,421,422,0,421,422,0,588,589,590,0,
596,597,598,0,0,476,0,0,0,0,0,0,0,476,0,572,573,574,572,573,574,596,597,598,429,430,0,596,597,598,429,430,0,429,430,0,596,597,598,0,
604,605,606,0,0,476,0,0,0,0,0,0,0,476,0,580,581,582,580,581,582,604,605,606,437,438,0,604,605,606,437,438,0,437,438,0,604,605,606,0,
564,565,566,0,0,476,0,0,0,0,0,0,0,476,0,588,589,590,588,589,590,564,565,566,564,565,566,421,422,0,564,565,566,564,565,566,564,565,566,0,
572,573,574,0,0,476,0,0,0,0,0,0,0,476,0,596,597,598,596,597,598,572,573,574,572,573,574,429,430,0,572,573,574,572,573,574,572,573,574,0,
580,581,582,0,0,476,0,0,0,0,0,0,0,476,0,604,605,606,604,605,606,580,581,582,580,581,582,437,438,0,580,581,582,580,581,582,580,581,582,0,
588,589,590,0,0,476,0,0,0,0,0,0,0,476,0,421,422,0,564,565,566,588,589,590,588,589,590,421,422,0,588,589,590,588,589,590,588,589,590,0,
596,597,598,0,0,0,476,476,476,476,476,476,476,0,0,429,430,0,572,573,574,596,597,598,596,597,598,429,430,0,596,597,598,596,597,598,596,597,598,0,
604,605,606,0,0,0,0,0,0,0,0,0,0,0,0,437,438,0,580,581,582,604,605,606,604,605,606,437,438,0,604,605,606,604,605,606,604,605,606,0,
421,422,0,0,0,0,0,0,0,564,565,566,421,422,0,564,565,566,588,589,590,564,565,566,421,422,0,564,565,566,564,565,566,421,422,0,564,565,566,0,
429,430,0,0,0,0,0,0,0,572,573,574,429,430,0,572,573,574,596,597,598,572,573,574,429,430,0,572,573,574,572,573,574,429,430,0,572,573,574,0,
437,438,0,0,0,0,0,0,0,580,581,582,437,438,0,580,581,582,604,605,606,580,581,582,437,438,0,580,581,582,580,581,582,437,438,0,580,581,582,0,
4914,4915,4916,0,0,0,0,0,0,588,589,590,0,0,0,588,589,590,0,0,0,588,589,590,0,0,0,588,589,590,588,589,590,0,0,0,588,589,590,0,
4922,4923,4924,0,0,0,0,0,0,596,597,598,0,0,0,596,597,598,0,0,0,596,597,598,0,0,0,596,597,598,596,597,598,0,0,0,596,597,598,0,
4930,4931,4932,0,0,0,0,0,0,604,605,606,0,0,0,604,605,606,0,0,0,604,605,606,0,0,0,604,605,606,604,605,606,0,0,0,604,605,606,0,
4914,4915,4916,0,0,0,0,0,4914,4915,4915,4915,4915,4915,4915,4915,4915,4915,4915,4915,4915,4915,4915,4915,4915,4915,4915,4915,4915,4915,4915,4915,4915,4915,4915,4915,4915,4915,4916,0,
4922,4923,4924,0,0,0,0,0,4922,4923,4923,4923,4923,4923,4923,4923,4923,4923,4923,4923,4923,4923,4923,4923,4923,4923,4923,4923,4923,4923,4923,4923,4923,4923,4923,4923,4923,4923,4924,0,
4930,4931,4932,0,0,0,0,0,4930,4931,4931,4931,4931,4931,4931,4931,4931,4931,4931,4931,4931,4931,4931,4931,4931,4931,4931,4931,4931,4931,4931,4931,4931,4931,4931,4931,4931,4931,4932,0
</data>
 </layer>
 <objectgroup color="#ff0000" id="4" name="collisioni" visible="0" opacity="0.5">
  <object id="1" name="mont_base_bordo" type="solid" x="832" y="64" width="32" height="32"/>
  <object id="2" name="mont_base_bordo" type="solid" x="864" y="64" width="32" height="32"/>
  <object id="3" name="mont_base_bordo" type="solid" x="896" y="64" width="32" height="32"/>
  <object id="4" name="mont_base_bordo" type="solid" x="928" y="64" width="32" height="32"/>
  <object id="5" name="mont_base_bordo" type="solid" x="960" y="64" width="32" height="32"/>
  <object id="6" name="mont_base_bordo" type="solid" x="992" y="64" width="32" height="32"/>
  <object id="7" name="mont_base_bordo" type="solid" x="1024" y="64" width="32" height="32"/>
  <object id="8" name="mont_base_bordo" type="solid" x="1056" y="64" width="32" height="32"/>
  <object id="9" name="mont_base_bordo" type="solid" x="1088" y="64" width="32" height="32"/>
  <object id="10" name="mont_base_bordo" type="solid" x="1120" y="64" width="32" height="32"/>
  <object id="11" name="mont_base_bordo" type="solid" x="1152" y="64" width="32" height="32"/>
  <object id="12" name="mont_base_bordo" type="solid" x="1184" y="64" width="32" height="32"/>
  <object id="13" name="mont_base_bordo" type="solid" x="1216" y="64" width="32" height="32"/>
  <object id="14" name="mont_base_bordo" type="solid" x="1248" y="64" width="32" height="32"/>
  <object id="15" name="mont_base_bordo" type="solid" x="832" y="96" width="32" height="32"/>
  <object id="16" name="mont_base_bordo" type="solid" x="1248" y="96" width="32" height="32"/>
  <object id="17" name="mont_base_bordo" type="solid" x="832" y="128" width="32" height="32"/>
  <object id="18" name="mont_base_bordo" type="solid" x="1248" y="128" width="32" height="32"/>
  <object id="19" name="mont_base_bordo" type="solid" x="832" y="160" width="32" height="32"/>
  <object id="20" name="mont_base_bordo" type="solid" x="1248" y="160" width="32" height="32"/>
  <object id="21" name="mont_base_bordo" type="solid" x="832" y="192" width="32" height="32"/>
  <object id="22" name="mont_base_bordo" type="solid" x="1248" y="192" width="32" height="32"/>
  <object id="23" name="mont_base_bordo" type="solid" x="832" y="224" width="32" height="32"/>
  <object id="24" name="mont_base_bordo" type="solid" x="1248" y="224" width="32" height="32"/>
  <object id="25" name="mont_base_bordo" type="solid" x="832" y="256" width="32" height="32"/>
  <object id="26" name="mont_base_bordo" type="solid" x="1248" y="256" width="32" height="32"/>
  <object id="27" name="mont_base_bordo" type="solid" x="832" y="288" width="32" height="32"/>
  <object id="28" name="mont_base_bordo" type="solid" x="1248" y="288" width="32" height="32"/>
  <object id="29" name="mont_base_bordo" type="solid" x="832" y="320" width="32" height="32"/>
  <object id="30" name="mont_base_bordo" type="solid" x="1248" y="320" width="32" height="32"/>
  <object id="31" name="mont_base_bordo" type="solid" x="832" y="352" width="32" height="32"/>
  <object id="32" name="mont_base_bordo" type="solid" x="1248" y="352" width="32" height="32"/>
  <object id="33" name="mont_base_bordo" type="solid" x="832" y="384" width="32" height="32"/>
  <object id="34" name="mont_base_bordo" type="solid" x="1248" y="384" width="32" height="32"/>
  <object id="35" name="mont_base_bordo" type="solid" x="832" y="416" width="32" height="32"/>
  <object id="36" name="mont_base_bordo" type="solid" x="1248" y="416" width="32" height="32"/>
  <object id="37" name="mont_base_bordo" type="solid" x="832" y="448" width="32" height="32"/>
  <object id="38" name="mont_base_bordo" type="solid" x="1248" y="448" width="32" height="32"/>
  <object id="39" name="mont_base_bordo" type="solid" x="832" y="480" width="32" height="32"/>
  <object id="40" name="mont_base_bordo" type="solid" x="1248" y="480" width="32" height="32"/>
  <object id="41" name="mont_base_bordo" type="solid" x="832" y="512" width="32" height="32"/>
  <object id="42" name="mont_base_bordo" type="solid" x="1248" y="512" width="32" height="32"/>
  <object id="43" name="mont_base_bordo" type="solid" x="832" y="544" width="32" height="32"/>
  <object id="44" name="mont_base_bordo" type="solid" x="1248" y="544" width="32" height="32"/>
  <object id="45" name="mont_base_bordo" type="solid" x="832" y="576" width="32" height="32"/>
  <object id="46" name="mont_base_bordo" type="solid" x="1248" y="576" width="32" height="32"/>
  <object id="47" name="mont_base_bordo" type="solid" x="832" y="608" width="32" height="32"/>
  <object id="48" name="mont_base_bordo" type="solid" x="864" y="608" width="32" height="32"/>
  <object id="49" name="mont_base_bordo" type="solid" x="896" y="608" width="32" height="32"/>
  <object id="50" name="mont_base_bordo" type="solid" x="928" y="608" width="32" height="32"/>
  <object id="51" name="mont_base_bordo" type="solid" x="960" y="608" width="32" height="32"/>
  <object id="52" name="mont_base_bordo" type="solid" x="992" y="608" width="32" height="32"/>
  <object id="53" name="mont_base_bordo" type="solid" x="1024" y="608" width="32" height="32"/>
  <object id="54" name="mont_base_bordo" type="solid" x="1056" y="608" width="32" height="32"/>
  <object id="55" name="mont_base_bordo" type="solid" x="1088" y="608" width="32" height="32"/>
  <object id="58" name="mont_base_bordo" type="solid" x="1184" y="608" width="32" height="32"/>
  <object id="59" name="mont_base_bordo" type="solid" x="1216" y="608" width="32" height="32"/>
  <object id="60" name="mont_base_bordo" type="solid" x="1248" y="608" width="32" height="32"/>
  <object id="61" name="mont_liv1_bordo" type="solid" x="928" y="64" width="32" height="32"/>
  <object id="62" name="mont_liv1_bordo" type="solid" x="960" y="64" width="32" height="32"/>
  <object id="63" name="mont_liv1_bordo" type="solid" x="992" y="64" width="32" height="32"/>
  <object id="64" name="mont_liv1_bordo" type="solid" x="1024" y="64" width="32" height="32"/>
  <object id="65" name="mont_liv1_bordo" type="solid" x="1056" y="64" width="32" height="32"/>
  <object id="66" name="mont_liv1_bordo" type="solid" x="1088" y="64" width="32" height="32"/>
  <object id="67" name="mont_liv1_bordo" type="solid" x="1120" y="64" width="32" height="32"/>
  <object id="68" name="mont_liv1_bordo" type="solid" x="1152" y="64" width="32" height="32"/>
  <object id="69" name="mont_liv1_bordo" type="solid" x="1184" y="64" width="32" height="32"/>
  <object id="70" name="mont_liv1_bordo" type="solid" x="1216" y="64" width="32" height="32"/>
  <object id="71" name="mont_liv1_bordo" type="solid" x="1248" y="64" width="32" height="32"/>
  <object id="72" name="mont_liv1_bordo" type="solid" x="928" y="96" width="32" height="32"/>
  <object id="73" name="mont_liv1_bordo" type="solid" x="1248" y="96" width="32" height="32"/>
  <object id="74" name="mont_liv1_bordo" type="solid" x="928" y="128" width="32" height="32"/>
  <object id="75" name="mont_liv1_bordo" type="solid" x="1248" y="128" width="32" height="32"/>
  <object id="76" name="mont_liv1_bordo" type="solid" x="928" y="160" width="32" height="32"/>
  <object id="77" name="mont_liv1_bordo" type="solid" x="1248" y="160" width="32" height="32"/>
  <object id="78" name="mont_liv1_bordo" type="solid" x="928" y="192" width="32" height="32"/>
  <object id="79" name="mont_liv1_bordo" type="solid" x="1248" y="192" width="32" height="32"/>
  <object id="80" name="mont_liv1_bordo" type="solid" x="928" y="224" width="32" height="32"/>
  <object id="81" name="mont_liv1_bordo" type="solid" x="1248" y="224" width="32" height="32"/>
  <object id="82" name="mont_liv1_bordo" type="solid" x="928" y="256" width="32" height="32"/>
  <object id="83" name="mont_liv1_bordo" type="solid" x="1248" y="256" width="32" height="32"/>
  <object id="84" name="mont_liv1_bordo" type="solid" x="928" y="288" width="32" height="32"/>
  <object id="85" name="mont_liv1_bordo" type="solid" x="1248" y="288" width="32" height="32"/>
  <object id="86" name="mont_liv1_bordo" type="solid" x="928" y="320" width="32" height="32"/>
  <object id="87" name="mont_liv1_bordo" type="solid" x="1248" y="320" width="32" height="32"/>
  <object id="88" name="mont_liv1_bordo" type="solid" x="928" y="352" width="32" height="32"/>
  <object id="89" name="mont_liv1_bordo" type="solid" x="1248" y="352" width="32" height="32"/>
  <object id="90" name="mont_liv1_bordo" type="solid" x="928" y="384" width="32" height="32"/>
  <object id="91" name="mont_liv1_bordo" type="solid" x="960" y="384" width="32" height="32"/>
  <object id="92" name="mont_liv1_bordo" type="solid" x="992" y="384" width="32" height="32"/>
  <object id="93" name="mont_liv1_bordo" type="solid" x="1024" y="384" width="32" height="32"/>
  <object id="94" name="mont_liv1_bordo" type="solid" x="1056" y="384" width="32" height="32"/>
  <object id="95" name="mont_liv1_bordo" type="solid" x="1088" y="384" width="32" height="32"/>
  <object id="98" name="mont_liv1_bordo" type="solid" x="1184" y="384" width="32" height="32"/>
  <object id="99" name="mont_liv1_bordo" type="solid" x="1216" y="384" width="32" height="32"/>
  <object id="100" name="mont_liv1_bordo" type="solid" x="1248" y="384" width="32" height="32"/>
  <object id="101" name="mont_summit_bordo" type="solid" x="1024" y="64" width="32" height="32"/>
  <object id="102" name="mont_summit_bordo" type="solid" x="1056" y="64" width="32" height="32"/>
  <object id="103" name="mont_summit_bordo" type="solid" x="1088" y="64" width="32" height="32"/>
  <object id="104" name="mont_summit_bordo" type="solid" x="1120" y="64" width="32" height="32"/>
  <object id="105" name="mont_summit_bordo" type="solid" x="1152" y="64" width="32" height="32"/>
  <object id="106" name="mont_summit_bordo" type="solid" x="1184" y="64" width="32" height="32"/>
  <object id="107" name="mont_summit_bordo" type="solid" x="1216" y="64" width="32" height="32"/>
  <object id="108" name="mont_summit_bordo" type="solid" x="1248" y="64" width="32" height="32"/>
  <object id="109" name="mont_summit_bordo" type="solid" x="1024" y="96" width="32" height="32"/>
  <object id="110" name="mont_summit_bordo" type="solid" x="1248" y="96" width="32" height="32"/>
  <object id="111" name="mont_summit_bordo" type="solid" x="1024" y="128" width="32" height="32"/>
  <object id="112" name="mont_summit_bordo" type="solid" x="1248" y="128" width="32" height="32"/>
  <object id="113" name="mont_summit_bordo" type="solid" x="1024" y="160" width="32" height="32"/>
  <object id="114" name="mont_summit_bordo" type="solid" x="1248" y="160" width="32" height="32"/>
  <object id="115" name="mont_summit_bordo" type="solid" x="1024" y="192" width="32" height="32"/>
  <object id="116" name="mont_summit_bordo" type="solid" x="1248" y="192" width="32" height="32"/>
  <object id="117" name="mont_summit_bordo" type="solid" x="1024" y="224" width="32" height="32"/>
  <object id="118" name="mont_summit_bordo" type="solid" x="1056" y="224" width="32" height="32"/>
  <object id="119" name="mont_summit_bordo" type="solid" x="1088" y="224" width="32" height="32"/>
  <object id="122" name="mont_summit_bordo" type="solid" x="1184" y="224" width="32" height="32"/>
  <object id="123" name="mont_summit_bordo" type="solid" x="1216" y="224" width="32" height="32"/>
  <object id="124" name="mont_summit_bordo" type="solid" x="1248" y="224" width="32" height="32"/>
  <object id="125" name="radura_muro_n" type="solid" x="192" y="1344" width="32" height="32"/>
  <object id="126" name="radura_muro_n" type="solid" x="224" y="1344" width="32" height="32"/>
  <object id="127" name="radura_muro_n" type="solid" x="256" y="1344" width="32" height="32"/>
  <object id="128" name="radura_muro_n" type="solid" x="320" y="1344" width="32" height="32"/>
  <object id="129" name="radura_muro_n" type="solid" x="352" y="1344" width="32" height="32"/>
  <object id="130" name="radura_muro_n" type="solid" x="384" y="1344" width="32" height="32"/>
  <object id="131" name="radura_muro_o" type="solid" x="160" y="1376" width="32" height="32"/>
  <object id="132" name="radura_muro_e" type="solid" x="416" y="1376" width="32" height="32"/>
  <object id="133" name="radura_muro_o" type="solid" x="160" y="1408" width="32" height="32"/>
  <object id="134" name="radura_muro_e" type="solid" x="416" y="1408" width="32" height="32"/>
  <object id="135" name="radura_muro_o" type="solid" x="160" y="1440" width="32" height="32"/>
  <object id="136" name="radura_muro_e" type="solid" x="416" y="1440" width="32" height="32"/>
  <object id="137" name="radura_muro_o" type="solid" x="160" y="1472" width="32" height="32"/>
  <object id="138" name="radura_muro_e" type="solid" x="416" y="1472" width="32" height="32"/>
  <object id="139" name="radura_muro_o" type="solid" x="160" y="1504" width="32" height="32"/>
  <object id="140" name="radura_muro_e" type="solid" x="416" y="1504" width="32" height="32"/>
  <object id="141" name="radura_muro_o" type="solid" x="160" y="1536" width="32" height="32"/>
  <object id="142" name="radura_muro_e" type="solid" x="416" y="1536" width="32" height="32"/>
  <object id="143" name="radura_muro_s" type="solid" x="192" y="1568" width="32" height="32"/>
  <object id="144" name="radura_muro_s" type="solid" x="224" y="1568" width="32" height="32"/>
  <object id="145" name="radura_muro_s" type="solid" x="256" y="1568" width="32" height="32"/>
  <object id="146" name="radura_muro_s" type="solid" x="288" y="1568" width="32" height="32"/>
  <object id="147" name="radura_muro_s" type="solid" x="320" y="1568" width="32" height="32"/>
  <object id="148" name="radura_muro_s" type="solid" x="352" y="1568" width="32" height="32"/>
  <object id="149" name="radura_muro_s" type="solid" x="384" y="1568" width="32" height="32"/>
  <object id="150" name="bosco_v3_0_0_0" type="solid" x="0" y="0" width="96" height="32"/>
  <object id="151" name="bosco_v3_0_0_1" type="solid" x="0" y="32" width="96" height="32"/>
  <object id="152" name="bosco_v3_0_0_2" type="solid" x="0" y="64" width="96" height="32"/>
  <object id="153" name="bosco_v3_0_0_3" type="solid" x="0" y="96" width="96" height="32"/>
  <object id="154" name="bosco_v3_0_0_4" type="solid" x="0" y="128" width="96" height="32"/>
  <object id="155" name="bosco_v3_0_0_5" type="solid" x="0" y="160" width="96" height="32"/>
  <object id="156" name="bosco_v3_0_3_0" type="solid" x="96" y="0" width="96" height="32"/>
  <object id="157" name="bosco_v3_0_3_1" type="solid" x="96" y="32" width="96" height="32"/>
  <object id="158" name="bosco_v3_0_3_2" type="solid" x="96" y="64" width="96" height="32"/>
  <object id="159" name="bosco_v3_0_3_3" type="solid" x="96" y="96" width="96" height="32"/>
  <object id="160" name="bosco_v3_0_3_4" type="solid" x="96" y="128" width="96" height="32"/>
  <object id="161" name="bosco_v3_0_3_5" type="solid" x="96" y="160" width="96" height="32"/>
  <object id="162" name="bosco_v3_0_6_0" type="solid" x="192" y="0" width="96" height="32"/>
  <object id="163" name="bosco_v3_0_6_1" type="solid" x="192" y="32" width="96" height="32"/>
  <object id="164" name="bosco_v3_0_6_2" type="solid" x="192" y="64" width="96" height="32"/>
  <object id="165" name="bosco_v3_0_6_3" type="solid" x="192" y="96" width="96" height="32"/>
  <object id="166" name="bosco_v3_0_6_4" type="solid" x="192" y="128" width="96" height="32"/>
  <object id="167" name="bosco_v3_0_6_5" type="solid" x="192" y="160" width="96" height="32"/>
  <object id="168" name="bosco_single_0_12" type="solid" x="384" y="0" width="64" height="96"/>
  <object id="169" name="bosco_single_0_15" type="solid" x="480" y="0" width="64" height="96"/>
  <object id="170" name="bosco_v3_0_18_0" type="solid" x="576" y="0" width="96" height="32"/>
  <object id="171" name="bosco_v3_0_18_1" type="solid" x="576" y="32" width="96" height="32"/>
  <object id="172" name="bosco_v3_0_18_2" type="solid" x="576" y="64" width="96" height="32"/>
  <object id="173" name="bosco_v3_0_18_3" type="solid" x="576" y="96" width="96" height="32"/>
  <object id="174" name="bosco_v3_0_18_4" type="solid" x="576" y="128" width="96" height="32"/>
  <object id="175" name="bosco_v3_0_18_5" type="solid" x="576" y="160" width="96" height="32"/>
  <object id="176" name="bosco_single_0_21" type="solid" x="672" y="0" width="64" height="96"/>
  <object id="177" name="bosco_single_0_24" type="solid" x="768" y="0" width="64" height="96"/>
  <object id="178" name="bosco_v3_3_21_0" type="solid" x="672" y="96" width="96" height="32"/>
  <object id="179" name="bosco_v3_3_21_1" type="solid" x="672" y="128" width="96" height="32"/>
  <object id="180" name="bosco_v3_3_21_2" type="solid" x="672" y="160" width="96" height="32"/>
  <object id="181" name="bosco_v3_3_21_3" type="solid" x="672" y="192" width="96" height="32"/>
  <object id="182" name="bosco_v3_3_21_4" type="solid" x="672" y="224" width="96" height="32"/>
  <object id="183" name="bosco_v3_3_21_5" type="solid" x="672" y="256" width="96" height="32"/>
  <object id="184" name="bosco_single_3_24" type="solid" x="768" y="96" width="64" height="96"/>
  <object id="185" name="bosco_single_6_0" type="solid" x="0" y="192" width="64" height="96"/>
  <object id="186" name="bosco_v3_6_3_0" type="solid" x="96" y="192" width="96" height="32"/>
  <object id="187" name="bosco_v3_6_3_1" type="solid" x="96" y="224" width="96" height="32"/>
  <object id="188" name="bosco_v3_6_3_2" type="solid" x="96" y="256" width="96" height="32"/>
  <object id="189" name="bosco_v3_6_3_3" type="solid" x="96" y="288" width="96" height="32"/>
  <object id="190" name="bosco_v3_6_3_4" type="solid" x="96" y="320" width="96" height="32"/>
  <object id="191" name="bosco_v3_6_3_5" type="solid" x="96" y="352" width="96" height="32"/>
  <object id="192" name="bosco_v3_6_6_0" type="solid" x="192" y="192" width="96" height="32"/>
  <object id="193" name="bosco_v3_6_6_1" type="solid" x="192" y="224" width="96" height="32"/>
  <object id="194" name="bosco_v3_6_6_2" type="solid" x="192" y="256" width="96" height="32"/>
  <object id="195" name="bosco_v3_6_6_3" type="solid" x="192" y="288" width="96" height="32"/>
  <object id="196" name="bosco_v3_6_6_4" type="solid" x="192" y="320" width="96" height="32"/>
  <object id="197" name="bosco_v3_6_6_5" type="solid" x="192" y="352" width="96" height="32"/>
  <object id="198" name="bosco_single_6_18" type="solid" x="576" y="192" width="64" height="96"/>
  <object id="199" name="bosco_single_6_24" type="solid" x="768" y="192" width="64" height="96"/>
  <object id="200" name="bosco_v3_9_0_0" type="solid" x="0" y="288" width="96" height="32"/>
  <object id="201" name="bosco_v3_9_0_1" type="solid" x="0" y="320" width="96" height="32"/>
  <object id="202" name="bosco_v3_9_0_2" type="solid" x="0" y="352" width="96" height="32"/>
  <object id="203" name="bosco_v3_9_0_3" type="solid" x="0" y="384" width="96" height="32"/>
  <object id="204" name="bosco_v3_9_0_4" type="solid" x="0" y="416" width="96" height="32"/>
  <object id="205" name="bosco_v3_9_0_5" type="solid" x="0" y="448" width="96" height="32"/>
  <object id="206" name="bosco_single_9_18" type="solid" x="576" y="288" width="64" height="96"/>
  <object id="207" name="bosco_single_9_21" type="solid" x="672" y="288" width="64" height="96"/>
  <object id="208" name="bosco_single_9_24" type="solid" x="768" y="288" width="64" height="96"/>
  <object id="209" name="bosco_v3_12_3_0" type="solid" x="96" y="384" width="96" height="32"/>
  <object id="210" name="bosco_v3_12_3_1" type="solid" x="96" y="416" width="96" height="32"/>
  <object id="211" name="bosco_v3_12_3_2" type="solid" x="96" y="448" width="96" height="32"/>
  <object id="212" name="bosco_v3_12_3_3" type="solid" x="96" y="480" width="96" height="32"/>
  <object id="213" name="bosco_v3_12_3_4" type="solid" x="96" y="512" width="96" height="32"/>
  <object id="214" name="bosco_v3_12_3_5" type="solid" x="96" y="544" width="96" height="32"/>
  <object id="215" name="bosco_v3_12_6_0" type="solid" x="192" y="384" width="96" height="32"/>
  <object id="216" name="bosco_v3_12_6_1" type="solid" x="192" y="416" width="96" height="32"/>
  <object id="217" name="bosco_v3_12_6_2" type="solid" x="192" y="448" width="96" height="32"/>
  <object id="218" name="bosco_v3_12_6_3" type="solid" x="192" y="480" width="96" height="32"/>
  <object id="219" name="bosco_v3_12_6_4" type="solid" x="192" y="512" width="96" height="32"/>
  <object id="220" name="bosco_v3_12_6_5" type="solid" x="192" y="544" width="96" height="32"/>
  <object id="221" name="bosco_single_12_18" type="solid" x="576" y="384" width="64" height="96"/>
  <object id="222" name="bosco_single_12_21" type="solid" x="672" y="384" width="64" height="96"/>
  <object id="223" name="bosco_single_12_24" type="solid" x="768" y="384" width="64" height="96"/>
  <object id="224" name="bosco_single_15_0" type="solid" x="0" y="480" width="64" height="96"/>
  <object id="225" name="bosco_single_15_12" type="solid" x="384" y="480" width="64" height="96"/>
  <object id="226" name="bosco_single_15_15" type="solid" x="480" y="480" width="64" height="96"/>
  <object id="227" name="bosco_single_15_18" type="solid" x="576" y="480" width="64" height="96"/>
  <object id="228" name="bosco_single_18_0" type="solid" x="0" y="576" width="64" height="96"/>
  <object id="229" name="bosco_single_18_3" type="solid" x="96" y="576" width="64" height="96"/>
  <object id="230" name="bosco_single_21_0" type="solid" x="0" y="672" width="64" height="96"/>
  <object id="231" name="bosco_single_21_3" type="solid" x="96" y="672" width="64" height="96"/>
  <object id="232" name="bosco_single_24_0" type="solid" x="0" y="768" width="64" height="96"/>
  <object id="233" name="bosco_v3_24_3_0" type="solid" x="96" y="768" width="96" height="32"/>
  <object id="234" name="bosco_v3_24_3_1" type="solid" x="96" y="800" width="96" height="32"/>
  <object id="235" name="bosco_v3_24_3_2" type="solid" x="96" y="832" width="96" height="32"/>
  <object id="236" name="bosco_v3_24_3_3" type="solid" x="96" y="864" width="96" height="32"/>
  <object id="237" name="bosco_v3_24_3_4" type="solid" x="96" y="896" width="96" height="32"/>
  <object id="238" name="bosco_v3_24_3_5" type="solid" x="96" y="928" width="96" height="32"/>
  <object id="239" name="bosco_v3_24_6_0" type="solid" x="192" y="768" width="96" height="32"/>
  <object id="240" name="bosco_v3_24_6_1" type="solid" x="192" y="800" width="96" height="32"/>
  <object id="241" name="bosco_v3_24_6_2" type="solid" x="192" y="832" width="96" height="32"/>
  <object id="242" name="bosco_v3_24_6_3" type="solid" x="192" y="864" width="96" height="32"/>
  <object id="243" name="bosco_v3_24_6_4" type="solid" x="192" y="896" width="96" height="32"/>
  <object id="244" name="bosco_v3_24_6_5" type="solid" x="192" y="928" width="96" height="32"/>
  <object id="245" name="bosco_single_24_9" type="solid" x="288" y="768" width="64" height="96"/>
  <object id="246" name="bosco_single_24_21" type="solid" x="672" y="768" width="64" height="96"/>
  <object id="247" name="bosco_v3_24_24_0" type="solid" x="768" y="768" width="96" height="32"/>
  <object id="248" name="bosco_v3_24_24_1" type="solid" x="768" y="800" width="96" height="32"/>
  <object id="249" name="bosco_v3_24_24_2" type="solid" x="768" y="832" width="96" height="32"/>
  <object id="250" name="bosco_v3_24_24_3" type="solid" x="768" y="864" width="96" height="32"/>
  <object id="251" name="bosco_v3_24_24_4" type="solid" x="768" y="896" width="96" height="32"/>
  <object id="252" name="bosco_v3_24_24_5" type="solid" x="768" y="928" width="96" height="32"/>
  <object id="253" name="bosco_single_24_27" type="solid" x="864" y="768" width="64" height="96"/>
  <object id="254" name="bosco_single_24_30" type="solid" x="960" y="768" width="64" height="96"/>
  <object id="255" name="bosco_v3_24_33_0" type="solid" x="1056" y="768" width="96" height="32"/>
  <object id="256" name="bosco_v3_24_33_1" type="solid" x="1056" y="800" width="96" height="32"/>
  <object id="257" name="bosco_v3_24_33_2" type="solid" x="1056" y="832" width="96" height="32"/>
  <object id="258" name="bosco_v3_24_33_3" type="solid" x="1056" y="864" width="96" height="32"/>
  <object id="259" name="bosco_v3_24_33_4" type="solid" x="1056" y="896" width="96" height="32"/>
  <object id="260" name="bosco_v3_24_33_5" type="solid" x="1056" y="928" width="96" height="32"/>
  <object id="261" name="bosco_single_24_36" type="solid" x="1152" y="768" width="64" height="96"/>
  <object id="262" name="bosco_single_27_0" type="solid" x="0" y="864" width="64" height="96"/>
  <object id="263" name="bosco_v3_27_9_0" type="solid" x="288" y="864" width="96" height="32"/>
  <object id="264" name="bosco_v3_27_9_1" type="solid" x="288" y="896" width="96" height="32"/>
  <object id="265" name="bosco_v3_27_9_2" type="solid" x="288" y="928" width="96" height="32"/>
  <object id="266" name="bosco_v3_27_9_3" type="solid" x="288" y="960" width="96" height="32"/>
  <object id="267" name="bosco_v3_27_9_4" type="solid" x="288" y="992" width="96" height="32"/>
  <object id="268" name="bosco_v3_27_9_5" type="solid" x="288" y="1024" width="96" height="32"/>
  <object id="269" name="bosco_v3_27_21_0" type="solid" x="672" y="864" width="96" height="32"/>
  <object id="270" name="bosco_v3_27_21_1" type="solid" x="672" y="896" width="96" height="32"/>
  <object id="271" name="bosco_v3_27_21_2" type="solid" x="672" y="928" width="96" height="32"/>
  <object id="272" name="bosco_v3_27_21_3" type="solid" x="672" y="960" width="96" height="32"/>
  <object id="273" name="bosco_v3_27_21_4" type="solid" x="672" y="992" width="96" height="32"/>
  <object id="274" name="bosco_v3_27_21_5" type="solid" x="672" y="1024" width="96" height="32"/>
  <object id="275" name="bosco_v3_27_27_0" type="solid" x="864" y="864" width="96" height="32"/>
  <object id="276" name="bosco_v3_27_27_1" type="solid" x="864" y="896" width="96" height="32"/>
  <object id="277" name="bosco_v3_27_27_2" type="solid" x="864" y="928" width="96" height="32"/>
  <object id="278" name="bosco_v3_27_27_3" type="solid" x="864" y="960" width="96" height="32"/>
  <object id="279" name="bosco_v3_27_27_4" type="solid" x="864" y="992" width="96" height="32"/>
  <object id="280" name="bosco_v3_27_27_5" type="solid" x="864" y="1024" width="96" height="32"/>
  <object id="281" name="bosco_v3_27_30_0" type="solid" x="960" y="864" width="96" height="32"/>
  <object id="282" name="bosco_v3_27_30_1" type="solid" x="960" y="896" width="96" height="32"/>
  <object id="283" name="bosco_v3_27_30_2" type="solid" x="960" y="928" width="96" height="32"/>
  <object id="284" name="bosco_v3_27_30_3" type="solid" x="960" y="960" width="96" height="32"/>
  <object id="285" name="bosco_v3_27_30_4" type="solid" x="960" y="992" width="96" height="32"/>
  <object id="286" name="bosco_v3_27_30_5" type="solid" x="960" y="1024" width="96" height="32"/>
  <object id="287" name="bosco_v3_27_36_0" type="solid" x="1152" y="864" width="96" height="32"/>
  <object id="288" name="bosco_v3_27_36_1" type="solid" x="1152" y="896" width="96" height="32"/>
  <object id="289" name="bosco_v3_27_36_2" type="solid" x="1152" y="928" width="96" height="32"/>
  <object id="290" name="bosco_v3_27_36_3" type="solid" x="1152" y="960" width="96" height="32"/>
  <object id="291" name="bosco_v3_27_36_4" type="solid" x="1152" y="992" width="96" height="32"/>
  <object id="292" name="bosco_v3_27_36_5" type="solid" x="1152" y="1024" width="96" height="32"/>
  <object id="293" name="bosco_v3_30_0_0" type="solid" x="0" y="960" width="96" height="32"/>
  <object id="294" name="bosco_v3_30_0_1" type="solid" x="0" y="992" width="96" height="32"/>
  <object id="295" name="bosco_v3_30_0_2" type="solid" x="0" y="1024" width="96" height="32"/>
  <object id="296" name="bosco_v3_30_0_3" type="solid" x="0" y="1056" width="96" height="32"/>
  <object id="297" name="bosco_v3_30_0_4" type="solid" x="0" y="1088" width="96" height="32"/>
  <object id="298" name="bosco_v3_30_0_5" type="solid" x="0" y="1120" width="96" height="32"/>
  <object id="299" name="bosco_v3_30_3_0" type="solid" x="96" y="960" width="96" height="32"/>
  <object id="300" name="bosco_v3_30_3_1" type="solid" x="96" y="992" width="96" height="32"/>
  <object id="301" name="bosco_v3_30_3_2" type="solid" x="96" y="1024" width="96" height="32"/>
  <object id="302" name="bosco_v3_30_3_3" type="solid" x="96" y="1056" width="96" height="32"/>
  <object id="303" name="bosco_v3_30_3_4" type="solid" x="96" y="1088" width="96" height="32"/>
  <object id="304" name="bosco_v3_30_3_5" type="solid" x="96" y="1120" width="96" height="32"/>
  <object id="305" name="bosco_single_30_6" type="solid" x="192" y="960" width="64" height="96"/>
  <object id="306" name="bosco_v3_30_15_0" type="solid" x="480" y="960" width="96" height="32"/>
  <object id="307" name="bosco_v3_30_15_1" type="solid" x="480" y="992" width="96" height="32"/>
  <object id="308" name="bosco_v3_30_15_2" type="solid" x="480" y="1024" width="96" height="32"/>
  <object id="309" name="bosco_v3_30_15_3" type="solid" x="480" y="1056" width="96" height="32"/>
  <object id="310" name="bosco_v3_30_15_4" type="solid" x="480" y="1088" width="96" height="32"/>
  <object id="311" name="bosco_v3_30_15_5" type="solid" x="480" y="1120" width="96" height="32"/>
  <object id="312" name="bosco_single_30_18" type="solid" x="576" y="960" width="64" height="96"/>
  <object id="313" name="bosco_v3_30_24_0" type="solid" x="768" y="960" width="96" height="32"/>
  <object id="314" name="bosco_v3_30_24_1" type="solid" x="768" y="992" width="96" height="32"/>
  <object id="315" name="bosco_v3_30_24_2" type="solid" x="768" y="1024" width="96" height="32"/>
  <object id="316" name="bosco_v3_30_24_3" type="solid" x="768" y="1056" width="96" height="32"/>
  <object id="317" name="bosco_v3_30_24_4" type="solid" x="768" y="1088" width="96" height="32"/>
  <object id="318" name="bosco_v3_30_24_5" type="solid" x="768" y="1120" width="96" height="32"/>
  <object id="319" name="bosco_v3_30_33_0" type="solid" x="1056" y="960" width="96" height="32"/>
  <object id="320" name="bosco_v3_30_33_1" type="solid" x="1056" y="992" width="96" height="32"/>
  <object id="321" name="bosco_v3_30_33_2" type="solid" x="1056" y="1024" width="96" height="32"/>
  <object id="322" name="bosco_v3_30_33_3" type="solid" x="1056" y="1056" width="96" height="32"/>
  <object id="323" name="bosco_v3_30_33_4" type="solid" x="1056" y="1088" width="96" height="32"/>
  <object id="324" name="bosco_v3_30_33_5" type="solid" x="1056" y="1120" width="96" height="32"/>
  <object id="325" name="bosco_single_33_6" type="solid" x="192" y="1056" width="64" height="96"/>
  <object id="326" name="bosco_single_33_9" type="solid" x="288" y="1056" width="64" height="96"/>
  <object id="327" name="bosco_single_33_18" type="solid" x="576" y="1056" width="64" height="96"/>
  <object id="328" name="bosco_v3_33_21_0" type="solid" x="672" y="1056" width="96" height="32"/>
  <object id="329" name="bosco_v3_33_21_1" type="solid" x="672" y="1088" width="96" height="32"/>
  <object id="330" name="bosco_v3_33_21_2" type="solid" x="672" y="1120" width="96" height="32"/>
  <object id="331" name="bosco_v3_33_21_3" type="solid" x="672" y="1152" width="96" height="32"/>
  <object id="332" name="bosco_v3_33_21_4" type="solid" x="672" y="1184" width="96" height="32"/>
  <object id="333" name="bosco_v3_33_21_5" type="solid" x="672" y="1216" width="96" height="32"/>
  <object id="334" name="bosco_single_33_27" type="solid" x="864" y="1056" width="64" height="96"/>
  <object id="335" name="bosco_single_33_30" type="solid" x="960" y="1056" width="64" height="96"/>
  <object id="336" name="bosco_single_33_36" type="solid" x="1152" y="1056" width="64" height="96"/>
  <object id="337" name="bosco_single_36_0" type="solid" x="0" y="1152" width="64" height="96"/>
  <object id="338" name="bosco_single_36_3" type="solid" x="96" y="1152" width="64" height="96"/>
  <object id="339" name="bosco_single_36_6" type="solid" x="192" y="1152" width="64" height="96"/>
  <object id="340" name="bosco_single_36_9" type="solid" x="288" y="1152" width="64" height="96"/>
  <object id="341" name="bosco_v3_36_15_0" type="solid" x="480" y="1152" width="96" height="32"/>
  <object id="342" name="bosco_v3_36_15_1" type="solid" x="480" y="1184" width="96" height="32"/>
  <object id="343" name="bosco_v3_36_15_2" type="solid" x="480" y="1216" width="96" height="32"/>
  <object id="344" name="bosco_v3_36_15_3" type="solid" x="480" y="1248" width="96" height="32"/>
  <object id="345" name="bosco_v3_36_15_4" type="solid" x="480" y="1280" width="96" height="32"/>
  <object id="346" name="bosco_v3_36_15_5" type="solid" x="480" y="1312" width="96" height="32"/>
  <object id="347" name="bosco_single_36_18" type="solid" x="576" y="1152" width="64" height="96"/>
  <object id="348" name="bosco_single_36_24" type="solid" x="768" y="1152" width="64" height="96"/>
  <object id="349" name="bosco_single_36_27" type="solid" x="864" y="1152" width="64" height="96"/>
  <object id="350" name="bosco_single_36_30" type="solid" x="960" y="1152" width="64" height="96"/>
  <object id="351" name="bosco_v3_36_33_0" type="solid" x="1056" y="1152" width="96" height="32"/>
  <object id="352" name="bosco_v3_36_33_1" type="solid" x="1056" y="1184" width="96" height="32"/>
  <object id="353" name="bosco_v3_36_33_2" type="solid" x="1056" y="1216" width="96" height="32"/>
  <object id="354" name="bosco_v3_36_33_3" type="solid" x="1056" y="1248" width="96" height="32"/>
  <object id="355" name="bosco_v3_36_33_4" type="solid" x="1056" y="1280" width="96" height="32"/>
  <object id="356" name="bosco_v3_36_33_5" type="solid" x="1056" y="1312" width="96" height="32"/>
  <object id="357" name="bosco_single_36_36" type="solid" x="1152" y="1152" width="64" height="96"/>
  <object id="358" name="bosco_v3_39_0_0" type="solid" x="0" y="1248" width="96" height="32"/>
  <object id="359" name="bosco_v3_39_0_1" type="solid" x="0" y="1280" width="96" height="32"/>
  <object id="360" name="bosco_v3_39_0_2" type="solid" x="0" y="1312" width="96" height="32"/>
  <object id="361" name="bosco_v3_39_0_3" type="solid" x="0" y="1344" width="96" height="32"/>
  <object id="362" name="bosco_v3_39_0_4" type="solid" x="0" y="1376" width="96" height="32"/>
  <object id="363" name="bosco_v3_39_0_5" type="solid" x="0" y="1408" width="96" height="32"/>
  <object id="364" name="bosco_single_39_18" type="solid" x="576" y="1248" width="64" height="96"/>
  <object id="365" name="bosco_v3_39_21_0" type="solid" x="672" y="1248" width="96" height="32"/>
  <object id="366" name="bosco_v3_39_21_1" type="solid" x="672" y="1280" width="96" height="32"/>
  <object id="367" name="bosco_v3_39_21_2" type="solid" x="672" y="1312" width="96" height="32"/>
  <object id="368" name="bosco_v3_39_21_3" type="solid" x="672" y="1344" width="96" height="32"/>
  <object id="369" name="bosco_v3_39_21_4" type="solid" x="672" y="1376" width="96" height="32"/>
  <object id="370" name="bosco_v3_39_21_5" type="solid" x="672" y="1408" width="96" height="32"/>
  <object id="371" name="bosco_single_39_24" type="solid" x="768" y="1248" width="64" height="96"/>
  <object id="372" name="bosco_v3_39_27_0" type="solid" x="864" y="1248" width="96" height="32"/>
  <object id="373" name="bosco_v3_39_27_1" type="solid" x="864" y="1280" width="96" height="32"/>
  <object id="374" name="bosco_v3_39_27_2" type="solid" x="864" y="1312" width="96" height="32"/>
  <object id="375" name="bosco_v3_39_27_3" type="solid" x="864" y="1344" width="96" height="32"/>
  <object id="376" name="bosco_v3_39_27_4" type="solid" x="864" y="1376" width="96" height="32"/>
  <object id="377" name="bosco_v3_39_27_5" type="solid" x="864" y="1408" width="96" height="32"/>
  <object id="378" name="bosco_single_39_30" type="solid" x="960" y="1248" width="64" height="96"/>
  <object id="379" name="bosco_v3_39_36_0" type="solid" x="1152" y="1248" width="96" height="32"/>
  <object id="380" name="bosco_v3_39_36_1" type="solid" x="1152" y="1280" width="96" height="32"/>
  <object id="381" name="bosco_v3_39_36_2" type="solid" x="1152" y="1312" width="96" height="32"/>
  <object id="382" name="bosco_v3_39_36_3" type="solid" x="1152" y="1344" width="96" height="32"/>
  <object id="383" name="bosco_v3_39_36_4" type="solid" x="1152" y="1376" width="96" height="32"/>
  <object id="384" name="bosco_v3_39_36_5" type="solid" x="1152" y="1408" width="96" height="32"/>
  <object id="385" name="bosco_v3_42_15_0" type="solid" x="480" y="1344" width="96" height="32"/>
  <object id="386" name="bosco_v3_42_15_1" type="solid" x="480" y="1376" width="96" height="32"/>
  <object id="387" name="bosco_v3_42_15_2" type="solid" x="480" y="1408" width="96" height="32"/>
  <object id="388" name="bosco_v3_42_15_3" type="solid" x="480" y="1440" width="96" height="32"/>
  <object id="389" name="bosco_v3_42_15_4" type="solid" x="480" y="1472" width="96" height="32"/>
  <object id="390" name="bosco_v3_42_15_5" type="solid" x="480" y="1504" width="96" height="32"/>
  <object id="391" name="bosco_v3_42_18_0" type="solid" x="576" y="1344" width="96" height="32"/>
  <object id="392" name="bosco_v3_42_18_1" type="solid" x="576" y="1376" width="96" height="32"/>
  <object id="393" name="bosco_v3_42_18_2" type="solid" x="576" y="1408" width="96" height="32"/>
  <object id="394" name="bosco_v3_42_18_3" type="solid" x="576" y="1440" width="96" height="32"/>
  <object id="395" name="bosco_v3_42_18_4" type="solid" x="576" y="1472" width="96" height="32"/>
  <object id="396" name="bosco_v3_42_18_5" type="solid" x="576" y="1504" width="96" height="32"/>
  <object id="397" name="bosco_single_42_24" type="solid" x="768" y="1344" width="64" height="96"/>
  <object id="398" name="bosco_single_42_30" type="solid" x="960" y="1344" width="64" height="96"/>
  <object id="399" name="bosco_single_42_33" type="solid" x="1056" y="1344" width="64" height="96"/>
  <object id="400" name="bosco_v3_45_0_0" type="solid" x="0" y="1440" width="96" height="32"/>
  <object id="401" name="bosco_v3_45_0_1" type="solid" x="0" y="1472" width="96" height="32"/>
  <object id="402" name="bosco_v3_45_0_2" type="solid" x="0" y="1504" width="96" height="32"/>
  <object id="403" name="bosco_v3_45_0_3" type="solid" x="0" y="1536" width="96" height="32"/>
  <object id="404" name="bosco_v3_45_0_4" type="solid" x="0" y="1568" width="96" height="32"/>
  <object id="405" name="bosco_v3_45_0_5" type="solid" x="0" y="1600" width="96" height="32"/>
  <object id="406" name="bosco_v3_45_21_0" type="solid" x="672" y="1440" width="96" height="32"/>
  <object id="407" name="bosco_v3_45_21_1" type="solid" x="672" y="1472" width="96" height="32"/>
  <object id="408" name="bosco_v3_45_21_2" type="solid" x="672" y="1504" width="96" height="32"/>
  <object id="409" name="bosco_v3_45_21_3" type="solid" x="672" y="1536" width="96" height="32"/>
  <object id="410" name="bosco_v3_45_21_4" type="solid" x="672" y="1568" width="96" height="32"/>
  <object id="411" name="bosco_v3_45_21_5" type="solid" x="672" y="1600" width="96" height="32"/>
  <object id="412" name="bosco_v3_45_24_0" type="solid" x="768" y="1440" width="96" height="32"/>
  <object id="413" name="bosco_v3_45_24_1" type="solid" x="768" y="1472" width="96" height="32"/>
  <object id="414" name="bosco_v3_45_24_2" type="solid" x="768" y="1504" width="96" height="32"/>
  <object id="415" name="bosco_v3_45_24_3" type="solid" x="768" y="1536" width="96" height="32"/>
  <object id="416" name="bosco_v3_45_24_4" type="solid" x="768" y="1568" width="96" height="32"/>
  <object id="417" name="bosco_v3_45_24_5" type="solid" x="768" y="1600" width="96" height="32"/>
  <object id="418" name="bosco_single_45_27" type="solid" x="864" y="1440" width="64" height="96"/>
  <object id="419" name="bosco_v3_45_30_0" type="solid" x="960" y="1440" width="96" height="32"/>
  <object id="420" name="bosco_v3_45_30_1" type="solid" x="960" y="1472" width="96" height="32"/>
  <object id="421" name="bosco_v3_45_30_2" type="solid" x="960" y="1504" width="96" height="32"/>
  <object id="422" name="bosco_v3_45_30_3" type="solid" x="960" y="1536" width="96" height="32"/>
  <object id="423" name="bosco_v3_45_30_4" type="solid" x="960" y="1568" width="96" height="32"/>
  <object id="424" name="bosco_v3_45_30_5" type="solid" x="960" y="1600" width="96" height="32"/>
  <object id="425" name="bosco_v3_45_33_0" type="solid" x="1056" y="1440" width="96" height="32"/>
  <object id="426" name="bosco_v3_45_33_1" type="solid" x="1056" y="1472" width="96" height="32"/>
  <object id="427" name="bosco_v3_45_33_2" type="solid" x="1056" y="1504" width="96" height="32"/>
  <object id="428" name="bosco_v3_45_33_3" type="solid" x="1056" y="1536" width="96" height="32"/>
  <object id="429" name="bosco_v3_45_33_4" type="solid" x="1056" y="1568" width="96" height="32"/>
  <object id="430" name="bosco_v3_45_33_5" type="solid" x="1056" y="1600" width="96" height="32"/>
  <object id="431" name="bosco_v3_45_36_0" type="solid" x="1152" y="1440" width="96" height="32"/>
  <object id="432" name="bosco_v3_45_36_1" type="solid" x="1152" y="1472" width="96" height="32"/>
  <object id="433" name="bosco_v3_45_36_2" type="solid" x="1152" y="1504" width="96" height="32"/>
  <object id="434" name="bosco_v3_45_36_3" type="solid" x="1152" y="1536" width="96" height="32"/>
  <object id="435" name="bosco_v3_45_36_4" type="solid" x="1152" y="1568" width="96" height="32"/>
  <object id="436" name="bosco_v3_45_36_5" type="solid" x="1152" y="1600" width="96" height="32"/>
  <object id="437" name="bosco_single_48_15" type="solid" x="480" y="1536" width="64" height="96"/>
  <object id="438" name="bosco_v3_48_18_0" type="solid" x="576" y="1536" width="96" height="32"/>
  <object id="439" name="bosco_v3_48_18_1" type="solid" x="576" y="1568" width="96" height="32"/>
  <object id="440" name="bosco_v3_48_18_2" type="solid" x="576" y="1600" width="96" height="32"/>
  <object id="441" name="bosco_v3_48_18_3" type="solid" x="576" y="1632" width="96" height="32"/>
  <object id="442" name="bosco_v3_48_18_4" type="solid" x="576" y="1664" width="96" height="32"/>
  <object id="443" name="bosco_v3_48_18_5" type="solid" x="576" y="1696" width="96" height="32"/>
  <object id="444" name="bosco_single_48_27" type="solid" x="864" y="1536" width="64" height="96"/>
  <object id="445" name="bosco_single_51_0" type="solid" x="0" y="1632" width="64" height="96"/>
  <object id="446" name="bosco_v3_51_9_0" type="solid" x="288" y="1632" width="96" height="32"/>
  <object id="447" name="bosco_v3_51_9_1" type="solid" x="288" y="1664" width="96" height="32"/>
  <object id="448" name="bosco_v3_51_9_2" type="solid" x="288" y="1696" width="96" height="32"/>
  <object id="449" name="bosco_v3_51_9_3" type="solid" x="288" y="1728" width="96" height="32"/>
  <object id="450" name="bosco_v3_51_9_4" type="solid" x="288" y="1760" width="96" height="32"/>
  <object id="451" name="bosco_v3_51_9_5" type="solid" x="288" y="1792" width="96" height="32"/>
  <object id="452" name="bosco_single_51_12" type="solid" x="384" y="1632" width="64" height="96"/>
  <object id="453" name="bosco_v3_51_15_0" type="solid" x="480" y="1632" width="96" height="32"/>
  <object id="454" name="bosco_v3_51_15_1" type="solid" x="480" y="1664" width="96" height="32"/>
  <object id="455" name="bosco_v3_51_15_2" type="solid" x="480" y="1696" width="96" height="32"/>
  <object id="456" name="bosco_v3_51_15_3" type="solid" x="480" y="1728" width="96" height="32"/>
  <object id="457" name="bosco_v3_51_15_4" type="solid" x="480" y="1760" width="96" height="32"/>
  <object id="458" name="bosco_v3_51_15_5" type="solid" x="480" y="1792" width="96" height="32"/>
  <object id="459" name="bosco_v3_51_21_0" type="solid" x="672" y="1632" width="96" height="32"/>
  <object id="460" name="bosco_v3_51_21_1" type="solid" x="672" y="1664" width="96" height="32"/>
  <object id="461" name="bosco_v3_51_21_2" type="solid" x="672" y="1696" width="96" height="32"/>
  <object id="462" name="bosco_v3_51_21_3" type="solid" x="672" y="1728" width="96" height="32"/>
  <object id="463" name="bosco_v3_51_21_4" type="solid" x="672" y="1760" width="96" height="32"/>
  <object id="464" name="bosco_v3_51_21_5" type="solid" x="672" y="1792" width="96" height="32"/>
  <object id="465" name="bosco_single_51_24" type="solid" x="768" y="1632" width="64" height="96"/>
  <object id="466" name="bosco_v3_51_27_0" type="solid" x="864" y="1632" width="96" height="32"/>
  <object id="467" name="bosco_v3_51_27_1" type="solid" x="864" y="1664" width="96" height="32"/>
  <object id="468" name="bosco_v3_51_27_2" type="solid" x="864" y="1696" width="96" height="32"/>
  <object id="469" name="bosco_v3_51_27_3" type="solid" x="864" y="1728" width="96" height="32"/>
  <object id="470" name="bosco_v3_51_27_4" type="solid" x="864" y="1760" width="96" height="32"/>
  <object id="471" name="bosco_v3_51_27_5" type="solid" x="864" y="1792" width="96" height="32"/>
  <object id="472" name="bosco_v3_51_30_0" type="solid" x="960" y="1632" width="96" height="32"/>
  <object id="473" name="bosco_v3_51_30_1" type="solid" x="960" y="1664" width="96" height="32"/>
  <object id="474" name="bosco_v3_51_30_2" type="solid" x="960" y="1696" width="96" height="32"/>
  <object id="475" name="bosco_v3_51_30_3" type="solid" x="960" y="1728" width="96" height="32"/>
  <object id="476" name="bosco_v3_51_30_4" type="solid" x="960" y="1760" width="96" height="32"/>
  <object id="477" name="bosco_v3_51_30_5" type="solid" x="960" y="1792" width="96" height="32"/>
  <object id="478" name="bosco_single_51_33" type="solid" x="1056" y="1632" width="64" height="96"/>
  <object id="479" name="bosco_v3_51_36_0" type="solid" x="1152" y="1632" width="96" height="32"/>
  <object id="480" name="bosco_v3_51_36_1" type="solid" x="1152" y="1664" width="96" height="32"/>
  <object id="481" name="bosco_v3_51_36_2" type="solid" x="1152" y="1696" width="96" height="32"/>
  <object id="482" name="bosco_v3_51_36_3" type="solid" x="1152" y="1728" width="96" height="32"/>
  <object id="483" name="bosco_v3_51_36_4" type="solid" x="1152" y="1760" width="96" height="32"/>
  <object id="484" name="bosco_v3_51_36_5" type="solid" x="1152" y="1792" width="96" height="32"/>
  <object id="12" name="p3_pozione" type="oggetto" x="354.384" y="1505.14" width="25.5772" height="27.7181">
   <properties>
    <property name="contenuto" value="mt_10_terremoto"/>
    <property name="quantita" type="int" value="1"/>
    <property name="type" value="oggetto"/>
   </properties>
  </object>
  <object id="17" x="8.56378" y="1740.59" width="77.074" height="168.064"/>
  <object id="18" x="272.971" y="1834.79" width="966.637" height="73.8626"/>
 </objectgroup>
 <objectgroup color="#00ff00" id="5" name="eventi">
  <object id="1" name="trainer_1" type="trainer" x="374.708" y="1376" width="32" height="32">
   <properties>
    <property name="facing" value="S"/>
    <property name="note" value="guardia ingresso radura Forza"/>
   </properties>
  </object>
  <object id="2" name="trainer_2" type="trainer" x="231.265" y="1526.59" width="32" height="32">
   <properties>
    <property name="facing" value="N"/>
    <property name="note" value="in fondo alla radura, vicino oggetto"/>
   </properties>
  </object>
  <object id="3" name="trainer_3" type="trainer" x="602.648" y="573.745" width="32" height="32">
   <properties>
    <property name="facing" value="S"/>
    <property name="note" value="presso il ponte"/>
   </properties>
  </object>
  <object id="4" name="trainer_4" type="trainer" x="320" y="128" width="32" height="32">
   <properties>
    <property name="facing" value="E"/>
    <property name="note" value="vicino cima sentiero"/>
   </properties>
  </object>
  <object id="5" name="force_boulder_1" type="force_boulder" x="288" y="1344" width="32" height="32">
   <properties>
    <property name="required_hm" value="forza"/>
   </properties>
  </object>
  <object id="8" name="trainer_4" type="trainer" x="572.76" y="928.157" width="32" height="32">
   <properties>
    <property name="facing" value="est"/>
   </properties>
  </object>
  <object id="9" name="trainer_6" type="trainer" x="512.814" y="155.276" width="32" height="32">
   <properties>
    <property name="facing" value="S"/>
   </properties>
  </object>
  <object id="10" name="trainer_5" type="trainer" x="700.146" y="736.542" width="32" height="32">
   <properties>
    <property name="descrizione" value="dentro l'acqua, nuotatore"/>
    <property name="facing" value="ovest"/>
   </properties>
  </object>
  <object id="11" name="cartello" type="cartello" x="293.367" y="37.5236" width="22.3657" height="19.1543">
   <properties>
    <property name="testo" value="Alabano e la sua villa...."/>
    <property name="type" value="cartello"/>
   </properties>
  </object>
  <object id="13" name="warp" type="warp" x="130.558" y="1894.09" width="90" height="20">
   <properties>
    <property name="destinazione" value="castel_gandolfo"/>
    <property name="spawn_id" value="da_castel_gandolfo"/>
    <property name="type" value="warp"/>
   </properties>
  </object>
  <object id="14" name="spawn" type="spawn" x="159.257" y="1827.21" width="32" height="21">
   <properties>
    <property name="id" value="da_castel_gandolfo"/>
    <property name="type" value="spawn"/>
   </properties>
  </object>
  <object id="15" name="warp" type="warp" x="313.551" y="-1.79648" width="74.0571" height="40.8591">
   <properties>
    <property name="destinazione" value="monteporzio"/>
    <property name="spawn_id" value="da_Percorso 5"/>
    <property name="type" value="warp"/>
   </properties>
  </object>
  <object id="16" name="spawn" type="spawn" x="329.248" y="46.2916" width="30.6443" height="29.3675">
   <properties>
    <property name="id" value="da_monteporzio"/>
    <property name="type" value="spawn"/>
   </properties>
  </object>
  <object id="19" name="erba alta percorso 5" x="294.917" y="171.59" width="240.853" height="288.398">
   <properties>
    <property name="id" value="incontri percorso 5"/>
    <property name="type" value="erba_alta"/>
   </properties>
  </object>
  <object id="20" name="erba alta percorso 5" x="656.737" y="504.508" width="174.484" height="83.9377">
   <properties>
    <property name="id" value="incontri percorso 5"/>
    <property name="type" value="erba_alta"/>
   </properties>
  </object>
  <object id="21" name="erba alta percorso 5" x="392.33" y="980.333" width="77.071" height="83.9377">
   <properties>
    <property name="id" value="incontri percorso 5"/>
    <property name="type" value="erba_alta"/>
   </properties>
  </object>
  <object id="22" name="erba alta percorso 5" x="335.06" y="1316.46" width="130.595" height="83.9377">
   <properties>
    <property name="id" value="incontri percorso 5"/>
    <property name="type" value="erba_alta"/>
   </properties>
  </object>
  <object id="23" name="erba alta percorso 5" x="230.153" y="1447.06" width="175.555" height="173.857">
   <properties>
    <property name="id" value="incontri percorso 5"/>
    <property name="type" value="erba_alta"/>
   </properties>
  </object>
  <object id="24" name="acqua_percorso_5" type="albero_taglio" x="173.514" y="649.202" width="389.457" height="50.3914">
   <properties>
    <property name="id" value="acqua_percorso_5"/>
    <property name="type" value="acqua surf"/>
   </properties>
  </object>
  <object id="25" name="acqua_percorso_5" type="albero_taglio" x="686.271" y="652.414" width="571.437" height="50.3914">
   <properties>
    <property name="id" value="acqua_percorso_5"/>
    <property name="type" value="acqua surf"/>
   </properties>
  </object>
  <object id="26" name="acqua_percorso_5" type="albero_taglio" x="1113.39" y="119.318" width="146.459" height="62.1666">
   <properties>
    <property name="id" value="acqua_percorso_5"/>
    <property name="type" value="acqua surf"/>
   </properties>
  </object>
  <object id="27" name="cascata_cascata_p2_1" type="cascata_cascata" x="1130.73" y="205.503" width="35.7716" height="455.007">
   <properties>
    <property name="id" value="cascata_cascata_percorso5_1"/>
    <property name="type" value="cascata_cascata"/>
   </properties>
  </object>
 </objectgroup>
</map>
