<?xml version="1.0" encoding="UTF-8"?>
<map version="1.10" tiledversion="1.12.2" orientation="orthogonal" renderorder="right-down" width="28" height="120" tilewidth="32" tileheight="32" infinite="0" backgroundcolor="#000000" nextlayerid="21" nextobjectid="102">
 <editorsettings>
  <export target="percorso_2.tmj" format="json"/>
 </editorsettings>
 <tileset firstgid="1" source="../../outside.tsx"/>
 <tileset firstgid="4017" name="professor Castagno" tilewidth="16" tileheight="16" tilecount="96" columns="8">
  <image source="../../Essentials FRLG/Graphics/Characters/NPC_ProfOak.png" trans="000000" width="128" height="192"/>
 </tileset>
 <tileset firstgid="4113" source="../../Game Boy Advance - Pokemon FireRed _ LeafGreen - Maps (Caves, Forests, Oceans, Etc.) - Pokemon Mansion.tsx"/>
 <tileset firstgid="5557" source="../../Emerald_Outside.tsx"/>
 <layer id="1" name="ground" width="28" height="120">
  <data encoding="csv">
3,3,2,2,5925,5925,5925,3,3,3,3,3,3,3,3,3,3,3,3,3,3,3,3,3,3,3,3,3,
3,3,713,714,5925,5925,5925,3,3,3,3,3,3,3,3,3,3,3,3,3,3,3,3,3,3,3,3,3,
3,3,713,714,5925,5925,5925,3,3,3,3,3,3,3,3,3,3,3,3,3,3,3,3,3,3,3,3,3,
3,3,713,714,5925,5925,5925,3,3,3,3,3,3,3,3,3,3,3,3,3,3,3,3,3,3,3,3,3,
3,3,713,714,5925,5925,5925,3,3,3,3,3,3,3,3,3,3,3,3,3,3,3,3,3,3,3,3,3,
3,3,713,714,5925,5925,5925,3,3,3,3,3,3,3,3,3,3,3,3,3,3,3,3,3,3,3,3,3,
3,3,713,714,5925,5925,5925,3,3,3,3,3,3,3,3,3,3,3,3,3,3,3,3,3,3,3,3,3,
3,3,713,714,5925,5925,5925,3,3,3,3,3,3,3,3,3,3,3,3,3,3,3,3,3,3,3,3,3,
3,3,713,714,5925,5925,5925,3,3,3,3,3,3,3,3,3,3,3,3,3,3,3,3,3,3,3,3,3,
3,3,713,714,5925,5925,5925,3,3,3,3,3,3,3,3,3,3,3,3,3,3,3,3,3,3,3,3,3,
3,3,713,714,716,3,3,3,3,3,3,5558,5558,5558,5558,5558,5558,5558,5558,5558,5558,5558,3,3,3,3,3,3,
3,3,713,714,723,706,706,706,706,706,706,5558,5558,5558,5558,5558,5558,5558,5558,5558,5558,5558,3,3,3,3,3,3,
3,3,802,714,714,714,714,714,714,714,714,5558,5558,5558,5558,5558,5558,5558,5558,5558,5558,5558,3,3,3,3,3,3,
3,3,3,3,3,3,3,3,3,3,3,5558,5558,5558,5558,5558,5558,5558,5558,5558,5558,5558,3,3,3,3,3,3,
3,3,3,3,5925,5925,5925,5925,5925,5925,5925,5925,5925,5925,5925,5925,5925,5925,5925,5925,5925,5925,3,3,3,3,3,3,
3,3,3,3,5925,5925,5925,5925,5925,5925,5925,5925,5925,5925,5925,5925,5925,5925,5925,5925,717,716,3,3,3,3,3,3,
3,3,3,3,5925,5925,5925,5925,5925,5925,5925,5925,5925,5925,5925,5925,5925,5925,5925,5925,717,716,3,3,3,3,3,3,
3,3,3,3,3,3,3,3,3,3,3,3,3,3,3,3,3,3,3,3,717,716,3,3,3,3,3,3,
3,3,3,3,3,3,3,3,3,3,3,3,3,3,3,3,3,3,3,3,717,716,3,3,3,3,3,3,
3,3,3,3,3,3,3,3,3,3,3,3,3,3,3,3,3,3,3,3,717,716,3,3,3,3,3,3,
3,3,3,3,3,3,3,3,3,3,3,3,3,3,3,3,3,3,3,3,717,716,3,3,3,3,3,3,
3,3,3,3,3,3,3,3,3,3,3,3,3,3,3,3,3,3,3,3,717,716,3,3,3,3,3,3,
3,3,3,3,3,3,3,3,3,3,3,3,3,3,3,3,3,3,3,3,717,716,3,3,3,3,3,3,
3,3,3,3,3,3,3,3,3,3,3,3,3,3,3,3,3,3,3,3,717,716,3,3,3,3,3,3,
3,3,3,3,3,3,3,3,3,3,3,3,3,3,3,3,3,3,3,3,717,716,3,3,3,3,3,3,
3,3,3,3,3,3,3,3,705,706,706,706,706,706,706,706,706,706,706,706,721,716,3,3,3,3,3,3,
3,3,3,3,3,3,3,3,717,714,714,714,714,714,714,714,714,714,714,714,714,716,3,3,3,3,3,3,
3,3,3,3,3,3,3,3,717,716,3,3,3,3,3,3,3,3,3,3,3,3,3,3,3,3,3,3,
3,3,3,3,3,3,3,3,717,716,3,3,3,3,3,3,3,3,3,3,3,3,3,3,3,3,3,3,
3,3,3,3,3,3,3,3,717,716,3,3,3,3,3,3,3,3,3,3,3,3,3,3,3,3,3,3,
3,3,3,3,3,3,3,3,717,716,3,3,3,3,3,3,3,3,3,3,3,3,3,3,3,3,3,3,
3,3,3,3,3,3,3,3,717,716,3,3,3,3,3,3,3,3,3,3,3,3,3,3,3,3,3,3,
3,3,3,3,3,3,3,3,717,716,3,3,3,3,3,3,3,3,3,3,3,3,3,3,3,3,3,3,
3,3,3,3,3,3,3,3,717,716,3,3,3,3,3,3,3,3,3,3,3,3,3,3,3,3,3,3,
3,3,3,3,3,3,3,3,717,716,3,3,3,3,3,3,3,3,3,3,3,3,3,3,3,3,3,3,
3,3,3,3,3,3,3,3,717,716,3,3,3,3,3,3,3,3,3,3,3,3,3,3,3,3,3,3,
3,3,3,3,3,3,3,3,717,716,3,3,3,3,3,3,3,3,3,3,3,3,3,3,3,3,3,3,
3,3,3,3,3,3,3,3,717,716,3,3,3,3,3,3,3,3,3,3,3,3,3,3,3,3,3,3,
3,3,3,3,3,3,3,3,717,716,3,3,3,3,3,3,3,3,3,3,3,3,3,3,3,3,3,3,
3,3,3,3,3,3,3,3,717,716,3,3,3,3,3,3,3,3,3,3,3,3,3,3,3,3,3,3,
3,3,3,3,3,3,3,3,717,716,3,6757,6758,6759,3,3,3,3,721,714,714,714,714,714,714,714,714,714,
3,3,3,3,3,3,3,3,717,716,3,6765,6766,6767,3,3,3,3,714,714,714,714,714,714,714,714,714,714,
3,3,3,3,3,3,3,3,717,716,3,3,3,3,3,3,3,3,714,716,5558,5558,5558,5558,5558,5558,5558,5558,
3,3,3,3,3,3,3,3,717,714,714,714,714,714,714,714,714,714,714,716,3,3,3,3,3,3,3,3,
3,3,3,3,3,3,3,3,714,714,714,714,714,714,714,714,714,714,714,714,3,3,3,0,0,3,3,3,
3,3,3,3,3,3,3,3,3,3,3,3,3,3,3,3,3,3,3,3,3,3,3,0,0,3,3,3,
3,3,3,3,3,3,3,3,3,6757,6758,6759,3,3,3,3,3,3,3,3,3,3,3,0,0,3,3,3,
3,3,3,3,3,3,3,3,3,6765,6766,6767,3,3,3,3,3,3,3,3,3,3,3,0,0,3,3,3,
3,3,3,3,3,3,3,3,3,3,3,3,3,3,3,3,3,3,3,3,3,3,3,0,0,3,3,3,
3,3,3,3,3,3,3,3,3,3,3,3,3,3,3,3,3,3,3,3,3,3,3,0,0,3,3,3,
3,3,3,3,3,3,3,3,3,3,3,3,3,3,3,3,3,0,0,0,0,0,0,0,0,3,3,3,
3,3,3,3,3,3,3,3,3,3,3,3,3,3,3,3,3,0,0,0,0,0,0,0,0,3,3,3,
3,3,3,3,3,3,3,3,3,3,3,3,3,3,3,3,3,0,3,3,3,3,3,3,3,3,3,3,
163,163,163,163,163,163,163,163,163,163,163,163,0,3,3,3,3,0,3,3,3,3,3,3,3,3,3,3,
163,163,163,163,163,163,163,163,163,163,163,163,0,3,3,3,3,0,3,3,3,3,3,3,3,3,3,3,
163,163,163,163,163,163,163,163,163,163,163,163,0,3,3,3,3,0,3,3,3,3,3,3,3,3,3,3,
163,163,163,163,163,163,163,163,163,163,163,163,0,3,3,3,3,0,3,3,3,3,3,3,3,3,3,3,
163,163,163,163,163,163,163,163,163,163,163,163,0,3,3,3,3,0,3,3,3,3,3,3,3,3,3,3,
163,163,163,163,163,163,163,163,163,163,163,163,0,3,3,3,3,0,3,3,3,3,3,3,3,3,3,3,
163,163,163,163,163,163,163,163,163,163,163,163,0,3,3,3,3,0,3,3,3,3,3,3,3,3,3,3,
163,163,163,163,163,163,163,163,163,163,163,163,0,3,3,3,3,0,0,0,0,0,0,0,3,3,3,3,
163,163,163,163,163,163,163,163,163,163,163,163,0,3,3,3,3,3,3,3,3,3,0,0,3,3,3,3,
163,163,163,163,163,163,163,163,163,163,163,163,0,3,3,3,3,3,3,3,3,3,0,0,3,3,3,3,
163,163,163,163,163,163,163,163,163,163,163,163,0,3,3,3,3,3,3,3,3,3,0,0,3,3,3,3,
163,163,163,163,163,163,163,163,163,163,163,163,0,3,3,3,3,3,3,3,3,3,0,0,3,3,3,3,
0,0,0,0,0,0,0,0,0,0,0,0,0,3,3,3,3,3,3,3,3,3,0,0,3,3,3,3,
3,3,3,0,3,3,3,3,3,3,3,3,3,3,3,3,3,3,3,3,3,3,0,0,3,3,3,3,
3,3,3,0,3,3,3,3,3,3,3,3,3,3,3,3,3,3,0,0,0,0,0,0,3,3,3,3,
3,3,3,0,3,3,3,3,3,3,3,3,3,3,3,3,3,3,0,3,3,3,3,3,3,3,3,3,
3,3,3,0,3,3,3,3,3,3,3,3,3,3,3,3,3,3,0,3,3,3,3,3,3,3,3,3,
3,3,3,0,3,3,3,3,3,3,3,3,3,3,3,3,3,3,0,3,3,3,3,3,3,3,3,3,
3,3,3,0,3,3,3,3,3,3,3,3,3,3,3,3,3,3,0,3,3,3,3,3,3,3,3,3,
3,3,3,0,3,3,3,3,3,3,3,3,3,3,3,3,3,3,0,3,3,3,3,3,3,3,3,3,
3,3,3,0,3,3,3,3,3,3,3,3,3,3,3,3,3,3,0,3,3,3,3,3,3,3,3,3,
3,3,3,0,3,3,3,3,3,3,3,3,3,3,3,3,3,3,0,3,3,3,3,3,3,3,3,3,
3,3,3,0,3,3,3,3,3,3,3,3,3,3,3,3,3,3,0,3,3,3,3,3,3,3,3,3,
3,3,3,0,0,0,0,0,0,0,0,0,0,0,0,0,0,0,0,3,3,3,3,3,3,3,3,3,
3,3,3,0,3,3,3,3,3,3,3,3,3,3,3,3,3,3,3,3,3,3,3,3,3,3,3,3,
3,3,3,0,3,3,3,3,3,3,3,3,3,3,3,3,3,3,3,3,3,3,3,3,3,3,3,3,
3,3,3,0,3,3,3,3,3,3,3,3,3,3,3,3,3,3,3,3,3,3,3,3,3,3,3,3,
3,3,3,0,3,3,3,3,3,3,3,3,3,3,3,3,3,3,3,3,3,3,3,3,3,3,3,3,
3,3,3,0,3,3,3,3,3,3,3,3,3,3,3,3,3,3,3,3,3,3,3,3,3,3,3,3,
3,3,3,0,3,3,3,3,3,3,3,3,3,3,3,3,3,3,3,3,3,3,3,3,3,3,3,3,
3,3,3,0,3,3,3,3,3,3,3,3,3,3,3,3,3,3,3,3,3,3,3,3,3,3,3,3,
3,3,3,0,3,3,3,3,3,3,3,3,3,3,3,3,3,3,3,3,3,3,3,3,3,3,3,3,
3,3,3,0,3,3,3,3,3,3,3,3,3,3,3,3,3,3,3,3,3,3,3,3,3,3,3,3,
3,3,3,0,0,0,0,0,0,0,0,0,0,0,0,0,0,0,0,0,0,0,0,0,0,0,3,3,
3,3,3,3,3,3,3,3,3,3,3,3,3,3,3,3,3,3,3,3,3,3,3,3,0,0,3,3,
3,3,3,3,3,3,3,3,3,3,3,3,3,3,3,3,3,3,3,3,3,3,3,3,0,0,3,3,
3,3,3,3,3,3,3,3,3,3,3,3,3,3,3,3,3,3,3,3,3,3,3,3,0,0,3,3,
3,3,3,3,3,3,3,3,3,3,3,3,3,3,3,3,3,3,3,3,3,3,3,3,0,0,3,3,
3,3,3,3,3,3,3,3,3,3,3,3,3,3,3,3,3,3,3,3,3,3,3,3,0,0,3,3,
3,3,3,3,3,3,3,3,3,3,3,3,3,3,3,3,3,3,3,3,3,3,3,3,0,0,3,3,
3,3,3,3,3,3,3,3,3,3,3,3,3,3,3,3,3,3,3,3,3,3,3,3,0,0,3,3,
3,3,3,3,3,3,3,3,3,3,3,3,3,3,3,3,3,3,3,3,3,3,3,3,0,0,3,3,
3,3,3,3,3,3,3,3,3,3,3,3,3,3,3,3,3,3,3,3,3,3,3,3,0,0,3,3,
3,3,3,3,3,3,3,3,3,3,3,3,7,7,7,7,7,7,7,7,7,7,7,7,7,7,7,3,
3,3,3,3,3,3,3,3,3,3,3,3,7,7,7,7,7,7,7,7,7,7,7,7,7,7,7,3,
3,3,3,3,3,3,3,3,3,3,3,3,7,7,7,7,7,7,7,7,7,7,7,7,7,7,7,3,
3,3,3,3,3,3,3,3,3,3,3,3,7,7,7,7,7,7,7,7,7,7,7,7,7,7,7,3,
3,3,3,3,3,3,3,3,3,3,3,3,7,7,7,7,7,7,7,7,7,7,7,7,7,7,7,3,
3,3,3,3,3,3,3,3,3,3,3,3,7,7,7,7,7,7,7,7,7,7,7,7,7,7,7,3,
3,3,3,3,3,3,3,3,3,3,3,3,7,7,7,7,7,7,7,7,7,7,7,7,7,7,7,3,
163,163,163,163,163,163,163,163,163,163,163,163,163,163,163,163,7,7,7,7,7,7,7,7,7,7,7,3,
3,3,3,3,3,3,3,3,3,3,3,3,7,7,7,163,7,7,7,7,7,7,7,7,7,7,7,3,
3,3,3,3,3,3,3,3,3,3,3,3,7,7,7,7,7,7,7,7,7,7,7,7,7,7,7,3,
3,3,3,3,3,3,3,3,3,3,3,3,7,7,7,7,7,7,7,7,7,7,7,7,7,7,7,3,
3,3,3,3,3,3,3,3,3,3,3,3,7,7,7,7,7,7,7,7,7,7,7,7,7,7,7,3,
3,3,3,3,3,3,3,3,3,3,3,3,7,7,7,7,7,7,7,7,7,7,7,7,7,7,7,3,
3,3,3,3,3,3,3,3,3,3,3,3,7,7,7,7,7,7,7,7,7,7,7,7,7,7,7,3,
3,3,3,3,3,3,3,3,3,3,3,3,7,7,7,7,7,7,7,7,7,7,7,7,7,7,7,3,
3,3,3,3,3,3,3,3,3,3,3,3,7,7,7,7,7,7,7,7,7,7,7,7,7,7,7,3,
3,3,3,3,3,3,3,3,3,3,3,3,7,7,7,7,7,7,7,7,7,7,7,7,7,7,7,3,
3,3,3,3,3,3,3,3,3,3,3,3,7,7,7,7,163,7,7,7,7,7,7,7,7,7,7,3,
3,3,3,3,3,3,3,3,3,3,3,3,7,7,7,7,7,7,7,7,7,7,7,7,7,7,7,3,
3,3,3,3,3,3,3,3,3,3,3,3,7,7,7,7,7,7,7,7,7,7,7,7,7,7,7,3,
3,3,3,3,3,3,3,3,3,3,3,3,7,7,7,7,7,7,7,7,7,7,7,7,7,7,7,3,
3,3,3,3,3,3,3,3,3,3,3,3,3,3,3,3,3,3,3,3,3,3,3,3,3,3,3,3,
3,3,3,3,3,3,3,3,3,3,3,3,3,3,3,3,3,3,3,3,3,3,3,3,3,3,3,3,
3,3,3,3,3,3,3,3,3,3,3,3,3,3,3,3,3,3,3,3,3,3,3,3,3,3,3,3
</data>
 </layer>
 <layer id="2" name="deco_sotto" width="28" height="120">
  <data encoding="csv">
785,788,788,786,5717,0,5719,786,797,797,790,790,790,787,0,0,0,0,162,164,0,0,0,0,0,0,0,0,
793,793,793,793,5717,0,5719,797,797,797,798,795,795,795,0,0,0,0,162,164,0,0,0,0,0,0,0,0,
793,793,793,793,5717,0,5719,797,797,797,798,795,795,795,0,0,0,0,162,164,0,0,0,0,0,0,0,0,
793,793,793,793,5717,0,5719,797,797,797,798,795,795,795,0,0,0,0,162,164,0,0,0,0,0,0,0,0,
793,793,793,793,5717,0,5719,797,797,797,798,795,795,795,0,0,0,0,162,164,0,0,0,0,0,0,0,0,
793,793,793,793,5717,0,5719,797,797,797,798,795,795,795,0,0,0,0,162,164,0,0,0,0,0,0,0,0,
793,793,793,793,5717,0,5719,797,797,797,798,795,795,795,0,0,0,0,162,164,0,0,0,0,0,0,0,0,
793,793,793,793,5717,0,5719,797,797,797,798,795,795,795,0,0,0,0,162,164,0,0,0,0,0,0,0,0,
793,793,793,793,5717,0,5719,797,797,797,798,795,795,795,0,0,0,0,162,164,0,0,0,0,0,0,0,0,
793,793,793,793,5717,0,5719,797,797,797,798,795,795,795,0,0,0,0,162,163,155,155,155,155,156,0,0,0,
793,793,793,801,5742,5742,5742,802,802,802,803,795,795,795,0,0,0,0,162,163,163,163,163,163,164,0,0,0,
793,793,801,802,5742,5742,5742,805,802,802,802,803,795,795,0,0,0,0,170,171,171,171,171,159,164,0,0,0,
793,801,802,802,5742,5742,5742,805,805,802,802,805,803,795,0,0,0,0,0,0,0,0,0,162,164,0,0,0,
801,802,802,802,5750,5750,5750,805,805,805,802,802,805,803,0,0,0,0,0,0,0,0,0,162,164,0,0,0,
0,0,0,0,5717,0,0,5710,5710,5710,5710,5710,5710,5710,5710,5710,5710,5710,5710,5710,5710,5711,0,162,164,0,0,0,
0,0,0,0,5717,0,0,0,0,0,0,0,0,0,0,0,0,0,0,0,5925,5925,0,162,164,0,0,0,
0,0,0,0,5717,0,0,0,0,0,0,0,0,0,0,0,0,0,0,0,5925,5925,0,162,164,0,0,0,
0,0,0,0,0,0,0,0,0,0,0,0,0,0,0,0,0,0,0,0,5925,5925,0,162,164,0,0,0,
0,0,0,0,0,0,0,0,0,0,0,0,0,0,0,0,0,0,0,0,5925,5925,0,162,164,0,0,0,
0,0,154,155,155,155,155,155,155,155,155,155,155,155,155,155,155,155,155,155,5925,5925,0,162,164,0,0,0,
0,0,162,163,163,163,163,163,163,163,163,163,163,163,163,163,163,163,163,163,5925,5925,0,162,164,0,0,0,
0,0,162,157,171,171,171,171,171,171,171,171,171,171,171,171,171,171,171,171,5925,5925,0,162,164,0,0,0,
0,0,162,164,3,0,0,0,0,0,0,0,0,0,0,0,0,0,0,0,5925,5925,0,162,164,0,0,0,
0,0,162,164,0,0,0,0,0,0,0,0,0,0,0,0,0,0,0,0,5925,5925,0,162,164,0,0,0,
0,0,162,164,0,0,0,0,0,0,0,0,0,0,0,0,0,0,0,0,5925,5925,0,162,164,0,0,0,
0,0,162,164,0,0,0,0,5925,5925,5925,5925,5925,5925,5925,5925,5925,5925,5925,5925,5925,5925,0,162,164,0,0,0,
0,0,162,164,0,0,0,0,5925,5925,5925,5925,5925,5925,5925,5925,5925,5925,5925,5925,5925,5925,0,162,164,0,0,0,
0,0,162,164,0,0,0,0,5925,5925,5925,5925,5925,5925,5925,5925,5925,5925,5925,5925,5925,5925,0,162,164,0,0,0,
0,0,162,164,0,0,0,0,5925,5925,0,0,0,0,0,0,0,0,0,0,0,0,0,162,164,0,0,0,
0,0,162,164,0,0,0,0,5925,5925,0,0,0,0,0,0,0,0,0,0,0,0,0,162,164,0,0,0,
0,0,162,164,0,0,0,0,5925,5925,0,0,0,155,155,155,155,155,155,155,155,155,155,162,164,0,0,0,
0,0,162,164,0,0,0,0,5925,5925,0,0,0,163,163,163,163,163,163,163,163,163,163,163,164,0,0,0,
0,0,162,164,0,0,0,0,5925,5925,0,0,0,171,171,171,171,171,171,171,171,171,171,163,164,0,0,0,
0,0,162,164,0,0,0,0,5925,5925,0,5570,5570,5570,5570,5570,5570,5570,5570,5570,5570,5570,5570,162,164,0,0,0,
5570,5570,5570,5570,5570,5570,5570,5570,5925,5925,0,5570,5570,5570,5570,5570,5570,5570,5570,5570,5570,5570,5570,162,164,0,0,0,
5570,5570,5570,5570,5570,5570,5570,5570,5925,5925,0,5570,5570,5570,5570,5570,5570,5570,5570,5570,5570,5570,5570,162,164,0,0,0,
5570,5570,5570,5570,5570,5570,5570,5570,5925,5925,0,5570,5570,5570,5570,5570,5570,5570,5570,5570,5570,5570,5570,162,164,0,0,0,
5570,5570,5570,5570,5570,5570,5570,5570,5925,5925,0,5570,5570,5570,5570,5570,5570,5570,5570,5570,5570,5570,5570,162,164,10271,10272,10273,
5570,5570,5570,5570,5570,5570,5570,5570,5925,5925,0,5570,5570,5570,5570,5570,5570,5570,5570,5570,5570,5570,5570,162,164,10279,10280,10281,
5570,5570,5570,5570,5570,5570,5570,5570,5925,5925,0,5570,5570,5570,5570,5570,5570,5570,5570,5570,5570,5570,5570,0,0,10287,10288,10289,
5570,5570,5570,5570,5570,5570,5570,5570,5925,5925,0,0,0,0,0,0,0,0,5925,5925,5925,5925,5925,5925,5925,5925,5925,5925,
5570,5570,5570,5570,5570,5570,5570,5570,5925,5925,0,0,0,0,0,0,0,0,5925,5925,5925,5925,5925,5925,5925,5925,5925,5925,
5570,5570,5570,5570,5570,5570,5570,5570,5925,5925,0,0,0,0,0,0,0,0,5925,5925,0,0,0,0,0,0,0,0,
5570,5570,949,5570,5570,5570,5570,5570,5925,5925,5925,5925,5925,5925,5925,5925,5925,5925,5925,5925,0,0,0,163,164,10271,10272,10273,
5570,5570,5570,5570,5570,5570,5570,5570,5925,5925,5925,5925,5925,5925,5925,5925,5925,5925,5925,5925,0,0,0,162,164,10279,10280,10281,
5570,5570,5570,5570,5570,5570,5570,5570,0,0,0,0,0,0,0,0,0,0,0,0,0,0,0,162,164,10287,10288,10289,
5570,5570,5570,5570,5570,5570,5570,5570,0,0,0,0,0,0,0,0,10271,10272,10273,0,10271,10272,10273,162,164,0,0,0,
5570,5570,5570,5570,5570,5570,5570,5570,0,0,0,0,0,0,0,0,10279,10280,10281,0,10279,10280,10281,162,164,0,0,0,
10253,10254,10253,10254,10253,10254,10253,10254,10253,10254,0,0,0,0,0,0,10287,10288,10289,0,10287,10288,10289,162,164,0,0,0,
10261,10262,10261,10262,10261,10262,10261,10262,10261,10262,0,8573,8574,8575,0,0,154,155,155,155,155,155,155,175,164,0,0,0,
0,10253,10254,10253,10254,10253,10254,10253,10254,10253,10254,8581,8582,8583,0,0,162,163,163,163,163,163,163,163,164,0,0,0,
0,10261,10262,10261,10262,10261,10262,10261,10262,10261,10262,8589,8590,8591,0,0,162,157,171,171,171,171,171,171,172,0,0,0,
155,155,155,155,155,155,155,155,155,155,155,155,156,8573,8574,8575,162,164,0,0,0,0,0,0,0,0,0,0,
0,0,0,0,0,0,0,5565,5566,5567,0,949,164,8581,8582,8583,162,164,0,0,0,0,0,0,0,0,0,0,
0,6950,0,0,0,0,0,5573,5574,5575,0,0,164,8589,8590,8591,162,164,0,0,0,0,0,0,0,0,0,0,
0,6958,0,0,0,0,0,5581,5582,5583,0,0,164,0,0,0,162,164,0,0,0,0,0,0,0,0,0,0,
0,6966,0,6950,0,0,0,5589,5590,5591,0,0,164,8573,8574,8575,162,164,0,0,0,0,0,0,0,0,0,0,
0,0,0,6958,0,0,0,0,338,0,0,0,164,8581,8582,8583,162,164,0,0,0,0,0,0,0,0,0,0,
0,0,0,6966,0,0,0,0,338,0,0,0,164,8589,8590,8591,162,164,0,0,0,0,0,0,0,0,0,0,
0,0,0,0,0,949,0,0,338,0,0,0,164,8573,8574,8575,162,173,155,155,155,155,155,156,0,0,0,0,
0,5565,5566,5567,0,0,0,0,338,0,0,0,164,8581,8582,8583,170,171,171,171,171,171,159,164,0,0,0,0,
0,5573,5574,5575,0,0,0,0,338,0,0,0,164,8589,8590,8591,0,0,0,0,0,0,162,164,0,0,0,0,
0,5581,5582,5583,0,0,0,0,338,0,0,0,164,8573,8574,8575,0,0,0,0,0,0,162,164,0,0,0,0,
0,5589,5590,5591,0,0,0,0,338,0,0,0,164,8581,8582,8583,0,0,0,0,0,0,162,164,0,0,0,0,
0,0,338,338,338,338,338,338,338,0,0,0,164,8589,8590,8591,0,0,0,0,0,0,162,164,0,0,0,0,
171,171,159,157,171,171,171,171,171,171,171,171,172,8573,8574,8575,0,0,0,0,0,0,162,164,0,0,0,0,
8574,8575,162,164,8573,8574,8575,8573,8574,8575,8573,8574,8575,8581,8582,8583,0,154,155,155,155,155,175,164,0,0,0,0,
8582,8583,162,164,8581,8582,8583,8581,8582,8583,8581,8582,8583,8589,8590,8591,0,162,157,171,171,171,171,172,0,0,0,0,
8590,8591,162,164,8589,8590,8591,8589,8590,8591,8589,8590,8591,0,5661,5662,5663,162,164,5661,5662,5663,0,5688,5689,0,0,0,
8574,8575,162,164,7,7,7,7,7,7,0,0,0,0,5669,5670,5671,162,164,5669,5670,5671,0,5696,5697,0,0,0,
8582,8583,162,164,7,7,7,7,7,7,0,0,0,0,5669,5670,5671,162,164,5669,5670,5671,0,0,0,0,0,0,
8590,8591,162,164,7,7,7,7,7,7,0,0,0,0,5669,5670,5671,162,164,5669,5670,5671,0,0,0,0,0,0,
8574,8575,162,164,7,7,7,7,7,7,0,0,0,0,5669,5670,5671,162,164,5669,5670,5671,0,0,0,0,0,0,
8582,8583,162,164,7,7,7,7,7,7,0,0,0,0,5669,5670,5671,162,164,5669,5670,5671,5688,5689,0,0,0,0,
8590,8591,162,164,7,7,7,7,7,7,0,0,0,0,5677,5678,5679,162,164,5669,5670,5671,5696,5697,0,0,0,0,
8574,8575,162,164,155,155,155,155,155,155,155,155,155,155,155,155,155,175,164,5669,5670,5671,0,0,5688,5689,0,0,
8582,8583,162,164,171,171,171,171,171,171,171,171,171,171,171,171,171,171,172,5669,5670,5671,0,0,5696,5697,0,0,
8590,8591,162,164,0,0,0,0,0,0,0,0,0,0,0,0,0,0,0,5669,5670,5671,5688,5689,0,0,5688,5689,
8574,8575,162,164,0,0,0,0,0,0,0,0,0,0,0,0,0,0,0,5669,5670,5671,5696,5697,0,0,5696,5697,
8582,8583,162,164,0,0,0,0,0,0,0,0,0,0,0,0,0,0,0,5669,5670,5671,0,0,0,0,0,0,
8590,8591,162,164,0,0,0,0,0,0,0,0,0,0,0,0,0,0,0,5669,5670,5671,0,0,0,0,0,0,
0,0,162,164,0,0,0,0,0,0,0,0,0,0,0,0,0,0,0,5669,5670,5671,0,0,0,0,0,0,
0,0,162,164,0,0,0,0,0,0,0,0,0,0,0,0,0,0,0,5669,5670,5671,0,0,0,0,0,0,
0,0,162,164,0,0,0,0,0,0,0,0,0,0,0,0,0,0,0,5669,5670,5671,5688,5689,5688,5689,5688,5689,
0,0,162,164,0,0,0,0,0,0,0,0,0,0,0,0,0,0,0,5677,5678,5679,5696,5697,5696,5697,5696,5697,
0,0,162,173,155,155,155,155,155,155,155,155,155,155,155,155,155,155,155,155,155,155,155,155,155,156,5570,5570,
0,0,170,171,171,171,171,171,171,171,171,171,171,171,171,171,171,171,171,171,171,171,171,171,159,164,5570,5570,
0,0,0,0,0,0,0,0,0,0,0,0,0,0,0,0,0,0,0,0,0,0,0,0,162,164,5570,5570,
0,0,0,0,0,0,0,0,0,0,0,0,0,0,0,0,0,0,0,0,0,0,0,0,162,164,5570,5570,
0,0,0,0,0,0,0,0,0,0,0,0,0,0,0,0,0,0,0,0,0,0,0,0,162,164,5570,5570,
0,0,0,0,0,0,0,0,0,0,0,0,0,0,0,0,0,0,0,0,0,0,0,0,162,164,5570,5570,
0,0,0,0,0,0,0,0,0,0,0,0,0,0,0,0,0,0,0,0,0,0,0,0,162,164,5570,5570,
5635,5635,5635,5635,5635,5635,5635,5635,5635,5635,5635,5635,5635,5635,5635,5635,5635,5635,5635,5635,5635,5635,5635,0,162,164,5570,5570,
10269,10270,10269,10270,10269,10270,10269,10270,10269,10270,10269,10270,10269,10270,10269,10270,10269,10270,10269,10270,10269,10270,10269,5626,162,164,5570,5570,
10277,10278,10277,10278,10277,10278,10277,10278,10277,10278,10277,10278,10277,10278,10277,10278,10277,10278,10277,10278,10277,10278,10277,5626,162,164,5570,5570,
10269,10270,10269,10270,10269,10270,10269,10270,10269,10270,10269,10270,10269,10270,10269,10270,10269,10270,10269,10270,10269,10270,10269,5626,162,164,5570,5570,
10269,10270,10269,10270,10269,10270,10269,10270,10269,10270,10269,10270,5618,5619,5619,5619,5619,5619,5619,5619,5619,5619,5619,0,162,164,0,0,
10277,10278,10277,10278,10277,10278,10277,10278,10277,10278,10277,10278,5626,0,0,0,0,0,0,0,0,0,0,0,162,164,0,0,
10269,10270,10269,10270,10269,10270,10269,10270,10269,10270,10269,10270,5626,0,0,0,0,0,0,0,0,0,0,0,162,164,0,0,
10277,10278,10277,10278,10277,10278,10277,10278,10277,10278,10277,10278,5626,0,0,0,0,0,0,0,0,0,0,0,162,164,0,0,
10269,10270,10269,10270,10269,10270,10269,10270,10269,10270,10269,10270,5626,0,0,0,0,0,0,0,0,0,0,0,162,164,0,0,
5619,5619,5619,5619,5619,5619,5619,5619,5619,5619,5619,5619,0,0,0,0,0,0,0,0,0,0,0,0,162,164,0,0,
155,155,155,155,155,155,155,155,155,155,155,155,155,155,155,155,156,0,0,0,0,0,0,0,162,164,0,0,
0,0,0,0,0,0,0,0,0,0,0,0,0,0,0,0,164,0,0,0,0,0,0,0,162,164,0,0,
171,171,171,171,171,171,171,171,171,171,171,171,171,171,171,0,164,0,0,0,0,0,0,0,162,164,0,0,
0,0,0,0,0,0,0,0,0,0,0,0,0,0,0,162,164,0,0,0,0,0,0,0,162,164,0,0,
0,0,0,0,0,0,0,0,0,0,0,0,0,0,0,162,164,0,0,0,0,0,0,0,162,164,0,0,
0,0,0,0,0,0,0,0,0,0,0,0,0,0,0,162,164,0,0,0,0,0,0,0,162,164,0,0,
0,0,0,0,0,0,0,0,0,0,0,0,0,0,0,162,164,0,0,0,0,0,0,0,162,164,0,0,
0,0,0,0,0,0,0,0,0,0,0,0,0,0,0,162,164,0,0,0,0,0,0,0,162,164,0,0,
0,0,0,0,0,0,0,0,0,0,0,0,0,0,0,162,164,0,0,0,0,0,0,0,162,164,0,0,
5635,5635,5635,5635,5635,5635,5635,5635,5635,5635,5635,5635,0,0,0,162,164,0,0,0,0,0,0,0,162,164,0,0,
0,0,0,0,0,0,0,0,0,0,0,0,0,0,0,162,164,0,0,0,0,0,0,0,162,164,0,0,
0,0,0,0,0,0,0,0,0,0,0,0,0,0,0,162,0,155,155,155,155,155,155,155,175,164,0,0,
0,0,0,0,0,0,0,0,0,0,0,0,0,0,0,170,171,171,171,171,171,171,171,171,171,172,0,0,
0,0,0,0,0,0,0,0,0,0,0,0,0,0,0,0,0,0,0,0,0,0,0,0,0,0,0,0,
0,0,0,0,0,0,0,0,0,0,0,0,0,0,0,0,0,0,0,0,0,0,0,0,0,0,0,0,
0,0,0,0,0,0,0,0,0,0,0,0,0,0,0,0,0,0,0,0,0,0,0,0,0,0,0,0,
0,0,0,0,0,0,0,0,0,0,0,0,0,0,0,0,0,0,0,0,0,0,0,0,0,0,0,0,
0,0,0,0,0,0,0,0,0,0,0,0,0,0,0,0,0,0,0,0,0,0,0,0,0,0,0,0
</data>
 </layer>
 <layer id="3" name="edifici" width="28" height="120">
  <data encoding="csv">
0,0,0,0,0,0,0,0,0,0,0,0,0,0,10253,10254,10253,10254,0,0,0,955,0,0,0,0,0,0,
0,0,0,0,0,0,0,0,0,0,0,0,0,0,10261,10262,10261,10262,0,0,0,0,0,0,0,0,0,0,
0,0,0,0,0,0,0,0,949,0,0,0,0,0,10253,10254,10253,10254,0,0,0,0,0,0,0,0,0,0,
0,0,0,0,0,0,0,0,0,0,0,0,0,0,10261,10262,10261,10262,0,0,0,0,0,0,0,0,0,0,
0,0,0,0,0,0,0,0,0,0,0,0,0,0,10253,10254,10253,10254,0,0,0,0,0,0,0,0,0,0,
0,0,0,0,0,0,0,0,0,0,0,0,0,0,10261,10262,10261,10262,0,0,0,0,0,0,0,0,0,0,
0,0,0,0,0,0,0,0,0,0,0,0,0,0,10253,10254,10253,10254,0,0,0,0,0,0,0,0,0,0,
0,0,0,0,0,0,0,0,0,0,0,0,0,0,10261,10262,10261,10262,0,0,0,0,0,0,0,0,0,0,
0,0,0,0,0,0,0,0,0,0,0,0,0,0,10253,10254,10253,10254,0,0,0,0,0,0,0,0,0,0,
0,0,0,0,0,0,0,0,0,0,0,0,0,0,10261,10262,10261,10262,0,0,0,0,0,0,0,0,0,0,
0,0,0,0,0,0,0,0,0,0,0,0,0,0,10253,10254,10253,10254,0,0,0,0,0,0,0,0,0,0,
0,0,0,0,0,0,0,0,0,0,0,0,0,0,10261,10262,10261,10262,0,0,0,0,0,0,0,0,0,0,
0,0,0,0,0,0,0,0,0,0,0,0,0,0,10253,10254,10253,10254,0,0,0,0,0,0,0,0,0,0,
0,0,0,0,0,0,0,0,0,0,0,0,0,0,10261,10262,10261,10262,0,0,0,0,0,0,0,0,0,0,
10253,10254,10253,10254,0,0,0,0,0,0,0,0,0,0,0,0,0,0,0,0,0,0,0,0,0,0,0,0,
10261,10262,10261,10262,0,0,0,0,0,0,0,0,0,0,0,0,0,0,0,0,0,5719,0,0,0,0,0,0,
10253,10254,10253,10254,0,0,0,0,0,0,0,0,0,0,0,0,0,0,0,0,0,5719,0,0,0,0,0,0,
10261,10262,10261,10262,5710,5710,5710,5710,5710,5710,5710,5710,5710,5710,5710,5710,5710,5710,5710,5711,0,5719,0,0,0,0,0,0,
0,0,0,0,0,0,0,0,0,0,0,0,0,0,0,0,0,0,0,5719,0,5719,0,0,0,0,0,0,
0,0,0,0,0,0,0,0,0,0,0,0,0,0,0,0,0,0,0,5719,0,5719,0,0,0,0,0,0,
0,0,0,0,0,0,0,0,0,0,0,0,0,0,0,0,0,0,0,5719,8545,8545,0,0,0,0,0,0,
0,0,0,0,0,0,0,0,0,0,0,0,0,0,0,0,0,0,0,5719,8553,8553,0,0,0,0,0,0,
0,0,0,0,0,0,0,0,0,0,0,0,0,0,0,0,0,0,0,5719,0,5719,0,0,0,0,0,0,
0,0,0,0,0,0,0,0,0,0,0,0,0,0,0,0,0,0,0,5719,0,5719,0,0,0,0,0,0,
0,0,0,0,0,0,0,0,0,0,0,0,0,0,0,0,0,0,0,5719,0,5719,0,0,0,0,0,0,
0,0,0,0,0,0,0,0,5709,5710,5710,5710,5710,5710,5710,5710,5710,5710,5710,5710,0,5719,0,0,0,0,0,0,
0,0,0,0,0,0,0,0,5717,0,0,0,0,0,0,0,0,0,0,0,0,5719,0,0,0,0,0,0,
0,0,0,0,0,0,0,0,5717,0,0,0,0,0,0,0,0,0,0,0,0,5719,0,0,0,0,0,0,
0,0,0,0,0,0,0,0,5717,5719,5710,5710,5710,5710,5710,5710,5710,5710,5710,5710,5710,5710,0,0,0,0,0,0,
0,0,0,0,0,0,0,0,5717,5719,0,0,0,0,0,0,0,0,0,0,0,0,0,0,0,0,0,0,
0,0,0,0,0,0,0,0,5717,5719,0,0,0,0,0,0,0,0,0,0,0,0,0,0,0,0,0,0,
0,0,0,0,0,0,0,0,5717,5719,0,0,0,0,0,0,0,0,0,0,0,0,0,0,0,0,0,0,
0,0,0,0,0,0,0,0,5717,5719,0,0,0,0,0,0,0,0,0,0,0,0,0,0,0,0,0,0,
0,0,0,0,0,0,0,0,5717,5719,0,0,0,0,0,0,0,0,0,0,0,0,0,0,0,0,0,0,
0,0,0,0,0,0,0,0,5717,5719,0,0,0,0,0,0,0,0,0,0,0,0,0,0,0,0,0,0,
0,0,0,0,0,0,0,0,5717,5719,0,0,0,0,0,0,0,0,0,0,0,0,0,0,0,0,0,0,
0,0,0,0,0,0,0,0,5717,5719,0,0,0,0,0,0,0,0,0,0,0,0,0,0,0,0,0,0,
0,0,0,0,0,0,0,0,5717,5719,0,0,0,0,0,0,0,0,0,0,0,0,0,0,0,0,0,0,
0,0,0,0,0,0,0,0,5717,5719,0,0,0,0,0,0,0,0,0,0,0,0,0,0,0,0,0,0,
0,0,0,0,0,0,0,0,5717,5719,0,0,0,0,0,0,0,0,0,0,0,0,0,8547,8548,0,0,0,
0,0,0,0,0,0,0,0,5717,5719,0,0,0,0,0,0,0,0,5709,5710,5710,5710,5710,8555,8556,5710,5710,5710,
0,0,0,0,0,0,0,0,5717,5719,0,0,0,0,0,0,0,0,5717,0,0,0,0,8563,8564,0,0,0,
0,0,0,0,0,0,0,0,5717,5719,0,0,0,0,0,0,0,0,5717,5719,5710,5710,955,8547,8548,5710,5710,5710,
0,0,0,0,0,0,0,0,5717,0,5710,5710,5710,5710,5710,5710,5710,5710,0,5719,0,0,0,0,0,0,0,0,
0,0,0,0,0,0,0,0,5717,0,0,0,0,0,0,0,0,0,0,5719,0,0,0,0,0,0,0,0,
0,0,0,0,0,0,0,0,5710,5710,5710,5710,5710,5710,5710,5710,5710,5710,5710,5710,0,0,0,0,0,0,0,0,
0,0,0,0,0,0,0,0,0,0,0,0,0,0,0,0,0,0,0,0,0,0,0,0,0,0,0,0,
0,0,0,0,0,0,0,0,0,0,0,0,0,0,0,0,0,0,0,0,0,0,0,0,0,0,0,0,
0,0,0,0,0,0,0,0,0,0,0,0,0,0,0,0,0,0,0,0,0,0,0,0,0,0,0,0,
0,0,0,0,0,0,0,0,0,0,0,0,0,0,0,0,0,0,0,0,0,0,0,0,0,0,0,0,
0,0,0,0,0,0,0,0,0,0,0,0,0,0,0,0,0,0,0,0,0,0,0,0,0,0,0,0,
0,0,0,0,0,0,0,0,0,0,0,0,0,0,0,0,0,0,0,0,0,0,0,0,0,0,0,0,
0,0,0,0,0,0,0,0,0,0,0,0,0,0,0,0,0,0,0,0,0,0,0,0,0,0,0,0,
0,0,0,0,0,0,0,0,0,0,0,0,0,0,0,0,0,0,0,0,0,0,0,0,0,0,0,0,
0,0,0,0,0,0,0,0,0,0,0,0,0,0,0,0,0,0,0,0,0,0,0,0,0,0,0,0,
0,0,0,0,0,0,0,0,0,0,0,0,0,0,0,0,0,0,0,0,0,0,0,0,0,0,0,0,
0,0,0,0,0,0,0,0,0,0,0,0,0,0,0,0,0,0,0,0,0,0,0,0,0,0,0,0,
0,0,0,0,0,0,0,0,0,0,0,0,0,0,0,0,0,0,0,0,0,0,0,0,0,0,0,0,
0,0,0,0,0,0,0,0,0,0,0,0,0,0,0,0,0,0,0,0,0,0,0,0,0,0,0,0,
0,0,0,0,0,0,0,0,0,0,0,0,0,0,0,0,0,0,0,0,0,0,0,0,0,0,0,0,
0,0,0,0,0,0,0,0,0,0,0,0,0,0,0,0,0,0,0,0,0,0,0,0,0,0,0,0,
0,0,0,0,0,0,0,0,0,0,0,0,0,0,0,0,0,0,0,0,0,0,0,0,0,0,0,0,
0,0,0,0,0,0,0,0,0,0,0,0,0,0,0,0,0,0,0,0,0,0,0,0,0,0,0,0,
0,0,0,0,0,0,0,0,0,0,0,0,0,0,0,0,0,0,0,0,0,0,0,0,0,0,0,0,
0,0,0,0,0,0,0,0,0,0,0,0,0,0,0,0,0,0,0,0,0,0,0,0,0,0,0,0,
0,0,0,0,0,0,0,0,0,0,0,0,0,0,0,0,0,0,0,0,0,0,0,0,0,0,0,0,
0,0,0,946,0,0,0,0,0,0,0,0,0,0,0,0,0,0,0,0,0,0,0,0,0,0,0,0,
0,0,946,0,0,0,0,0,0,0,0,0,0,0,0,0,0,0,0,0,0,0,0,0,0,0,0,0,
0,0,945,945,0,0,0,0,0,0,0,0,0,0,0,0,0,0,0,0,0,0,0,0,0,0,0,0,
0,0,946,945,0,0,0,0,0,0,0,0,0,0,0,0,0,0,0,0,0,0,0,0,0,0,0,0,
0,0,0,0,0,0,0,0,0,0,0,0,0,0,0,0,0,0,0,0,0,0,0,0,0,0,0,0,
0,0,0,0,0,0,0,0,0,0,0,0,0,0,0,0,0,0,0,0,0,0,0,0,0,0,0,0,
0,0,0,0,0,0,0,0,0,0,0,0,0,0,0,0,0,0,0,0,0,0,0,0,0,0,0,0,
0,0,0,0,0,0,0,0,0,0,0,0,0,0,0,0,0,0,0,0,0,0,0,0,0,0,0,0,
0,0,0,0,0,0,0,0,0,0,0,0,0,0,0,0,0,0,0,0,0,0,0,0,0,0,0,0,
0,0,0,0,0,0,0,0,0,0,0,0,0,0,0,0,0,0,0,0,0,0,0,0,0,0,0,0,
0,0,0,0,0,0,0,0,0,0,0,0,0,0,0,0,0,0,0,0,0,0,0,0,0,0,0,0,
0,0,0,0,955,0,0,0,0,0,0,0,0,0,0,0,0,0,0,0,0,0,0,0,0,0,0,0,
0,0,0,0,0,0,0,0,0,0,0,0,0,0,0,0,0,0,0,0,0,0,0,0,0,0,0,0,
0,0,0,0,0,0,0,0,0,0,0,0,0,0,0,0,0,0,0,0,0,0,0,0,0,0,0,0,
0,0,0,0,0,0,0,0,0,0,0,0,0,0,0,0,0,0,0,0,0,0,0,0,0,0,0,0,
0,0,0,0,0,0,0,0,0,0,0,0,0,0,0,0,0,0,0,0,0,0,0,0,0,0,0,0,
0,0,0,0,1073,1074,0,0,0,0,0,0,0,0,1073,1074,0,0,0,0,0,0,0,0,0,0,0,0,
0,0,0,0,1081,1082,1083,988,989,988,989,988,989,0,1081,1082,1083,988,989,0,0,0,0,0,0,0,0,0,
0,0,0,0,1089,1090,1091,996,997,996,997,996,997,0,1089,1090,1091,996,997,0,0,0,0,0,0,0,0,0,
0,0,0,0,0,0,0,0,0,0,0,0,0,0,0,0,0,0,0,0,0,0,0,0,0,0,0,0,
0,0,0,0,0,0,0,1073,1074,0,0,0,1073,1074,0,0,0,0,0,0,0,0,0,0,0,0,0,0,
0,2126,2127,2128,0,988,989,1081,1082,1083,988,989,1081,1082,1083,0,0,0,0,0,0,0,0,0,0,0,0,0,
0,2134,2135,2136,0,996,997,1089,1090,1091,996,997,1089,1090,1091,0,0,0,0,0,0,0,0,0,0,0,0,0,
0,2142,2143,2144,0,0,0,0,0,0,0,0,0,0,0,0,0,0,0,0,0,0,0,0,0,0,0,0,
0,2204,2205,2206,0,0,0,0,0,0,0,0,0,0,0,0,0,0,0,0,0,0,0,0,0,0,0,0,
0,2212,2213,2214,0,0,0,0,0,0,0,0,0,0,0,0,0,0,0,0,0,0,0,0,0,0,0,0,
0,0,0,0,0,0,0,0,0,0,0,0,0,0,0,0,0,0,0,0,0,0,0,0,0,0,0,0,
0,0,0,0,0,0,0,0,0,0,0,0,0,0,0,0,0,0,0,0,0,0,0,0,0,0,0,0,
0,0,0,0,0,0,0,0,0,0,0,0,0,0,0,0,0,0,0,0,0,0,0,0,0,0,0,0,
0,0,0,0,0,0,0,0,0,0,0,0,0,0,0,0,0,0,0,0,0,0,0,0,0,0,0,0,
0,0,0,0,0,0,0,0,0,0,0,0,0,0,0,0,0,0,0,0,0,0,0,0,0,0,0,10511,
0,0,0,0,0,0,0,0,0,0,0,0,0,0,0,0,0,0,0,0,0,0,0,0,0,0,0,10511,
0,0,0,0,0,0,0,0,0,0,0,0,0,0,0,0,0,0,0,0,0,0,0,0,0,0,0,10511,
0,0,0,0,0,0,0,0,0,0,0,0,0,0,0,0,0,0,0,0,0,0,0,0,0,0,0,10511,
0,0,0,0,0,0,0,0,0,0,0,0,0,0,0,0,0,0,0,0,0,0,0,0,0,0,0,10511,
0,0,0,0,0,0,0,0,0,0,0,0,0,0,0,0,0,0,0,0,0,0,0,0,0,0,0,10511,
0,0,0,0,0,0,0,0,0,0,0,0,0,0,0,0,0,0,0,0,0,0,0,0,0,0,0,10511,
0,0,0,0,0,0,0,0,0,0,0,0,0,0,0,0,0,0,0,0,0,0,0,0,0,0,0,10511,
0,0,0,0,0,0,0,0,0,0,0,0,0,0,0,0,0,0,0,0,0,0,0,0,0,0,0,10511,
0,0,0,955,0,0,0,0,0,0,0,0,0,0,0,0,0,0,0,0,0,0,0,0,0,0,0,10511,
0,0,0,0,0,0,0,0,0,0,0,0,0,0,0,0,0,0,0,0,0,0,0,0,0,0,0,10511,
0,0,0,0,0,0,0,0,0,0,0,0,0,0,0,0,0,0,0,0,0,0,0,0,0,0,0,10511,
0,0,0,0,0,0,0,0,0,0,0,0,0,0,0,0,0,0,0,0,0,0,0,0,0,0,0,10511,
0,0,0,0,0,0,0,0,0,0,0,0,0,0,0,0,0,0,0,0,0,0,0,0,0,0,0,10511,
0,0,0,0,0,0,0,0,0,0,0,0,0,0,0,0,0,0,0,0,0,0,0,0,0,0,0,10511,
0,0,0,0,0,0,0,0,0,0,0,0,0,0,0,0,0,0,0,0,0,0,0,0,0,0,0,10511,
10269,10270,10269,10270,10269,10270,10269,10270,10269,10270,10269,10270,5626,0,0,0,0,0,0,0,0,0,0,0,0,0,0,10511,
10277,10278,10277,10278,10277,10278,10277,10278,10277,10278,10277,10278,5626,0,0,0,0,0,0,0,0,0,0,0,0,0,0,10511,
10269,10270,10269,10270,10269,10270,10269,10270,10269,10270,10269,10270,5626,0,0,0,0,0,0,0,0,0,0,0,0,0,0,10511,
10277,10278,10277,10278,10277,10278,10277,10278,10277,10278,10277,10278,5626,0,0,0,0,0,0,0,0,0,0,0,0,0,0,10511,
10269,10270,10269,10270,10269,10270,10269,10270,10269,10270,10269,10270,5634,5635,5635,5635,5635,5635,5635,5635,5635,5635,5635,5635,5635,5635,5635,10511,
10277,10278,10277,10278,10277,10278,10277,10278,10277,10270,10269,10270,10269,10270,10269,10270,10269,10270,10269,10270,10269,10270,10269,10270,10269,10270,10269,10270,
10277,10278,10277,10278,10277,10278,10277,10278,10277,10278,10277,10278,10277,10278,10277,10278,10277,10278,10277,10278,10277,10278,10277,10278,10277,10278,10277,10278,
10269,10270,10269,10270,10269,10270,10269,10270,10269,10270,10269,10270,10269,10270,10269,10270,10269,10270,10269,10270,10269,10270,10269,10270,10269,10270,10269,10270
</data>
 </layer>
 <layer id="4" name="sopra_testa" width="28" height="120">
  <data encoding="csv">
0,0,0,0,0,0,0,0,0,0,0,0,0,0,0,0,0,0,0,0,0,0,0,0,0,0,0,0,
0,0,0,0,0,0,0,0,0,0,0,0,0,0,0,0,0,0,0,0,0,0,0,0,0,0,0,0,
0,0,0,0,0,0,0,0,0,0,0,0,0,0,0,0,0,0,0,0,0,0,0,0,0,0,0,0,
0,0,0,0,0,0,0,0,0,0,0,0,0,0,0,0,0,0,0,0,0,0,0,0,0,0,0,0,
0,0,0,0,0,0,0,0,0,0,0,0,0,0,0,0,0,0,0,0,0,0,0,0,0,0,0,0,
0,0,0,0,0,0,0,0,0,0,0,0,0,0,0,0,0,0,0,0,0,0,0,0,0,0,0,0,
0,0,0,0,0,0,0,0,0,0,0,0,0,0,0,0,0,0,0,0,0,0,0,0,0,0,0,0,
0,0,0,0,0,0,0,0,0,0,0,0,0,0,0,0,0,0,0,0,0,0,0,0,0,0,0,0,
0,0,0,0,0,0,0,0,0,0,0,0,0,0,0,0,0,0,0,0,0,0,0,0,0,0,0,0,
0,0,0,0,0,0,0,0,0,0,0,0,0,0,0,0,0,0,0,0,0,0,0,0,0,0,0,0,
0,0,0,0,0,0,0,0,0,0,0,0,0,0,0,0,0,0,0,0,0,0,0,0,0,0,0,0,
0,0,0,0,0,0,0,0,0,0,0,0,0,0,0,0,0,0,0,0,0,0,0,0,0,0,0,0,
0,0,0,0,0,0,0,0,0,0,0,0,0,0,0,0,0,0,0,0,0,0,0,0,0,0,0,0,
0,0,0,0,0,0,0,0,0,0,0,0,0,0,0,0,0,0,0,0,0,0,0,0,0,0,0,0,
0,0,0,0,0,0,0,0,0,0,0,0,0,0,0,0,0,0,0,0,0,0,0,0,0,0,0,0,
0,0,0,0,0,0,0,0,0,0,0,0,0,0,0,0,0,0,0,0,0,0,0,0,0,0,0,0,
0,0,0,0,0,0,0,0,0,0,0,0,0,0,0,0,0,0,0,0,0,0,0,0,0,0,0,0,
0,0,0,0,0,0,0,0,0,0,0,0,0,0,0,0,0,0,0,0,0,0,0,0,0,0,0,0,
0,0,0,0,0,0,0,0,0,0,0,0,0,0,0,0,0,0,0,0,0,0,0,0,0,0,0,0,
0,0,0,0,0,0,0,0,0,0,0,0,0,0,0,0,0,0,0,0,0,0,0,0,0,0,0,0,
0,0,0,0,0,0,0,0,0,0,0,0,0,0,0,0,0,0,0,0,0,0,0,0,0,0,0,0,
0,0,0,0,0,0,0,0,0,0,0,0,0,0,0,0,0,0,0,0,0,0,0,0,0,0,0,0,
0,0,0,0,0,0,0,0,0,0,0,0,0,0,0,0,0,0,0,0,0,0,0,0,0,0,0,0,
0,0,0,0,0,0,0,0,0,0,0,0,0,0,0,0,0,0,0,0,0,0,0,0,0,0,0,0,
0,0,0,0,0,0,0,0,0,0,0,0,0,0,0,0,0,0,0,0,0,0,0,0,0,0,0,0,
0,0,0,0,0,0,0,0,0,0,0,0,0,0,0,0,0,0,0,0,0,0,0,0,0,0,0,0,
0,0,0,0,0,0,0,0,0,0,0,0,0,0,0,0,0,0,0,0,0,0,0,0,0,0,0,0,
0,0,0,0,0,0,0,0,0,0,0,0,0,0,0,0,0,0,0,0,0,0,0,0,0,0,0,0,
0,0,0,0,0,0,0,0,0,0,0,0,0,0,0,0,0,0,0,0,0,0,0,0,0,0,0,0,
0,0,0,0,0,0,0,0,0,0,0,0,0,0,0,0,0,0,0,0,0,0,0,0,0,0,0,0,
0,0,0,0,0,0,0,0,0,0,0,0,0,0,0,0,0,0,0,0,0,0,0,0,0,0,0,0,
0,0,0,0,0,0,0,0,0,0,0,0,0,0,0,0,0,0,0,0,0,0,0,0,0,0,0,0,
0,0,0,0,0,0,0,0,0,0,0,0,0,0,0,0,0,0,0,0,0,0,0,0,0,0,0,0,
0,0,0,0,0,0,0,0,0,0,0,0,0,0,0,0,0,0,0,0,0,0,0,0,0,0,0,0,
0,0,0,0,0,0,0,0,0,0,0,0,0,0,0,0,0,0,0,0,0,0,0,0,0,0,0,0,
0,0,0,0,0,0,0,0,0,0,0,0,0,0,0,0,0,0,0,0,0,0,0,0,0,0,0,0,
0,0,0,0,0,0,0,0,0,0,0,0,0,0,0,0,0,0,0,0,0,0,0,0,0,0,0,0,
0,0,0,0,0,0,0,0,0,0,0,0,0,0,0,0,0,0,0,0,0,0,0,0,0,0,0,0,
0,0,0,0,0,0,0,0,0,0,0,0,0,0,0,0,0,0,0,0,0,0,0,0,0,0,0,0,
0,0,0,0,0,0,0,0,0,0,0,0,0,0,0,0,0,0,0,0,0,0,0,0,0,0,0,0,
0,0,0,0,0,0,0,0,0,0,0,0,0,0,0,0,0,0,0,0,0,0,0,0,0,0,0,0,
0,0,0,0,0,0,0,0,0,0,0,0,0,0,0,0,0,0,0,0,0,0,0,0,0,0,0,0,
0,0,0,0,0,0,0,0,0,0,0,0,0,0,0,0,0,0,0,0,0,0,0,0,0,0,0,0,
0,0,0,0,0,0,0,0,0,0,0,0,0,0,0,0,0,0,0,0,0,0,0,0,0,0,0,0,
0,0,0,0,0,0,0,0,0,0,0,0,0,0,0,0,0,0,0,0,0,0,0,0,0,0,0,0,
0,0,0,0,0,0,0,0,0,0,0,0,0,0,0,0,0,0,0,0,0,0,0,0,0,0,0,0,
0,0,0,0,0,0,0,0,0,0,0,0,0,0,0,0,0,0,0,0,0,0,0,0,0,0,0,0,
0,0,0,0,0,0,0,0,0,0,0,0,0,0,0,0,0,0,0,0,0,0,0,0,0,0,0,0,
0,0,0,0,0,0,0,0,0,0,0,0,0,0,0,0,0,0,0,0,0,0,0,0,0,0,0,0,
0,0,0,0,0,0,0,0,0,0,0,0,0,0,0,0,0,0,0,0,0,0,0,0,0,0,0,0,
0,0,0,0,0,0,0,0,0,0,0,0,0,0,0,0,0,0,0,0,0,0,0,0,0,0,0,0,
0,0,0,0,0,0,0,0,0,0,0,0,0,0,0,0,0,0,0,0,0,0,0,0,0,0,0,0,
0,0,0,0,0,0,0,0,0,0,0,0,0,0,0,0,0,0,0,0,0,0,0,0,0,0,0,0,
0,0,0,0,0,0,0,0,0,0,0,0,0,0,0,0,0,0,0,0,0,0,0,0,0,0,0,0,
0,0,0,0,0,0,0,0,0,0,0,0,0,0,0,0,0,0,0,0,0,0,0,0,0,0,0,0,
0,0,0,0,0,0,0,0,0,0,0,0,0,0,0,0,0,0,0,0,0,0,0,0,0,0,0,0,
0,0,0,0,0,0,0,0,0,0,0,0,0,0,0,0,0,0,0,0,0,0,0,0,0,0,0,0,
0,0,0,0,0,0,0,0,0,0,0,0,0,0,0,0,0,0,0,0,0,0,0,0,0,0,0,0,
0,0,0,0,0,0,0,0,0,0,0,0,0,0,0,0,0,0,0,0,0,0,0,0,0,0,0,0,
0,0,0,0,0,0,0,0,0,0,0,0,0,0,0,0,0,0,0,0,0,0,0,0,0,0,0,0,
0,0,0,0,0,0,0,0,0,0,0,0,0,0,0,0,0,0,0,0,0,0,0,0,0,0,0,0,
0,0,0,0,0,0,0,0,0,0,0,0,0,0,0,0,0,0,0,0,0,0,0,0,0,0,0,0,
0,0,0,0,0,0,0,0,0,0,0,0,0,0,0,0,0,0,0,0,0,0,0,0,0,0,0,0,
0,0,0,0,0,0,0,0,0,0,0,0,0,0,0,0,0,0,0,0,0,0,0,0,0,0,0,0,
0,0,0,0,0,0,0,0,0,0,0,0,0,0,0,0,0,0,0,0,0,0,0,0,0,0,0,0,
0,0,0,0,0,0,0,0,0,0,0,0,0,0,0,0,0,0,0,0,0,0,0,0,0,0,0,0,
0,0,0,0,0,0,0,0,0,0,0,0,0,0,0,0,0,0,0,0,0,0,0,0,0,0,0,0,
0,0,0,0,0,0,0,0,0,0,0,0,0,0,0,0,0,0,0,0,0,0,0,0,0,0,0,0,
0,0,0,0,0,0,0,0,0,0,0,0,0,0,0,0,0,0,0,0,0,0,0,0,0,0,0,0,
0,0,0,0,0,0,0,0,0,0,0,0,0,0,0,0,0,0,0,0,0,0,0,0,0,0,0,0,
0,0,0,0,0,0,0,0,0,0,0,0,0,0,0,0,0,0,0,0,0,0,0,0,0,0,0,0,
0,0,0,0,0,0,0,0,0,0,0,0,0,0,0,0,0,0,0,0,0,0,0,0,0,0,0,0,
0,0,0,0,0,0,0,0,0,0,0,0,0,0,0,0,0,0,0,0,0,0,0,0,0,0,0,0,
0,0,0,0,0,0,0,0,0,0,0,0,0,0,0,0,0,0,0,0,0,0,0,0,0,0,0,0,
0,0,0,0,0,0,0,0,0,0,0,0,0,0,0,0,0,0,0,0,0,0,0,0,0,0,0,0,
0,0,0,0,0,0,0,0,0,0,0,0,0,0,0,0,0,0,0,0,0,0,0,0,0,0,0,0,
0,0,0,0,0,0,0,0,0,0,0,0,0,0,0,0,0,0,0,0,0,0,0,0,0,0,0,0,
0,0,0,0,0,0,0,0,0,0,0,0,0,0,0,0,0,0,0,0,0,0,0,0,0,0,0,0,
0,0,0,0,0,0,0,0,0,0,0,0,0,0,0,0,0,0,0,0,0,0,0,0,0,0,0,0,
0,0,0,0,0,0,0,0,0,0,0,0,0,0,0,0,0,0,0,0,0,0,0,0,0,0,0,0,
0,0,0,0,0,0,0,0,0,0,0,0,0,0,0,0,0,0,0,0,0,0,0,0,0,0,0,0,
0,0,0,0,0,0,0,0,0,0,0,0,0,0,0,0,0,0,0,0,0,0,0,0,0,0,0,0,
0,0,0,0,0,0,0,0,0,0,0,0,0,0,0,0,0,0,0,0,0,0,0,0,0,0,0,0,
0,0,0,0,0,0,0,0,0,0,0,0,0,0,0,0,0,0,0,0,0,0,0,0,0,0,0,0,
0,0,0,0,0,0,0,0,0,0,0,0,0,0,0,0,0,0,0,0,0,0,0,0,0,0,0,0,
0,0,0,0,0,0,0,0,0,0,0,0,0,0,0,0,0,0,0,0,0,0,0,0,0,0,0,0,
0,0,0,0,0,0,0,0,0,0,0,0,0,0,0,0,0,0,0,0,0,0,0,0,0,0,0,0,
0,0,0,0,0,0,0,0,0,0,0,0,0,0,0,0,0,0,0,0,0,0,0,0,0,0,0,0,
0,0,0,0,0,0,0,0,0,0,0,0,0,0,0,0,0,0,0,0,0,0,0,0,0,0,0,0,
0,0,0,0,0,0,0,0,0,0,0,0,0,0,0,0,0,0,0,0,0,0,0,0,0,0,0,0,
0,0,0,0,0,0,0,0,0,0,0,0,0,0,0,0,0,0,0,0,0,0,0,0,0,0,0,0,
0,0,0,0,0,0,0,0,0,0,0,0,0,0,0,0,0,0,0,0,0,0,0,0,0,0,0,0,
0,0,0,0,0,0,0,0,0,0,0,0,0,0,0,0,0,0,0,0,0,0,0,0,0,0,0,0,
0,0,0,0,0,0,0,0,0,0,0,0,0,0,0,0,0,0,0,0,0,0,0,0,0,0,0,0,
0,0,0,0,0,0,0,0,0,0,0,0,0,0,0,0,0,0,0,0,0,0,0,0,0,0,0,0,
0,0,0,0,0,0,0,0,0,0,0,0,0,0,0,0,0,0,0,0,0,0,0,0,0,0,0,0,
0,0,0,0,0,0,0,0,0,0,0,0,0,0,0,0,0,0,0,0,0,0,0,0,0,0,0,0,
0,0,0,0,0,0,0,0,0,0,0,0,0,0,0,0,0,0,0,0,0,0,0,0,0,0,0,0,
0,0,0,0,0,0,0,0,0,0,0,0,0,0,0,0,0,0,0,0,0,0,0,0,0,0,0,0,
0,0,0,0,0,0,0,0,0,0,0,0,0,0,0,0,0,0,0,0,0,0,0,0,0,0,0,0,
0,0,0,0,0,0,0,0,0,0,0,0,0,0,0,0,0,0,0,0,0,0,0,0,0,0,0,0,
0,0,0,0,0,0,0,0,0,0,0,0,0,0,0,0,0,0,0,0,0,0,0,0,0,0,0,0,
0,0,0,0,0,0,0,0,0,0,0,0,0,0,0,0,0,0,0,0,0,0,0,0,0,0,0,0,
0,0,0,0,0,0,0,0,0,0,0,0,0,0,0,0,0,0,0,0,0,0,0,0,0,0,0,0,
0,0,0,0,0,0,0,0,0,0,0,0,0,0,0,0,0,0,0,0,0,0,0,0,0,0,0,0,
0,0,0,0,0,0,0,0,0,0,0,0,0,0,0,0,0,0,0,0,0,0,0,0,0,0,0,0,
0,0,0,0,0,0,0,0,0,0,0,0,0,0,0,0,0,0,0,0,0,0,0,0,0,0,0,0,
0,0,0,0,0,0,0,0,0,0,0,0,0,0,0,0,0,0,0,0,0,0,0,0,0,0,0,0,
0,0,0,0,0,0,0,0,0,0,0,0,0,0,0,0,0,0,0,0,0,0,0,0,0,0,0,0,
0,0,0,0,0,0,0,0,0,0,0,0,0,0,0,0,0,0,0,0,0,0,0,0,0,0,0,0,
0,0,0,0,0,0,0,0,0,0,0,0,0,0,0,0,0,0,0,0,0,0,0,0,0,0,0,0,
0,0,0,0,0,0,0,0,0,0,0,0,0,0,0,0,0,0,0,0,0,0,0,0,0,0,0,0,
0,0,0,0,0,0,0,0,0,0,0,0,0,0,0,0,0,0,0,0,0,0,0,0,0,0,0,0,
0,0,0,0,0,0,0,0,0,0,0,0,0,0,0,0,0,0,0,0,0,0,0,0,0,0,0,0,
0,0,0,0,0,0,0,0,0,0,0,0,0,0,0,0,0,0,0,0,0,0,0,0,0,0,0,0,
0,0,0,0,0,0,0,0,0,0,0,0,0,0,0,0,0,0,0,0,0,0,0,0,0,0,0,0,
0,0,0,0,0,0,0,0,0,0,0,0,0,0,0,0,0,0,0,0,0,0,0,0,0,0,0,0,
0,0,0,0,0,0,0,0,0,0,0,0,0,0,0,0,0,0,0,0,0,0,0,0,0,0,0,0,
0,0,0,0,0,0,0,0,0,0,0,0,0,0,0,0,0,0,0,0,0,0,0,0,0,0,0,0,
0,0,0,0,0,0,0,0,0,0,0,0,0,0,0,0,0,0,0,0,0,0,0,0,0,0,0,0
</data>
 </layer>
 <objectgroup id="20" name="collisioni">
  <object id="52" x="-1.33333" y="3565.33" width="382.667" height="274.667"/>
  <object id="53" x="380" y="3720" width="514.667" height="158.667"/>
  <object id="54" x="872" y="3081.33" width="32" height="665.333"/>
  <object id="55" x="-6.66667" y="2961.33" width="740" height="117.333"/>
  <object id="56" x="-18.6667" y="3050.67" width="400" height="189.333"/>
  <object id="57" x="129.333" y="2656" width="761.333" height="57.3333"/>
  <object id="58" x="0" y="2789.33" width="469.333" height="50.6667"/>
  <object id="59" x="6.66667" y="2830.67" width="116" height="134.667"/>
  <object id="60" x="-1.33333" y="2110.67" width="54.6667" height="472"/>
  <object id="61" x="137.333" y="2112" width="350.667" height="86.6667"/>
  <object id="62" x="421.333" y="1665.33" width="74.6667" height="500"/>
  <object id="63" x="4" y="1544" width="425.333" height="106.667"/>
  <object id="64" x="293.333" y="1476" width="24" height="41.3333"/>
  <object id="65" x="305.333" y="1504" width="77.3333" height="13.3333"/>
  <object id="66" x="364" y="1473.33" width="6.66667" height="38.6667"/>
  <object id="67" x="517.333" y="1484" width="204" height="70.6667"/>
  <object id="68" x="808" y="1381.33" width="81.3333" height="77.3333"/>
  <object id="69" x="808" y="1192" width="85.3333" height="73.3333"/>
  <object id="70" x="358.667" y="1282.67" width="16" height="42.6667"/>
  <object id="71" x="369.333" y="1317.33" width="65.3333" height="13.3333"/>
  <object id="72" x="430.667" y="1286.67" width="5.33333" height="36"/>
  <object id="73" x="1.33333" y="-2.66667" width="118.667" height="568"/>
  <object id="74" x="325.333" y="5.33333" width="234.667" height="436"/>
  <object id="75" x="232" y="321.333" width="94.6667" height="122.667"/>
  <object id="76" x="462.667" y="2172" width="50.6667" height="209.333"/>
  <object id="77" x="628" y="2185.33" width="58.6667" height="466.667"/>
  <object id="78" x="745.333" y="2186.67" width="37.3333" height="44"/>
  <object id="79" x="714.667" y="2349.33" width="41.3333" height="38.6667"/>
  <object id="80" x="710.667" y="2409.33" width="106.667" height="116"/>
  <object id="81" x="833.333" y="2474.67" width="46.6667" height="52"/>
 </objectgroup>
 <objectgroup color="#ff0000" id="6" name="eventi">
  <object id="2" name="warp" type="warp" x="-0.333333" y="3273" width="32" height="32">
   <properties>
    <property name="destinazione" value="frascati_est"/>
    <property name="spawn_id" value="da_percorso_2_nord"/>
    <property name="type" value="warp"/>
   </properties>
  </object>
  <object id="3" name="warp" type="warp" x="-1.33333" y="3299" width="32" height="32">
   <properties>
    <property name="destinazione" value="frascati_est"/>
    <property name="spawn_id" value="da_percorso_2_nord"/>
    <property name="type" value="warp"/>
   </properties>
  </object>
  <object id="6" name="warp" type="warp" x="-1.33333" y="3320" width="32" height="32">
   <properties>
    <property name="destinazione" value="frascati_est"/>
    <property name="spawn_id" value="da_percorso_2_nord"/>
    <property name="type" value="warp"/>
   </properties>
  </object>
  <object id="11" name="warp" type="warp" x="573.432" y="31.8539" width="32" height="32" rotation="270.822">
   <properties>
    <property name="destinazione" value="grottaferrata"/>
    <property name="spawn_id" value="da_percorso_2"/>
    <property name="type" value="warp"/>
   </properties>
  </object>
  <object id="12" name="warp" type="warp" x="605.429" y="32.3128" width="32" height="32" rotation="270.822">
   <properties>
    <property name="destinazione" value="grottaferrata"/>
    <property name="spawn_id" value="da_percorso_2"/>
    <property name="type" value="warp"/>
   </properties>
  </object>
  <object id="16" name="spawn" type="spawn" x="30.6667" y="3300" width="32" height="32">
   <properties>
    <property name="id" value="da_frascati_est"/>
    <property name="type" value="spawn"/>
   </properties>
  </object>
  <object id="17" name="spawn" type="spawn" x="585.583" y="32.753" width="32" height="32">
   <properties>
    <property name="id" value="da_grottaferrata"/>
    <property name="type" value="spawn"/>
   </properties>
  </object>
  <object id="18" name="cartello" type="cartello" x="97.6667" y="3365" width="32" height="32">
   <properties>
    <property name="testo" value="Percorso 2 — Via dei Castagneti"/>
    <property name="type" value="cartello"/>
   </properties>
  </object>
  <object id="19" name="cartello" type="cartello" x="673" y="9" width="32" height="32">
   <properties>
    <property name="testo" value="→ Grottaferrata"/>
    <property name="type" value="cartello"/>
   </properties>
  </object>
  <object id="20" name="cartello" type="cartello" x="703" y="1359" width="32" height="32">
   <properties>
    <property name="testo" value="Ponticello sul Rio Tuscolano"/>
    <property name="type" value="cartello"/>
   </properties>
  </object>
  <object id="21" name="cartello" type="cartello" x="132.667" y="2470" width="20.6667" height="23.3333">
   <properties>
    <property name="testo" value="Sentiero panoramico"/>
    <property name="type" value="cartello"/>
   </properties>
  </object>
  <object id="22" name="sass_spaccaroccia_p2_1" type="sasso_spaccaroccia" x="102" y="2212" width="20" height="25">
   <properties>
    <property name="id" value="sass_spaccaroccia_p2_1"/>
    <property name="type" value="sasso_spaccaroccia"/>
   </properties>
  </object>
  <object id="23" name="trainer" type="trainer" x="481" y="1598.5" width="32" height="32">
   <properties>
    <property name="direzione" value="est"/>
    <property name="id" value="all-fg-1"/>
    <property name="sprite" value="YOUNGSTER"/>
    <property name="type" value="trainer"/>
    <property name="vista" type="int" value="4"/>
   </properties>
  </object>
  <object id="24" name="trainer" type="trainer" x="415.333" y="963.333" width="32" height="32">
   <properties>
    <property name="direzione" value="sud"/>
    <property name="id" value="all-fg-2"/>
    <property name="sprite" value="LASS"/>
    <property name="type" value="trainer"/>
    <property name="vista" type="int" value="5"/>
   </properties>
  </object>
  <object id="25" name="trainer" type="trainer" x="130" y="673.333" width="32" height="32">
   <properties>
    <property name="direzione" value="est"/>
    <property name="direzione_ciclo" value="NS"/>
    <property name="id" value="all-fg-3"/>
    <property name="pattuglia" type="bool" value="true"/>
    <property name="sprite" value="BUGCATCHER"/>
    <property name="type" value="trainer"/>
    <property name="vista" type="int" value="15"/>
   </properties>
  </object>
  <object id="26" name="trainer" type="trainer" x="98.6667" y="1311.67" width="32" height="32">
   <properties>
    <property name="direzione" value="nord"/>
    <property name="direzione_ciclo" value="NS"/>
    <property name="id" value="all-fg-4"/>
    <property name="pattuglia" type="bool" value="true"/>
    <property name="sprite" value="YOUNGSTER"/>
    <property name="type" value="trainer"/>
    <property name="vista" type="int" value="5"/>
   </properties>
  </object>
  <object id="27" name="trainer" type="trainer" x="548.667" y="2085.17" width="21" height="22.5">
   <properties>
    <property name="direzione" value="sud"/>
    <property name="id" value="all-fg-5"/>
    <property name="sprite" value="LASS"/>
    <property name="type" value="trainer"/>
    <property name="vista" type="int" value="4"/>
   </properties>
  </object>
  <object id="28" name="trainer" type="trainer" x="732" y="2912" width="32" height="32">
   <properties>
    <property name="direzione" value="nord"/>
    <property name="direzione_ciclo" value="NS"/>
    <property name="id" value="all-fg-6"/>
    <property name="pattuglia" type="bool" value="true"/>
    <property name="sprite" value="BIRDKEEPER"/>
    <property name="type" value="trainer"/>
    <property name="vista" type="int" value="5"/>
   </properties>
  </object>
  <object id="29" name="npc" type="npc" x="792" y="651.333" width="32" height="32">
   <properties>
    <property name="direzione" value="est"/>
    <property name="id" value="p2_npc1"/>
    <property name="sprite" value="NPC_47"/>
    <property name="type" value="npc"/>
   </properties>
  </object>
  <object id="30" name="npc" type="npc" x="128" y="1760" width="32" height="32">
   <properties>
    <property name="direzione" value="nord"/>
    <property name="id" value="p2_npc2"/>
    <property name="movimento" value="random"/>
    <property name="raggio" type="int" value="3"/>
    <property name="sprite" value="NPC_48"/>
    <property name="type" value="npc"/>
   </properties>
  </object>
  <object id="31" name="npc" type="npc" x="308" y="2548" width="32" height="32">
   <properties>
    <property name="direzione" value="ovest"/>
    <property name="id" value="p2_npc3"/>
    <property name="sprite" value="NPC_49"/>
    <property name="type" value="npc"/>
   </properties>
  </object>
  <object id="32" name="p2_superpozione" type="oggetto" x="73" y="1389" width="32" height="32">
   <properties>
    <property name="contenuto" value="superpozione"/>
    <property name="id" value="p2_superpozione"/>
    <property name="quantita" type="int" value="1"/>
    <property name="type" value="oggetto"/>
   </properties>
  </object>
  <object id="33" name="p2_etere" type="oggetto" x="255" y="58" width="32" height="32">
   <properties>
    <property name="contenuto" value="etere"/>
    <property name="id" value="p2_etere"/>
    <property name="quantita" type="int" value="1"/>
    <property name="type" value="oggetto"/>
   </properties>
  </object>
  <object id="34" name="p2_superball" type="oggetto" x="159" y="1886" width="32" height="32">
   <properties>
    <property name="contenuto" value="superball"/>
    <property name="id" value="p2_superball"/>
    <property name="quantita" type="int" value="1"/>
    <property name="type" value="oggetto"/>
   </properties>
  </object>
  <object id="35" name="p2_mt_semitraglia" type="oggetto" x="354" y="1695" width="32" height="32">
   <properties>
    <property name="contenuto" value="MT_Semitraglia"/>
    <property name="id" value="p2_mt_semitraglia"/>
    <property name="quantita" type="int" value="1"/>
    <property name="type" value="oggetto"/>
   </properties>
  </object>
  <object id="45" name="sass_spaccaroccia_p2_1" type="sasso_spaccaroccia" x="102.091" y="2180.77" width="20" height="25">
   <properties>
    <property name="id" value="sass_spaccaroccia_p2_1"/>
    <property name="type" value="sasso_spaccaroccia"/>
   </properties>
  </object>
  <object id="46" name="sass_spaccaroccia_p2_1" type="sasso_spaccaroccia" x="67" y="2181.5" width="20" height="25">
   <properties>
    <property name="id" value="sass_spaccaroccia_p2_1"/>
    <property name="type" value="sasso_spaccaroccia"/>
   </properties>
  </object>
  <object id="47" name="sass_forza_p2_1" type="sasso_forza" x="72.5455" y="2148.59" width="20" height="25">
   <properties>
    <property name="id" value="sass_spaccaroccia_p2_1"/>
    <property name="type" value="sasso_forza"/>
   </properties>
  </object>
  <object id="50" name="sass_forza_p2_1" type="sasso_forza" x="99.6364" y="2115.32" width="20" height="25">
   <properties>
    <property name="id" value="sass_spaccaroccia_p2_1"/>
    <property name="type" value="sasso_forza"/>
   </properties>
  </object>
  <object id="51" name="sass_forza_p2_1" type="sasso_forza" x="71.6364" y="2209.68" width="20" height="25">
   <properties>
    <property name="id" value="sass_spaccaroccia_p2_1"/>
    <property name="type" value="sasso_forza"/>
   </properties>
  </object>
  <object id="82" name="cascata_cascata_p2_1" type="cascata_cascata" x="128.667" y="326.167" width="100" height="115.667">
   <properties>
    <property name="id" value="cascata_cascata_p2_1"/>
    <property name="type" value="cascata_cascata"/>
   </properties>
  </object>
  <object id="83" name="acqua_frascati_surf" type="albero_taglio" x="142.521" y="458.138" width="538.958" height="71.7247">
   <properties>
    <property name="id" value="acqua_frascati_surf"/>
    <property name="type" value="acqua surf"/>
   </properties>
  </object>
  <object id="85" name="acqua_frascati_surf" type="albero_taglio" x="274.521" y="817.471" width="413.625" height="71.7247">
   <properties>
    <property name="id" value="acqua_frascati_surf"/>
    <property name="type" value="acqua surf"/>
   </properties>
  </object>
  <object id="86" name="acqua_frascati_surf" type="albero_taglio" x="265.187" y="1389.47" width="361.625" height="50.3914">
   <properties>
    <property name="id" value="acqua_frascati_surf"/>
    <property name="type" value="acqua surf"/>
   </properties>
  </object>
  <object id="87" name="acqua_frascati_surf" type="albero_taglio" x="589.854" y="1289.47" width="133.625" height="58.3914">
   <properties>
    <property name="id" value="acqua_frascati_surf"/>
    <property name="type" value="acqua surf"/>
   </properties>
  </object>
  <object id="88" name="acqua_frascati_surf" type="albero_taglio" x="809.188" y="1286.8" width="133.625" height="58.3914">
   <properties>
    <property name="id" value="acqua_frascati_surf"/>
    <property name="type" value="acqua surf"/>
   </properties>
  </object>
  <object id="89" name="acqua_frascati_surf" type="albero_taglio" x="269.188" y="813.471" width="41.625" height="585.058">
   <properties>
    <property name="id" value="acqua_frascati_surf"/>
    <property name="type" value="acqua surf"/>
   </properties>
  </object>
  <object id="90" name="acqua_frascati_surf" type="albero_taglio" x="592.521" y="1296.8" width="41.625" height="86.3913">
   <properties>
    <property name="id" value="acqua_frascati_surf"/>
    <property name="type" value="acqua surf"/>
   </properties>
  </object>
  <object id="91" name="acqua_frascati_surf" type="albero_taglio" x="644.521" y="727.471" width="41.625" height="86.3913">
   <properties>
    <property name="id" value="acqua_frascati_surf"/>
    <property name="type" value="acqua surf"/>
   </properties>
  </object>
  <object id="92" name="acqua_frascati_surf" type="albero_taglio" x="144.521" y="11.471" width="54.9583" height="279.725">
   <properties>
    <property name="id" value="acqua_frascati_surf"/>
    <property name="type" value="acqua surf"/>
   </properties>
  </object>
  <object id="93" name="acqua_frascati_surf" type="albero_taglio" x="643.188" y="536.804" width="41.625" height="86.3913">
   <properties>
    <property name="id" value="acqua_frascati_surf"/>
    <property name="type" value="acqua surf"/>
   </properties>
  </object>
  <object id="94" name="erba alta percorso 2" x="6.64833" y="1103.13" width="236.704" height="427.065">
   <properties>
    <property name="id" value="incontri percorso 2"/>
    <property name="type" value="erba_alta"/>
   </properties>
  </object>
  <object id="95" name="erba alta percorso 2" x="366.981" y="1064.8" width="364.37" height="205.398">
   <properties>
    <property name="id" value="incontri percorso 2"/>
    <property name="type" value="erba_alta"/>
   </properties>
  </object>
  <object id="96" name="erba alta percorso 2" x="139.981" y="2219.14" width="161.37" height="165.065">
   <properties>
    <property name="id" value="incontri percorso 2"/>
    <property name="type" value="erba_alta"/>
   </properties>
  </object>
  <object id="97" name="erba alta percorso 2" x="394.649" y="3082.47" width="352.703" height="173.731">
   <properties>
    <property name="id" value="incontri percorso 2"/>
    <property name="type" value="erba_alta"/>
   </properties>
  </object>
  <object id="98" name="erba alta percorso 2" x="560.649" y="3274.46" width="190.703" height="325.731">
   <properties>
    <property name="id" value="incontri percorso 2"/>
    <property name="type" value="erba_alta"/>
   </properties>
  </object>
  <object id="99" name="erba alta percorso 2" x="394.649" y="3377.13" width="74.0363" height="323.065">
   <properties>
    <property name="id" value="incontri percorso 2"/>
    <property name="type" value="erba_alta"/>
   </properties>
  </object>
  <object id="100" name="erba alta percorso 2" x="403.315" y="3686.47" width="482.703" height="60.398">
   <properties>
    <property name="id" value="incontri percorso 2"/>
    <property name="type" value="erba_alta"/>
   </properties>
  </object>
  <object id="101" name="erba alta percorso 2" x="843.982" y="2725.8" width="45.3697" height="997.731">
   <properties>
    <property name="id" value="incontri percorso 2"/>
    <property name="type" value="erba_alta"/>
   </properties>
  </object>
 </objectgroup>
</map>
