<?xml version="1.0" encoding="UTF-8"?>
<map version="1.10" tiledversion="1.12.2" orientation="orthogonal" renderorder="right-down" width="15" height="12" tilewidth="32" tileheight="32" infinite="0" nextlayerid="7" nextobjectid="51">
 <tileset firstgid="1" source="../Tiled/Interior general.tsx"/>
 <tileset firstgid="8033" source="../professor Castagno.tsx"/>
 <tileset firstgid="8129" source="../../outside.tsx"/>
 <tileset firstgid="12145" source="../Tiled/Gyms interior.tsx"/>
 <tileset firstgid="13297" source="../outside.tsx"/>
 <tileset firstgid="17313" source="../Mart interior.tsx"/>
 <layer id="1" name="ground" width="15" height="12">
  <data encoding="csv">
17345,17346,17347,17345,17346,17347,17345,17346,17347,17345,17346,17347,17345,17346,17347,
17353,17354,17355,17353,17354,17355,17353,17354,17355,17353,17354,17355,17353,17354,17355,
17361,17362,17363,17361,17362,17363,17361,17362,17363,17361,17362,17363,17361,17362,17363,
17345,17346,17347,17345,17346,17347,17345,17346,17347,17345,17346,17347,17345,17346,17347,
17353,17354,17355,17353,17354,17355,17353,17354,17355,17353,17354,17355,17353,17354,17355,
17361,17362,17363,17361,17362,17363,17361,17362,17363,17361,17362,17363,17361,17362,17363,
17345,17346,17347,17345,17346,17347,17345,17346,17347,17345,17346,17347,17345,17346,17347,
17353,17354,17355,17353,17354,17355,17353,17354,17355,17353,17354,17355,17353,17354,17355,
17361,17362,17363,17361,17362,17363,17361,17362,17363,17361,17362,17363,17361,17362,17363,
17345,17346,17347,17345,17346,17347,17345,17346,17347,17345,17346,17347,17345,17346,17347,
17353,17354,17355,17353,17354,17355,17353,17354,17355,17353,17354,17355,17353,17354,17355,
17361,17362,17363,17361,17362,17363,17361,17362,17363,17361,17362,17363,17361,17362,17363
</data>
 </layer>
 <layer id="2" name="deco_sotto" width="15" height="12">
  <data encoding="csv">
17314,17314,17314,17314,17314,17314,17314,17314,17314,17314,17314,17314,17314,17314,17314,
17322,17322,17322,17322,17322,17322,17322,17322,17322,17322,17322,17322,17322,17322,17322,
0,0,0,0,0,0,0,0,0,17383,17384,0,0,0,0,
0,0,0,0,0,0,0,0,0,17391,17392,0,0,0,0,
0,0,0,0,0,0,0,0,0,17399,17400,0,0,0,0,
0,0,0,0,0,0,0,0,0,17407,17408,0,0,0,0,
0,0,0,0,0,0,0,0,0,0,0,0,0,0,0,
0,0,0,0,0,0,0,0,0,0,0,0,0,0,0,
0,0,0,0,0,0,0,0,0,0,0,0,0,0,0,
0,0,0,0,0,0,0,0,0,0,0,0,0,0,0,
0,0,0,0,0,0,17332,17333,17334,0,0,0,0,0,0,
0,0,0,0,0,0,17340,17341,17342,0,0,0,0,0,0
</data>
 </layer>
 <layer id="3" name="edifici" width="15" height="12">
  <data encoding="csv">
0,0,0,0,0,0,0,0,0,0,0,0,0,0,0,
0,0,0,0,17413,0,0,0,0,0,0,0,0,0,0,
0,0,0,0,17421,0,0,0,0,0,0,0,0,0,0,
0,0,0,0,17421,0,0,0,0,0,0,0,0,0,0,
17417,17418,17419,17420,17421,0,0,0,0,0,0,0,0,0,0,
17425,17426,17427,17428,17429,0,0,0,0,0,0,0,0,0,0,
0,0,0,0,0,0,0,0,0,0,0,0,0,0,0,
0,0,0,0,0,0,0,0,0,0,0,0,0,0,0,
0,0,0,0,0,0,0,0,0,0,0,0,0,0,0,
0,0,0,0,0,0,0,0,0,0,0,0,0,0,0,
0,0,0,0,0,0,0,0,0,0,0,0,0,0,0,
0,0,0,0,0,0,0,0,0,0,0,0,0,0,0
</data>
 </layer>
 <layer id="4" name="sopra_testa" width="15" height="12">
  <data encoding="csv">
0,0,0,0,0,0,17317,0,17414,17415,17416,0,17414,17415,17416,
0,0,0,0,17381,17318,17325,0,17422,17423,17424,17318,17422,17423,17424,
0,0,0,0,17389,17326,0,0,17430,17431,17432,17326,17430,17431,17432,
0,0,0,0,0,0,0,0,0,0,0,0,0,17391,17392,
0,0,0,0,0,0,0,0,0,0,0,0,0,17399,17400,
0,0,0,0,0,0,0,0,0,0,0,0,0,17407,17408,
17318,0,0,0,0,0,0,0,0,0,0,0,0,0,0,
17326,0,0,0,0,0,0,0,0,0,17383,17384,0,17383,17384,
17318,0,0,0,0,0,0,0,0,0,17391,17392,0,17391,17392,
17326,0,0,0,0,0,0,0,0,0,17399,17400,0,17399,17400,
17318,0,17318,0,0,17318,0,0,0,0,17407,17408,0,17407,17408,
17326,0,17326,0,0,17326,0,0,0,0,0,0,0,0,0
</data>
 </layer>
 <objectgroup id="5" name="collisioni">
  <object id="41" x="-2" y="0.5" width="162.5" height="186.5"/>
  <object id="42" x="-4" y="183" width="34.5" height="200"/>
  <object id="43" x="2.5" y="316" width="184" height="66.5"/>
  <object id="44" x="318" y="250.5" width="167" height="102.5"/>
  <object id="45" x="254" y="26" width="225.5" height="160"/>
  <object id="46" x="157" y="1.5" width="324.5" height="94"/>
 </objectgroup>
 <objectgroup id="6" name="eventi">
  <object id="47" name="npc" type="npc" x="167" y="165.5" width="16.5" height="17">
   <properties>
    <property name="direzione" value="sud"/>
    <property name="id" value="pokemon market venditore"/>
    <property name="type" value="npc"/>
   </properties>
  </object>
  <object id="48" name="warp" type="warp" x="218" y="360.576" width="22" height="22">
   <properties>
    <property name="destinazione" value="frascati centro"/>
    <property name="spawn_id" value="da_poke market frascati"/>
    <property name="type" value="warp"/>
   </properties>
  </object>
  <object id="49" name="warp" type="warp" x="240" y="360.576" width="22" height="22">
   <properties>
    <property name="destinazione" value="frascati centro"/>
    <property name="spawn_id" value="da_poke market frascati"/>
    <property name="type" value="warp"/>
   </properties>
  </object>
  <object id="50" name="spawn" type="spawn" x="222.576" y="324.424" width="32" height="32">
   <properties>
    <property name="id" value="da_frascati centro"/>
    <property name="type" value="spawn"/>
   </properties>
  </object>
 </objectgroup>
</map>
