<?xml version="1.0" encoding="UTF-8"?>
<map version="1.10" tiledversion="1.12.2" orientation="orthogonal" renderorder="right-down" width="28" height="28" tilewidth="32" tileheight="32" infinite="0" nextlayerid="7" nextobjectid="63">
 <tileset firstgid="1" source="../../outside.tsx"/>
 <tileset firstgid="4017" source="../Tiled/Gyms interior.tsx"/>
 <tileset firstgid="5169" source="../../Emerald_Outside.tsx"/>
 <layer id="1" name="ground" width="28" height="28">
  <data encoding="csv">
4105,4106,4107,4107,4107,4107,4107,4107,4107,4107,4107,4107,4107,4107,4107,4107,4107,4107,4107,4107,4107,4107,4107,4107,4107,4107,4110,4111,
4105,4114,4115,4115,4115,4115,4115,4115,4117,4115,4115,4115,4115,4115,4115,4115,4115,4115,4117,4115,4115,4115,4115,4115,4115,4115,4118,4119,
4105,4122,4123,4123,4123,4123,4123,4123,4123,4123,4123,4123,4123,4123,4123,4123,4123,4123,4123,4123,4123,4123,4123,4123,4123,4123,4126,4111,
4105,4130,4131,4131,4131,4131,4131,4131,4131,4131,4131,4131,4131,4131,4131,4131,4131,4131,4131,4131,4131,4131,4131,4131,4131,4131,4134,4119,
4105,4138,4163,4163,4163,4163,4163,4163,4163,4163,4163,4163,4163,4163,4163,4163,4163,4163,4163,4163,4163,4163,4163,4163,4163,4163,4139,4111,
4105,4138,4163,4218,4218,4218,4218,4218,4218,4218,4218,4218,4218,4218,4218,4218,4218,4218,4218,4218,4218,4218,4218,4218,4218,4163,4139,4119,
4105,4138,4163,4218,4218,4218,4218,4218,4218,4218,4218,4218,4218,4218,4218,4218,4218,4218,4218,4218,4218,4218,4218,4218,4218,4163,4139,4111,
4105,4138,4163,4218,4218,4218,4218,4218,4218,4218,4218,4218,4218,4218,4218,4218,4218,4218,4218,4218,4218,4218,4218,4218,4218,4163,4139,4119,
4105,4138,4163,4218,4218,4218,4218,4218,4218,4218,4218,4218,4218,4218,4218,4218,4218,4218,4218,4218,4218,4218,4185,4186,4187,4163,4139,4111,
4105,4138,4163,4218,4218,4218,4218,4218,4218,4218,4218,4218,4218,4218,4218,4218,4218,4218,4218,4218,4218,4218,4193,4194,4195,4163,4139,4119,
4105,4138,4163,4218,4218,4218,4218,4218,4218,4218,4218,4218,4218,4218,4218,4218,4218,4218,4218,4218,4218,4218,4201,4202,4203,4163,4139,4111,
4105,4138,4163,4218,4218,4218,4218,4218,4218,4218,4218,4218,4218,4218,4218,4218,4218,4218,4218,4218,4218,4218,4218,4218,4218,4163,4139,4119,
4105,4138,4163,4218,4218,4218,4218,4218,4218,4218,4218,4218,4218,4218,4218,4218,4185,4186,4187,4218,4218,4218,4218,4218,4218,4163,4139,4111,
4105,4138,4163,4218,4218,4218,4218,4218,4218,4218,4218,4218,4218,4218,4218,4218,4193,4194,4195,4218,4218,4218,4218,4218,4218,4163,4139,4119,
4105,4138,4163,4218,4218,4218,4218,4218,4218,4218,4218,4218,4218,4218,4218,4218,4201,4202,4203,4218,4218,4218,4218,4218,4218,4163,4139,4111,
4105,4138,4163,4218,4218,4218,4218,4218,4218,4218,4218,4218,4218,4218,4218,4218,4218,4218,4218,4218,4218,4218,4218,4218,4218,4163,4139,4119,
4113,4138,4163,4218,4218,4218,4218,4218,4218,4218,4218,4218,4218,4218,4218,4218,4218,4218,4218,4218,4218,4218,4218,4218,4218,4163,4139,4111,
4105,4138,4163,4218,4218,4218,4218,4218,4218,4218,4218,4218,4218,4218,4218,4218,4218,4218,4218,4218,4218,4218,4218,4218,4218,4163,4139,4119,
4105,4138,4163,4218,4218,4218,4218,4218,4218,4218,4218,4218,4218,4218,4218,4218,4218,4218,4218,4218,4218,4218,4218,4218,4218,4163,4139,4111,
4105,4138,4163,4218,4218,4218,4218,4218,4218,4218,4218,4218,4218,4218,4218,4218,4218,4218,4218,4218,4218,4218,4218,4218,4218,4163,4139,4119,
4105,4138,4163,4218,4218,4218,4218,4218,4218,4218,4218,4218,4218,4218,4218,4218,4218,4218,4218,4218,4218,4218,4218,4218,4218,4163,4139,4111,
4105,4138,4163,4218,4218,4218,4218,4218,4218,4218,4218,4218,4218,4218,4218,4218,4218,4218,4218,4218,4218,4218,4218,4218,4218,4163,4139,4119,
4105,4138,4163,4218,4218,4218,4218,4218,4218,4218,4218,4218,4218,4218,4218,4218,4218,4218,4218,4218,4218,4218,4218,4218,4218,4163,4139,4111,
4105,4138,4163,4218,4218,4218,4218,4218,4218,4218,4218,4218,4218,4218,4218,4218,4218,4218,4218,4218,4218,4218,4218,4218,4218,4163,4139,4119,
4105,4138,4163,4218,4218,4218,4218,4218,4218,4218,4218,4218,4218,4218,4218,4218,4218,4218,4218,4218,4218,4218,4218,4218,4218,4163,4139,4111,
4105,4138,4163,4218,4218,4218,4218,4218,4218,4218,4218,4218,4218,4218,4218,4218,4218,4218,4218,4218,4218,4218,4218,4218,4218,4163,4139,4119,
4105,4138,4163,4163,4163,4163,4163,4163,4163,4163,4163,4163,4163,4163,4163,4163,4163,4163,4163,4163,4163,4163,4163,4163,4163,4163,4139,4111,
4113,4138,4139,4139,4139,4139,4139,4139,4139,4139,4139,4139,4139,4139,4139,4139,4139,4139,4139,4139,4139,4139,4139,4139,4139,4139,4139,4119
</data>
 </layer>
 <layer id="2" name="deco_sotto" width="28" height="28">
  <data encoding="csv">
0,0,0,0,0,0,0,0,0,0,0,0,0,0,0,0,0,0,0,0,0,0,0,0,0,0,0,0,
0,0,0,0,0,0,0,0,0,0,0,0,0,0,0,0,0,0,0,0,0,0,0,0,0,0,0,0,
0,0,0,0,0,0,0,0,0,0,0,0,0,0,0,0,0,0,0,0,0,0,0,0,0,0,0,0,
0,0,0,0,4136,0,0,0,0,0,0,0,0,0,0,0,0,0,0,0,0,0,0,0,4136,0,0,0,
0,0,4209,4210,4144,4210,4210,4210,4210,4185,4186,4186,4186,4186,4186,4186,4186,4186,4187,4210,4210,4210,4210,4210,4144,4210,0,0,
0,0,4217,0,0,0,0,0,0,4193,4194,4194,4194,4194,4194,4194,4194,4194,4195,0,0,0,0,0,0,4219,0,0,
0,0,4217,0,0,0,0,0,0,4201,4202,4202,4202,4202,4202,4202,4202,4202,4203,0,0,0,0,0,0,4219,0,0,
0,0,4217,0,0,0,0,0,0,4238,4239,4239,4239,4239,4239,4239,4239,4239,4239,0,0,0,0,0,0,4219,0,0,
0,0,4217,0,0,0,0,0,0,0,0,0,0,0,0,0,0,0,0,0,0,0,0,0,0,4219,0,0,
0,0,4217,0,0,0,0,0,0,0,0,0,0,0,0,0,0,0,0,0,0,0,0,0,0,4219,0,0,
0,0,4217,0,0,0,0,0,0,0,0,0,0,0,0,0,0,0,0,0,0,0,0,0,0,4219,0,0,
0,0,4217,0,0,0,0,0,0,0,0,0,0,0,0,0,0,0,0,0,0,0,0,0,0,4219,0,0,
0,0,4217,0,0,0,4185,4186,4187,0,0,0,0,0,0,0,0,0,0,0,0,0,0,0,0,4219,0,0,
0,0,4217,0,0,0,4193,4194,4195,0,0,0,0,0,0,0,0,0,0,0,0,0,0,0,0,4219,0,0,
0,0,4217,0,0,0,4201,4202,4203,0,0,0,0,0,0,0,0,0,0,0,0,0,0,0,0,4219,0,0,
0,0,4217,0,0,0,4238,4239,4239,0,0,0,0,0,0,0,0,0,0,0,0,0,0,0,0,4219,0,0,
0,0,4217,0,0,0,0,0,0,0,0,0,0,0,0,0,0,0,0,0,0,0,0,0,0,4219,0,0,
0,0,4217,0,0,0,0,0,0,0,0,0,0,0,0,0,0,0,0,0,0,0,0,0,0,4219,0,0,
0,0,4217,0,0,0,0,0,0,0,0,0,0,0,0,0,0,0,0,0,0,0,0,0,0,4219,0,0,
0,0,4217,0,0,0,0,0,0,0,0,0,0,0,0,0,0,4185,4186,4187,0,0,0,0,0,4219,0,0,
0,0,4217,0,0,0,0,0,0,0,0,0,0,0,0,0,0,4193,4194,4195,0,0,0,0,0,4219,0,0,
0,0,4217,0,0,0,0,0,0,0,0,0,0,0,0,0,0,4201,4202,4203,0,0,0,0,0,4219,0,0,
0,0,4217,0,0,0,4185,4186,4187,0,0,0,0,0,0,0,0,4239,4239,4239,0,0,0,0,0,4219,0,0,
0,0,4217,0,0,0,4193,4194,4195,0,0,0,0,0,0,0,0,0,0,0,0,0,0,0,0,4219,0,0,
0,0,4217,0,0,0,4201,4202,4203,0,0,0,0,0,0,0,0,0,0,0,0,0,0,0,0,4219,0,0,
0,0,4217,0,0,0,4239,4239,4239,0,0,0,0,0,0,0,0,0,0,0,0,0,0,0,0,4219,0,0,
0,0,4225,4226,4135,4226,4226,4226,4226,4226,4226,4226,4226,4226,4226,4226,4226,4226,4226,4226,4226,4226,4226,4226,4135,4219,0,0,
0,0,0,0,4143,0,0,0,0,0,0,0,0,4019,4020,4021,0,0,0,0,0,0,0,0,4143,0,0,0
</data>
 </layer>
 <layer id="3" name="edfici" width="28" height="28">
  <data encoding="csv">
0,0,0,0,0,0,0,0,0,0,0,0,0,0,0,0,0,0,0,0,0,0,0,0,0,0,0,0,
0,0,0,0,0,0,0,0,0,0,0,0,0,0,0,0,0,0,0,0,0,0,0,0,0,0,0,0,
0,0,0,0,0,0,0,0,0,0,0,0,0,0,0,0,0,0,0,0,0,0,0,0,0,0,0,0,
0,0,0,0,0,0,0,0,0,0,0,0,0,0,0,0,0,0,0,0,0,0,0,0,0,0,0,0,
0,0,0,0,0,0,0,0,0,0,0,0,0,0,0,0,0,0,0,0,0,0,0,0,0,0,0,0,
0,0,0,0,0,0,0,0,0,0,0,0,0,0,0,0,0,0,0,0,0,0,0,0,0,0,0,0,
0,0,0,0,0,0,0,0,0,0,0,0,0,0,0,0,0,0,0,0,0,0,0,0,0,0,0,0,
0,0,0,0,0,0,0,0,0,0,0,0,0,0,4161,0,0,0,0,0,0,0,0,0,0,0,0,0,
0,0,0,0,0,0,0,0,0,0,0,0,0,0,4161,0,0,0,0,0,0,0,0,0,0,0,0,0,
0,0,0,0,0,0,0,0,0,0,0,0,0,0,4170,4179,4179,4179,4179,4179,4179,4179,0,0,0,0,0,0,
0,0,0,0,0,0,0,0,0,0,0,0,0,0,0,0,0,0,0,0,0,0,0,0,0,0,0,0,
0,0,0,0,0,0,0,0,0,0,0,0,0,0,0,0,0,0,0,0,0,0,0,4161,0,0,0,0,
0,0,0,0,0,0,0,0,0,0,0,0,0,0,0,0,0,0,0,0,0,0,0,4161,0,0,0,0,
0,0,0,0,0,0,0,0,0,0,0,0,0,0,0,0,0,0,0,4179,4179,4179,4179,4172,0,0,0,0,
0,0,0,0,0,0,0,0,0,0,0,0,0,0,0,0,0,0,0,0,0,0,0,0,0,0,0,0,
0,4263,0,0,0,0,0,4161,0,0,0,0,0,0,0,0,0,4161,0,0,0,0,0,0,0,0,4263,0,
0,0,0,0,0,0,0,4170,4179,4179,4179,4179,4179,4179,4155,4179,4179,4172,0,0,0,0,0,0,0,0,0,0,
0,0,0,0,0,0,0,0,0,0,0,0,0,0,4161,0,0,0,0,0,0,0,0,0,0,0,0,0,
0,0,0,0,0,0,0,0,0,0,0,0,0,0,4161,0,0,0,0,0,0,0,0,0,0,0,0,0,
0,0,0,0,0,0,0,0,0,0,0,0,0,0,4161,0,0,0,0,0,0,0,0,0,0,0,0,0,
0,0,0,0,0,0,0,0,0,0,0,0,0,0,4161,0,0,0,0,0,0,0,0,0,0,0,0,0,
0,0,0,0,0,0,0,0,0,0,0,0,0,0,4161,0,0,0,0,0,0,0,0,0,0,0,0,0,
0,0,0,0,0,0,0,0,0,0,0,0,0,0,4161,0,0,0,4161,0,0,0,0,0,0,0,0,0,
0,0,0,0,0,0,0,0,0,4179,4179,4179,4179,4179,4163,4179,4179,4179,4172,0,0,0,0,0,0,0,0,0,
0,0,0,0,0,0,0,0,0,0,0,0,0,0,4161,0,0,0,0,0,0,0,0,0,0,0,0,0,
0,0,0,0,0,0,0,0,0,0,0,0,0,0,4161,0,0,0,0,0,0,0,0,0,0,0,0,0,
0,0,0,0,0,0,0,0,0,0,0,0,0,0,4169,0,0,0,0,0,0,0,0,0,0,0,0,0,
0,0,0,0,0,0,0,0,0,0,0,0,0,0,0,0,0,0,0,0,0,0,0,0,0,0,0,0
</data>
 </layer>
 <layer id="4" name="sopra_testa" width="28" height="28">
  <data encoding="csv">
0,0,0,0,0,0,0,0,0,0,0,0,0,0,0,0,0,0,0,0,0,0,0,0,0,0,0,0,
0,0,0,0,0,0,0,0,0,0,0,0,0,0,0,0,0,0,0,0,0,0,0,0,0,0,0,0,
0,0,0,0,0,0,0,0,0,0,0,0,0,0,0,0,0,0,0,0,0,0,0,0,0,0,0,0,
0,0,0,0,0,0,0,0,0,0,0,0,0,0,0,0,0,0,0,0,0,0,0,0,0,0,0,0,
0,0,0,0,0,0,0,0,0,0,0,0,0,0,0,0,0,0,0,0,0,0,0,0,0,0,0,0,
0,0,0,0,0,0,0,0,0,0,0,0,0,0,0,0,0,0,0,0,0,0,0,0,0,0,0,0,
0,0,0,0,0,0,0,0,0,0,0,0,0,0,0,0,0,0,0,0,0,0,0,0,0,0,0,0,
0,0,0,0,0,0,0,0,0,0,0,0,0,0,0,0,0,0,0,0,0,0,0,0,0,0,0,0,
0,0,0,0,0,0,0,0,0,0,0,0,0,0,0,0,0,0,0,0,0,0,0,0,0,0,0,0,
0,0,0,0,0,0,0,0,0,0,0,0,0,0,0,0,0,0,0,0,0,0,0,0,0,0,0,0,
0,0,0,0,0,0,0,0,0,0,0,0,0,0,0,0,0,0,0,0,0,0,0,0,0,0,0,0,
0,0,0,0,0,0,0,0,0,0,0,0,0,0,0,0,0,0,0,0,0,0,0,0,0,0,0,0,
0,0,0,0,0,0,0,0,0,0,0,0,0,0,0,0,0,0,0,0,0,0,0,0,0,0,0,0,
0,0,0,0,0,0,0,0,0,0,0,0,0,0,0,0,0,0,0,0,0,0,0,0,0,0,0,0,
0,0,0,0,0,0,0,0,0,0,0,0,0,0,0,0,0,0,0,0,0,0,0,0,0,0,0,0,
0,0,0,0,0,0,0,0,0,0,0,0,0,0,0,0,0,0,0,0,0,0,0,0,0,0,0,0,
0,0,0,0,0,0,0,0,0,0,0,0,0,0,0,0,0,0,0,0,0,0,0,0,0,0,0,0,
0,0,0,0,0,0,0,0,0,0,0,0,0,0,0,0,0,0,0,0,0,0,0,0,0,0,0,0,
0,0,0,0,0,0,0,0,0,0,0,0,0,0,0,0,0,0,0,0,0,0,0,0,0,0,0,0,
0,0,0,0,0,0,0,0,0,0,0,0,0,0,0,0,0,0,0,0,0,0,0,0,0,0,0,0,
0,0,0,0,0,0,0,0,0,0,0,0,0,0,0,0,0,0,0,0,0,0,0,0,0,0,0,0,
0,0,0,0,0,0,0,0,0,0,0,0,0,0,0,0,0,0,0,0,0,0,0,0,0,0,0,0,
0,0,0,0,0,0,0,0,0,0,0,0,0,0,0,0,0,0,0,0,0,0,0,0,0,0,0,0,
0,0,0,0,0,0,0,0,0,0,0,0,0,0,0,0,0,0,0,0,0,0,0,0,0,0,0,0,
0,0,0,0,0,0,0,0,0,0,0,0,0,0,0,0,0,0,0,0,0,0,0,0,0,0,0,0,
0,0,0,0,0,0,0,0,0,0,0,0,0,0,0,0,0,0,0,0,0,0,0,0,0,0,0,0,
0,0,0,0,0,0,0,0,0,0,0,0,0,0,0,0,0,0,0,0,0,0,0,0,0,0,0,0,
0,0,0,0,0,0,0,0,0,0,0,0,0,0,0,0,0,0,0,0,0,0,0,0,0,0,0,0
</data>
 </layer>
 <objectgroup id="6" name="collisioni">
  <object id="26" x="32.471" y="484.068" width="22.9795" height="21.4808"/>
  <object id="27" x="839.75" y="486.066" width="21.4808" height="21.9804"/>
  <object id="28" x="1.49866" y="0.499554" width="25.4773" height="892.203"/>
  <object id="29" x="-0.999108" y="-0.999108" width="874.719" height="98.9117"/>
  <object id="30" x="859.233" y="12.4888" width="24.4781" height="6.99376"/>
  <object id="31" x="873.72" y="6.4942" width="15.9857" height="889.206"/>
  <object id="59" name="warp" type="warp" x="447.518" y="904.458" width="32" height="32" rotation="270.822">
   <properties>
    <property name="destinazione" value="marino"/>
    <property name="spawn_id" value="da_palestra_marino"/>
    <property name="type" value="warp"/>
   </properties>
  </object>
  <object id="60" name="spawn" type="spawn" x="446.156" y="837.458" width="32" height="32">
   <properties>
    <property name="id" value="da_marino"/>
    <property name="type" value="spawn"/>
   </properties>
  </object>
  <object id="61" x="68.9384" y="144.371">
   <polygon points="0,0 0.499554,709.367 367.672,710.366 368.171,630.937 226.798,630.437 225.299,664.407 114.897,670.901 114.897,539.019 226.298,543.015 232.792,583.979 357.181,580.482 363.176,406.637 135.379,408.136 132.881,359.179 103.907,347.69 103.408,225.299 234.79,225.798 237.288,347.19 198.822,354.683 451.097,353.684 422.123,326.708 426.12,225.798 551.508,226.298 555.004,251.276 654.915,256.771 646.922,222.302 616.45,219.304 615.45,185.834 359.179,196.824 362.676,96.9135 202.819,101.909 199.322,0.999108"/>
  </object>
  <object id="62" x="617.449" y="151.365">
   <polygon points="0,0 -1.99822,88.9206 -124.389,96.9135 -123.39,120.393 69.438,120.892 70.9367,92.4175 190.83,95.4148 189.331,222.302 159.857,219.804 163.354,311.722 3.49688,310.223 2.99732,344.193 -20.9813,344.193 -26.9759,383.657 -27.975,405.638 -124.389,407.136 -122.89,569.492 -58.9474,572.489 -91.9179,549.01 -84.9242,434.612 41.9625,439.607 34.4692,569.991 9.49153,570.491 7.49331,598.466 4.99554,635.433 -125.888,639.429 -115.397,690.384 201.82,698.376 199.322,-5.49509"/>
  </object>
 </objectgroup>
 <objectgroup id="5" name="eventi"/>
</map>
