<?xml version="1.0" encoding="UTF-8"?>
<map version="1.10" tiledversion="1.12.2" orientation="orthogonal" renderorder="right-down" width="36" height="52" tilewidth="32" tileheight="32" infinite="0" nextlayerid="7" nextobjectid="121">
 <editorsettings>
  <export format="json"/>
 </editorsettings>
 <tileset firstgid="1" source="../../outside.tsx"/>
 <layer id="1" name="ground" width="36" height="52">
  <data encoding="csv">
2,2,2,2,2,2,2,2,2,2,2,2,2,2,2,2,2,2,2,2,2,2,2,2,2,2,2,2,2,2,2,2,2,2,2,2,
2,2,2,2,2,2,2,2,2,2,2,2,2,2,2,2,2,2,2,2,2,2,2,2,2,2,2,2,2,2,2,2,2,2,2,2,
2,2,2,2,2,2,2,2,2,2,2,2,2,2,2,2,2,2,2,2,2,2,2,2,2,2,2,2,2,2,2,2,2,2,2,2,
2,2,2,2,2,2,2,2,2,2,2,2,2,2,2,2,2,2,2,2,2,2,2,2,2,2,2,2,2,2,2,2,2,2,2,2,
2,2,2,2,2,2,2,2,2,2,2,2,2,2,2,2,2,2,2,2,2,2,2,2,2,2,2,2,2,2,2,2,2,2,2,2,
2,2,2,2,2,2,2,2,2,2,2,2,2,2,2,2,2,2,2,2,2,2,2,2,2,2,2,2,2,2,2,2,2,2,2,2,
2,2,2,2,2,2,2,2,2,2,2,2,2,2,2,2,2,2,2,2,2,2,2,2,2,2,2,2,2,2,2,2,2,2,2,2,
2,2,2,2,2,2,2,2,2,2,2,2,2,2,2,2,2,2,2,2,2,2,2,2,2,2,2,2,2,2,2,2,2,2,2,2,
2,2,2,2,2,2,2,2,2,2,2,2,2,2,2,2,2,2,2,2,2,2,2,2,2,2,2,2,2,2,2,2,2,2,2,2,
2,2,2,2,2,2,2,2,2,2,2,2,2,2,2,2,2,2,2,2,2,2,2,2,2,2,2,2,2,2,2,2,2,2,2,2,
2,2,2,2,2,2,2,2,2,2,2,2,2,2,2,2,2,2,2,2,2,2,2,2,2,2,2,2,2,2,2,2,2,2,2,2,
2,2,2,2,2,2,2,2,2,2,2,2,2,2,2,2,2,2,2,2,2,2,2,2,2,2,2,2,2,2,2,2,2,2,2,2,
2,2,2,2,2,2,2,2,2,2,2,2,2,2,2,2,2,2,2,2,2,2,2,2,2,2,2,2,2,2,2,2,2,2,2,2,
2,2,2,2,2,2,2,2,2,2,2,2,2,2,2,2,2,2,2,2,2,2,2,2,2,2,2,2,2,2,2,2,2,2,2,2,
2,2,2,2,2,2,2,2,2,2,2,2,2,2,2,2,2,2,2,2,2,2,2,2,2,2,2,2,2,2,2,2,2,2,2,2,
2,2,2,2,2,2,2,2,2,2,2,2,2,2,2,2,2,2,2,2,2,2,2,2,2,2,2,2,2,2,2,2,2,2,2,2,
2,2,2,2,2,2,2,2,2,2,2,2,2,2,2,2,2,2,2,2,2,2,2,2,2,2,2,2,2,2,2,2,2,2,2,2,
2,2,2,2,2,2,2,2,2,2,2,2,2,2,2,2,2,2,2,2,2,2,2,2,2,2,2,2,2,2,2,2,2,2,2,2,
2,2,2,2,2,2,2,2,2,2,2,2,2,2,2,2,2,2,2,2,2,2,2,2,2,2,2,2,2,2,2,2,2,2,2,2,
2,2,2,2,2,2,2,2,2,2,2,2,2,2,2,2,2,2,2,2,2,2,2,2,2,2,2,2,2,2,2,2,2,2,2,2,
2,2,2,2,2,2,2,2,2,2,2,2,2,2,2,2,2,2,2,2,2,2,2,2,2,2,2,2,2,2,2,2,2,2,2,2,
2,2,2,2,2,2,2,2,2,2,2,2,2,2,2,2,2,2,2,2,2,2,2,2,2,2,2,2,2,2,2,2,2,2,2,2,
2,2,2,2,2,2,2,2,2,2,2,2,2,2,2,2,2,2,2,2,2,2,2,2,2,2,2,2,2,2,2,2,2,2,2,2,
2,2,2,2,2,2,2,2,2,2,2,2,2,2,2,2,2,2,2,2,2,2,2,2,2,2,2,2,2,2,2,2,2,2,2,2,
2,2,2,2,2,2,2,2,2,2,2,2,2,2,2,2,2,2,2,2,2,2,2,2,2,2,2,2,2,2,2,2,2,2,2,2,
2,2,2,2,2,2,2,2,2,2,2,2,2,2,2,2,2,2,2,2,2,2,2,2,2,2,2,2,2,2,2,2,2,2,2,2,
2,2,2,2,2,2,2,2,2,2,2,2,2,2,2,2,2,2,2,2,2,2,2,2,2,2,2,2,2,2,2,2,2,2,2,2,
2,2,2,2,2,2,2,2,2,2,2,2,2,2,2,2,2,2,2,2,2,2,2,2,2,2,2,2,2,2,2,2,2,2,2,2,
2,2,2,2,2,2,2,2,2,2,2,2,2,2,2,2,2,2,2,2,2,2,2,2,2,2,2,2,2,2,2,2,2,2,2,2,
2,2,2,2,2,2,2,2,2,2,2,2,2,2,2,2,2,2,2,2,2,2,2,2,2,2,2,2,2,2,2,2,2,2,2,2,
2,2,2,2,2,2,2,2,2,2,2,2,2,2,2,2,2,2,2,2,2,2,2,2,2,2,2,2,2,2,2,2,2,2,2,2,
2,2,2,2,2,2,2,2,2,2,2,2,2,2,2,2,2,2,2,2,2,2,2,2,2,2,2,2,2,2,2,2,2,2,2,2,
2,2,2,2,2,2,2,2,2,2,2,2,2,2,2,2,2,2,2,2,2,2,2,2,2,2,2,2,2,2,2,2,2,2,2,2,
2,2,2,2,2,2,2,2,2,2,2,2,2,2,2,2,2,2,2,2,2,2,2,2,2,2,2,2,2,2,2,2,2,2,2,2,
2,2,2,2,2,2,2,2,2,2,2,2,2,2,2,2,2,2,2,2,2,2,2,2,2,2,2,2,2,2,2,2,2,2,2,2,
2,2,2,2,2,2,2,2,2,2,2,2,2,2,2,2,2,2,2,2,2,2,2,2,2,2,2,2,2,2,2,2,2,2,2,2,
2,2,2,2,2,2,2,2,2,2,2,2,2,2,2,2,2,2,2,2,2,2,2,2,2,2,2,2,2,2,2,2,2,2,2,2,
2,2,2,2,2,2,2,2,2,2,2,2,2,2,2,2,2,2,2,2,2,2,2,2,2,2,2,2,2,2,2,2,2,2,2,2,
2,2,2,2,2,2,2,2,2,2,2,2,2,2,2,2,2,2,2,2,2,2,2,2,2,2,2,2,2,2,2,2,2,2,2,2,
2,2,2,2,2,2,2,2,2,2,2,2,2,2,2,2,2,2,2,2,2,2,2,2,2,2,2,2,2,2,2,2,2,2,2,2,
2,2,2,2,2,2,2,2,2,2,2,2,2,2,2,2,2,2,2,2,2,2,2,2,2,2,2,2,2,2,2,2,2,2,2,2,
2,2,2,2,2,2,2,2,2,2,2,2,2,2,2,2,2,2,2,2,2,2,2,2,2,2,2,2,2,2,2,2,2,2,2,2,
2,2,2,2,2,2,2,2,2,2,2,2,2,2,2,2,2,2,2,2,2,2,2,2,2,2,2,2,2,2,2,2,2,2,2,2,
2,2,2,2,2,2,2,2,2,2,2,2,2,2,2,2,2,2,2,2,2,2,2,2,2,2,2,2,2,2,2,2,2,2,2,2,
2,2,2,2,2,2,2,2,2,2,2,2,2,2,2,2,2,2,2,2,2,2,2,2,2,2,2,2,2,2,2,2,2,2,2,2,
2,2,2,2,2,2,2,2,2,2,2,2,2,2,2,2,2,2,2,2,2,2,2,2,2,2,2,2,2,2,2,2,2,2,2,2,
2,2,2,2,2,2,2,2,2,2,2,2,2,2,2,2,2,2,2,2,2,2,2,2,2,2,2,2,2,2,2,2,2,2,2,2,
2,2,2,2,2,2,2,2,2,2,2,2,2,2,2,2,2,2,2,2,2,2,2,2,2,2,2,2,2,2,2,2,2,2,2,2,
2,2,2,2,2,2,2,2,2,2,2,2,2,2,2,2,2,2,2,2,2,2,2,2,2,2,2,2,2,2,2,2,2,2,2,2,
2,2,2,2,2,2,2,2,2,2,2,2,2,2,2,2,2,2,2,2,2,2,2,2,2,2,2,2,2,2,2,2,2,2,2,2,
2,2,2,2,2,2,2,2,2,2,2,2,2,2,2,2,2,2,2,2,2,2,2,2,2,2,2,2,2,2,2,2,2,2,2,2,
2,2,2,2,2,2,2,2,2,2,2,2,2,2,2,2,2,2,2,2,2,2,2,2,2,2,2,2,2,2,2,2,2,2,2,2
</data>
 </layer>
 <layer id="2" name="deco_sott" width="36" height="52">
  <data encoding="csv">
488,0,0,0,488,0,0,0,0,0,0,0,0,0,0,0,0,0,0,0,0,0,0,0,0,0,0,0,0,0,0,0,0,0,0,0,
496,0,0,0,496,0,0,0,0,0,0,0,0,0,0,0,0,0,0,0,0,0,0,0,0,0,0,0,0,0,0,0,564,565,566,0,
504,0,0,0,504,0,0,0,0,0,0,0,0,0,0,0,0,0,0,0,0,0,0,0,0,0,0,0,0,0,0,0,572,573,574,0,
512,0,0,0,512,0,0,0,0,0,0,0,0,0,0,0,0,0,0,0,0,0,0,0,0,0,0,0,0,0,0,0,580,581,582,0,
488,0,0,0,488,0,0,0,0,0,0,0,0,0,0,0,0,0,0,0,0,0,0,0,0,0,0,0,0,0,0,0,588,589,590,0,
496,0,0,0,496,0,0,0,0,0,0,0,0,0,0,0,0,0,0,0,0,0,0,0,0,0,0,0,0,0,0,0,596,597,598,0,
504,0,0,0,504,0,0,0,0,0,0,0,0,0,0,0,0,0,0,0,0,0,0,0,0,0,0,0,0,0,0,0,604,605,606,0,
512,0,0,0,512,0,564,565,566,0,0,0,0,0,0,0,0,0,0,0,0,0,0,0,0,0,0,488,0,0,0,488,0,0,0,0,
488,0,0,0,488,0,572,573,574,0,0,0,0,0,0,0,0,0,0,0,0,0,0,0,0,0,0,496,0,0,0,496,0,0,0,0,
496,0,0,0,496,0,580,581,582,0,0,0,0,0,0,0,0,0,0,0,0,0,0,0,0,0,0,504,0,0,0,504,0,0,0,0,
504,0,0,0,504,0,588,589,590,0,0,0,0,0,0,0,0,0,0,0,0,0,0,0,0,0,0,512,0,0,0,512,0,0,0,0,
512,0,0,0,512,0,596,597,598,0,0,0,0,0,0,0,0,0,0,0,0,0,0,0,0,0,0,488,0,0,0,488,0,0,0,0,
0,0,0,0,0,0,604,605,606,0,0,0,0,0,0,0,949,0,0,0,0,0,0,0,0,0,0,496,0,0,0,496,0,0,0,0,
488,0,0,0,488,0,0,0,0,0,0,0,0,0,0,0,0,0,0,0,0,0,0,0,0,0,0,504,0,0,0,504,0,0,0,0,
496,0,0,0,496,0,0,0,0,0,0,0,0,0,0,0,0,0,0,0,0,0,0,0,0,0,0,512,0,0,0,512,0,0,0,0,
504,0,0,0,504,0,0,0,0,0,0,0,0,0,0,0,0,0,0,0,0,0,0,0,0,0,0,488,0,0,0,488,0,0,0,0,
0,0,0,0,0,0,0,0,0,0,0,0,0,0,0,0,0,0,0,0,0,0,0,0,0,0,0,496,0,0,0,496,0,0,0,0,
0,0,0,0,0,0,0,0,0,0,0,0,0,0,0,0,0,0,0,0,0,0,0,0,0,0,0,504,0,0,0,504,0,0,0,0,
0,0,0,0,0,0,0,0,0,0,0,0,0,0,0,0,0,0,0,0,0,0,0,0,0,0,0,512,0,0,0,512,0,0,0,0,
0,0,0,0,0,0,0,0,0,0,0,0,0,0,0,0,949,0,0,0,0,0,0,0,0,0,0,488,0,0,0,488,0,0,0,0,
0,0,0,0,0,0,0,0,0,0,0,0,0,0,0,0,0,0,0,0,0,0,0,0,0,0,0,496,0,0,0,496,0,0,0,0,
0,0,0,0,0,0,0,0,0,0,0,0,0,0,0,0,0,0,0,0,0,0,0,0,0,0,0,0,0,0,0,0,0,0,0,0,
0,0,0,0,0,0,0,0,0,0,0,0,0,0,0,0,0,0,0,0,0,0,0,0,0,0,0,0,0,0,0,0,0,0,0,0,
0,0,0,0,0,0,0,0,0,0,0,0,0,0,0,0,0,0,0,0,0,0,0,0,0,0,0,0,0,0,0,0,0,0,0,0,
0,0,0,0,0,0,0,0,0,0,0,0,0,0,0,0,0,0,0,0,0,0,0,0,0,0,0,0,0,0,0,0,0,0,0,0,
0,0,0,0,0,0,0,0,0,0,0,0,0,0,0,0,0,0,0,0,0,0,0,0,0,0,0,0,0,0,0,0,0,0,0,0,
0,0,0,0,0,0,0,0,0,0,0,0,0,0,0,0,0,0,0,0,0,0,0,0,0,0,0,0,0,0,0,0,0,0,0,0,
0,564,565,566,0,0,0,0,0,0,0,0,0,0,0,0,0,0,0,0,0,0,0,0,0,0,0,0,0,0,0,0,0,0,0,0,
471,572,573,574,471,471,471,471,471,471,471,471,471,471,471,471,471,471,471,471,471,471,471,471,0,0,0,0,0,0,0,0,0,0,0,0,
496,580,581,582,479,479,479,479,479,479,479,479,479,479,479,479,479,479,479,479,479,479,479,479,0,0,0,0,0,0,0,0,0,0,0,0,
504,588,589,590,487,487,487,487,487,487,487,487,487,487,487,487,487,487,487,487,487,487,487,487,1297,1297,1274,0,0,0,0,0,0,0,0,0,
512,596,597,598,32,944,51,51,51,944,32,944,944,945,944,945,944,0,0,0,0,0,0,0,0,0,1282,0,0,0,0,0,0,0,0,0,
496,604,605,606,32,51,944,51,944,51,32,0,0,0,0,0,0,945,0,0,0,0,0,0,949,0,1290,0,0,0,0,0,0,0,0,0,
504,32,51,51,51,51,51,51,51,51,32,0,0,0,0,0,945,0,944,0,0,0,0,0,0,0,488,488,488,488,51,51,488,488,488,0,
512,32,51,51,51,51,51,51,51,51,32,0,0,0,0,0,944,0,0,0,0,0,0,0,949,0,496,496,496,496,51,51,496,496,496,0,
496,32,51,51,51,51,51,51,51,51,32,0,0,0,0,0,945,0,1297,1298,0,1297,1298,1274,0,0,504,504,504,504,51,51,504,504,504,0,
504,32,51,32,32,32,32,32,32,32,32,944,32,32,944,32,32,944,32,32,944,32,32,1282,0,0,512,512,512,512,51,51,512,512,512,0,
512,32,51,32,7,7,7,7,7,7,32,51,51,51,51,51,51,51,51,51,51,51,32,1290,0,0,488,488,488,488,51,51,488,488,488,0,
496,32,51,32,7,7,7,7,7,7,32,51,32,32,32,32,32,32,32,32,32,51,32,1274,0,0,496,496,496,496,51,51,496,496,496,0,
504,32,51,32,7,7,7,7,7,7,32,51,32,0,0,0,0,0,0,0,32,51,32,1297,1298,1297,504,504,504,504,51,51,504,504,504,0,
512,32,51,32,32,32,32,32,32,32,32,51,32,0,0,0,0,0,0,0,32,51,32,32,32,32,512,512,512,512,51,51,512,512,512,0,
496,32,51,51,51,51,51,51,51,51,51,51,32,0,0,0,0,0,0,0,32,51,51,51,51,51,51,51,51,51,51,51,488,488,488,0,
504,32,32,32,32,32,32,32,32,32,32,32,32,476,476,476,476,476,0,0,32,32,32,32,32,32,32,32,32,32,51,51,496,496,496,0,
476,476,476,476,476,476,476,476,476,476,476,476,476,476,7,7,7,476,476,476,0,0,0,0,0,0,0,0,0,0,51,51,504,504,504,0,
476,7,7,7,7,7,7,7,476,0,0,0,7,7,0,485,0,7,7,476,0,0,0,0,0,0,0,0,0,0,51,51,512,512,512,0,
476,7,42,43,42,43,44,7,476,0,0,0,0,7,492,493,494,7,7,476,0,0,0,0,0,0,476,476,476,476,51,51,476,476,476,476,
476,7,50,51,107,51,52,7,476,0,0,0,0,7,500,501,502,7,0,476,0,0,0,0,0,0,476,7,7,7,7,7,7,7,7,476,
476,7,42,107,979,107,44,0,0,0,0,0,0,7,508,509,510,7,7,476,476,476,476,476,476,476,476,7,7,7,7,7,7,7,7,476,
476,7,50,51,107,51,52,7,476,0,0,0,0,0,0,0,0,0,0,0,7,7,7,7,7,7,7,7,7,7,7,7,7,7,7,476,
476,7,58,59,58,59,60,7,476,7,7,7,0,0,0,0,0,0,0,0,7,7,7,7,7,7,7,7,7,7,7,7,7,7,7,476,
476,7,7,7,7,7,7,7,476,7,0,7,0,0,0,0,0,0,0,0,0,0,0,0,0,0,0,0,0,7,7,7,7,7,7,476,
476,476,476,476,476,476,476,476,476,7,7,0,0,0,0,0,0,0,0,476,476,476,476,476,476,476,476,476,476,476,476,476,476,476,476,476
</data>
 </layer>
 <layer id="3" name="edifici" width="36" height="52">
  <data encoding="csv">
0,7,7,7,488,0,0,0,0,0,0,0,0,0,0,0,0,0,0,0,0,0,0,0,0,0,0,0,0,0,0,0,0,0,0,0,
0,7,7,7,496,0,7,0,0,0,0,0,0,0,0,0,0,0,0,0,0,0,0,0,0,0,0,0,0,0,0,0,564,565,566,0,
0,7,7,7,504,0,7,0,0,0,0,705,706,706,706,706,706,706,706,706,706,706,707,0,0,0,0,0,0,0,0,0,572,573,574,0,
0,7,0,7,512,0,0,0,0,0,0,713,714,714,714,714,714,714,714,714,714,714,715,0,0,0,0,0,0,0,0,0,580,581,582,0,
0,7,7,7,488,0,0,0,0,0,0,713,714,714,714,714,714,714,714,714,714,714,715,51,51,51,51,51,51,51,51,0,588,589,590,0,
0,7,7,7,496,0,0,0,0,0,0,713,714,714,714,714,714,714,714,714,714,714,715,51,51,51,51,51,51,51,51,0,596,597,598,0,
0,7,7,7,504,0,0,0,0,0,0,713,714,714,714,714,714,714,714,714,714,714,715,51,51,51,51,51,51,51,51,0,604,605,606,0,
0,0,7,0,512,0,0,0,0,0,0,713,714,714,714,714,714,714,714,714,714,714,715,0,0,0,0,0,51,51,51,0,564,565,566,0,
0,7,7,7,488,0,0,0,0,0,0,713,714,714,714,714,714,714,714,714,714,714,715,0,0,0,0,0,51,51,51,0,572,573,574,0,
0,7,7,7,496,0,0,0,0,0,0,850,850,850,850,850,850,850,850,850,850,850,850,0,0,0,0,0,51,51,51,0,580,581,582,0,
0,7,7,7,504,0,0,0,0,0,0,837,838,0,0,0,0,0,0,0,0,0,0,0,0,0,0,0,51,51,51,0,588,589,590,0,
0,0,0,0,512,0,0,0,0,0,0,845,846,0,0,0,0,0,0,0,32,837,838,0,0,0,0,0,51,51,51,0,596,597,598,0,
0,0,0,0,488,0,0,0,0,0,0,853,854,32,0,0,0,0,0,0,0,845,846,0,0,0,0,0,51,51,51,0,604,605,606,0,
0,7,7,7,496,0,0,0,0,0,0,861,862,0,0,0,0,0,0,0,0,853,854,0,0,0,0,0,51,51,51,0,564,565,566,0,
0,7,7,7,504,0,0,0,0,0,0,0,0,0,0,0,0,0,0,0,0,861,862,0,0,0,0,0,51,51,51,0,572,573,574,0,
0,7,7,7,512,0,0,0,0,0,0,837,838,0,0,0,32,0,0,32,0,0,0,0,0,0,0,0,51,51,51,0,580,581,582,0,
488,0,0,0,488,0,0,0,0,0,0,845,846,0,0,0,0,0,0,0,0,0,0,0,0,0,0,0,51,51,51,0,588,589,590,0,
496,0,0,0,496,0,0,0,0,0,0,853,854,0,0,0,0,0,0,0,0,0,0,0,0,0,0,0,51,51,51,0,596,597,598,0,
504,0,0,32,504,0,0,0,0,0,0,861,862,0,0,0,0,0,0,0,0,0,0,0,0,0,0,0,51,51,51,0,604,605,606,0,
512,0,0,0,512,0,0,0,0,0,0,0,0,0,0,0,0,0,0,0,0,0,0,0,0,0,0,0,51,51,51,0,564,565,566,0,
488,0,0,0,488,32,0,0,0,0,0,0,0,0,0,0,0,0,0,0,0,0,0,0,0,0,0,0,51,51,51,0,572,573,574,0,
496,0,0,0,496,0,0,0,0,0,0,0,0,0,32,0,0,0,0,51,51,51,51,51,51,51,51,51,51,51,51,0,580,581,582,0,
504,0,0,0,504,0,0,0,0,0,0,0,0,0,0,0,0,0,0,0,0,0,0,0,0,0,0,476,51,51,51,0,588,589,590,0,
512,0,0,0,512,0,0,0,0,0,0,0,0,0,0,0,0,0,0,0,0,0,0,0,0,0,0,476,51,51,51,0,596,597,598,0,
488,0,0,0,488,476,476,476,476,476,476,476,476,476,476,476,476,476,476,476,476,476,476,476,476,476,476,476,51,51,51,0,604,605,606,0,
496,51,51,51,51,51,51,51,51,51,51,51,51,51,51,51,51,51,51,51,51,51,51,51,51,51,51,51,51,51,51,0,0,0,0,0,
504,51,51,51,51,51,51,51,51,51,51,51,51,51,51,51,51,51,51,51,51,51,51,51,51,51,51,51,51,51,51,51,0,0,0,0,
476,476,476,476,476,0,0,476,476,476,476,476,476,476,0,0,0,476,476,476,476,476,476,476,476,476,0,0,0,0,51,51,0,0,0,0,
0,0,0,0,0,0,0,0,0,0,0,0,0,0,0,0,0,0,0,0,0,0,0,0,0,0,0,0,0,0,51,51,0,0,0,0,
0,0,0,0,0,0,0,0,0,0,0,0,0,0,0,0,0,0,0,0,0,0,0,0,0,0,0,0,0,0,51,51,0,0,0,0,
0,0,0,0,0,0,0,0,0,0,0,0,0,0,0,0,0,0,0,0,0,0,0,0,0,0,0,0,0,0,51,51,0,0,0,0,
0,0,0,0,0,0,0,0,0,0,0,0,0,0,0,0,0,0,0,0,0,0,0,0,0,0,0,0,0,0,51,51,0,0,0,0,
0,0,0,0,0,0,0,0,0,0,0,0,0,0,0,0,0,0,0,0,0,0,0,0,0,0,0,0,0,0,51,51,0,0,0,0,
0,0,0,0,0,0,0,0,0,0,0,0,0,0,0,0,0,0,0,0,0,0,0,0,0,0,0,0,0,0,0,0,0,0,0,0,
0,0,0,0,0,0,0,0,0,0,0,0,0,0,0,0,0,0,0,0,0,0,0,0,0,0,0,0,0,0,0,0,0,0,0,0,
0,0,0,0,0,0,0,0,0,0,0,0,0,0,0,0,0,0,0,0,0,0,0,0,0,0,0,0,0,0,0,0,0,0,0,0,
0,0,0,0,0,0,0,0,0,0,0,0,0,0,0,0,0,0,0,0,0,0,0,0,0,0,0,0,0,0,0,0,0,0,0,0,
0,0,0,0,0,0,0,0,0,0,0,0,0,0,0,0,0,0,0,0,0,0,0,0,0,0,0,0,0,0,0,0,0,0,0,0,
0,0,0,0,0,0,0,0,0,0,0,0,0,0,0,0,0,0,0,0,0,0,0,0,0,0,0,0,0,0,0,0,0,0,0,0,
0,0,0,0,0,0,0,0,0,0,0,0,0,0,0,0,0,0,0,0,0,0,0,0,0,0,0,0,0,0,0,0,0,0,0,0,
0,0,0,0,0,0,0,0,0,0,0,0,0,0,0,0,0,0,0,0,0,0,0,0,0,0,0,0,0,0,0,0,0,0,0,0,
0,0,0,0,0,0,0,0,0,0,0,0,0,0,0,0,0,0,0,0,0,0,0,0,0,0,0,0,0,0,0,0,0,0,0,0,
0,0,0,0,0,0,0,0,0,0,0,0,0,0,0,0,0,0,0,0,0,0,0,0,0,0,0,0,0,0,0,0,0,0,0,0,
0,0,0,0,0,0,0,0,0,0,0,0,0,0,0,0,0,0,0,0,0,0,0,0,0,0,0,0,0,0,0,0,0,0,0,0,
0,0,0,0,0,0,0,0,0,0,0,0,0,0,0,0,0,0,0,0,0,0,0,0,0,0,0,0,0,0,0,0,0,0,0,0,
0,0,0,0,0,0,0,0,0,0,0,0,0,0,0,0,0,0,0,0,0,0,0,0,0,0,0,0,0,0,0,0,0,0,0,0,
0,0,0,0,0,0,0,0,0,0,0,0,0,0,0,0,0,0,0,0,0,0,0,0,0,0,0,0,0,0,0,0,0,0,0,0,
0,0,0,0,0,0,0,0,0,0,0,0,0,0,0,0,0,0,0,0,0,0,0,0,0,0,0,0,0,0,0,0,0,0,0,0,
0,0,0,0,0,0,0,0,0,0,0,0,0,0,0,0,0,0,0,0,0,0,0,0,0,0,0,0,0,0,0,0,0,0,0,0,
0,0,0,0,0,0,0,0,0,0,0,0,0,0,0,0,0,0,0,0,0,0,0,0,0,0,0,0,0,0,0,0,0,0,0,0,
0,0,0,0,0,0,0,0,0,0,0,0,0,0,0,0,0,0,0,0,0,0,0,0,0,0,0,0,0,0,0,0,0,0,0,0,
0,0,0,0,0,0,0,0,0,0,0,0,0,0,0,0,0,0,954,0,0,0,0,0,0,0,0,0,0,0,0,0,0,0,0,0
</data>
 </layer>
 <layer id="6" name="sopra testa" width="36" height="52">
  <data encoding="csv">
0,0,0,0,0,0,0,0,0,0,0,0,0,0,0,0,0,0,0,0,0,0,0,0,0,0,0,0,0,0,0,0,0,0,0,0,
0,0,0,0,0,0,0,0,0,0,0,0,0,0,0,0,0,0,0,0,0,0,0,0,0,0,0,0,0,0,0,0,0,0,0,0,
0,0,0,0,0,0,0,0,0,0,0,0,0,0,0,0,0,0,0,0,0,0,0,0,0,0,0,0,0,0,0,0,0,0,0,0,
0,0,0,0,0,0,0,0,0,0,0,0,0,0,0,0,0,0,0,0,0,0,0,0,0,0,0,0,0,0,0,0,0,0,0,0,
0,0,0,0,0,0,0,0,0,0,0,0,0,0,0,0,0,0,0,0,1206,1206,1207,0,0,0,0,0,0,0,0,0,0,0,0,0,
0,0,0,0,0,0,0,0,0,0,0,0,0,0,0,0,0,0,0,0,1214,1214,1215,0,0,0,0,0,0,0,0,0,0,0,0,0,
0,0,0,0,0,0,0,0,0,0,0,0,0,0,0,0,0,0,0,0,1222,1222,1223,0,0,0,0,0,0,0,0,0,0,0,0,0,
0,0,0,0,0,0,0,0,0,0,0,0,0,0,0,0,0,0,0,0,0,0,0,0,0,0,0,0,0,0,0,0,0,0,0,0,
0,0,0,0,0,0,0,0,0,0,0,0,0,0,0,0,0,0,0,0,0,0,0,0,0,0,0,0,0,0,0,0,0,0,0,0,
0,0,0,0,0,0,0,0,0,0,0,0,0,0,0,0,0,0,0,0,0,0,0,0,0,0,0,0,0,0,0,0,0,0,0,0,
0,0,0,0,0,0,0,0,0,0,0,0,0,0,0,0,0,0,0,0,0,0,0,0,0,0,0,0,0,0,0,0,0,0,0,0,
0,0,0,0,0,0,0,0,0,0,0,0,0,0,0,0,0,0,0,0,0,0,0,0,0,0,0,0,0,0,0,0,0,0,0,0,
0,0,0,0,0,0,0,0,0,0,0,0,0,0,0,0,0,0,0,0,0,0,0,0,0,0,0,0,0,0,0,0,0,0,0,0,
0,0,0,0,0,0,0,0,0,0,0,0,0,0,0,0,0,0,0,0,0,0,0,0,0,0,0,0,0,0,0,0,0,0,0,0,
0,0,0,0,0,0,0,0,0,0,0,0,0,0,0,0,0,0,0,0,0,0,0,0,0,0,0,0,0,0,0,0,0,0,0,0,
0,0,0,0,0,0,0,0,0,0,0,0,0,0,0,0,0,0,0,0,0,0,0,0,0,0,0,0,0,0,0,0,0,0,0,0,
0,0,0,0,0,0,0,0,0,0,0,0,0,0,0,0,0,0,0,0,0,0,0,0,0,0,0,0,0,0,0,0,0,0,0,0,
0,0,0,0,0,0,0,0,0,0,0,0,0,0,0,0,0,0,0,0,0,0,0,0,0,0,0,0,0,0,0,0,0,0,0,0,
0,0,0,0,0,0,0,0,0,0,0,0,0,0,0,0,0,0,0,0,0,0,0,0,0,0,0,0,0,0,0,0,0,0,0,0,
0,0,0,0,0,0,0,0,0,0,0,0,0,0,0,0,0,0,0,0,0,0,0,0,0,0,0,0,0,0,0,0,0,0,0,0,
0,0,0,0,0,0,0,0,0,0,0,0,0,0,0,0,0,0,0,0,0,0,0,0,0,0,0,0,0,0,0,0,0,0,0,0,
0,0,0,0,0,0,0,0,0,0,0,0,0,0,0,0,0,0,0,0,0,0,0,0,0,0,0,0,0,0,0,0,0,0,0,0,
0,0,0,0,0,0,0,0,0,0,0,0,0,0,0,0,0,0,0,0,0,0,0,0,0,0,0,0,0,0,0,0,0,0,0,0,
0,0,0,0,0,0,0,0,0,0,0,0,0,0,0,0,0,0,0,0,0,0,0,0,0,0,0,0,0,0,0,0,0,0,0,0,
0,0,0,0,0,0,0,0,0,0,0,0,0,0,0,0,0,0,0,0,0,0,0,0,0,0,0,0,0,0,0,0,0,0,0,0,
0,0,0,0,0,0,0,0,0,0,0,0,0,0,0,0,0,0,0,0,0,0,0,0,0,0,0,0,0,0,0,0,0,0,0,0,
0,0,0,0,0,0,0,0,0,0,0,0,0,0,0,0,0,0,0,0,0,0,0,0,0,0,0,0,0,0,0,0,0,0,0,0,
0,0,0,0,0,0,0,0,0,0,0,0,0,0,0,0,0,0,0,0,0,0,0,0,0,0,0,0,0,0,0,0,0,0,0,0,
0,0,0,0,0,0,0,0,0,0,0,0,0,0,0,0,0,0,0,0,0,0,0,0,0,0,0,0,0,0,0,0,0,0,0,0,
0,0,0,0,0,0,0,0,0,0,0,0,0,0,0,0,0,0,0,0,0,0,0,0,0,0,0,0,0,0,0,0,0,0,0,0,
0,0,0,0,0,0,0,0,0,0,0,0,0,0,0,0,0,0,0,0,0,0,0,0,0,0,0,0,0,0,0,0,0,0,0,0,
0,0,0,0,0,0,0,0,0,0,0,0,0,0,0,0,0,0,0,0,0,0,0,0,0,0,0,0,0,0,0,0,0,0,0,0,
0,0,0,0,0,0,0,0,0,0,0,0,0,0,0,0,0,0,0,0,0,0,0,0,0,0,0,0,0,0,0,0,0,0,0,0,
0,0,0,0,0,0,0,0,0,0,0,0,0,0,0,0,0,0,0,0,0,0,0,0,0,0,0,0,0,0,0,0,0,0,0,0,
0,0,0,0,0,0,0,0,0,0,0,0,0,0,0,0,0,0,0,0,0,0,0,0,0,0,0,0,0,0,0,0,0,0,0,0,
0,0,0,0,0,0,0,0,0,0,0,0,0,0,0,0,0,0,0,0,0,0,0,0,0,0,0,0,0,0,0,0,0,0,0,0,
0,0,0,0,0,0,0,0,0,0,0,0,0,0,0,0,0,0,0,0,0,0,0,0,0,0,0,0,0,0,0,0,0,0,0,0,
0,0,0,0,0,0,0,0,0,0,0,0,0,0,0,0,0,0,0,0,0,0,0,0,0,0,0,0,0,0,0,0,0,0,0,0,
0,0,0,0,0,0,0,0,0,0,0,0,0,0,0,0,0,0,0,0,0,0,0,0,0,0,0,0,0,0,0,0,0,0,0,0,
0,0,0,0,0,0,0,0,0,0,0,0,0,0,0,0,0,0,0,0,0,0,0,0,0,0,0,0,0,0,0,0,0,0,0,0,
0,0,0,0,0,0,0,0,0,0,0,0,0,0,0,0,0,0,0,0,0,0,0,0,0,0,0,0,0,0,0,0,0,0,0,0,
0,0,0,0,0,0,0,0,0,0,0,0,0,0,0,0,0,0,0,0,0,0,0,0,0,0,0,0,0,0,0,0,0,0,0,0,
0,0,0,0,0,0,0,0,0,0,0,0,0,0,0,0,0,0,0,0,0,0,0,0,0,0,0,0,0,0,0,0,0,0,0,0,
0,0,0,0,0,0,0,0,0,0,0,0,0,0,0,0,0,0,0,0,0,0,0,0,0,0,0,0,0,0,0,0,0,0,0,0,
0,0,0,0,0,0,0,0,0,0,0,0,0,0,0,0,0,0,0,0,0,0,0,0,0,0,0,0,0,0,0,0,0,0,0,0,
0,0,0,0,0,0,0,0,0,0,0,0,0,0,0,0,0,0,0,0,0,0,0,0,0,0,0,0,0,0,0,0,0,0,0,0,
0,0,0,0,0,0,0,0,0,0,0,0,0,0,0,0,0,0,0,0,0,0,0,0,0,0,0,0,0,0,0,0,0,0,0,0,
0,0,0,0,0,0,0,0,0,0,0,0,0,0,0,0,0,0,0,0,0,0,0,0,0,0,0,0,0,0,0,0,0,0,0,0,
0,0,0,0,0,0,0,0,0,0,0,0,0,0,0,0,0,0,0,0,0,0,0,0,0,0,0,0,0,0,0,0,0,0,0,0,
0,0,0,0,0,0,0,0,0,0,0,0,0,0,0,0,0,0,0,0,0,0,0,0,0,0,0,0,0,0,0,0,0,0,0,0,
0,0,0,0,0,0,0,0,0,0,0,0,0,0,0,0,0,0,0,0,0,0,0,0,0,0,0,0,0,0,0,0,0,0,0,0,
0,0,0,0,0,0,0,0,0,0,0,0,0,0,0,0,0,0,0,0,0,0,0,0,0,0,0,0,0,0,0,0,0,0,0,0
</data>
 </layer>
 <objectgroup id="4" name="collisioni">
  <object id="2" x="5.59332" y="1656.74" width="378.108"/>
  <object id="3" x="1.11866" y="1473.28" width="8.94931" height="191.292"/>
  <object id="44" name="npc percorso 1b" x="554.177" y="55.0433">
   <properties>
    <property name="direzione" value="sud"/>
    <property name="id" value="npc percorso 1b"/>
    <property name="sprite" value="fisherman"/>
    <property name="type" value="npc"/>
   </properties>
   <point/>
  </object>
  <object id="53" x="-1.33333" y="1.33333" width="20" height="1664"/>
  <object id="54" x="130.667" y="-2.66667" width="29.3333" height="801.333"/>
  <object id="55" x="129.333" y="762.667" width="758.667" height="30.6667"/>
  <object id="56" x="858.667" y="222.667" width="36" height="442.667"/>
  <object id="57" x="1005.33" y="40" width="121.333" height="749.333"/>
  <object id="58" x="1024" y="1052" width="94.6667" height="378.667"/>
  <object id="59" x="833.333" y="1053.33" width="120" height="244"/>
  <object id="60" x="-8" y="1370.67" width="448" height="30.6667"/>
  <object id="61" x="417.333" y="1342.67" width="150.667" height="26.6667"/>
  <object id="62" x="542.667" y="1369.33" width="92" height="33.3333"/>
  <object id="63" x="614.667" y="1402.67" width="14.6667" height="129.333"/>
  <object id="64" x="632" y="1497.33" width="224" height="29.3333"/>
  <object id="65" x="833.333" y="1445.33" width="124" height="18.6667"/>
  <object id="66" x="837.333" y="1470.67" width="18.6667" height="28"/>
  <object id="67" x="1022.67" y="1442.67" width="122.667" height="20"/>
  <object id="68" x="606.667" y="1633.33" width="537.333" height="24"/>
  <object id="69" x="1121.33" y="1.33333" width="26.6667" height="1656"/>
  <object id="70" x="257.333" y="1536" width="28" height="117.333"/>
  <object id="71" x="258.667" y="1409.33" width="26.6667" height="96"/>
  <object id="73" x="456" y="1436" width="80" height="90.6667"/>
  <object id="74" x="350.667" y="1154.67" width="28" height="20"/>
  <object id="75" x="446.667" y="1150.67" width="33.3333" height="29.3333"/>
  <object id="76" x="537.333" y="1154.67" width="40" height="25.3333"/>
  <object id="77" x="509.333" y="1092" width="33.3333" height="26.6667"/>
  <object id="78" x="574.667" y="1061.33" width="32" height="26.6667"/>
  <object id="79" x="513.333" y="994.667" width="26.6667" height="29.3333"/>
  <object id="80" x="446.667" y="988" width="34.6667" height="32"/>
  <object id="81" x="348" y="985.333" width="64" height="34.6667"/>
  <object id="82" x="285.333" y="994.667" width="30.6667" height="25.3333"/>
  <object id="83" x="257.333" y="1021.33" width="30.6667" height="33.3333"/>
  <object id="84" x="185.333" y="1025.33" width="36" height="29.3333"/>
  <object id="85" x="158.667" y="994.667" width="30.6667" height="30.6667"/>
  <object id="86" x="2.66667" y="862.667" width="160" height="24"/>
  <object id="87" x="226.667" y="861.333" width="217.333" height="28"/>
  <object id="88" x="541.333" y="864" width="285.333" height="26.6667"/>
  <object id="89" x="353.333" y="484" width="61.3333" height="120"/>
  <object id="90" x="352" y="322.667" width="61.3333" height="122.667"/>
  <object id="91" x="670.667" y="352" width="70.6667" height="122.667"/>
  <object id="92" x="185.333" y="241.333" width="108" height="173.333"/>
  <object id="93" x="26.6667" y="890.667" width="104" height="156"/>
  <object id="94" x="116" y="906.667" width="652" height="64"/>
  <object id="95" x="776" y="970.667" width="65.3333" height="12"/>
  <object id="96" x="838.667" y="992" width="1.33333" height="56"/>
  <object id="97" x="545.333" y="1025.33" width="29.3333" height="30.6667"/>
  <object id="98" x="505.333" y="1057.33" width="38.6667" height="28"/>
  <object id="99" x="513.333" y="1124" width="28" height="26.6667"/>
  <object id="100" x="744" y="1260" width="84" height="13.3333"/>
  <object id="101" x="581.333" y="1142.67" width="64" height="4"/>
  <object id="102" x="740" y="1157.33" width="12" height="110.667"/>
  <object id="103" x="661.333" y="1141.33" width="82.6667" height="12"/>
  <object id="104" x="422.667" y="997.333" width="18.6667" height="24"/>
  <object id="105" x="484" y="989.333" width="22.6667" height="32"/>
  <object id="106" x="700" y="1912" width="9.33333"/>
  <object id="111" x="168" y="5.33333" width="968" height="16"/>
  <object id="112" x="742.667" y="230.667" width="109.333" height="25.3333"/>
 </objectgroup>
 <objectgroup id="5" name="eventi">
  <object id="29" name="trainer percorso 1b - numero 1" x="716.737" y="152.858">
   <properties>
    <property name="direzione" value="est"/>
    <property name="id" value="trainer path 1_4"/>
    <property name="type" value="trainer"/>
    <property name="vista" value="7"/>
   </properties>
   <point/>
  </object>
  <object id="32" name="trainer percorso 1 numero 5" x="240.817" y="1048.01">
   <properties>
    <property name="direzione" value="sud"/>
    <property name="id" value="trainer path 1b_5"/>
    <property name="type" value="trainer"/>
    <property name="vista" value="7"/>
   </properties>
   <point/>
  </object>
  <object id="34" name="cartel percorso 1" x="403.793" y="-89.2623">
   <properties>
    <property name="testo" value="&quot;vendesi fava&quot;"/>
    <property name="type" value="cartello"/>
   </properties>
   <point/>
  </object>
  <object id="36" name="cartel percorso 1b" x="593.14" y="1662.92">
   <properties>
    <property name="id" value="cartello percorso 1b"/>
    <property name="testo" value="&quot;Percorso 1&quot;"/>
    <property name="type" value="cartello"/>
   </properties>
   <point/>
  </object>
  <object id="52" name="Ingresso percorso 1b" x="416.613" y="1650.54" width="139.266" height="11.3224">
   <properties>
    <property name="type" value="uscita"/>
   </properties>
  </object>
  <object id="108" name="trainer percorso 1b - numero 6" x="1034.67" y="854.667">
   <properties>
    <property name="direzione" value="random"/>
    <property name="id" value="trainer path 1b_6"/>
    <property name="type" value="trainer"/>
    <property name="vista" value="7"/>
   </properties>
   <point/>
  </object>
  <object id="109" name="trainer percorso 1b- numero 8" x="14.6667" y="416">
   <properties>
    <property name="direzione" value="est"/>
    <property name="id" value="trainer path 1b_8"/>
    <property name="type" value="trainer"/>
    <property name="vista" value="7"/>
   </properties>
   <point/>
  </object>
  <object id="110" name="trainer percorso 1b- numero7" x="874.667" y="701.333">
   <properties>
    <property name="direzione" value="est"/>
    <property name="id" value="trainer path 1b_7"/>
    <property name="type" value="trainer"/>
    <property name="vista" value="7"/>
   </properties>
   <point/>
  </object>
  <object id="115" x="522.667" y="404">
   <point/>
  </object>
  <object id="116" x="528" y="621.333">
   <point/>
  </object>
  <object id="117" x="781.333" y="1034.67">
   <point/>
  </object>
  <object id="118" x="782.667" y="1102.67">
   <point/>
  </object>
  <object id="119" name="Ingresso Frascati" x="25.0337" y="10.3388" width="93.9327" height="11.3224">
   <properties>
    <property name="type" value="uscita"/>
   </properties>
  </object>
  <object id="120" name="spwan_percorso 1b" x="468.25" y="1631.08" width="34" height="17.3333">
   <properties>
    <property name="type" value="spwan"/>
   </properties>
  </object>
 </objectgroup>
</map>
