<?xml version="1.0" encoding="UTF-8"?>
<map version="1.10" tiledversion="1.12.2" orientation="orthogonal" renderorder="right-down" width="40" height="50" tilewidth="32" tileheight="32" infinite="0" nextlayerid="7" nextobjectid="208">
 <tileset firstgid="1" source="../../outside.tsx"/>
 <tileset firstgid="4017" source="../../Emerald_Outside.tsx"/>
 <tileset firstgid="9265" source="../outside.tsx"/>
 <layer id="1" name="ground" width="40" height="50">
  <data encoding="csv">
4,4,4,4,4,4,4,4,4,4,4,4,4,4,4,4,4,4,4,4,4,4,4,4,4,4,4,4,4,4,4,4,4,4,4,4,4,4,4,4,
4,4,4,4,4,4,4,4,4,4,4,4,4,4,4,4,4,4,4,4,4,4,4,4,4,4,4,4,4,4,4,4,4,4,4,4,4,4,4,4,
4,4,4,4,4,4,4,4,4,4,4,4,4,4,4,4,4,4,4,4,4,4,4,4,4,4,4,4,4,4,4,4,4,4,4,4,4,4,4,4,
4,4,4,4,4,4,4,4,4,4,4,4,4,4,4,4,4,4,4,4,4,4,4,4,4,4,4,4,4,4,4,4,4,4,4,4,4,4,4,4,
4,4,4,4,4,4,4,4,4,4,4,4,4,4,4,4,4,4,4,4,4,4,4,4,4,4,4,4,4,4,4,4,4,4,4,4,4,4,4,4,
4,4,4,4,4,4,4,4,4,4,4,4,4,4,4,4,4,4,4,4,4,4,4,4,4,4,4,4,4,4,4,4,4,4,4,4,4,4,4,4,
4,4,4,4,4,4,4,4,4,4,4,4,4,4,4,4,4,4,4,4,4,4,4,4,4,4,4,4,4,4,4,4,4,4,4,4,4,4,4,4,
4,4,4,4,4,4,4,4,4,4,4,4,4,4,4,4,4,4,4,4,4,4,4,4,4,4,4,4,4,4,4,4,4,4,4,4,4,4,4,4,
4,4,4,4,4,4,4,4,4,4,4,4,4,4,4,4,4,4,4,4,4,4,4,4,4,4,4,4,4,4,4,4,4,4,4,4,4,4,4,4,
4,4,4,4,4,4,4,4,4,4,4,4,4,4,4,4,4,4,4,4,4,4,4,4,4,4,4,4,4,4,4,4,4,4,4,4,4,4,4,4,
4,4,4,4,4,4,4,4,4,4,4,4,4,4,4,4,4,4,4,4,4,4,4,4,4,4,4,4,4,4,4,4,4,4,4,4,4,4,4,4,
4,4,4,4,4,4,4,4,4,4,4,4,4,4,4,4,4,4,4,4,4,4,4,4,4,4,4,4,4,4,4,4,4,4,4,4,4,4,4,4,
4,4,4,4,4,4,4,4,4,4,4,4,4,4,4,4,4,4,4,4,4,4,4,4,4,4,4,4,4,4,4,4,4,4,4,4,4,4,4,4,
4,4,4,4,4,4,4,4,4,4,4,4,4,4,4,4,4,4,4,4,4,4,4,4,4,4,4,4,4,4,4,4,4,4,4,4,4,4,4,4,
4,4,4,4,4,4,4,4,4,4,4,4,4,4,4,4,4,4,4,4,4,4,4,4,4,4,4,4,4,4,4,4,4,4,4,4,4,4,4,4,
4,4,4,4,4,4,4,4,4,4,4,4,4,4,4,4,4,4,4,4,4,4,4,4,4,4,4,4,4,4,4,4,4,4,4,4,4,4,4,4,
4,4,4,4,4,4,4,4,4,4,4,4,4,4,4,4,4,4,4,4,4,4,4,4,4,4,4,4,4,4,4,4,4,4,4,4,4,4,4,4,
4,4,4,4,4,4,4,4,4,4,4,4,4,4,4,4,4,4,4,4,4,4,4,4,4,4,4,4,4,4,4,4,4,4,4,4,4,4,4,4,
4,4,4,4,4,4,4,4,4,4,4,4,4,4,4,4,4,4,4,4,4,4,4,4,4,4,4,4,4,4,4,4,4,4,4,4,4,4,4,4,
4,4,4,4,4,4,4,4,4,4,4,4,4,4,4,4,4,4,4,4,4,4,4,4,4,4,4,4,4,4,4,4,4,4,4,4,4,4,4,4,
4,4,4,4,4,4,4,4,4,4,4,4,4,4,4,4,4,4,4,4,4,4,4,4,4,4,4,4,4,4,4,4,4,4,4,4,4,4,4,4,
4,4,4,4,4,4,4,4,4,4,4,4,4,4,4,4,4,4,4,4,4,4,4,4,4,4,4,4,4,4,4,4,4,4,4,4,4,4,4,4,
4,4,4,4,4,4,4,4,4,4,4,4,4,4,4,4,4,4,4,4,4,4,4,4,4,4,4,4,4,4,4,4,4,4,4,4,4,4,4,4,
4,4,4,4,4,4,4,4,4,4,4,4,4,4,4,4,4,4,4,4,4,4,4,4,4,4,4,4,4,4,4,4,4,4,4,4,4,4,4,4,
4,4,4,4,4,4,4,4,4,4,4,4,4,4,4,4,4,4,4,4,4,4,4,4,4,4,4,4,4,4,4,4,4,4,4,4,4,4,4,4,
4,4,4,4,4,4,4,4,4,4,4,4,4,4,4,4,4,4,4,4,4,4,4,4,4,4,4,4,4,4,4,4,4,4,4,4,4,4,4,4,
4,4,4,4,4,4,4,4,4,4,4,4,4,4,4,4,4,4,4,4,4,4,4,4,4,4,4,4,4,4,4,4,4,4,4,4,4,4,4,4,
4,4,4,4,4,4,4,4,4,4,4,4,4,4,4,4,4,4,4,4,4,4,4,4,4,4,4,4,4,4,4,4,4,4,4,4,4,4,4,4,
4,4,4,4,4,4,4,4,4,4,4,4,4,4,4,4,4,4,4,4,4,4,4,4,4,4,4,4,4,4,4,4,4,4,4,4,4,4,4,4,
4,4,4,4,4,4,4,4,4,4,4,4,4,4,4,4,4,4,4,4,4,4,4,4,4,4,4,4,4,4,4,4,4,4,4,4,4,4,4,4,
4,4,4,4,4,4,4,4,4,4,4,4,4,4,4,4,4,4,4,4,4,4,4,4,4,4,4,4,4,4,4,4,4,4,4,4,4,4,4,4,
4,4,4,4,4,4,4,4,4,4,4,4,4,4,4,4,4,4,4,4,4,4,4,4,4,4,4,4,4,4,4,4,4,4,4,4,4,4,4,4,
4,4,4,4,4,4,4,4,4,4,4,4,4,4,4,4,4,4,4,4,4,4,4,4,4,4,4,4,4,4,4,4,4,4,4,4,4,4,4,4,
4,4,4,4,4,4,4,4,4,4,4,4,4,4,4,4,4,4,4,4,4,4,4,4,4,4,4,4,4,4,4,4,4,4,4,4,4,4,4,4,
4,4,4,4,4,4,4,4,4,4,4,4,4,4,4,4,4,4,4,4,4,4,4,4,4,4,4,4,4,4,4,4,4,4,4,4,4,4,4,4,
4,4,4,4,4,4,4,4,4,4,4,4,4,4,4,4,4,4,4,4,4,4,4,4,4,4,4,4,4,4,4,4,4,4,4,4,4,4,4,4,
6,6,6,6,6,6,6,6,6,6,6,6,6,6,6,6,6,162,163,164,6,6,6,6,6,6,6,6,6,6,6,6,6,6,6,6,6,6,6,6,
6,6,6,6,6,6,6,6,6,6,6,6,6,6,6,6,6,162,163,164,6,6,6,6,6,6,6,6,6,6,6,6,6,6,6,6,6,6,6,6,
6,6,6,6,6,6,6,6,6,6,6,6,6,6,6,6,6,162,163,164,6,6,6,6,6,6,6,6,6,6,6,6,6,6,6,6,6,6,6,6,
6,6,6,6,6,6,6,6,6,4,6,6,6,6,6,6,6,162,163,164,6,6,6,6,6,6,6,6,6,6,6,6,6,6,6,6,6,6,6,6,
6,6,6,6,6,6,6,6,4,4,4,6,6,6,6,6,6,162,163,164,6,6,6,6,6,6,6,6,6,6,6,6,6,6,6,6,6,6,6,6,
6,6,6,6,6,6,6,6,4,4,4,6,6,6,6,6,6,162,163,164,4,4,4,4,4,4,6,6,6,6,6,6,6,6,6,6,6,6,6,6,
155,155,155,155,155,155,155,155,155,155,155,155,155,155,155,155,155,175,163,164,4,4,4,4,4,4,6,6,6,6,6,6,6,6,6,6,6,6,6,6,
163,163,163,163,163,163,163,163,163,163,163,163,163,163,163,163,163,163,163,164,4,4,4,4,4,4,6,6,6,6,6,6,6,6,6,6,6,6,6,6,
171,171,171,171,171,171,171,171,171,171,171,171,171,171,171,171,171,171,171,172,4,4,4,4,4,4,6,6,6,6,6,6,6,6,6,6,6,6,6,6,
6,6,6,6,6,6,4,4,4,6,6,6,6,6,6,6,6,6,6,6,4,4,4,4,4,4,6,6,6,6,6,6,6,6,6,6,6,6,6,6,
6,6,6,6,6,6,489,490,491,6,6,6,6,6,6,6,6,6,6,6,505,506,507,505,506,507,6,6,6,6,6,6,6,6,6,6,6,6,6,6,
6,6,6,6,6,6,497,498,499,6,6,6,6,6,6,6,6,6,6,6,6,6,6,6,6,6,6,6,6,6,6,6,6,6,6,6,6,6,6,6,
6,6,6,6,6,6,505,506,507,6,6,6,6,6,6,6,6,6,6,6,6,6,6,6,6,6,6,6,6,6,6,6,6,6,6,6,6,6,6,6,
6,6,6,6,6,6,6,6,6,6,6,6,6,6,6,6,6,6,6,6,6,6,6,6,6,6,6,6,6,6,6,6,6,6,6,6,6,6,6,6
</data>
 </layer>
 <layer id="2" name="deco_sotto" width="40" height="50">
  <data encoding="csv">
0,0,0,0,0,0,0,0,0,0,0,0,0,0,0,0,0,0,0,0,0,0,0,0,0,0,0,0,0,0,0,0,0,0,0,0,0,0,0,0,
0,0,0,0,0,0,0,0,0,0,0,0,0,0,0,0,0,0,0,0,0,0,0,0,0,0,0,0,0,0,0,0,0,0,0,0,0,0,0,0,
0,0,0,0,0,0,0,0,0,0,0,0,0,0,0,0,162,0,0,0,0,0,0,0,0,0,0,0,0,0,0,0,0,0,0,0,0,0,0,0,
0,0,0,0,0,0,0,0,0,0,0,0,0,0,0,0,162,164,0,0,0,0,0,0,0,0,0,0,0,0,0,0,0,0,0,0,0,0,0,0,
0,0,0,0,0,0,0,0,0,0,0,0,0,0,0,0,162,164,0,0,0,0,0,0,0,0,0,0,0,0,0,0,0,0,0,0,0,0,0,0,
0,0,0,0,0,0,0,0,0,0,0,0,0,0,0,0,162,164,0,0,0,0,0,0,0,0,0,0,0,0,0,0,0,0,0,0,0,0,0,0,
0,0,0,0,949,0,0,0,0,0,0,0,0,0,0,0,162,164,0,0,0,0,0,0,0,0,0,0,0,0,10213,0,0,0,0,0,0,0,0,0,
0,0,0,0,2,2,2,2,2,2,2,2,2,2,2,2,170,168,155,156,2,2,2,2,2,2,2,2,2,2,2,2,2,2,2,2,0,0,0,0,
0,0,0,0,2,2,2,2,2,2,2,2,2,2,2,2,2,162,163,164,2,2,2,2,2,2,2,2,2,2,2,2,2,2,2,2,0,0,0,0,
0,0,0,0,2,2,2,2,2,2,2,2,2,2,2,2,2,162,163,164,2,2,2,2,2,2,2,2,2,2,2,2,2,2,2,2,0,0,0,0,
0,0,0,0,2,2,2,2,2,2,2,2,2,2,2,2,2,162,163,164,2,2,2,2,2,2,2,2,2,2,2,2,2,2,2,2,0,0,0,0,
0,0,0,0,2,2,2,2,2,2,2,2,2,2,2,2,2,162,163,164,2,2,2,2,2,2,2,2,2,2,2,2,2,2,2,2,0,0,0,0,
0,0,0,0,2,2,178,179,202,179,179,179,179,202,179,179,179,167,163,164,2,2,2,2,2,2,2,2,2,2,2,2,2,2,2,2,0,0,0,0,
0,0,0,0,2,2,2,2,2,2,2,2,2,2,2,2,2,162,163,164,2,2,2,161,2,2,2,2,2,2,2,2,2,2,2,2,0,0,0,0,
0,0,0,0,2,2,2,2,2,2,2,2,2,2,2,154,155,175,163,173,155,188,179,202,179,179,179,179,179,179,202,179,179,187,2,2,0,0,0,0,
0,0,0,0,2,2,2,2,2,2,2,2,2,2,2,162,163,163,163,163,163,164,2,2,2,2,2,2,2,2,2,2,2,161,2,2,0,0,0,0,
0,0,0,0,2,2,2,2,2,2,2,2,2,2,2,162,163,163,163,163,163,164,2,2,2,2,2,2,2,2,2,2,2,161,2,2,0,0,0,0,
0,0,0,0,2,2,2,2,2,2,2,2,2,2,2,162,163,163,163,163,163,164,2,2,2,2,2,2,2,2,2,2,2,161,2,2,0,0,0,0,
0,0,0,0,2,2,2,2,2,2,2,2,2,2,2,162,163,163,163,163,163,164,2,2,2,2,2,2,2,2,2,2,2,161,2,2,0,0,0,0,
0,0,0,0,2,2,2,2,2,2,2,161,2,2,2,162,163,163,163,163,163,165,179,179,179,179,179,179,179,179,179,179,179,203,2,2,0,0,0,0,
0,0,0,0,2,2,2,2,2,2,2,201,179,179,179,197,171,159,163,157,171,172,2,2,2,2,2,2,2,2,2,2,2,2,2,2,0,0,0,0,
0,0,0,0,2,2,161,2,2,2,2,2,2,2,2,2,2,162,163,164,2,2,2,2,2,2,2,2,2,2,2,2,2,2,2,2,0,0,0,0,
0,0,0,0,2,2,201,179,179,179,179,179,179,179,179,179,179,167,163,164,2,2,2,2,2,2,2,2,2,2,2,2,2,2,2,2,0,0,0,0,
0,0,0,0,2,2,2,2,2,2,2,2,2,2,2,2,2,162,163,164,2,2,2,2,2,2,2,2,2,2,2,2,2,2,2,2,0,0,0,0,
0,0,0,0,2,2,2,2,2,2,2,2,2,2,2,2,2,162,163,164,2,2,2,2,2,2,2,2,2,2,2,2,2,2,2,2,0,0,0,0,
0,0,0,0,2,2,2,2,2,2,2,2,2,2,2,2,2,162,163,165,179,179,202,179,179,179,179,202,179,179,179,179,202,180,2,2,0,0,0,0,
0,0,0,0,2,2,2,2,2,2,2,2,2,2,2,2,2,162,163,164,2,2,2,2,2,2,2,2,2,2,2,2,2,2,2,2,0,0,0,0,
0,0,0,0,2,2,2,2,2,2,2,2,2,2,2,2,2,162,163,164,2,2,2,2,2,2,2,2,2,2,2,2,2,2,2,2,0,0,0,0,
0,0,0,0,2,2,2,2,2,2,2,2,2,2,2,2,2,162,163,164,2,2,2,2,2,2,2,2,2,2,2,2,2,2,2,2,0,0,0,0,
0,0,0,0,2,2,2,2,2,2,2,2,2,2,2,2,2,162,163,164,2,2,2,2,2,2,2,2,2,2,2,2,2,2,2,2,0,0,0,0,
0,0,0,0,2,2,2,2,2,2,2,2,2,2,2,2,2,162,163,164,2,2,2,2,2,2,2,2,2,2,2,2,2,2,2,2,0,0,0,0,
0,0,0,0,2,162,163,164,2,2,2,2,2,161,2,2,2,162,163,164,2,2,2,2,2,2,2,2,2,2,2,2,2,2,2,2,0,0,0,0,
0,0,0,0,2,162,163,173,155,155,155,155,155,174,155,155,155,175,163,164,2,2,2,2,2,2,2,2,2,2,2,2,2,2,2,2,0,0,0,0,
0,0,0,0,2,170,171,171,171,171,171,171,171,171,171,171,171,159,163,164,2,2,2,2,2,2,2,2,2,2,2,161,2,2,2,2,0,0,0,0,
0,0,0,0,2,2,2,2,2,2,2,2,2,2,2,2,2,162,163,164,2,2,2,2,2,2,2,2,2,2,2,161,2,2,2,2,0,0,0,0,
0,0,0,0,2,2,2,2,2,2,2,2,2,2,2,2,2,162,163,164,2,2,2,2,2,2,2,2,2,2,2,161,2,2,2,2,0,0,0,0,
0,0,0,0,476,476,476,476,476,476,476,476,476,476,476,476,0,0,0,0,0,0,0,0,0,0,0,0,0,0,0,161,0,0,0,0,0,0,0,0,
0,0,0,0,7,7,7,7,7,7,7,7,7,7,7,7,0,0,0,0,0,0,161,0,0,0,0,161,0,0,0,161,0,0,0,0,0,0,0,0,
0,0,0,0,7,7,7,7,7,7,7,7,7,7,7,7,476,0,0,0,0,0,161,0,0,0,0,161,0,0,0,161,0,0,0,0,0,0,0,0,
0,0,0,0,949,7,7,7,7,7,7,7,7,7,7,7,476,0,0,173,155,155,174,155,155,155,155,174,155,155,155,174,155,155,155,155,155,155,155,155,
0,0,0,0,7,7,7,7,7,7,7,7,7,7,7,7,476,0,0,163,163,163,163,163,163,163,163,163,163,163,163,163,163,163,163,163,163,163,163,163,
0,0,0,0,476,476,476,476,476,476,476,476,476,476,476,476,476,0,0,157,171,171,171,171,171,171,171,171,171,171,171,171,171,171,171,171,171,171,171,171,
0,0,0,0,0,0,0,0,0,0,0,0,0,0,0,0,0,0,0,0,0,0,476,0,0,0,0,0,0,0,0,0,0,0,0,0,0,0,0,0,
0,0,0,0,0,0,0,0,0,0,0,0,0,0,0,0,0,0,0,0,0,0,0,0,0,0,0,0,0,0,0,0,0,0,0,0,0,0,0,0,
0,0,0,0,0,0,0,0,0,0,0,0,0,0,0,0,0,0,0,0,0,0,0,0,0,0,0,0,0,0,0,0,0,0,0,0,0,0,0,0,
0,955,0,0,0,0,0,0,0,0,0,0,0,0,0,0,0,0,0,0,0,0,0,0,0,0,0,0,0,0,0,0,0,0,0,0,0,0,0,0,
0,0,0,0,0,0,0,0,0,0,0,0,0,0,0,0,0,0,0,0,0,0,0,0,0,0,0,0,0,0,0,0,0,0,0,0,0,0,0,0,
0,0,0,0,0,0,0,0,0,0,0,0,0,0,0,0,0,0,0,0,0,0,0,0,0,0,0,0,0,0,0,0,0,0,0,0,0,0,0,0,
0,0,0,0,0,0,0,0,0,0,0,0,0,0,0,0,0,0,0,0,0,0,0,0,0,0,0,0,0,0,0,0,0,0,0,0,0,0,0,0,
0,0,0,0,0,0,0,0,0,0,0,0,0,0,0,0,0,0,0,0,0,0,0,0,0,0,0,0,0,0,0,0,0,0,0,0,0,0,0,0
</data>
 </layer>
 <layer id="3" name="edifici" width="40" height="50">
  <data encoding="csv">
417,418,419,420,417,418,419,420,417,418,419,420,417,418,419,420,454,455,417,418,419,420,417,418,419,420,417,418,419,420,417,418,419,420,417,418,419,420,417,418,
425,426,427,428,425,426,427,428,425,426,427,428,425,426,427,428,454,455,425,426,427,428,425,426,427,428,425,426,427,428,425,426,427,428,425,426,427,428,425,426,
433,434,435,436,433,434,435,436,433,434,435,436,433,434,435,436,462,463,433,434,435,436,433,434,435,436,433,434,435,436,433,434,435,436,433,434,435,436,433,434,
421,422,421,422,421,422,421,422,421,422,421,422,421,422,421,422,0,0,421,422,421,422,421,422,421,422,421,422,421,422,421,422,421,422,421,422,421,422,421,422,
429,430,429,430,429,430,429,430,429,430,429,430,429,430,429,430,0,0,429,430,429,430,429,430,429,430,429,430,429,430,429,430,429,430,429,430,429,430,429,430,
437,438,437,438,437,438,437,438,437,438,437,438,437,438,437,438,0,0,437,438,437,438,437,438,437,438,437,438,437,438,437,438,437,438,437,438,437,438,437,438,
421,422,421,422,0,0,0,0,0,0,0,0,0,0,0,0,0,0,0,0,0,0,0,0,0,0,0,0,0,0,0,0,0,0,0,0,421,422,421,422,
429,430,429,430,0,0,0,0,0,0,0,0,0,0,0,0,0,0,0,0,0,0,0,0,0,0,0,0,0,0,0,0,0,0,0,0,429,430,429,430,
437,438,437,438,0,0,2649,2650,2651,2652,0,3057,3058,3059,3060,3061,0,0,0,0,0,0,0,0,0,0,0,0,0,0,0,0,0,0,0,0,437,438,437,438,
421,422,421,422,0,0,2657,2658,2659,2660,0,3065,3066,3067,3068,3069,0,0,0,0,0,0,1817,1818,1819,1820,0,2801,2802,2803,2804,2805,2806,2807,0,0,421,422,421,422,
429,430,429,430,0,0,2665,2666,2667,2668,0,3073,3074,3075,3076,3077,0,0,0,0,0,0,1825,1826,1827,1828,0,2809,2810,2811,2812,2813,2814,2815,0,0,429,430,429,430,
437,438,437,438,0,0,2673,2674,2675,2676,0,3081,3082,3083,3084,3085,0,0,0,0,0,0,1833,1834,1835,1836,0,2817,2818,2819,2820,2821,2822,2823,0,0,437,438,437,438,
421,422,421,422,0,0,0,0,0,0,0,0,0,0,0,0,0,0,0,0,0,0,1841,1842,1843,1844,0,2825,2826,2827,2828,2829,2830,2831,0,0,421,422,421,422,
429,430,429,430,0,0,0,0,0,0,0,0,0,0,0,0,0,0,0,0,0,0,0,0,0,0,0,2833,2834,2835,2836,2837,2838,2839,0,0,429,430,429,430,
437,438,437,438,0,0,0,0,0,0,0,0,0,0,0,1063,1064,0,0,0,0,0,0,0,0,0,0,0,0,0,0,0,0,0,0,0,437,438,437,438,
421,422,421,422,0,0,0,0,0,0,1817,1818,1819,1820,0,1071,1072,0,0,0,0,0,0,1817,1818,1819,1820,0,0,0,0,0,0,0,0,0,421,422,421,422,
429,430,429,430,0,0,0,0,0,0,1825,1826,1827,1828,0,0,0,0,0,0,0,0,0,1825,1826,1827,1828,0,0,0,0,0,0,0,0,0,429,430,429,430,
437,438,437,438,0,1817,1818,1819,1820,0,1833,1834,1835,1836,0,0,0,0,0,0,1063,1064,0,1833,1834,1835,1836,0,0,0,0,0,0,0,0,0,437,438,437,438,
421,422,421,422,0,1825,1826,1827,1828,0,1841,1842,1843,1844,0,0,0,0,0,0,1071,1072,0,1841,1842,1843,1844,0,0,0,0,0,0,0,0,0,421,422,421,422,
429,430,429,430,0,1833,1834,1835,1836,0,0,0,0,0,0,0,0,0,0,0,0,0,0,0,0,0,0,0,0,0,0,0,0,0,0,0,429,430,429,430,
437,438,437,438,0,1841,1842,1843,1844,0,0,0,0,0,0,0,0,0,0,0,0,0,0,0,0,0,0,0,0,0,0,0,0,0,0,0,437,438,437,438,
421,422,421,422,0,0,0,0,0,0,0,0,0,0,0,0,0,0,0,0,0,1817,1818,1819,1820,0,1817,1818,1819,1820,0,1817,1818,1819,1820,0,421,422,421,422,
429,430,429,430,0,0,0,0,0,0,0,0,0,0,0,0,0,0,0,0,0,1825,1826,1827,1828,0,1825,1826,1827,1828,0,1825,1826,1827,1828,0,429,430,429,430,
437,438,437,438,0,0,0,0,0,0,0,0,0,0,0,0,0,0,0,0,0,1833,1834,1835,1836,0,1833,1834,1835,1836,0,1833,1834,1835,1836,0,437,438,437,438,
421,422,421,422,0,0,0,0,0,0,11593,11594,11586,11587,11588,11595,11600,0,0,0,0,1841,1842,1843,1844,0,1841,1842,1843,1844,0,1841,1842,1843,1844,0,421,422,421,422,
429,430,429,430,0,3310,3311,3312,0,0,11601,11602,11603,11603,11603,11603,11608,0,0,0,0,0,0,0,0,0,0,0,0,0,0,0,0,0,0,0,429,430,429,430,
437,438,437,438,0,3318,3319,3320,0,0,11609,11610,11614,11611,11616,11612,11613,0,0,0,0,1817,1818,1819,1820,0,0,0,0,0,0,0,0,0,0,0,437,438,437,438,
421,422,421,422,0,3326,3327,3328,0,0,11617,11618,11622,11619,11624,11620,11621,0,0,0,0,1825,1826,1827,1828,0,0,0,0,0,0,0,0,0,0,0,421,422,421,422,
429,430,429,430,0,3334,3335,3336,0,0,11617,11618,11622,11619,11624,11620,11621,0,0,0,0,1833,1834,1835,1836,0,0,0,0,2609,2610,2611,2612,2613,0,0,429,430,429,430,
437,438,437,438,0,3342,3343,3344,0,0,11617,11618,11630,11631,11632,11620,11621,0,0,0,0,1841,1842,1843,1844,0,0,0,0,2617,2618,2619,2620,2621,0,0,437,438,437,438,
421,422,421,422,0,3350,3351,3352,0,0,11625,11626,11638,11639,11640,11628,11629,0,0,0,0,0,0,0,0,0,0,0,0,2625,2626,2627,2628,2629,0,0,421,422,421,422,
429,430,429,430,0,3358,0,981,982,0,0,0,0,0,0,0,0,0,0,0,0,0,0,0,0,0,0,0,0,2633,2634,2635,2636,2637,0,0,429,430,429,430,
437,438,437,438,0,0,0,0,0,0,0,0,0,0,0,0,0,0,0,0,0,0,0,0,0,0,0,0,0,2641,2642,2643,2644,2645,0,0,437,438,437,438,
421,422,421,422,981,982,0,0,0,0,0,0,0,0,0,0,0,0,0,0,0,1817,1818,1819,1820,0,1817,1818,1819,1820,0,0,0,0,0,0,421,422,421,422,
429,430,429,430,981,982,955,981,982,981,982,0,0,0,0,0,0,0,0,0,0,1825,1826,1827,1828,0,1825,1826,1827,1828,0,0,0,0,0,0,429,430,429,430,
437,438,437,438,981,982,0,981,982,0,0,0,0,0,0,0,0,0,0,0,0,1833,1834,1835,1836,0,1833,1834,1835,1836,0,0,0,0,0,0,437,438,437,438,
421,422,421,422,0,0,0,0,0,0,0,0,0,0,0,0,0,0,0,0,0,1841,1842,1843,1844,0,1841,1842,1843,1844,0,0,0,0,0,0,0,0,0,0,
429,430,429,430,0,0,0,0,0,0,0,0,0,0,0,0,0,0,0,0,0,0,0,0,0,0,0,0,0,0,0,0,0,0,0,0,0,0,0,0,
437,438,437,438,0,0,0,0,0,0,0,0,0,0,0,0,0,0,0,0,0,0,0,0,0,0,0,0,0,0,0,0,0,0,0,0,0,0,0,0,
421,422,421,422,0,0,0,0,0,0,0,0,0,0,0,0,0,0,0,0,0,0,0,0,0,0,0,0,0,0,0,0,0,0,0,0,0,0,0,0,
429,430,429,430,0,0,0,0,0,0,0,0,0,0,0,0,0,0,0,0,0,0,0,0,0,0,0,0,0,0,0,0,0,0,0,0,0,0,0,0,
437,438,437,438,0,0,0,0,0,0,0,0,0,0,0,0,0,0,0,0,0,0,0,0,0,0,0,0,0,0,0,0,0,0,0,0,0,0,0,0,
0,0,0,0,0,0,0,0,0,0,0,0,0,0,0,0,0,0,0,0,0,0,0,0,0,0,0,0,0,0,0,0,0,0,0,0,0,0,0,0,
0,0,0,0,0,0,0,0,0,0,0,0,0,0,0,0,0,0,0,0,0,0,0,0,0,0,0,0,0,0,0,0,0,0,0,0,0,0,0,0,
0,0,0,0,0,0,0,0,0,0,0,0,0,0,0,0,0,0,0,0,0,0,0,0,0,0,0,0,0,0,0,0,0,0,0,0,0,0,0,0,
0,0,0,0,0,0,0,0,0,0,0,0,0,0,0,0,0,0,0,0,0,0,0,0,0,0,0,0,0,0,0,0,0,0,0,0,0,0,0,0,
0,0,0,0,0,0,0,0,0,0,0,0,0,0,0,0,0,0,0,0,0,0,0,0,0,0,0,0,0,0,0,0,0,0,0,0,0,0,0,476,
0,0,0,0,0,0,0,0,0,0,0,0,0,0,0,0,0,0,0,0,0,0,0,0,0,0,0,0,0,0,0,0,0,0,0,0,0,0,0,0,
0,0,0,0,0,0,0,0,0,0,0,0,0,0,0,0,0,0,0,0,0,0,0,0,0,0,0,0,0,0,0,0,0,0,0,0,0,0,0,0,
0,0,0,0,0,0,0,0,0,0,0,0,0,0,0,0,0,0,0,0,0,0,0,0,0,0,0,0,0,0,0,0,0,0,0,0,0,0,0,0
</data>
 </layer>
 <layer id="4" name="sopra_testa" width="40" height="50">
  <data encoding="csv">
0,0,0,0,0,0,0,0,0,0,0,0,0,0,0,0,0,0,0,0,0,0,0,0,0,0,0,0,0,0,0,0,0,0,0,0,0,0,0,0,
0,0,0,0,0,0,0,0,0,0,0,0,0,0,0,0,0,0,0,0,0,0,0,0,0,0,0,0,0,0,0,0,0,0,0,0,0,0,0,0,
0,0,0,0,0,0,0,0,0,0,0,0,0,0,0,0,0,0,0,0,0,0,0,0,0,0,0,0,0,0,0,0,0,0,0,0,0,0,0,0,
0,0,0,0,0,0,0,0,0,0,0,0,0,0,0,0,0,0,0,0,0,0,0,0,0,0,0,0,0,0,0,0,0,0,0,0,0,0,0,0,
0,0,0,0,0,0,0,0,0,0,0,0,0,0,0,0,0,0,0,0,0,0,0,0,0,0,0,0,0,0,0,0,0,0,0,0,0,0,0,0,
0,0,0,0,0,0,0,0,0,0,0,0,0,0,0,0,0,0,0,0,0,0,0,0,0,0,0,0,0,0,0,0,0,0,0,0,0,0,0,0,
0,0,0,0,0,0,0,0,0,0,0,0,0,0,0,0,0,0,0,0,0,0,0,0,0,0,0,0,0,0,0,0,0,0,0,0,0,0,0,0,
0,0,0,0,0,0,0,0,0,0,0,0,0,0,0,0,0,0,0,0,0,0,0,0,0,0,0,0,0,0,0,0,0,0,0,0,0,0,0,0,
0,0,0,0,0,0,0,0,0,0,0,0,0,0,0,0,0,0,0,0,0,0,0,0,0,0,0,0,0,0,0,0,0,0,0,0,0,0,0,0,
0,0,0,0,0,0,0,0,0,0,0,0,0,0,0,0,0,0,0,0,0,0,0,0,0,0,0,0,0,0,0,0,0,0,0,0,0,0,0,0,
0,0,0,0,0,0,0,0,0,0,0,0,0,0,0,0,0,0,0,0,0,0,0,0,0,0,0,0,0,0,0,0,0,0,0,0,0,0,0,0,
0,0,0,0,0,0,0,0,0,0,0,0,0,0,0,0,0,0,0,0,0,0,0,0,0,0,0,0,0,0,0,0,0,0,0,0,0,0,0,0,
0,0,0,0,0,0,0,0,0,0,0,0,0,0,0,0,0,0,0,0,0,0,0,0,0,0,0,0,0,0,0,0,0,0,0,0,0,0,0,0,
0,0,0,0,0,0,0,0,0,0,0,0,0,0,0,0,0,0,0,0,0,0,0,0,0,0,0,0,0,0,0,0,0,0,0,0,0,0,0,0,
0,0,0,0,0,0,0,0,0,0,0,0,0,0,0,0,0,0,0,0,0,0,0,0,0,0,0,0,0,0,0,0,0,0,0,0,0,0,0,0,
0,0,0,0,0,0,0,0,0,0,0,0,0,0,0,0,0,0,0,0,0,0,0,0,0,0,0,0,0,0,0,0,0,0,0,0,0,0,0,0,
0,0,0,0,0,0,0,0,0,0,0,0,0,0,0,0,0,0,0,0,0,0,0,0,0,0,0,0,0,0,0,0,0,0,0,0,0,0,0,0,
0,0,0,0,0,0,0,0,0,0,0,0,0,0,0,0,0,0,0,0,0,0,0,0,0,0,0,0,0,0,0,0,0,0,0,0,0,0,0,0,
0,0,0,0,0,0,0,0,0,0,0,0,0,0,0,0,0,0,0,0,0,0,0,0,0,0,0,0,0,0,0,0,0,0,0,0,0,0,0,0,
0,0,0,0,0,0,0,0,0,0,0,0,0,0,0,0,0,0,0,0,0,0,0,0,0,0,0,0,0,0,0,0,0,0,0,0,0,0,0,0,
0,0,0,0,0,0,0,0,0,0,0,0,0,0,0,0,0,0,0,0,0,0,0,0,0,0,0,0,0,0,0,0,0,0,0,0,0,0,0,0,
0,0,0,0,0,0,0,0,0,0,0,0,0,0,0,0,0,0,0,0,0,0,0,0,0,0,0,0,0,0,0,0,0,0,0,0,0,0,0,0,
0,0,0,0,0,0,0,0,0,0,0,0,0,0,0,0,0,0,0,0,0,0,0,0,0,0,0,0,0,0,0,0,0,0,0,0,0,0,0,0,
0,0,0,0,0,0,0,0,0,0,0,0,0,0,0,0,0,0,0,0,0,0,0,0,0,0,0,0,0,0,0,0,0,0,0,0,0,0,0,0,
0,0,0,0,0,0,0,0,0,0,0,0,11586,11587,11588,0,0,0,0,0,0,0,0,0,0,0,0,0,0,0,0,0,0,0,0,0,0,0,0,0,
0,0,0,0,0,0,0,0,0,0,0,0,0,0,0,0,0,0,0,0,0,0,0,0,0,0,0,0,0,0,0,0,0,0,0,0,0,0,0,0,
0,0,0,0,0,0,0,0,0,0,0,0,0,0,0,0,0,0,0,0,0,0,0,0,0,0,0,0,0,0,0,0,0,0,0,0,0,0,0,0,
0,0,0,0,0,0,0,0,0,0,0,0,0,0,0,0,0,0,0,0,0,0,0,0,0,0,0,0,0,0,0,0,0,0,0,0,0,0,0,0,
0,0,0,0,0,0,0,0,0,0,0,0,0,0,0,0,0,0,0,0,0,0,0,0,0,0,0,0,0,0,0,0,0,0,0,0,0,0,0,0,
0,0,0,0,0,0,0,0,0,0,0,0,0,0,0,0,0,0,0,0,0,0,0,0,0,0,0,0,0,0,0,0,0,0,0,0,0,0,0,0,
0,0,0,0,0,0,0,0,0,0,0,0,0,0,0,0,0,0,0,0,0,0,0,0,0,0,0,0,0,0,0,0,0,0,0,0,0,0,0,0,
0,0,0,0,0,0,0,0,0,0,0,0,0,0,0,0,0,0,0,0,0,0,0,0,0,0,0,0,0,0,0,0,0,0,0,0,0,0,0,0,
0,0,0,0,0,0,0,0,0,0,0,0,0,0,0,0,0,0,0,0,0,0,0,0,0,0,0,0,0,0,0,0,0,0,0,0,0,0,0,0,
0,0,0,0,0,0,0,0,0,0,0,0,0,0,0,0,0,0,0,0,0,0,0,0,0,0,0,0,0,0,0,0,0,0,0,0,0,0,0,0,
0,0,0,0,0,0,0,0,0,0,0,0,0,0,0,0,0,0,0,0,0,0,0,0,0,0,0,0,0,0,0,0,0,0,0,0,0,0,0,0,
0,0,0,0,0,0,0,0,0,0,0,0,0,0,0,0,0,0,0,0,0,0,0,0,0,0,0,0,0,0,0,0,0,0,0,0,0,0,0,0,
0,0,0,0,0,0,0,0,0,0,0,0,0,0,0,0,0,0,0,0,0,0,0,0,0,0,0,0,0,0,0,0,0,0,0,0,0,0,0,0,
0,0,0,0,0,0,0,0,0,0,0,0,0,0,0,0,0,0,0,0,0,0,0,0,0,0,0,0,0,0,0,0,0,0,0,0,0,0,0,0,
0,0,0,0,0,0,0,0,0,0,0,0,0,0,0,0,0,0,0,0,0,0,0,0,0,0,0,0,0,0,0,0,0,0,0,0,0,0,0,0,
0,0,0,0,0,0,0,0,0,0,0,0,0,0,0,0,0,0,0,0,0,0,0,0,0,0,0,0,0,0,0,0,0,0,0,0,0,0,0,0,
0,0,0,0,0,0,0,0,0,0,0,0,0,0,0,0,0,0,0,0,0,0,0,0,0,0,0,0,0,0,0,0,0,0,0,0,0,0,0,0,
0,0,0,0,0,0,0,0,0,0,0,0,0,0,0,0,0,0,0,0,0,0,0,0,0,0,0,0,0,0,0,0,0,0,0,0,0,0,0,0,
0,0,0,0,0,0,0,0,0,0,0,0,0,0,0,0,0,0,0,0,0,0,0,0,0,0,0,0,0,0,0,0,0,0,0,0,0,0,0,0,
0,0,0,0,0,0,0,0,0,0,0,0,0,0,0,0,0,0,0,0,0,0,0,0,0,0,0,0,0,0,0,0,0,0,0,0,0,0,0,0,
0,0,0,0,0,0,0,0,0,0,0,0,0,0,0,0,0,0,0,0,0,0,0,0,0,0,0,0,0,0,0,0,0,0,0,0,0,0,0,0,
0,466,0,0,466,0,0,466,0,0,466,0,0,466,0,0,466,0,0,466,0,0,466,0,0,466,0,0,466,0,0,466,0,0,466,0,0,466,0,0,
473,474,475,473,474,475,473,474,475,473,474,475,473,474,475,473,474,475,473,474,475,473,474,475,473,474,475,473,474,475,473,474,475,473,474,475,473,474,475,0,
481,482,483,481,482,483,481,482,483,481,482,483,481,482,483,481,482,483,481,482,483,481,482,483,481,482,483,481,482,483,481,482,483,481,482,483,481,482,483,0,
489,490,491,489,490,491,489,490,491,489,490,491,489,490,491,489,490,491,489,490,491,489,490,491,489,490,491,489,490,491,489,490,491,489,490,491,489,490,491,0,
497,498,499,497,498,499,497,498,499,497,498,499,497,498,499,497,498,499,497,498,499,497,498,499,497,498,499,497,498,499,497,498,499,497,498,499,497,498,499,0
</data>
 </layer>
 <objectgroup id="20" name="collisioni">
  <object id="122" x="-8" y="10" width="502" height="184"/>
  <object id="123" x="584" y="4" width="692" height="166"/>
  <object id="124" x="1162" y="96" width="114" height="1048"/>
  <object id="125" x="16" y="168" width="108" height="1158"/>
  <object id="126" x="137" y="1316" width="399" height="15"/>
  <object id="127" x="517" y="1221" width="17" height="116"/>
  <object id="128" x="130" y="1156" width="370" height="18"/>
  <object id="135" x="2" y="1478" width="1269" height="126"/>
  <object id="136" x="198" y="273" width="48" height="105"/>
  <object id="137" x="242" y="269" width="69" height="70"/>
  <object id="138" x="293" y="323" width="23" height="59"/>
  <object id="139" x="873" y="301" width="205" height="111"/>
  <object id="140" x="878" y="391" width="66" height="37"/>
  <object id="141" x="1012" y="399" width="66" height="24"/>
  <object id="142" x="928" y="921" width="62" height="126"/>
  <object id="143" x="987" y="913" width="92" height="104"/>
  <object id="144" x="1046" y="993" width="35" height="57"/>
  <object id="145" x="716" y="1350" width="16" height="17"/>
  <object id="151" x="166" y="821" width="81" height="136.5"/>
  <object id="152" x="167" y="953" width="15" height="32.5"/>
  <object id="153" x="237.5" y="949" width="14" height="39.5"/>
  <object id="154" x="323" y="802.833" width="212.667" height="153.167"/>
  <object id="155" x="325" y="950" width="89.5" height="40.5"/>
  <object id="156" x="449.5" y="956" width="89.1667" height="35"/>
  <object id="157" x="164" y="564" width="119" height="71.5"/>
  <object id="158" x="228.5" y="629" width="50.5" height="40.5"/>
  <object id="159" x="167" y="627" width="19" height="44.5"/>
  <object id="160" x="322.5" y="499.75" width="119" height="71.5"/>
  <object id="161" x="387" y="564.75" width="50.5" height="40.5"/>
  <object id="162" x="325.5" y="562.75" width="19" height="44.5"/>
  <object id="163" x="710" y="303.75" width="119" height="71.5"/>
  <object id="164" x="774.5" y="368.75" width="50.5" height="40.5"/>
  <object id="165" x="713" y="366.75" width="19" height="44.5"/>
  <object id="166" x="740" y="497.75" width="119" height="71.5"/>
  <object id="167" x="804.5" y="562.75" width="50.5" height="40.5"/>
  <object id="168" x="743" y="560.75" width="19" height="44.5"/>
  <object id="169" x="676.5" y="690.75" width="119" height="71.5"/>
  <object id="170" x="741" y="755.75" width="50.5" height="40.5"/>
  <object id="171" x="679.5" y="753.75" width="19" height="44.5"/>
  <object id="172" x="835.5" y="689.25" width="119" height="71.5"/>
  <object id="173" x="900" y="754.25" width="50.5" height="40.5"/>
  <object id="174" x="838.5" y="752.25" width="19" height="44.5"/>
  <object id="175" x="995" y="688.75" width="119" height="71.5"/>
  <object id="176" x="1059.5" y="753.75" width="50.5" height="40.5"/>
  <object id="177" x="998" y="751.75" width="19" height="44.5"/>
  <object id="178" x="678" y="847.75" width="119" height="71.5"/>
  <object id="179" x="742.5" y="912.75" width="50.5" height="40.5"/>
  <object id="180" x="681" y="910.75" width="19" height="44.5"/>
  <object id="181" x="679" y="1073.25" width="119" height="71.5"/>
  <object id="182" x="743.5" y="1138.25" width="50.5" height="40.5"/>
  <object id="183" x="682" y="1136.25" width="19" height="44.5"/>
  <object id="184" x="837.5" y="1074.25" width="119" height="71.5"/>
  <object id="185" x="902" y="1139.25" width="50.5" height="40.5"/>
  <object id="186" x="840.5" y="1137.25" width="19" height="44.5"/>
  <object id="187" x="355.5" y="257" width="151" height="88.5"/>
  <object id="188" x="357.5" y="345.5" width="54" height="32"/>
  <object id="189" x="447.5" y="345.5" width="57.5" height="32.5"/>
  <object id="190" x="951" y="412" width="6" height="32"/>
  <object id="191" x="994" y="408.5" width="14" height="29.5"/>
  <object id="205" x="322.667" y="786.667" width="76" height="16"/>
  <object id="206" x="467" y="788" width="71" height="13.3333"/>
  <object id="207" x="399.333" y="796" width="69" height="6.66667"/>
 </objectgroup>
 <objectgroup id="6" name="eventi">
  <object id="106" name="pokecenter_door" type="warp" x="995" y="1031.67" width="32" height="16">
   <properties>
    <property name="destinazione" value="pokecenter_albano"/>
    <property name="type" value="warp"/>
   </properties>
  </object>
  <object id="107" name="market_door" type="warp" x="255" y="358" width="32" height="16">
   <properties>
    <property name="destinazione" value="mart_albano"/>
    <property name="type" value="warp"/>
   </properties>
  </object>
  <object id="108" name="palestra_door" type="warp" x="961" y="421" width="32" height="16">
   <properties>
    <property name="destinazione" value="palestra_albano_interno"/>
    <property name="spawn_id" value="entrata_principale"/>
    <property name="type" value="warp"/>
   </properties>
  </object>
  <object id="148" name="spawn" type="spawn" x="961" y="453" width="32" height="16">
   <properties>
    <property name="id" value="da_palestra_albano"/>
    <property name="type" value="spawn"/>
   </properties>
  </object>
  <object id="109" name="cartello" type="cartello" x="32" y="1437.33" width="20" height="19">
   <properties>
    <property name="testo" value="Albano Laziale"/>
    <property name="type" value="cartello"/>
   </properties>
  </object>
  <object id="111" name="cartello" type="cartello" x="204" y="1089.33" width="20" height="19">
   <properties>
    <property name="testo" value="Accademia Aeronautica"/>
    <property name="type" value="cartello"/>
   </properties>
  </object>
  <object id="112" name="npc" type="npc" x="704" y="640" width="22" height="22">
   <properties>
    <property name="direzione" value="sud"/>
    <property name="id" value="albano_npc1"/>
    <property name="type" value="npc"/>
   </properties>
  </object>
  <object id="113" name="npc" type="npc" x="472" y="749.333" width="22" height="22">
   <properties>
    <property name="direzione" value="est"/>
    <property name="id" value="albano_npc2"/>
    <property name="type" value="npc"/>
   </properties>
  </object>
  <object id="114" name="trainer" type="trainer" x="482" y="1286" width="22" height="22">
   <properties>
    <property name="direzione" value="nord"/>
    <property name="id" value="trainer albano 1"/>
    <property name="type" value="trainer"/>
    <property name="vista" type="int" value="4"/>
   </properties>
  </object>
  <object id="115" x="143.333" y="220">
   <properties>
    <property name="contenuto" value="superpozione"/>
    <property name="id" value="oggetto_116"/>
    <property name="quantita" value="2"/>
    <property name="type" value="oggetto"/>
   </properties>
   <point/>
  </object>
  <object id="116" name="npc" type="npc" x="300" y="900" width="22" height="22">
   <properties>
    <property name="direzione" value="sud"/>
    <property name="id" value="albano_npc3"/>
    <property name="type" value="npc"/>
   </properties>
  </object>
  <object id="117" name="npc" type="npc" x="950" y="500" width="22" height="22">
   <properties>
    <property name="direzione" value="ovest"/>
    <property name="id" value="albano_npc4"/>
    <property name="type" value="npc"/>
   </properties>
  </object>
  <object id="118" name="npc" type="npc" x="600" y="1150" width="22" height="22">
   <properties>
    <property name="direzione" value="est"/>
    <property name="id" value="albano_npc5"/>
    <property name="type" value="npc"/>
   </properties>
  </object>
  <object id="119" name="npc" type="npc" x="1050" y="1300" width="22" height="22">
   <properties>
    <property name="direzione" value="sud"/>
    <property name="id" value="albano_npc6"/>
    <property name="type" value="npc"/>
   </properties>
  </object>
  <object id="120" name="oggetto" type="oggetto" x="965.333" y="200.667" width="22" height="22">
   <properties>
    <property name="contenuto" value="mt04"/>
    <property name="type" value="oggetto"/>
   </properties>
  </object>
  <object id="121" name="oggetto" type="oggetto" x="142" y="1250" width="22" height="22">
   <properties>
    <property name="contenuto" value="iperpozione"/>
    <property name="quantità" value="1"/>
    <property name="type" value="oggetto"/>
   </properties>
  </object>
  <object id="148" name="erba_alta" type="erba_alta" x="134" y="1182" width="374" height="122">
   <properties>
    <property name="id" value="incontri albano"/>
    <property name="type" value="erba_alta"/>
   </properties>
  </object>
  <object id="150" name="TBD" type="Rivale UOMO" x="582" y="581" width="24.6667" height="20.6667">
   <properties>
    <property name="direzione" value="SUD"/>
    <property name="id" value="rivale_ALBANO"/>
    <property name="sprite" value="RIVALE_UOMO"/>
    <property name="tappa" type="int" value="4"/>
    <property name="type" value="trainer"/>
    <property name="vista" value="6"/>
   </properties>
  </object>
  <object id="153" name="warp_albano_casadoppia_luxury_2" x="206.667" y="657.333">
   <properties>
    <property name="destinazione" value="albano_casadoppia_luxury_2"/>
    <property name="nota_origine" value="placeholder, da riposizionare - porta di albano_casadoppia_luxury_2"/>
    <property name="spawn_id" value="da_citta"/>
    <property name="type" value="warp"/>
   </properties>
   <point/>
  </object>
  <object id="154" name="spawn_albano_casadoppia_luxury_2" x="208.333" y="690.667">
   <properties>
    <property name="id" value="da_albano_casadoppia_luxury_2"/>
    <property name="nota_origine" value="placeholder, da riposizionare - uscita da albano_casadoppia_luxury_2"/>
    <property name="type" value="spawn"/>
   </properties>
   <point/>
  </object>
  <object id="155" name="warp_albano_casa7_1" x="364" y="593.667">
   <properties>
    <property name="destinazione" value="albano_casa7_1"/>
    <property name="nota_origine" value="placeholder, da riposizionare - porta di albano_casa7_1"/>
    <property name="spawn_id" value="da_citta"/>
    <property name="type" value="warp"/>
   </properties>
   <point/>
  </object>
  <object id="156" name="spawn_albano_casa7_1" x="369.333" y="630.333">
   <properties>
    <property name="id" value="da_albano_casa7_1"/>
    <property name="nota_origine" value="placeholder, da riposizionare - uscita da albano_casa7_1"/>
    <property name="type" value="spawn"/>
   </properties>
   <point/>
  </object>
  <object id="157" name="warp_albano_casa7_2" x="716.333" y="949">
   <properties>
    <property name="destinazione" value="albano_casa7_2"/>
    <property name="nota_origine" value="placeholder, da riposizionare - porta di albano_casa7_2"/>
    <property name="spawn_id" value="da_citta"/>
    <property name="type" value="warp"/>
   </properties>
   <point/>
  </object>
  <object id="158" name="spawn_albano_casa7_2" x="715.5" y="980.167">
   <properties>
    <property name="id" value="da_albano_casa7_2"/>
    <property name="nota_origine" value="placeholder, da riposizionare - uscita da albano_casa7_2"/>
    <property name="type" value="spawn"/>
   </properties>
   <point/>
  </object>
  <object id="159" name="warp_albano_casa7_3" x="1041" y="785">
   <properties>
    <property name="destinazione" value="albano_casa7_3"/>
    <property name="nota_origine" value="placeholder, da riposizionare - porta di albano_casa7_3"/>
    <property name="spawn_id" value="da_citta"/>
    <property name="type" value="warp"/>
   </properties>
   <point/>
  </object>
  <object id="160" name="spawn_albano_casa7_3" x="1041.67" y="829.667">
   <properties>
    <property name="id" value="da_albano_casa7_3"/>
    <property name="nota_origine" value="placeholder, da riposizionare - uscita da albano_casa7_3"/>
    <property name="type" value="spawn"/>
   </properties>
   <point/>
  </object>
  <object id="161" name="warp_albano_casa5_1" x="882.333" y="787.333">
   <properties>
    <property name="destinazione" value="albano_casa5_1"/>
    <property name="nota_origine" value="placeholder, da riposizionare - porta di albano_casa5_1"/>
    <property name="spawn_id" value="da_citta"/>
    <property name="type" value="warp"/>
   </properties>
   <point/>
  </object>
  <object id="162" name="spawn_albano_casa5_1" x="881" y="826">
   <properties>
    <property name="id" value="da_albano_casa5_1"/>
    <property name="nota_origine" value="placeholder, da riposizionare - uscita da albano_casa5_1"/>
    <property name="type" value="spawn"/>
   </properties>
   <point/>
  </object>
  <object id="163" name="warp_albano_casa5_2" x="783.667" y="597">
   <properties>
    <property name="destinazione" value="albano_casa5_2"/>
    <property name="nota_origine" value="placeholder, da riposizionare - porta di albano_casa5_2"/>
    <property name="spawn_id" value="da_citta"/>
    <property name="type" value="warp"/>
   </properties>
   <point/>
  </object>
  <object id="164" name="spawn_albano_casa5_2" x="782.333" y="628.333">
   <properties>
    <property name="id" value="da_albano_casa5_2"/>
    <property name="nota_origine" value="placeholder, da riposizionare - uscita da albano_casa5_2"/>
    <property name="type" value="spawn"/>
   </properties>
   <point/>
  </object>
  <object id="165" name="warp_albano_casa5_3" x="721" y="782.333">
   <properties>
    <property name="destinazione" value="albano_casa5_3"/>
    <property name="nota_origine" value="placeholder, da riposizionare - porta di albano_casa5_3"/>
    <property name="spawn_id" value="da_citta"/>
    <property name="type" value="warp"/>
   </properties>
   <point/>
  </object>
  <object id="166" name="spawn_albano_casa5_3" x="721.667" y="817.833">
   <properties>
    <property name="id" value="da_albano_casa5_3"/>
    <property name="nota_origine" value="placeholder, da riposizionare - uscita da albano_casa5_3"/>
    <property name="type" value="spawn"/>
   </properties>
   <point/>
  </object>
  <object id="167" name="warp_albano_casa6_1" x="750" y="405.667">
   <properties>
    <property name="destinazione" value="albano_casa6_1"/>
    <property name="nota_origine" value="placeholder, da riposizionare - porta di albano_casa6_1"/>
    <property name="spawn_id" value="da_citta"/>
    <property name="type" value="warp"/>
   </properties>
   <point/>
  </object>
  <object id="168" name="spawn_albano_casa6_1" x="752" y="437">
   <properties>
    <property name="id" value="da_albano_casa6_1"/>
    <property name="nota_origine" value="placeholder, da riposizionare - uscita da albano_casa6_1"/>
    <property name="type" value="spawn"/>
   </properties>
   <point/>
  </object>
  <object id="169" name="warp_albano_casa6_2" x="882.333" y="1173.33">
   <properties>
    <property name="destinazione" value="albano_casa6_2"/>
    <property name="nota_origine" value="placeholder, da riposizionare - porta di albano_casa6_2"/>
    <property name="spawn_id" value="da_citta"/>
    <property name="type" value="warp"/>
   </properties>
   <point/>
  </object>
  <object id="170" name="spawn_albano_casa6_2" x="877.667" y="1205.67">
   <properties>
    <property name="id" value="da_albano_casa6_2"/>
    <property name="nota_origine" value="placeholder, da riposizionare - uscita da albano_casa6_2"/>
    <property name="type" value="spawn"/>
   </properties>
   <point/>
  </object>
  <object id="171" name="warp_albano_casa6_3" x="719" y="1174">
   <properties>
    <property name="destinazione" value="albano_casa6_3"/>
    <property name="nota_origine" value="placeholder, da riposizionare - porta di albano_casa6_3"/>
    <property name="spawn_id" value="da_citta"/>
    <property name="type" value="warp"/>
   </properties>
   <point/>
  </object>
  <object id="172" name="spawn_albano_casa6_3" x="718.667" y="1207">
   <properties>
    <property name="id" value="da_albano_casa6_3"/>
    <property name="nota_origine" value="placeholder, da riposizionare - uscita da albano_casa6_3"/>
    <property name="type" value="spawn"/>
   </properties>
   <point/>
  </object>
  <object id="173" name="warp_albano_condominio_a" x="430.333" y="975.667">
   <properties>
    <property name="destinazione" value="albano_condominio_a_1f"/>
    <property name="nota_origine" value="placeholder, da riposizionare - ingresso albano_condominio_a"/>
    <property name="spawn_id" value="da_citta"/>
    <property name="type" value="warp"/>
   </properties>
   <point/>
  </object>
  <object id="174" name="spawn_da_albano_condominio_a" x="431.333" y="1016.33">
   <properties>
    <property name="id" value="da_albano_condominio_a"/>
    <property name="type" value="spawn"/>
   </properties>
   <point/>
  </object>
  <object id="177" name="warp_scuola" x="430" y="367">
   <properties>
    <property name="destinazione" value="albano_scuola"/>
    <property name="nota_origine" value="placeholder, da riposizionare - ingresso Scuola"/>
    <property name="spawn_id" value="da_citta"/>
    <property name="type" value="warp"/>
   </properties>
   <point/>
  </object>
  <object id="178" name="spawn_da_scuola" x="430.667" y="405.667">
   <properties>
    <property name="id" value="da_scuola"/>
    <property name="type" value="spawn"/>
   </properties>
   <point/>
  </object>
  <object id="192" name="oggetto" type="oggetto" x="928.341" y="1355.73" width="1.31736" height="1.31736">
   <properties>
    <property name="contenuto" value="revitalizzante"/>
    <property name="type" value="oggetto"/>
   </properties>
  </object>
  <object id="193" name="oggetto" type="oggetto" x="927.131" y="1376.77" width="1.04291" height="1.04291">
   <properties>
    <property name="contenuto" value="pietra_luna"/>
    <property name="type" value="oggetto"/>
   </properties>
  </object>
  <object id="194" name="oggetto" type="oggetto" x="1007.38" y="1351.74" width="1.31736" height="1.31736">
   <properties>
    <property name="contenuto" value="mt08"/>
    <property name="type" value="oggetto"/>
   </properties>
  </object>
  <object id="195" name="oggetto" type="oggetto" x="894.331" y="1392.68" width="1.04291" height="1.04291">
   <properties>
    <property name="contenuto" value="pietra_luna"/>
    <property name="type" value="oggetto"/>
   </properties>
  </object>
  <object id="196" name="warp" type="warp" x="182" y="960" width="55.75" height="18.75">
   <properties>
    <property name="destinazione" value="negozio_di_bici"/>
    <property name="spawn_id" value="da_albano"/>
    <property name="type" value="warp"/>
   </properties>
  </object>
  <object id="198" name="warp" type="warp" x="547" y="32.5" width="32" height="32">
   <properties>
    <property name="destinazione" value="fuchsiacity_safarizone_entrance"/>
    <property name="spawn_id" value="da_albano"/>
    <property name="type" value="warp"/>
   </properties>
  </object>
  <object id="200" name="warp" type="warp" x="515" y="33.5" width="32" height="32">
   <properties>
    <property name="destinazione" value="fuchsiacity_safarizone_office"/>
    <property name="spawn_id" value="da_albano"/>
    <property name="type" value="warp"/>
   </properties>
  </object>
  <object id="201" name="spawn" type="spawn" x="518" y="95" width="24" height="16">
   <properties>
    <property name="id" value="da_zona_safari_ufficio"/>
    <property name="type" value="spawn"/>
   </properties>
  </object>
  <object id="202" name="spawn" type="spawn" x="196.727" y="993.818" width="24.1818" height="13.6364">
   <properties>
    <property name="id" value="da_negozio_di_bici"/>
    <property name="type" value="spawn"/>
   </properties>
  </object>
  <object id="203" name="warp_albano_condominio_entrata_b" x="432.333" y="793.004">
   <properties>
    <property name="destinazione" value="albano_condominio_a_1f__entrata_b"/>
    <property name="nota_origine" value="placeholder, da riposizionare - ingresso albano_condominio_a"/>
    <property name="spawn_id" value="da_citta"/>
    <property name="type" value="warp"/>
   </properties>
   <point/>
  </object>
  <object id="204" name="spawn_da_albano_condominio_a_entrata_b" x="432" y="770">
   <properties>
    <property name="id" value="da_albano_condominio_a_entrata_b"/>
    <property name="type" value="spawn"/>
   </properties>
   <point/>
  </object>
 </objectgroup>
</map>
