<?xml version="1.0" encoding="UTF-8"?>
<map version="1.10" tiledversion="1.12.2" orientation="orthogonal" renderorder="right-down" width="15" height="20" tilewidth="32" tileheight="32" infinite="0" nextlayerid="6" nextobjectid="140">
 <tileset firstgid="1" name="celadon_condominio_1f_tileset" tilewidth="32" tileheight="32" tilecount="160" columns="16">
  <image source="../celadon_condominio_1f_tileset.png" width="512" height="320"/>
 </tileset>
 <layer id="1" name="ground" width="15" height="20">
  <data encoding="csv">
1,3,5,7,9,1,1,11,13,15,17,1,9,1,1,
19,21,23,25,27,29,31,33,35,37,39,19,27,29,31,
41,41,41,41,43,45,47,33,35,41,41,41,43,45,47,
41,49,49,49,51,53,55,33,35,41,49,49,51,53,55,
57,59,59,59,59,61,57,63,35,41,49,49,49,65,67,
1,1,1,69,1,15,17,11,35,71,49,49,49,49,73,
75,19,75,77,75,37,39,33,35,79,49,49,49,49,81,
79,41,79,41,79,41,41,33,35,41,49,49,49,49,49,
41,49,49,49,49,49,49,33,35,71,49,49,49,49,73,
41,83,85,85,87,49,49,33,35,79,49,49,49,49,81,
41,89,91,91,93,95,49,33,35,41,49,49,49,49,49,
41,97,99,99,101,95,49,103,105,71,49,49,49,49,73,
41,107,109,109,111,95,49,113,115,79,49,49,49,49,81,
41,117,67,67,117,119,49,41,41,41,49,49,49,49,49,
57,59,59,59,59,59,59,59,59,49,49,49,49,49,73,
1,1,121,123,1,1,1,1,125,41,49,49,49,49,81,
75,19,127,129,19,19,19,19,131,41,49,49,49,49,49,
79,41,133,135,41,41,41,41,41,41,49,49,49,49,49,
41,49,49,49,49,49,49,49,49,49,49,137,139,141,49,
143,143,143,143,143,143,143,143,143,143,143,145,147,149,143
</data>
 </layer>
 <layer id="2" name="deco_sotto" width="15" height="20">
  <data encoding="csv">
2,0,0,0,0,2,2,0,0,0,0,2,0,2,2,
20,0,0,0,0,0,0,0,0,0,0,20,0,0,0,
42,42,42,42,44,0,0,0,0,42,42,42,44,0,0,
42,50,50,50,0,0,0,0,0,42,50,50,0,0,0,
58,60,60,60,60,62,58,64,0,42,50,50,50,66,68,
2,2,2,0,2,0,0,0,0,72,50,50,50,50,74,
76,20,76,0,76,0,0,0,0,0,50,50,50,50,0,
0,42,0,42,0,42,42,0,0,42,50,50,50,50,50,
42,50,50,50,50,50,50,0,0,72,50,50,50,50,74,
42,84,86,86,88,50,50,0,0,0,50,50,50,50,0,
42,0,0,0,0,96,50,0,0,42,50,50,50,50,50,
42,0,0,0,0,96,50,0,0,72,50,50,50,50,74,
42,0,0,0,0,96,50,0,0,0,50,50,50,50,0,
42,0,68,68,0,120,50,42,42,42,50,50,50,50,50,
58,60,60,60,60,60,60,60,60,50,50,50,50,50,74,
2,2,0,0,2,2,2,2,126,42,50,50,50,50,0,
76,20,0,0,20,20,20,20,132,42,50,50,50,50,50,
0,42,0,0,42,42,42,42,42,42,50,50,50,50,50,
42,50,50,50,50,50,50,50,50,50,50,0,0,0,50,
144,144,144,144,144,144,144,144,144,144,144,0,0,0,144
</data>
 </layer>
 <layer id="3" name="edifici" width="15" height="20">
  <data encoding="csv">
0,4,6,8,10,0,0,12,14,16,18,0,10,0,0,
0,22,24,26,28,30,32,34,36,38,40,0,28,30,32,
0,0,0,0,0,46,48,34,36,0,0,0,0,46,48,
0,0,0,0,52,54,56,34,36,0,0,0,52,54,56,
0,0,0,0,0,0,0,0,36,0,0,0,0,0,0,
0,0,0,70,0,16,18,12,36,0,0,0,0,0,0,
0,0,0,78,0,38,40,34,36,80,0,0,0,0,82,
80,0,80,0,80,0,0,34,36,0,0,0,0,0,0,
0,0,0,0,0,0,0,34,36,0,0,0,0,0,0,
0,0,0,0,0,0,0,34,36,80,0,0,0,0,82,
0,90,92,92,94,0,0,34,36,0,0,0,0,0,0,
0,98,100,100,102,0,0,104,106,0,0,0,0,0,0,
0,108,110,110,112,0,0,114,116,80,0,0,0,0,82,
0,118,0,0,118,0,0,0,0,0,0,0,0,0,0,
0,0,0,0,0,0,0,0,0,0,0,0,0,0,0,
0,0,122,124,0,0,0,0,0,0,0,0,0,0,82,
0,0,128,130,0,0,0,0,0,0,0,0,0,0,0,
80,0,134,136,0,0,0,0,0,0,0,0,0,0,0,
0,0,0,0,0,0,0,0,0,0,0,138,140,142,0,
0,0,0,0,0,0,0,0,0,0,0,146,148,150,0
</data>
 </layer>
 <objectgroup id="4" name="collisioni">
  <object id="1000" x="0" y="0" width="32" height="32"/>
  <object id="1001" x="32" y="0" width="32" height="32"/>
  <object id="1002" x="64" y="0" width="32" height="32"/>
  <object id="1003" x="96" y="0" width="32" height="32"/>
  <object id="1004" x="128" y="0" width="32" height="32"/>
  <object id="1005" x="160" y="0" width="32" height="32"/>
  <object id="1006" x="192" y="0" width="32" height="32"/>
  <object id="1007" x="224" y="0" width="32" height="32"/>
  <object id="1008" x="256" y="0" width="32" height="32"/>
  <object id="1009" x="288" y="0" width="32" height="32"/>
  <object id="1010" x="320" y="0" width="32" height="32"/>
  <object id="1011" x="352" y="0" width="32" height="32"/>
  <object id="1012" x="384" y="0" width="32" height="32"/>
  <object id="1013" x="416" y="0" width="32" height="32"/>
  <object id="1014" x="448" y="0" width="32" height="32"/>
  <object id="1015" x="0" y="32" width="32" height="32"/>
  <object id="1016" x="32" y="32" width="32" height="32"/>
  <object id="1017" x="96" y="32" width="32" height="32"/>
  <object id="1018" x="128" y="32" width="32" height="32"/>
  <object id="1019" x="160" y="32" width="32" height="32"/>
  <object id="1020" x="192" y="32" width="32" height="32"/>
  <object id="1021" x="224" y="32" width="32" height="32"/>
  <object id="1022" x="256" y="32" width="32" height="32"/>
  <object id="1023" x="288" y="32" width="32" height="32"/>
  <object id="1024" x="320" y="32" width="32" height="32"/>
  <object id="1025" x="352" y="32" width="32" height="32"/>
  <object id="1026" x="384" y="32" width="32" height="32"/>
  <object id="1027" x="416" y="32" width="32" height="32"/>
  <object id="1028" x="448" y="32" width="32" height="32"/>
  <object id="1030" x="192" y="64" width="32" height="32"/>
  <object id="1031" x="224" y="64" width="32" height="32"/>
  <object id="1032" x="256" y="64" width="32" height="32"/>
  <object id="1034" x="448" y="64" width="32" height="32"/>
  <object id="1035" x="160" y="96" width="32" height="32"/>
  <object id="1036" x="192" y="96" width="32" height="32"/>
  <object id="1037" x="224" y="96" width="32" height="32"/>
  <object id="1038" x="256" y="96" width="32" height="32"/>
  <object id="1039" x="416" y="96" width="32" height="32"/>
  <object id="1040" x="448" y="96" width="32" height="32"/>
  <object id="1041" x="224" y="128" width="32" height="32"/>
  <object id="1042" x="256" y="128" width="32" height="32"/>
  <object id="1043" x="0" y="160" width="32" height="32"/>
  <object id="1044" x="32" y="160" width="32" height="32"/>
  <object id="1045" x="64" y="160" width="32" height="32"/>
  <object id="1046" x="96" y="160" width="32" height="32"/>
  <object id="1047" x="128" y="160" width="32" height="32"/>
  <object id="1048" x="160" y="160" width="32" height="32"/>
  <object id="1049" x="192" y="160" width="32" height="32"/>
  <object id="1050" x="224" y="160" width="32" height="32"/>
  <object id="1051" x="256" y="160" width="32" height="32"/>
  <object id="1052" x="0" y="192" width="32" height="32"/>
  <object id="1053" x="32" y="192" width="32" height="32"/>
  <object id="1054" x="64" y="192" width="32" height="32"/>
  <object id="1055" x="96" y="192" width="32" height="32"/>
  <object id="1056" x="128" y="192" width="32" height="32"/>
  <object id="1057" x="160" y="192" width="32" height="32"/>
  <object id="1058" x="192" y="192" width="32" height="32"/>
  <object id="1059" x="224" y="192" width="32" height="32"/>
  <object id="1060" x="256" y="192" width="32" height="32"/>
  <object id="1061" x="288" y="192" width="32" height="32"/>
  <object id="1062" x="448" y="192" width="32" height="32"/>
  <object id="1063" x="0" y="224" width="32" height="32"/>
  <object id="1064" x="64" y="224" width="32" height="32"/>
  <object id="1065" x="128" y="224" width="32" height="32"/>
  <object id="1066" x="224" y="224" width="32" height="32"/>
  <object id="1067" x="256" y="224" width="32" height="32"/>
  <object id="1068" x="224" y="256" width="32" height="32"/>
  <object id="1069" x="256" y="256" width="32" height="32"/>
  <object id="1070" x="224" y="288" width="32" height="32"/>
  <object id="1071" x="256" y="288" width="32" height="32"/>
  <object id="1072" x="288" y="288" width="32" height="32"/>
  <object id="1073" x="448" y="288" width="32" height="32"/>
  <object id="1074" x="32" y="320" width="32" height="32"/>
  <object id="1075" x="64" y="320" width="32" height="32"/>
  <object id="1076" x="96" y="320" width="32" height="32"/>
  <object id="1077" x="128" y="320" width="32" height="32"/>
  <object id="1078" x="224" y="320" width="32" height="32"/>
  <object id="1079" x="256" y="320" width="32" height="32"/>
  <object id="1080" x="32" y="352" width="32" height="32"/>
  <object id="1081" x="64" y="352" width="32" height="32"/>
  <object id="1082" x="96" y="352" width="32" height="32"/>
  <object id="1083" x="128" y="352" width="32" height="32"/>
  <object id="1084" x="224" y="352" width="32" height="32"/>
  <object id="1085" x="256" y="352" width="32" height="32"/>
  <object id="1086" x="32" y="384" width="32" height="32"/>
  <object id="1087" x="64" y="384" width="32" height="32"/>
  <object id="1088" x="96" y="384" width="32" height="32"/>
  <object id="1089" x="128" y="384" width="32" height="32"/>
  <object id="1090" x="224" y="384" width="32" height="32"/>
  <object id="1091" x="256" y="384" width="32" height="32"/>
  <object id="1092" x="288" y="384" width="32" height="32"/>
  <object id="1093" x="448" y="384" width="32" height="32"/>
  <object id="1094" x="0" y="480" width="32" height="32"/>
  <object id="1095" x="32" y="480" width="32" height="32"/>
  <object id="1096" x="64" y="480" width="32" height="32"/>
  <object id="1097" x="96" y="480" width="32" height="32"/>
  <object id="1098" x="128" y="480" width="32" height="32"/>
  <object id="1099" x="160" y="480" width="32" height="32"/>
  <object id="1100" x="192" y="480" width="32" height="32"/>
  <object id="1101" x="224" y="480" width="32" height="32"/>
  <object id="1102" x="256" y="480" width="32" height="32"/>
  <object id="1103" x="448" y="480" width="32" height="32"/>
  <object id="1104" x="0" y="512" width="32" height="32"/>
  <object id="1105" x="32" y="512" width="32" height="32"/>
  <object id="1106" x="64" y="512" width="32" height="32"/>
  <object id="1107" x="96" y="512" width="32" height="32"/>
  <object id="1108" x="128" y="512" width="32" height="32"/>
  <object id="1109" x="160" y="512" width="32" height="32"/>
  <object id="1110" x="192" y="512" width="32" height="32"/>
  <object id="1111" x="224" y="512" width="32" height="32"/>
  <object id="1112" x="256" y="512" width="32" height="32"/>
  <object id="1113" x="0" y="544" width="32" height="32"/>
  <object id="1114" x="0" y="608" width="32" height="32"/>
  <object id="1115" x="32" y="608" width="32" height="32"/>
  <object id="1116" x="64" y="608" width="32" height="32"/>
  <object id="1117" x="96" y="608" width="32" height="32"/>
  <object id="1118" x="128" y="608" width="32" height="32"/>
  <object id="1119" x="160" y="608" width="32" height="32"/>
  <object id="1120" x="192" y="608" width="32" height="32"/>
  <object id="1121" x="224" y="608" width="32" height="32"/>
  <object id="1122" x="256" y="608" width="32" height="32"/>
  <object id="1123" x="288" y="608" width="32" height="32"/>
  <object id="1124" x="320" y="608" width="32" height="32"/>
  <object id="1128" x="448" y="608" width="32" height="32"/>
 </objectgroup>
 <objectgroup id="5" name="eventi">
  <object id="1" name="npc_albano_condominio_a_random_1" x="48" y="320">
   <properties>
    <property name="id" value="npc_albano_condominio_a_random_1"/>
    <property name="nota_origine" value="OBJ_EVENT_GFX_MEOWTH"/>
    <property name="type" value="npc"/>
   </properties>
   <point/>
  </object>
  <object id="2" name="npc_albano_condominio_a_random_2" x="176" y="448">
   <properties>
    <property name="id" value="npc_albano_condominio_a_random_2"/>
    <property name="nota_origine" value="OBJ_EVENT_GFX_CLEFAIRY"/>
    <property name="type" value="npc"/>
   </properties>
   <point/>
  </object>
  <object id="3" name="npc_albano_condominio_a_random_3" x="176" y="288">
   <properties>
    <property name="id" value="npc_albano_condominio_a_random_3"/>
    <property name="nota_origine" value="OBJ_EVENT_GFX_NIDORAN_F"/>
    <property name="type" value="npc"/>
   </properties>
   <point/>
  </object>
  <object id="4" name="npc_albano_condominio_a_random_4" x="80" y="320">
   <properties>
    <property name="id" value="npc_albano_condominio_a_random_4"/>
    <property name="nota_origine" value="OBJ_EVENT_GFX_OLD_WOMAN"/>
    <property name="type" value="npc"/>
   </properties>
   <point/>
  </object>
  <object id="7" name="uscita_3" x="374.75" y="617.5" width="51.25" height="23.75">
   <properties>
    <property name="destinazione" value="albano"/>
    <property name="spawn_id" value="da_albano_condominio_a"/>
    <property name="type" value="warp"/>
   </properties>
  </object>
  <object id="8" name="uscita_4" x="161" y="65" width="32" height="32">
   <properties>
    <property name="destinazione" value="albano_condominio_a_2f"/>
    <property name="spawn_id" value="da_1f_a_in"/>
    <property name="type" value="warp"/>
   </properties>
  </object>
  <object id="9" name="uscita_5" x="418" y="63.5" width="32" height="32">
   <properties>
    <property name="destinazione" value="albano_condominio_a_2f"/>
    <property name="spawn_id" value="da_1f_b_in"/>
    <property name="type" value="warp"/>
   </properties>
  </object>
  <object id="10" name="uscita_6_entrata_b" x="64" y="32" width="32" height="32">
   <properties>
    <property name="destinazione" value="albano"/>
    <property name="spawn_id" value="da_albano_condominio_a_entrata_b"/>
    <property name="type" value="warp"/>
   </properties>
  </object>
  <object id="11" name="spawn_da_1f_a_out" x="143" y="85.5">
   <properties>
    <property name="id" value="da_1f_a_out"/>
    <property name="type" value="spawn"/>
   </properties>
   <point/>
  </object>
  <object id="12" name="spawn_da_1f_b_out" x="397.5" y="85.5">
   <properties>
    <property name="id" value="da_1f_b_out"/>
    <property name="type" value="spawn"/>
   </properties>
   <point/>
  </object>
  <object id="13" name="spawn_da_citta" x="399" y="600">
   <properties>
    <property name="id" value="da_citta"/>
    <property name="type" value="spawn"/>
   </properties>
   <point/>
  </object>
 </objectgroup>
</map>
