{
 "compressionlevel": -1,
 "width": 15,
 "height": 20,
 "tilewidth": 32,
 "tileheight": 32,
 "infinite": false,
 "orientation": "orthogonal",
 "renderorder": "right-down",
 "type": "map",
 "version": "1.10",
 "tiledversion": "1.11.0",
 "nextlayerid": 6,
 "nextobjectid": 140,
 "tilesets": [
  {
   "firstgid": 1,
   "image": "../celadon_condominio_1f_tileset.png",
   "imagewidth": 512,
   "imageheight": 320,
   "columns": 16,
   "tilecount": 150,
   "tilewidth": 32,
   "tileheight": 32,
   "name": "celadon_condominio_1f_tileset",
   "margin": 0,
   "spacing": 0
  }
 ],
 "layers": [
  {
   "id": 1,
   "name": "ground",
   "type": "tilelayer",
   "width": 15,
   "height": 20,
   "data": [
    1,
    3,
    5,
    7,
    9,
    1,
    1,
    11,
    13,
    15,
    17,
    1,
    9,
    1,
    1,
    19,
    21,
    23,
    25,
    27,
    29,
    31,
    33,
    35,
    37,
    39,
    19,
    27,
    29,
    31,
    41,
    41,
    41,
    41,
    43,
    45,
    47,
    33,
    35,
    41,
    41,
    41,
    43,
    45,
    47,
    41,
    49,
    49,
    49,
    51,
    53,
    55,
    33,
    35,
    41,
    49,
    49,
    51,
    53,
    55,
    57,
    59,
    59,
    59,
    59,
    61,
    57,
    63,
    35,
    41,
    49,
    49,
    49,
    65,
    67,
    1,
    1,
    1,
    69,
    1,
    15,
    17,
    11,
    35,
    71,
    49,
    49,
    49,
    49,
    73,
    75,
    19,
    75,
    77,
    75,
    37,
    39,
    33,
    35,
    79,
    49,
    49,
    49,
    49,
    81,
    79,
    41,
    79,
    41,
    79,
    41,
    41,
    33,
    35,
    41,
    49,
    49,
    49,
    49,
    49,
    41,
    49,
    49,
    49,
    49,
    49,
    49,
    33,
    35,
    71,
    49,
    49,
    49,
    49,
    73,
    41,
    83,
    85,
    85,
    87,
    49,
    49,
    33,
    35,
    79,
    49,
    49,
    49,
    49,
    81,
    41,
    89,
    91,
    91,
    93,
    95,
    49,
    33,
    35,
    41,
    49,
    49,
    49,
    49,
    49,
    41,
    97,
    99,
    99,
    101,
    95,
    49,
    103,
    105,
    71,
    49,
    49,
    49,
    49,
    73,
    41,
    107,
    109,
    109,
    111,
    95,
    49,
    113,
    115,
    79,
    49,
    49,
    49,
    49,
    81,
    41,
    117,
    67,
    67,
    117,
    119,
    49,
    41,
    41,
    41,
    49,
    49,
    49,
    49,
    49,
    57,
    59,
    59,
    59,
    59,
    59,
    59,
    59,
    59,
    49,
    49,
    49,
    49,
    49,
    73,
    1,
    1,
    121,
    123,
    1,
    1,
    1,
    1,
    125,
    41,
    49,
    49,
    49,
    49,
    81,
    75,
    19,
    127,
    129,
    19,
    19,
    19,
    19,
    131,
    41,
    49,
    49,
    49,
    49,
    49,
    79,
    41,
    133,
    135,
    41,
    41,
    41,
    41,
    41,
    41,
    49,
    49,
    49,
    49,
    49,
    41,
    49,
    49,
    49,
    49,
    49,
    49,
    49,
    49,
    49,
    49,
    137,
    139,
    141,
    49,
    143,
    143,
    143,
    143,
    143,
    143,
    143,
    143,
    143,
    143,
    143,
    145,
    147,
    149,
    143
   ],
   "opacity": 1,
   "visible": true,
   "x": 0,
   "y": 0
  },
  {
   "id": 2,
   "name": "deco_sotto",
   "type": "tilelayer",
   "width": 15,
   "height": 20,
   "data": [
    2,
    0,
    0,
    0,
    0,
    2,
    2,
    0,
    0,
    0,
    0,
    2,
    0,
    2,
    2,
    20,
    0,
    0,
    0,
    0,
    0,
    0,
    0,
    0,
    0,
    0,
    20,
    0,
    0,
    0,
    42,
    42,
    42,
    42,
    44,
    0,
    0,
    0,
    0,
    42,
    42,
    42,
    44,
    0,
    0,
    42,
    50,
    50,
    50,
    0,
    0,
    0,
    0,
    0,
    42,
    50,
    50,
    0,
    0,
    0,
    58,
    60,
    60,
    60,
    60,
    62,
    58,
    64,
    0,
    42,
    50,
    50,
    50,
    66,
    68,
    2,
    2,
    2,
    0,
    2,
    0,
    0,
    0,
    0,
    72,
    50,
    50,
    50,
    50,
    74,
    76,
    20,
    76,
    0,
    76,
    0,
    0,
    0,
    0,
    0,
    50,
    50,
    50,
    50,
    0,
    0,
    42,
    0,
    42,
    0,
    42,
    42,
    0,
    0,
    42,
    50,
    50,
    50,
    50,
    50,
    42,
    50,
    50,
    50,
    50,
    50,
    50,
    0,
    0,
    72,
    50,
    50,
    50,
    50,
    74,
    42,
    84,
    86,
    86,
    88,
    50,
    50,
    0,
    0,
    0,
    50,
    50,
    50,
    50,
    0,
    42,
    0,
    0,
    0,
    0,
    96,
    50,
    0,
    0,
    42,
    50,
    50,
    50,
    50,
    50,
    42,
    0,
    0,
    0,
    0,
    96,
    50,
    0,
    0,
    72,
    50,
    50,
    50,
    50,
    74,
    42,
    0,
    0,
    0,
    0,
    96,
    50,
    0,
    0,
    0,
    50,
    50,
    50,
    50,
    0,
    42,
    0,
    68,
    68,
    0,
    120,
    50,
    42,
    42,
    42,
    50,
    50,
    50,
    50,
    50,
    58,
    60,
    60,
    60,
    60,
    60,
    60,
    60,
    60,
    50,
    50,
    50,
    50,
    50,
    74,
    2,
    2,
    0,
    0,
    2,
    2,
    2,
    2,
    126,
    42,
    50,
    50,
    50,
    50,
    0,
    76,
    20,
    0,
    0,
    20,
    20,
    20,
    20,
    132,
    42,
    50,
    50,
    50,
    50,
    50,
    0,
    42,
    0,
    0,
    42,
    42,
    42,
    42,
    42,
    42,
    50,
    50,
    50,
    50,
    50,
    42,
    50,
    50,
    50,
    50,
    50,
    50,
    50,
    50,
    50,
    50,
    0,
    0,
    0,
    50,
    144,
    144,
    144,
    144,
    144,
    144,
    144,
    144,
    144,
    144,
    144,
    0,
    0,
    0,
    144
   ],
   "opacity": 1,
   "visible": true,
   "x": 0,
   "y": 0
  },
  {
   "id": 3,
   "name": "edifici",
   "type": "tilelayer",
   "width": 15,
   "height": 20,
   "data": [
    0,
    4,
    6,
    8,
    10,
    0,
    0,
    12,
    14,
    16,
    18,
    0,
    10,
    0,
    0,
    0,
    22,
    24,
    26,
    28,
    30,
    32,
    34,
    36,
    38,
    40,
    0,
    28,
    30,
    32,
    0,
    0,
    0,
    0,
    0,
    46,
    48,
    34,
    36,
    0,
    0,
    0,
    0,
    46,
    48,
    0,
    0,
    0,
    0,
    52,
    54,
    56,
    34,
    36,
    0,
    0,
    0,
    52,
    54,
    56,
    0,
    0,
    0,
    0,
    0,
    0,
    0,
    0,
    36,
    0,
    0,
    0,
    0,
    0,
    0,
    0,
    0,
    0,
    70,
    0,
    16,
    18,
    12,
    36,
    0,
    0,
    0,
    0,
    0,
    0,
    0,
    0,
    0,
    78,
    0,
    38,
    40,
    34,
    36,
    80,
    0,
    0,
    0,
    0,
    82,
    80,
    0,
    80,
    0,
    80,
    0,
    0,
    34,
    36,
    0,
    0,
    0,
    0,
    0,
    0,
    0,
    0,
    0,
    0,
    0,
    0,
    0,
    34,
    36,
    0,
    0,
    0,
    0,
    0,
    0,
    0,
    0,
    0,
    0,
    0,
    0,
    0,
    34,
    36,
    80,
    0,
    0,
    0,
    0,
    82,
    0,
    90,
    92,
    92,
    94,
    0,
    0,
    34,
    36,
    0,
    0,
    0,
    0,
    0,
    0,
    0,
    98,
    100,
    100,
    102,
    0,
    0,
    104,
    106,
    0,
    0,
    0,
    0,
    0,
    0,
    0,
    108,
    110,
    110,
    112,
    0,
    0,
    114,
    116,
    80,
    0,
    0,
    0,
    0,
    82,
    0,
    118,
    0,
    0,
    118,
    0,
    0,
    0,
    0,
    0,
    0,
    0,
    0,
    0,
    0,
    0,
    0,
    0,
    0,
    0,
    0,
    0,
    0,
    0,
    0,
    0,
    0,
    0,
    0,
    0,
    0,
    0,
    122,
    124,
    0,
    0,
    0,
    0,
    0,
    0,
    0,
    0,
    0,
    0,
    82,
    0,
    0,
    128,
    130,
    0,
    0,
    0,
    0,
    0,
    0,
    0,
    0,
    0,
    0,
    0,
    80,
    0,
    134,
    136,
    0,
    0,
    0,
    0,
    0,
    0,
    0,
    0,
    0,
    0,
    0,
    0,
    0,
    0,
    0,
    0,
    0,
    0,
    0,
    0,
    0,
    0,
    138,
    140,
    142,
    0,
    0,
    0,
    0,
    0,
    0,
    0,
    0,
    0,
    0,
    0,
    0,
    146,
    148,
    150,
    0
   ],
   "opacity": 1,
   "visible": true,
   "x": 0,
   "y": 0
  },
  {
   "id": 4,
   "name": "collisioni",
   "type": "objectgroup",
   "opacity": 1,
   "visible": true,
   "x": 0,
   "y": 0,
   "objects": [
    {
     "id": 1000,
     "name": "",
     "type": "",
     "x": 0,
     "y": 0,
     "width": 32,
     "height": 32,
     "rotation": 0,
     "visible": true,
     "properties": []
    },
    {
     "id": 1001,
     "name": "",
     "type": "",
     "x": 32,
     "y": 0,
     "width": 32,
     "height": 32,
     "rotation": 0,
     "visible": true,
     "properties": []
    },
    {
     "id": 1002,
     "name": "",
     "type": "",
     "x": 64,
     "y": 0,
     "width": 32,
     "height": 32,
     "rotation": 0,
     "visible": true,
     "properties": []
    },
    {
     "id": 1003,
     "name": "",
     "type": "",
     "x": 96,
     "y": 0,
     "width": 32,
     "height": 32,
     "rotation": 0,
     "visible": true,
     "properties": []
    },
    {
     "id": 1004,
     "name": "",
     "type": "",
     "x": 128,
     "y": 0,
     "width": 32,
     "height": 32,
     "rotation": 0,
     "visible": true,
     "properties": []
    },
    {
     "id": 1005,
     "name": "",
     "type": "",
     "x": 160,
     "y": 0,
     "width": 32,
     "height": 32,
     "rotation": 0,
     "visible": true,
     "properties": []
    },
    {
     "id": 1006,
     "name": "",
     "type": "",
     "x": 192,
     "y": 0,
     "width": 32,
     "height": 32,
     "rotation": 0,
     "visible": true,
     "properties": []
    },
    {
     "id": 1007,
     "name": "",
     "type": "",
     "x": 224,
     "y": 0,
     "width": 32,
     "height": 32,
     "rotation": 0,
     "visible": true,
     "properties": []
    },
    {
     "id": 1008,
     "name": "",
     "type": "",
     "x": 256,
     "y": 0,
     "width": 32,
     "height": 32,
     "rotation": 0,
     "visible": true,
     "properties": []
    },
    {
     "id": 1009,
     "name": "",
     "type": "",
     "x": 288,
     "y": 0,
     "width": 32,
     "height": 32,
     "rotation": 0,
     "visible": true,
     "properties": []
    },
    {
     "id": 1010,
     "name": "",
     "type": "",
     "x": 320,
     "y": 0,
     "width": 32,
     "height": 32,
     "rotation": 0,
     "visible": true,
     "properties": []
    },
    {
     "id": 1011,
     "name": "",
     "type": "",
     "x": 352,
     "y": 0,
     "width": 32,
     "height": 32,
     "rotation": 0,
     "visible": true,
     "properties": []
    },
    {
     "id": 1012,
     "name": "",
     "type": "",
     "x": 384,
     "y": 0,
     "width": 32,
     "height": 32,
     "rotation": 0,
     "visible": true,
     "properties": []
    },
    {
     "id": 1013,
     "name": "",
     "type": "",
     "x": 416,
     "y": 0,
     "width": 32,
     "height": 32,
     "rotation": 0,
     "visible": true,
     "properties": []
    },
    {
     "id": 1014,
     "name": "",
     "type": "",
     "x": 448,
     "y": 0,
     "width": 32,
     "height": 32,
     "rotation": 0,
     "visible": true,
     "properties": []
    },
    {
     "id": 1015,
     "name": "",
     "type": "",
     "x": 0,
     "y": 32,
     "width": 32,
     "height": 32,
     "rotation": 0,
     "visible": true,
     "properties": []
    },
    {
     "id": 1016,
     "name": "",
     "type": "",
     "x": 32,
     "y": 32,
     "width": 32,
     "height": 32,
     "rotation": 0,
     "visible": true,
     "properties": []
    },
    {
     "id": 1017,
     "name": "",
     "type": "",
     "x": 96,
     "y": 32,
     "width": 32,
     "height": 32,
     "rotation": 0,
     "visible": true,
     "properties": []
    },
    {
     "id": 1018,
     "name": "",
     "type": "",
     "x": 128,
     "y": 32,
     "width": 32,
     "height": 32,
     "rotation": 0,
     "visible": true,
     "properties": []
    },
    {
     "id": 1019,
     "name": "",
     "type": "",
     "x": 160,
     "y": 32,
     "width": 32,
     "height": 32,
     "rotation": 0,
     "visible": true,
     "properties": []
    },
    {
     "id": 1020,
     "name": "",
     "type": "",
     "x": 192,
     "y": 32,
     "width": 32,
     "height": 32,
     "rotation": 0,
     "visible": true,
     "properties": []
    },
    {
     "id": 1021,
     "name": "",
     "type": "",
     "x": 224,
     "y": 32,
     "width": 32,
     "height": 32,
     "rotation": 0,
     "visible": true,
     "properties": []
    },
    {
     "id": 1022,
     "name": "",
     "type": "",
     "x": 256,
     "y": 32,
     "width": 32,
     "height": 32,
     "rotation": 0,
     "visible": true,
     "properties": []
    },
    {
     "id": 1023,
     "name": "",
     "type": "",
     "x": 288,
     "y": 32,
     "width": 32,
     "height": 32,
     "rotation": 0,
     "visible": true,
     "properties": []
    },
    {
     "id": 1024,
     "name": "",
     "type": "",
     "x": 320,
     "y": 32,
     "width": 32,
     "height": 32,
     "rotation": 0,
     "visible": true,
     "properties": []
    },
    {
     "id": 1025,
     "name": "",
     "type": "",
     "x": 352,
     "y": 32,
     "width": 32,
     "height": 32,
     "rotation": 0,
     "visible": true,
     "properties": []
    },
    {
     "id": 1026,
     "name": "",
     "type": "",
     "x": 384,
     "y": 32,
     "width": 32,
     "height": 32,
     "rotation": 0,
     "visible": true,
     "properties": []
    },
    {
     "id": 1027,
     "name": "",
     "type": "",
     "x": 416,
     "y": 32,
     "width": 32,
     "height": 32,
     "rotation": 0,
     "visible": true,
     "properties": []
    },
    {
     "id": 1028,
     "name": "",
     "type": "",
     "x": 448,
     "y": 32,
     "width": 32,
     "height": 32,
     "rotation": 0,
     "visible": true,
     "properties": []
    },
    {
     "id": 1029,
     "name": "",
     "type": "",
     "x": 160,
     "y": 64,
     "width": 32,
     "height": 32,
     "rotation": 0,
     "visible": true,
     "properties": []
    },
    {
     "id": 1030,
     "name": "",
     "type": "",
     "x": 192,
     "y": 64,
     "width": 32,
     "height": 32,
     "rotation": 0,
     "visible": true,
     "properties": []
    },
    {
     "id": 1031,
     "name": "",
     "type": "",
     "x": 224,
     "y": 64,
     "width": 32,
     "height": 32,
     "rotation": 0,
     "visible": true,
     "properties": []
    },
    {
     "id": 1032,
     "name": "",
     "type": "",
     "x": 256,
     "y": 64,
     "width": 32,
     "height": 32,
     "rotation": 0,
     "visible": true,
     "properties": []
    },
    {
     "id": 1033,
     "name": "",
     "type": "",
     "x": 416,
     "y": 64,
     "width": 32,
     "height": 32,
     "rotation": 0,
     "visible": true,
     "properties": []
    },
    {
     "id": 1034,
     "name": "",
     "type": "",
     "x": 448,
     "y": 64,
     "width": 32,
     "height": 32,
     "rotation": 0,
     "visible": true,
     "properties": []
    },
    {
     "id": 1035,
     "name": "",
     "type": "",
     "x": 160,
     "y": 96,
     "width": 32,
     "height": 32,
     "rotation": 0,
     "visible": true,
     "properties": []
    },
    {
     "id": 1036,
     "name": "",
     "type": "",
     "x": 192,
     "y": 96,
     "width": 32,
     "height": 32,
     "rotation": 0,
     "visible": true,
     "properties": []
    },
    {
     "id": 1037,
     "name": "",
     "type": "",
     "x": 224,
     "y": 96,
     "width": 32,
     "height": 32,
     "rotation": 0,
     "visible": true,
     "properties": []
    },
    {
     "id": 1038,
     "name": "",
     "type": "",
     "x": 256,
     "y": 96,
     "width": 32,
     "height": 32,
     "rotation": 0,
     "visible": true,
     "properties": []
    },
    {
     "id": 1039,
     "name": "",
     "type": "",
     "x": 416,
     "y": 96,
     "width": 32,
     "height": 32,
     "rotation": 0,
     "visible": true,
     "properties": []
    },
    {
     "id": 1040,
     "name": "",
     "type": "",
     "x": 448,
     "y": 96,
     "width": 32,
     "height": 32,
     "rotation": 0,
     "visible": true,
     "properties": []
    },
    {
     "id": 1041,
     "name": "",
     "type": "",
     "x": 224,
     "y": 128,
     "width": 32,
     "height": 32,
     "rotation": 0,
     "visible": true,
     "properties": []
    },
    {
     "id": 1042,
     "name": "",
     "type": "",
     "x": 256,
     "y": 128,
     "width": 32,
     "height": 32,
     "rotation": 0,
     "visible": true,
     "properties": []
    },
    {
     "id": 1043,
     "name": "",
     "type": "",
     "x": 0,
     "y": 160,
     "width": 32,
     "height": 32,
     "rotation": 0,
     "visible": true,
     "properties": []
    },
    {
     "id": 1044,
     "name": "",
     "type": "",
     "x": 32,
     "y": 160,
     "width": 32,
     "height": 32,
     "rotation": 0,
     "visible": true,
     "properties": []
    },
    {
     "id": 1045,
     "name": "",
     "type": "",
     "x": 64,
     "y": 160,
     "width": 32,
     "height": 32,
     "rotation": 0,
     "visible": true,
     "properties": []
    },
    {
     "id": 1046,
     "name": "",
     "type": "",
     "x": 96,
     "y": 160,
     "width": 32,
     "height": 32,
     "rotation": 0,
     "visible": true,
     "properties": []
    },
    {
     "id": 1047,
     "name": "",
     "type": "",
     "x": 128,
     "y": 160,
     "width": 32,
     "height": 32,
     "rotation": 0,
     "visible": true,
     "properties": []
    },
    {
     "id": 1048,
     "name": "",
     "type": "",
     "x": 160,
     "y": 160,
     "width": 32,
     "height": 32,
     "rotation": 0,
     "visible": true,
     "properties": []
    },
    {
     "id": 1049,
     "name": "",
     "type": "",
     "x": 192,
     "y": 160,
     "width": 32,
     "height": 32,
     "rotation": 0,
     "visible": true,
     "properties": []
    },
    {
     "id": 1050,
     "name": "",
     "type": "",
     "x": 224,
     "y": 160,
     "width": 32,
     "height": 32,
     "rotation": 0,
     "visible": true,
     "properties": []
    },
    {
     "id": 1051,
     "name": "",
     "type": "",
     "x": 256,
     "y": 160,
     "width": 32,
     "height": 32,
     "rotation": 0,
     "visible": true,
     "properties": []
    },
    {
     "id": 1052,
     "name": "",
     "type": "",
     "x": 0,
     "y": 192,
     "width": 32,
     "height": 32,
     "rotation": 0,
     "visible": true,
     "properties": []
    },
    {
     "id": 1053,
     "name": "",
     "type": "",
     "x": 32,
     "y": 192,
     "width": 32,
     "height": 32,
     "rotation": 0,
     "visible": true,
     "properties": []
    },
    {
     "id": 1054,
     "name": "",
     "type": "",
     "x": 64,
     "y": 192,
     "width": 32,
     "height": 32,
     "rotation": 0,
     "visible": true,
     "properties": []
    },
    {
     "id": 1055,
     "name": "",
     "type": "",
     "x": 96,
     "y": 192,
     "width": 32,
     "height": 32,
     "rotation": 0,
     "visible": true,
     "properties": []
    },
    {
     "id": 1056,
     "name": "",
     "type": "",
     "x": 128,
     "y": 192,
     "width": 32,
     "height": 32,
     "rotation": 0,
     "visible": true,
     "properties": []
    },
    {
     "id": 1057,
     "name": "",
     "type": "",
     "x": 160,
     "y": 192,
     "width": 32,
     "height": 32,
     "rotation": 0,
     "visible": true,
     "properties": []
    },
    {
     "id": 1058,
     "name": "",
     "type": "",
     "x": 192,
     "y": 192,
     "width": 32,
     "height": 32,
     "rotation": 0,
     "visible": true,
     "properties": []
    },
    {
     "id": 1059,
     "name": "",
     "type": "",
     "x": 224,
     "y": 192,
     "width": 32,
     "height": 32,
     "rotation": 0,
     "visible": true,
     "properties": []
    },
    {
     "id": 1060,
     "name": "",
     "type": "",
     "x": 256,
     "y": 192,
     "width": 32,
     "height": 32,
     "rotation": 0,
     "visible": true,
     "properties": []
    },
    {
     "id": 1061,
     "name": "",
     "type": "",
     "x": 288,
     "y": 192,
     "width": 32,
     "height": 32,
     "rotation": 0,
     "visible": true,
     "properties": []
    },
    {
     "id": 1062,
     "name": "",
     "type": "",
     "x": 448,
     "y": 192,
     "width": 32,
     "height": 32,
     "rotation": 0,
     "visible": true,
     "properties": []
    },
    {
     "id": 1063,
     "name": "",
     "type": "",
     "x": 0,
     "y": 224,
     "width": 32,
     "height": 32,
     "rotation": 0,
     "visible": true,
     "properties": []
    },
    {
     "id": 1064,
     "name": "",
     "type": "",
     "x": 64,
     "y": 224,
     "width": 32,
     "height": 32,
     "rotation": 0,
     "visible": true,
     "properties": []
    },
    {
     "id": 1065,
     "name": "",
     "type": "",
     "x": 128,
     "y": 224,
     "width": 32,
     "height": 32,
     "rotation": 0,
     "visible": true,
     "properties": []
    },
    {
     "id": 1066,
     "name": "",
     "type": "",
     "x": 224,
     "y": 224,
     "width": 32,
     "height": 32,
     "rotation": 0,
     "visible": true,
     "properties": []
    },
    {
     "id": 1067,
     "name": "",
     "type": "",
     "x": 256,
     "y": 224,
     "width": 32,
     "height": 32,
     "rotation": 0,
     "visible": true,
     "properties": []
    },
    {
     "id": 1068,
     "name": "",
     "type": "",
     "x": 224,
     "y": 256,
     "width": 32,
     "height": 32,
     "rotation": 0,
     "visible": true,
     "properties": []
    },
    {
     "id": 1069,
     "name": "",
     "type": "",
     "x": 256,
     "y": 256,
     "width": 32,
     "height": 32,
     "rotation": 0,
     "visible": true,
     "properties": []
    },
    {
     "id": 1070,
     "name": "",
     "type": "",
     "x": 224,
     "y": 288,
     "width": 32,
     "height": 32,
     "rotation": 0,
     "visible": true,
     "properties": []
    },
    {
     "id": 1071,
     "name": "",
     "type": "",
     "x": 256,
     "y": 288,
     "width": 32,
     "height": 32,
     "rotation": 0,
     "visible": true,
     "properties": []
    },
    {
     "id": 1072,
     "name": "",
     "type": "",
     "x": 288,
     "y": 288,
     "width": 32,
     "height": 32,
     "rotation": 0,
     "visible": true,
     "properties": []
    },
    {
     "id": 1073,
     "name": "",
     "type": "",
     "x": 448,
     "y": 288,
     "width": 32,
     "height": 32,
     "rotation": 0,
     "visible": true,
     "properties": []
    },
    {
     "id": 1074,
     "name": "",
     "type": "",
     "x": 32,
     "y": 320,
     "width": 32,
     "height": 32,
     "rotation": 0,
     "visible": true,
     "properties": []
    },
    {
     "id": 1075,
     "name": "",
     "type": "",
     "x": 64,
     "y": 320,
     "width": 32,
     "height": 32,
     "rotation": 0,
     "visible": true,
     "properties": []
    },
    {
     "id": 1076,
     "name": "",
     "type": "",
     "x": 96,
     "y": 320,
     "width": 32,
     "height": 32,
     "rotation": 0,
     "visible": true,
     "properties": []
    },
    {
     "id": 1077,
     "name": "",
     "type": "",
     "x": 128,
     "y": 320,
     "width": 32,
     "height": 32,
     "rotation": 0,
     "visible": true,
     "properties": []
    },
    {
     "id": 1078,
     "name": "",
     "type": "",
     "x": 224,
     "y": 320,
     "width": 32,
     "height": 32,
     "rotation": 0,
     "visible": true,
     "properties": []
    },
    {
     "id": 1079,
     "name": "",
     "type": "",
     "x": 256,
     "y": 320,
     "width": 32,
     "height": 32,
     "rotation": 0,
     "visible": true,
     "properties": []
    },
    {
     "id": 1080,
     "name": "",
     "type": "",
     "x": 32,
     "y": 352,
     "width": 32,
     "height": 32,
     "rotation": 0,
     "visible": true,
     "properties": []
    },
    {
     "id": 1081,
     "name": "",
     "type": "",
     "x": 64,
     "y": 352,
     "width": 32,
     "height": 32,
     "rotation": 0,
     "visible": true,
     "properties": []
    },
    {
     "id": 1082,
     "name": "",
     "type": "",
     "x": 96,
     "y": 352,
     "width": 32,
     "height": 32,
     "rotation": 0,
     "visible": true,
     "properties": []
    },
    {
     "id": 1083,
     "name": "",
     "type": "",
     "x": 128,
     "y": 352,
     "width": 32,
     "height": 32,
     "rotation": 0,
     "visible": true,
     "properties": []
    },
    {
     "id": 1084,
     "name": "",
     "type": "",
     "x": 224,
     "y": 352,
     "width": 32,
     "height": 32,
     "rotation": 0,
     "visible": true,
     "properties": []
    },
    {
     "id": 1085,
     "name": "",
     "type": "",
     "x": 256,
     "y": 352,
     "width": 32,
     "height": 32,
     "rotation": 0,
     "visible": true,
     "properties": []
    },
    {
     "id": 1086,
     "name": "",
     "type": "",
     "x": 32,
     "y": 384,
     "width": 32,
     "height": 32,
     "rotation": 0,
     "visible": true,
     "properties": []
    },
    {
     "id": 1087,
     "name": "",
     "type": "",
     "x": 64,
     "y": 384,
     "width": 32,
     "height": 32,
     "rotation": 0,
     "visible": true,
     "properties": []
    },
    {
     "id": 1088,
     "name": "",
     "type": "",
     "x": 96,
     "y": 384,
     "width": 32,
     "height": 32,
     "rotation": 0,
     "visible": true,
     "properties": []
    },
    {
     "id": 1089,
     "name": "",
     "type": "",
     "x": 128,
     "y": 384,
     "width": 32,
     "height": 32,
     "rotation": 0,
     "visible": true,
     "properties": []
    },
    {
     "id": 1090,
     "name": "",
     "type": "",
     "x": 224,
     "y": 384,
     "width": 32,
     "height": 32,
     "rotation": 0,
     "visible": true,
     "properties": []
    },
    {
     "id": 1091,
     "name": "",
     "type": "",
     "x": 256,
     "y": 384,
     "width": 32,
     "height": 32,
     "rotation": 0,
     "visible": true,
     "properties": []
    },
    {
     "id": 1092,
     "name": "",
     "type": "",
     "x": 288,
     "y": 384,
     "width": 32,
     "height": 32,
     "rotation": 0,
     "visible": true,
     "properties": []
    },
    {
     "id": 1093,
     "name": "",
     "type": "",
     "x": 448,
     "y": 384,
     "width": 32,
     "height": 32,
     "rotation": 0,
     "visible": true,
     "properties": []
    },
    {
     "id": 1094,
     "name": "",
     "type": "",
     "x": 0,
     "y": 480,
     "width": 32,
     "height": 32,
     "rotation": 0,
     "visible": true,
     "properties": []
    },
    {
     "id": 1095,
     "name": "",
     "type": "",
     "x": 32,
     "y": 480,
     "width": 32,
     "height": 32,
     "rotation": 0,
     "visible": true,
     "properties": []
    },
    {
     "id": 1096,
     "name": "",
     "type": "",
     "x": 64,
     "y": 480,
     "width": 32,
     "height": 32,
     "rotation": 0,
     "visible": true,
     "properties": []
    },
    {
     "id": 1097,
     "name": "",
     "type": "",
     "x": 96,
     "y": 480,
     "width": 32,
     "height": 32,
     "rotation": 0,
     "visible": true,
     "properties": []
    },
    {
     "id": 1098,
     "name": "",
     "type": "",
     "x": 128,
     "y": 480,
     "width": 32,
     "height": 32,
     "rotation": 0,
     "visible": true,
     "properties": []
    },
    {
     "id": 1099,
     "name": "",
     "type": "",
     "x": 160,
     "y": 480,
     "width": 32,
     "height": 32,
     "rotation": 0,
     "visible": true,
     "properties": []
    },
    {
     "id": 1100,
     "name": "",
     "type": "",
     "x": 192,
     "y": 480,
     "width": 32,
     "height": 32,
     "rotation": 0,
     "visible": true,
     "properties": []
    },
    {
     "id": 1101,
     "name": "",
     "type": "",
     "x": 224,
     "y": 480,
     "width": 32,
     "height": 32,
     "rotation": 0,
     "visible": true,
     "properties": []
    },
    {
     "id": 1102,
     "name": "",
     "type": "",
     "x": 256,
     "y": 480,
     "width": 32,
     "height": 32,
     "rotation": 0,
     "visible": true,
     "properties": []
    },
    {
     "id": 1103,
     "name": "",
     "type": "",
     "x": 448,
     "y": 480,
     "width": 32,
     "height": 32,
     "rotation": 0,
     "visible": true,
     "properties": []
    },
    {
     "id": 1104,
     "name": "",
     "type": "",
     "x": 0,
     "y": 512,
     "width": 32,
     "height": 32,
     "rotation": 0,
     "visible": true,
     "properties": []
    },
    {
     "id": 1105,
     "name": "",
     "type": "",
     "x": 32,
     "y": 512,
     "width": 32,
     "height": 32,
     "rotation": 0,
     "visible": true,
     "properties": []
    },
    {
     "id": 1106,
     "name": "",
     "type": "",
     "x": 64,
     "y": 512,
     "width": 32,
     "height": 32,
     "rotation": 0,
     "visible": true,
     "properties": []
    },
    {
     "id": 1107,
     "name": "",
     "type": "",
     "x": 96,
     "y": 512,
     "width": 32,
     "height": 32,
     "rotation": 0,
     "visible": true,
     "properties": []
    },
    {
     "id": 1108,
     "name": "",
     "type": "",
     "x": 128,
     "y": 512,
     "width": 32,
     "height": 32,
     "rotation": 0,
     "visible": true,
     "properties": []
    },
    {
     "id": 1109,
     "name": "",
     "type": "",
     "x": 160,
     "y": 512,
     "width": 32,
     "height": 32,
     "rotation": 0,
     "visible": true,
     "properties": []
    },
    {
     "id": 1110,
     "name": "",
     "type": "",
     "x": 192,
     "y": 512,
     "width": 32,
     "height": 32,
     "rotation": 0,
     "visible": true,
     "properties": []
    },
    {
     "id": 1111,
     "name": "",
     "type": "",
     "x": 224,
     "y": 512,
     "width": 32,
     "height": 32,
     "rotation": 0,
     "visible": true,
     "properties": []
    },
    {
     "id": 1112,
     "name": "",
     "type": "",
     "x": 256,
     "y": 512,
     "width": 32,
     "height": 32,
     "rotation": 0,
     "visible": true,
     "properties": []
    },
    {
     "id": 1113,
     "name": "",
     "type": "",
     "x": 0,
     "y": 544,
     "width": 32,
     "height": 32,
     "rotation": 0,
     "visible": true,
     "properties": []
    },
    {
     "id": 1114,
     "name": "",
     "type": "",
     "x": 0,
     "y": 608,
     "width": 32,
     "height": 32,
     "rotation": 0,
     "visible": true,
     "properties": []
    },
    {
     "id": 1115,
     "name": "",
     "type": "",
     "x": 32,
     "y": 608,
     "width": 32,
     "height": 32,
     "rotation": 0,
     "visible": true,
     "properties": []
    },
    {
     "id": 1116,
     "name": "",
     "type": "",
     "x": 64,
     "y": 608,
     "width": 32,
     "height": 32,
     "rotation": 0,
     "visible": true,
     "properties": []
    },
    {
     "id": 1117,
     "name": "",
     "type": "",
     "x": 96,
     "y": 608,
     "width": 32,
     "height": 32,
     "rotation": 0,
     "visible": true,
     "properties": []
    },
    {
     "id": 1118,
     "name": "",
     "type": "",
     "x": 128,
     "y": 608,
     "width": 32,
     "height": 32,
     "rotation": 0,
     "visible": true,
     "properties": []
    },
    {
     "id": 1119,
     "name": "",
     "type": "",
     "x": 160,
     "y": 608,
     "width": 32,
     "height": 32,
     "rotation": 0,
     "visible": true,
     "properties": []
    },
    {
     "id": 1120,
     "name": "",
     "type": "",
     "x": 192,
     "y": 608,
     "width": 32,
     "height": 32,
     "rotation": 0,
     "visible": true,
     "properties": []
    },
    {
     "id": 1121,
     "name": "",
     "type": "",
     "x": 224,
     "y": 608,
     "width": 32,
     "height": 32,
     "rotation": 0,
     "visible": true,
     "properties": []
    },
    {
     "id": 1122,
     "name": "",
     "type": "",
     "x": 256,
     "y": 608,
     "width": 32,
     "height": 32,
     "rotation": 0,
     "visible": true,
     "properties": []
    },
    {
     "id": 1123,
     "name": "",
     "type": "",
     "x": 288,
     "y": 608,
     "width": 32,
     "height": 32,
     "rotation": 0,
     "visible": true,
     "properties": []
    },
    {
     "id": 1124,
     "name": "",
     "type": "",
     "x": 320,
     "y": 608,
     "width": 32,
     "height": 32,
     "rotation": 0,
     "visible": true,
     "properties": []
    },
    {
     "id": 1125,
     "name": "",
     "type": "",
     "x": 352,
     "y": 608,
     "width": 32,
     "height": 32,
     "rotation": 0,
     "visible": true,
     "properties": []
    },
    {
     "id": 1126,
     "name": "",
     "type": "",
     "x": 384,
     "y": 608,
     "width": 32,
     "height": 32,
     "rotation": 0,
     "visible": true,
     "properties": []
    },
    {
     "id": 1127,
     "name": "",
     "type": "",
     "x": 416,
     "y": 608,
     "width": 32,
     "height": 32,
     "rotation": 0,
     "visible": true,
     "properties": []
    },
    {
     "id": 1128,
     "name": "",
     "type": "",
     "x": 448,
     "y": 608,
     "width": 32,
     "height": 32,
     "rotation": 0,
     "visible": true,
     "properties": []
    }
   ]
  },
  {
   "id": 5,
   "name": "eventi",
   "type": "objectgroup",
   "opacity": 1,
   "visible": true,
   "x": 0,
   "y": 0,
   "objects": [
    {
     "id": 1,
     "name": "npc_albano_condominio_b_random_13",
     "type": "",
     "point": true,
     "x": 48,
     "y": 320,
     "width": 0,
     "height": 0,
     "rotation": 0,
     "visible": true,
     "properties": [
      {
       "name": "type",
       "type": "string",
       "value": "npc"
      },
      {
       "name": "id",
       "type": "string",
       "value": "npc_albano_condominio_b_random_13"
      },
      {
       "name": "nota_origine",
       "type": "string",
       "value": "OBJ_EVENT_GFX_MEOWTH"
      }
     ]
    },
    {
     "id": 2,
     "name": "npc_albano_condominio_b_random_14",
     "type": "",
     "point": true,
     "x": 176,
     "y": 448,
     "width": 0,
     "height": 0,
     "rotation": 0,
     "visible": true,
     "properties": [
      {
       "name": "type",
       "type": "string",
       "value": "npc"
      },
      {
       "name": "id",
       "type": "string",
       "value": "npc_albano_condominio_b_random_14"
      },
      {
       "name": "nota_origine",
       "type": "string",
       "value": "OBJ_EVENT_GFX_CLEFAIRY"
      }
     ]
    },
    {
     "id": 3,
     "name": "npc_albano_condominio_b_random_15",
     "type": "",
     "point": true,
     "x": 176,
     "y": 288,
     "width": 0,
     "height": 0,
     "rotation": 0,
     "visible": true,
     "properties": [
      {
       "name": "type",
       "type": "string",
       "value": "npc"
      },
      {
       "name": "id",
       "type": "string",
       "value": "npc_albano_condominio_b_random_15"
      },
      {
       "name": "nota_origine",
       "type": "string",
       "value": "OBJ_EVENT_GFX_NIDORAN_F"
      }
     ]
    },
    {
     "id": 4,
     "name": "npc_albano_condominio_b_random_16",
     "type": "",
     "point": true,
     "x": 80,
     "y": 320,
     "width": 0,
     "height": 0,
     "rotation": 0,
     "visible": true,
     "properties": [
      {
       "name": "type",
       "type": "string",
       "value": "npc"
      },
      {
       "name": "id",
       "type": "string",
       "value": "npc_albano_condominio_b_random_16"
      },
      {
       "name": "nota_origine",
       "type": "string",
       "value": "OBJ_EVENT_GFX_OLD_WOMAN"
      }
     ]
    },
    {
     "id": 5,
     "name": "uscita_1",
     "type": "",
     "x": 352,
     "y": 608,
     "width": 32,
     "height": 32,
     "rotation": 0,
     "visible": true,
     "properties": [
      {
       "name": "type",
       "type": "string",
       "value": "warp"
      },
      {
       "name": "destinazione",
       "type": "string",
       "value": "albano"
      },
      {
       "name": "spawn_id",
       "type": "string",
       "value": "da_albano_condominio_b"
      }
     ]
    },
    {
     "id": 6,
     "name": "uscita_2",
     "type": "",
     "x": 384,
     "y": 576,
     "width": 32,
     "height": 32,
     "rotation": 0,
     "visible": true,
     "properties": [
      {
       "name": "type",
       "type": "string",
       "value": "warp"
      },
      {
       "name": "destinazione",
       "type": "string",
       "value": "albano"
      },
      {
       "name": "spawn_id",
       "type": "string",
       "value": "da_albano_condominio_b"
      }
     ]
    },
    {
     "id": 7,
     "name": "uscita_3",
     "type": "",
     "x": 416,
     "y": 608,
     "width": 32,
     "height": 32,
     "rotation": 0,
     "visible": true,
     "properties": [
      {
       "name": "type",
       "type": "string",
       "value": "warp"
      },
      {
       "name": "destinazione",
       "type": "string",
       "value": "albano"
      },
      {
       "name": "spawn_id",
       "type": "string",
       "value": "da_albano_condominio_b"
      }
     ]
    },
    {
     "id": 8,
     "name": "uscita_4",
     "type": "",
     "x": 128,
     "y": 64,
     "width": 32,
     "height": 32,
     "rotation": 0,
     "visible": true,
     "properties": [
      {
       "name": "type",
       "type": "string",
       "value": "warp"
      },
      {
       "name": "destinazione",
       "type": "string",
       "value": "albano_condominio_b_2f"
      },
      {
       "name": "spawn_id",
       "type": "string",
       "value": "da_1f_a_in"
      }
     ]
    },
    {
     "id": 9,
     "name": "uscita_5",
     "type": "",
     "x": 384,
     "y": 64,
     "width": 32,
     "height": 32,
     "rotation": 0,
     "visible": true,
     "properties": [
      {
       "name": "type",
       "type": "string",
       "value": "warp"
      },
      {
       "name": "destinazione",
       "type": "string",
       "value": "albano_condominio_b_2f"
      },
      {
       "name": "spawn_id",
       "type": "string",
       "value": "da_1f_b_in"
      }
     ]
    },
    {
     "id": 10,
     "name": "uscita_6",
     "type": "",
     "x": 64,
     "y": 32,
     "width": 32,
     "height": 32,
     "rotation": 0,
     "visible": true,
     "properties": [
      {
       "name": "type",
       "type": "string",
       "value": "warp"
      },
      {
       "name": "destinazione",
       "type": "string",
       "value": "albano"
      },
      {
       "name": "spawn_id",
       "type": "string",
       "value": "da_albano_condominio_b"
      }
     ]
    },
    {
     "id": 11,
     "name": "spawn_da_1f_a_out",
     "type": "",
     "x": 128,
     "y": 64,
     "width": 0,
     "height": 0,
     "rotation": 0,
     "visible": true,
     "point": true,
     "properties": [
      {
       "name": "type",
       "type": "string",
       "value": "spawn"
      },
      {
       "name": "id",
       "type": "string",
       "value": "da_1f_a_out"
      }
     ]
    },
    {
     "id": 12,
     "name": "spawn_da_1f_b_out",
     "type": "",
     "x": 384,
     "y": 64,
     "width": 0,
     "height": 0,
     "rotation": 0,
     "visible": true,
     "point": true,
     "properties": [
      {
       "name": "type",
       "type": "string",
       "value": "spawn"
      },
      {
       "name": "id",
       "type": "string",
       "value": "da_1f_b_out"
      }
     ]
    },
    {
     "id": 13,
     "name": "spawn_da_citta",
     "type": "",
     "point": true,
     "x": 384,
     "y": 608,
     "width": 0,
     "height": 0,
     "rotation": 0,
     "visible": true,
     "properties": [
      {
       "name": "type",
       "type": "string",
       "value": "spawn"
      },
      {
       "name": "id",
       "type": "string",
       "value": "da_citta"
      }
     ]
    }
   ]
  }
 ]
}