{
 "compressionlevel": -1,
 "width": 15,
 "height": 20,
 "tilewidth": 32,
 "tileheight": 32,
 "infinite": false,
 "orientation": "orthogonal",
 "renderorder": "right-down",
 "type": "map",
 "version": "1.10",
 "tiledversion": "1.11.0",
 "nextlayerid": 6,
 "nextobjectid": 144,
 "tilesets": [
  {
   "firstgid": 1,
   "image": "../celadon_condominio_2f_tileset.png",
   "imagewidth": 512,
   "imageheight": 320,
   "columns": 16,
   "tilecount": 150,
   "tilewidth": 32,
   "tileheight": 32,
   "name": "celadon_condominio_2f_tileset",
   "margin": 0,
   "spacing": 0
  }
 ],
 "layers": [
  {
   "id": 1,
   "name": "ground",
   "type": "tilelayer",
   "width": 15,
   "height": 20,
   "data": [
    1,
    1,
    3,
    1,
    3,
    1,
    1,
    5,
    7,
    1,
    1,
    3,
    1,
    3,
    1,
    9,
    11,
    13,
    15,
    13,
    15,
    17,
    19,
    21,
    9,
    11,
    13,
    15,
    13,
    17,
    23,
    25,
    27,
    29,
    31,
    33,
    35,
    19,
    21,
    23,
    25,
    27,
    31,
    33,
    35,
    37,
    39,
    41,
    43,
    45,
    47,
    49,
    19,
    21,
    37,
    39,
    41,
    45,
    47,
    49,
    51,
    51,
    53,
    55,
    55,
    57,
    51,
    59,
    21,
    29,
    61,
    63,
    43,
    65,
    61,
    1,
    1,
    1,
    1,
    1,
    67,
    69,
    5,
    21,
    71,
    43,
    43,
    43,
    43,
    73,
    75,
    77,
    79,
    79,
    81,
    83,
    85,
    19,
    21,
    87,
    43,
    43,
    43,
    43,
    89,
    87,
    91,
    93,
    93,
    95,
    97,
    99,
    19,
    21,
    29,
    43,
    43,
    43,
    43,
    43,
    29,
    101,
    103,
    103,
    105,
    43,
    43,
    19,
    21,
    71,
    43,
    43,
    43,
    43,
    73,
    29,
    107,
    109,
    111,
    113,
    115,
    117,
    19,
    21,
    87,
    43,
    43,
    43,
    43,
    89,
    29,
    119,
    109,
    109,
    121,
    115,
    123,
    19,
    21,
    29,
    43,
    43,
    43,
    43,
    43,
    29,
    125,
    127,
    127,
    129,
    115,
    131,
    133,
    135,
    71,
    43,
    43,
    43,
    43,
    73,
    29,
    61,
    61,
    61,
    61,
    63,
    43,
    137,
    139,
    87,
    43,
    43,
    43,
    43,
    89,
    29,
    43,
    43,
    43,
    43,
    43,
    43,
    29,
    29,
    29,
    43,
    43,
    43,
    43,
    43,
    51,
    55,
    55,
    55,
    55,
    55,
    55,
    55,
    55,
    43,
    43,
    43,
    43,
    43,
    73,
    1,
    1,
    141,
    143,
    1,
    1,
    1,
    1,
    1,
    29,
    43,
    43,
    43,
    43,
    89,
    75,
    15,
    145,
    147,
    77,
    79,
    81,
    15,
    15,
    29,
    43,
    43,
    43,
    43,
    43,
    87,
    29,
    29,
    29,
    91,
    93,
    95,
    29,
    29,
    29,
    43,
    43,
    43,
    43,
    73,
    29,
    43,
    43,
    43,
    43,
    43,
    43,
    43,
    43,
    43,
    43,
    43,
    43,
    43,
    89,
    149,
    149,
    149,
    149,
    149,
    149,
    149,
    149,
    149,
    149,
    149,
    149,
    149,
    149,
    149
   ],
   "opacity": 1,
   "visible": true,
   "x": 0,
   "y": 0
  },
  {
   "id": 2,
   "name": "deco_sotto",
   "type": "tilelayer",
   "width": 15,
   "height": 20,
   "data": [
    2,
    2,
    0,
    2,
    0,
    2,
    2,
    0,
    0,
    2,
    2,
    0,
    2,
    0,
    2,
    0,
    0,
    0,
    16,
    0,
    16,
    0,
    0,
    0,
    0,
    0,
    0,
    16,
    0,
    0,
    0,
    0,
    28,
    30,
    32,
    0,
    0,
    0,
    0,
    0,
    0,
    28,
    32,
    0,
    0,
    0,
    0,
    0,
    44,
    0,
    0,
    0,
    0,
    0,
    0,
    0,
    0,
    0,
    0,
    0,
    52,
    52,
    54,
    56,
    56,
    58,
    52,
    60,
    0,
    30,
    62,
    64,
    44,
    66,
    62,
    2,
    2,
    2,
    2,
    2,
    0,
    0,
    0,
    0,
    72,
    44,
    44,
    44,
    44,
    74,
    76,
    0,
    0,
    0,
    0,
    0,
    0,
    0,
    0,
    0,
    44,
    44,
    44,
    44,
    0,
    0,
    0,
    0,
    0,
    0,
    0,
    0,
    0,
    0,
    30,
    44,
    44,
    44,
    44,
    44,
    30,
    102,
    104,
    104,
    106,
    44,
    44,
    0,
    0,
    72,
    44,
    44,
    44,
    44,
    74,
    30,
    0,
    0,
    0,
    0,
    116,
    0,
    0,
    0,
    0,
    44,
    44,
    44,
    44,
    0,
    30,
    0,
    0,
    0,
    0,
    116,
    124,
    0,
    0,
    30,
    44,
    44,
    44,
    44,
    44,
    30,
    0,
    0,
    0,
    0,
    116,
    0,
    0,
    0,
    72,
    44,
    44,
    44,
    44,
    74,
    30,
    62,
    62,
    62,
    62,
    64,
    44,
    0,
    0,
    0,
    44,
    44,
    44,
    44,
    0,
    30,
    44,
    44,
    44,
    44,
    44,
    44,
    30,
    30,
    30,
    44,
    44,
    44,
    44,
    44,
    52,
    56,
    56,
    56,
    56,
    56,
    56,
    56,
    56,
    44,
    44,
    44,
    44,
    44,
    74,
    2,
    2,
    0,
    0,
    2,
    2,
    2,
    2,
    2,
    30,
    44,
    44,
    44,
    44,
    0,
    76,
    16,
    0,
    0,
    0,
    0,
    0,
    16,
    16,
    30,
    44,
    44,
    44,
    44,
    44,
    0,
    30,
    30,
    30,
    0,
    0,
    0,
    30,
    30,
    30,
    44,
    44,
    44,
    44,
    74,
    30,
    44,
    44,
    44,
    44,
    44,
    44,
    44,
    44,
    44,
    44,
    44,
    44,
    44,
    0,
    150,
    150,
    150,
    150,
    150,
    150,
    150,
    150,
    150,
    150,
    150,
    150,
    150,
    150,
    150
   ],
   "opacity": 1,
   "visible": true,
   "x": 0,
   "y": 0
  },
  {
   "id": 3,
   "name": "edifici",
   "type": "tilelayer",
   "width": 15,
   "height": 20,
   "data": [
    0,
    0,
    4,
    0,
    4,
    0,
    0,
    6,
    8,
    0,
    0,
    4,
    0,
    4,
    0,
    10,
    12,
    14,
    0,
    14,
    0,
    18,
    20,
    22,
    10,
    12,
    14,
    0,
    14,
    18,
    24,
    26,
    0,
    0,
    0,
    34,
    36,
    20,
    22,
    24,
    26,
    0,
    0,
    34,
    36,
    38,
    40,
    42,
    0,
    46,
    48,
    50,
    20,
    22,
    38,
    40,
    42,
    46,
    48,
    50,
    0,
    0,
    0,
    0,
    0,
    0,
    0,
    0,
    22,
    0,
    0,
    0,
    0,
    0,
    0,
    0,
    0,
    0,
    0,
    0,
    68,
    70,
    6,
    22,
    0,
    0,
    0,
    0,
    0,
    0,
    0,
    78,
    80,
    80,
    82,
    84,
    86,
    20,
    22,
    88,
    0,
    0,
    0,
    0,
    90,
    88,
    92,
    94,
    94,
    96,
    98,
    100,
    20,
    22,
    0,
    0,
    0,
    0,
    0,
    0,
    0,
    0,
    0,
    0,
    0,
    0,
    0,
    20,
    22,
    0,
    0,
    0,
    0,
    0,
    0,
    0,
    108,
    110,
    112,
    114,
    0,
    118,
    20,
    22,
    88,
    0,
    0,
    0,
    0,
    90,
    0,
    120,
    110,
    110,
    122,
    0,
    0,
    20,
    22,
    0,
    0,
    0,
    0,
    0,
    0,
    0,
    126,
    128,
    128,
    130,
    0,
    132,
    134,
    136,
    0,
    0,
    0,
    0,
    0,
    0,
    0,
    0,
    0,
    0,
    0,
    0,
    0,
    138,
    140,
    88,
    0,
    0,
    0,
    0,
    90,
    0,
    0,
    0,
    0,
    0,
    0,
    0,
    0,
    0,
    0,
    0,
    0,
    0,
    0,
    0,
    0,
    0,
    0,
    0,
    0,
    0,
    0,
    0,
    0,
    0,
    0,
    0,
    0,
    0,
    0,
    0,
    0,
    142,
    144,
    0,
    0,
    0,
    0,
    0,
    0,
    0,
    0,
    0,
    0,
    90,
    0,
    0,
    146,
    148,
    78,
    80,
    82,
    0,
    0,
    0,
    0,
    0,
    0,
    0,
    0,
    88,
    0,
    0,
    0,
    92,
    94,
    96,
    0,
    0,
    0,
    0,
    0,
    0,
    0,
    0,
    0,
    0,
    0,
    0,
    0,
    0,
    0,
    0,
    0,
    0,
    0,
    0,
    0,
    0,
    90,
    0,
    0,
    0,
    0,
    0,
    0,
    0,
    0,
    0,
    0,
    0,
    0,
    0,
    0,
    0
   ],
   "opacity": 1,
   "visible": true,
   "x": 0,
   "y": 0
  },
  {
   "id": 4,
   "name": "collisioni",
   "type": "objectgroup",
   "opacity": 1,
   "visible": true,
   "x": 0,
   "y": 0,
   "objects": [
    {
     "id": 1000,
     "name": "",
     "type": "",
     "x": 0,
     "y": 0,
     "width": 32,
     "height": 32,
     "rotation": 0,
     "visible": true,
     "properties": []
    },
    {
     "id": 1001,
     "name": "",
     "type": "",
     "x": 32,
     "y": 0,
     "width": 32,
     "height": 32,
     "rotation": 0,
     "visible": true,
     "properties": []
    },
    {
     "id": 1002,
     "name": "",
     "type": "",
     "x": 64,
     "y": 0,
     "width": 32,
     "height": 32,
     "rotation": 0,
     "visible": true,
     "properties": []
    },
    {
     "id": 1003,
     "name": "",
     "type": "",
     "x": 96,
     "y": 0,
     "width": 32,
     "height": 32,
     "rotation": 0,
     "visible": true,
     "properties": []
    },
    {
     "id": 1004,
     "name": "",
     "type": "",
     "x": 128,
     "y": 0,
     "width": 32,
     "height": 32,
     "rotation": 0,
     "visible": true,
     "properties": []
    },
    {
     "id": 1005,
     "name": "",
     "type": "",
     "x": 160,
     "y": 0,
     "width": 32,
     "height": 32,
     "rotation": 0,
     "visible": true,
     "properties": []
    },
    {
     "id": 1006,
     "name": "",
     "type": "",
     "x": 192,
     "y": 0,
     "width": 32,
     "height": 32,
     "rotation": 0,
     "visible": true,
     "properties": []
    },
    {
     "id": 1007,
     "name": "",
     "type": "",
     "x": 224,
     "y": 0,
     "width": 32,
     "height": 32,
     "rotation": 0,
     "visible": true,
     "properties": []
    },
    {
     "id": 1008,
     "name": "",
     "type": "",
     "x": 256,
     "y": 0,
     "width": 32,
     "height": 32,
     "rotation": 0,
     "visible": true,
     "properties": []
    },
    {
     "id": 1009,
     "name": "",
     "type": "",
     "x": 288,
     "y": 0,
     "width": 32,
     "height": 32,
     "rotation": 0,
     "visible": true,
     "properties": []
    },
    {
     "id": 1010,
     "name": "",
     "type": "",
     "x": 320,
     "y": 0,
     "width": 32,
     "height": 32,
     "rotation": 0,
     "visible": true,
     "properties": []
    },
    {
     "id": 1011,
     "name": "",
     "type": "",
     "x": 352,
     "y": 0,
     "width": 32,
     "height": 32,
     "rotation": 0,
     "visible": true,
     "properties": []
    },
    {
     "id": 1012,
     "name": "",
     "type": "",
     "x": 384,
     "y": 0,
     "width": 32,
     "height": 32,
     "rotation": 0,
     "visible": true,
     "properties": []
    },
    {
     "id": 1013,
     "name": "",
     "type": "",
     "x": 416,
     "y": 0,
     "width": 32,
     "height": 32,
     "rotation": 0,
     "visible": true,
     "properties": []
    },
    {
     "id": 1014,
     "name": "",
     "type": "",
     "x": 448,
     "y": 0,
     "width": 32,
     "height": 32,
     "rotation": 0,
     "visible": true,
     "properties": []
    },
    {
     "id": 1015,
     "name": "",
     "type": "",
     "x": 0,
     "y": 32,
     "width": 32,
     "height": 32,
     "rotation": 0,
     "visible": true,
     "properties": []
    },
    {
     "id": 1016,
     "name": "",
     "type": "",
     "x": 32,
     "y": 32,
     "width": 32,
     "height": 32,
     "rotation": 0,
     "visible": true,
     "properties": []
    },
    {
     "id": 1017,
     "name": "",
     "type": "",
     "x": 64,
     "y": 32,
     "width": 32,
     "height": 32,
     "rotation": 0,
     "visible": true,
     "properties": []
    },
    {
     "id": 1018,
     "name": "",
     "type": "",
     "x": 96,
     "y": 32,
     "width": 32,
     "height": 32,
     "rotation": 0,
     "visible": true,
     "properties": []
    },
    {
     "id": 1019,
     "name": "",
     "type": "",
     "x": 128,
     "y": 32,
     "width": 32,
     "height": 32,
     "rotation": 0,
     "visible": true,
     "properties": []
    },
    {
     "id": 1020,
     "name": "",
     "type": "",
     "x": 160,
     "y": 32,
     "width": 32,
     "height": 32,
     "rotation": 0,
     "visible": true,
     "properties": []
    },
    {
     "id": 1021,
     "name": "",
     "type": "",
     "x": 192,
     "y": 32,
     "width": 32,
     "height": 32,
     "rotation": 0,
     "visible": true,
     "properties": []
    },
    {
     "id": 1022,
     "name": "",
     "type": "",
     "x": 224,
     "y": 32,
     "width": 32,
     "height": 32,
     "rotation": 0,
     "visible": true,
     "properties": []
    },
    {
     "id": 1023,
     "name": "",
     "type": "",
     "x": 256,
     "y": 32,
     "width": 32,
     "height": 32,
     "rotation": 0,
     "visible": true,
     "properties": []
    },
    {
     "id": 1024,
     "name": "",
     "type": "",
     "x": 288,
     "y": 32,
     "width": 32,
     "height": 32,
     "rotation": 0,
     "visible": true,
     "properties": []
    },
    {
     "id": 1025,
     "name": "",
     "type": "",
     "x": 320,
     "y": 32,
     "width": 32,
     "height": 32,
     "rotation": 0,
     "visible": true,
     "properties": []
    },
    {
     "id": 1026,
     "name": "",
     "type": "",
     "x": 352,
     "y": 32,
     "width": 32,
     "height": 32,
     "rotation": 0,
     "visible": true,
     "properties": []
    },
    {
     "id": 1027,
     "name": "",
     "type": "",
     "x": 384,
     "y": 32,
     "width": 32,
     "height": 32,
     "rotation": 0,
     "visible": true,
     "properties": []
    },
    {
     "id": 1028,
     "name": "",
     "type": "",
     "x": 416,
     "y": 32,
     "width": 32,
     "height": 32,
     "rotation": 0,
     "visible": true,
     "properties": []
    },
    {
     "id": 1029,
     "name": "",
     "type": "",
     "x": 448,
     "y": 32,
     "width": 32,
     "height": 32,
     "rotation": 0,
     "visible": true,
     "properties": []
    },
    {
     "id": 1030,
     "name": "",
     "type": "",
     "x": 0,
     "y": 64,
     "width": 32,
     "height": 32,
     "rotation": 0,
     "visible": true,
     "properties": []
    },
    {
     "id": 1031,
     "name": "",
     "type": "",
     "x": 32,
     "y": 64,
     "width": 32,
     "height": 32,
     "rotation": 0,
     "visible": true,
     "properties": []
    },
    {
     "id": 1032,
     "name": "",
     "type": "",
     "x": 160,
     "y": 64,
     "width": 32,
     "height": 32,
     "rotation": 0,
     "visible": true,
     "properties": []
    },
    {
     "id": 1033,
     "name": "",
     "type": "",
     "x": 192,
     "y": 64,
     "width": 32,
     "height": 32,
     "rotation": 0,
     "visible": true,
     "properties": []
    },
    {
     "id": 1034,
     "name": "",
     "type": "",
     "x": 224,
     "y": 64,
     "width": 32,
     "height": 32,
     "rotation": 0,
     "visible": true,
     "properties": []
    },
    {
     "id": 1035,
     "name": "",
     "type": "",
     "x": 256,
     "y": 64,
     "width": 32,
     "height": 32,
     "rotation": 0,
     "visible": true,
     "properties": []
    },
    {
     "id": 1036,
     "name": "",
     "type": "",
     "x": 288,
     "y": 64,
     "width": 32,
     "height": 32,
     "rotation": 0,
     "visible": true,
     "properties": []
    },
    {
     "id": 1037,
     "name": "",
     "type": "",
     "x": 320,
     "y": 64,
     "width": 32,
     "height": 32,
     "rotation": 0,
     "visible": true,
     "properties": []
    },
    {
     "id": 1038,
     "name": "",
     "type": "",
     "x": 416,
     "y": 64,
     "width": 32,
     "height": 32,
     "rotation": 0,
     "visible": true,
     "properties": []
    },
    {
     "id": 1039,
     "name": "",
     "type": "",
     "x": 448,
     "y": 64,
     "width": 32,
     "height": 32,
     "rotation": 0,
     "visible": true,
     "properties": []
    },
    {
     "id": 1040,
     "name": "",
     "type": "",
     "x": 0,
     "y": 96,
     "width": 32,
     "height": 32,
     "rotation": 0,
     "visible": true,
     "properties": []
    },
    {
     "id": 1041,
     "name": "",
     "type": "",
     "x": 32,
     "y": 96,
     "width": 32,
     "height": 32,
     "rotation": 0,
     "visible": true,
     "properties": []
    },
    {
     "id": 1042,
     "name": "",
     "type": "",
     "x": 160,
     "y": 96,
     "width": 32,
     "height": 32,
     "rotation": 0,
     "visible": true,
     "properties": []
    },
    {
     "id": 1043,
     "name": "",
     "type": "",
     "x": 192,
     "y": 96,
     "width": 32,
     "height": 32,
     "rotation": 0,
     "visible": true,
     "properties": []
    },
    {
     "id": 1044,
     "name": "",
     "type": "",
     "x": 224,
     "y": 96,
     "width": 32,
     "height": 32,
     "rotation": 0,
     "visible": true,
     "properties": []
    },
    {
     "id": 1045,
     "name": "",
     "type": "",
     "x": 256,
     "y": 96,
     "width": 32,
     "height": 32,
     "rotation": 0,
     "visible": true,
     "properties": []
    },
    {
     "id": 1046,
     "name": "",
     "type": "",
     "x": 288,
     "y": 96,
     "width": 32,
     "height": 32,
     "rotation": 0,
     "visible": true,
     "properties": []
    },
    {
     "id": 1047,
     "name": "",
     "type": "",
     "x": 320,
     "y": 96,
     "width": 32,
     "height": 32,
     "rotation": 0,
     "visible": true,
     "properties": []
    },
    {
     "id": 1048,
     "name": "",
     "type": "",
     "x": 416,
     "y": 96,
     "width": 32,
     "height": 32,
     "rotation": 0,
     "visible": true,
     "properties": []
    },
    {
     "id": 1049,
     "name": "",
     "type": "",
     "x": 448,
     "y": 96,
     "width": 32,
     "height": 32,
     "rotation": 0,
     "visible": true,
     "properties": []
    },
    {
     "id": 1050,
     "name": "",
     "type": "",
     "x": 224,
     "y": 128,
     "width": 32,
     "height": 32,
     "rotation": 0,
     "visible": true,
     "properties": []
    },
    {
     "id": 1051,
     "name": "",
     "type": "",
     "x": 256,
     "y": 128,
     "width": 32,
     "height": 32,
     "rotation": 0,
     "visible": true,
     "properties": []
    },
    {
     "id": 1052,
     "name": "",
     "type": "",
     "x": 0,
     "y": 160,
     "width": 32,
     "height": 32,
     "rotation": 0,
     "visible": true,
     "properties": []
    },
    {
     "id": 1053,
     "name": "",
     "type": "",
     "x": 32,
     "y": 160,
     "width": 32,
     "height": 32,
     "rotation": 0,
     "visible": true,
     "properties": []
    },
    {
     "id": 1054,
     "name": "",
     "type": "",
     "x": 64,
     "y": 160,
     "width": 32,
     "height": 32,
     "rotation": 0,
     "visible": true,
     "properties": []
    },
    {
     "id": 1055,
     "name": "",
     "type": "",
     "x": 96,
     "y": 160,
     "width": 32,
     "height": 32,
     "rotation": 0,
     "visible": true,
     "properties": []
    },
    {
     "id": 1056,
     "name": "",
     "type": "",
     "x": 128,
     "y": 160,
     "width": 32,
     "height": 32,
     "rotation": 0,
     "visible": true,
     "properties": []
    },
    {
     "id": 1057,
     "name": "",
     "type": "",
     "x": 160,
     "y": 160,
     "width": 32,
     "height": 32,
     "rotation": 0,
     "visible": true,
     "properties": []
    },
    {
     "id": 1058,
     "name": "",
     "type": "",
     "x": 192,
     "y": 160,
     "width": 32,
     "height": 32,
     "rotation": 0,
     "visible": true,
     "properties": []
    },
    {
     "id": 1059,
     "name": "",
     "type": "",
     "x": 224,
     "y": 160,
     "width": 32,
     "height": 32,
     "rotation": 0,
     "visible": true,
     "properties": []
    },
    {
     "id": 1060,
     "name": "",
     "type": "",
     "x": 256,
     "y": 160,
     "width": 32,
     "height": 32,
     "rotation": 0,
     "visible": true,
     "properties": []
    },
    {
     "id": 1061,
     "name": "",
     "type": "",
     "x": 0,
     "y": 192,
     "width": 32,
     "height": 32,
     "rotation": 0,
     "visible": true,
     "properties": []
    },
    {
     "id": 1062,
     "name": "",
     "type": "",
     "x": 32,
     "y": 192,
     "width": 32,
     "height": 32,
     "rotation": 0,
     "visible": true,
     "properties": []
    },
    {
     "id": 1063,
     "name": "",
     "type": "",
     "x": 64,
     "y": 192,
     "width": 32,
     "height": 32,
     "rotation": 0,
     "visible": true,
     "properties": []
    },
    {
     "id": 1064,
     "name": "",
     "type": "",
     "x": 96,
     "y": 192,
     "width": 32,
     "height": 32,
     "rotation": 0,
     "visible": true,
     "properties": []
    },
    {
     "id": 1065,
     "name": "",
     "type": "",
     "x": 128,
     "y": 192,
     "width": 32,
     "height": 32,
     "rotation": 0,
     "visible": true,
     "properties": []
    },
    {
     "id": 1066,
     "name": "",
     "type": "",
     "x": 160,
     "y": 192,
     "width": 32,
     "height": 32,
     "rotation": 0,
     "visible": true,
     "properties": []
    },
    {
     "id": 1067,
     "name": "",
     "type": "",
     "x": 192,
     "y": 192,
     "width": 32,
     "height": 32,
     "rotation": 0,
     "visible": true,
     "properties": []
    },
    {
     "id": 1068,
     "name": "",
     "type": "",
     "x": 224,
     "y": 192,
     "width": 32,
     "height": 32,
     "rotation": 0,
     "visible": true,
     "properties": []
    },
    {
     "id": 1069,
     "name": "",
     "type": "",
     "x": 256,
     "y": 192,
     "width": 32,
     "height": 32,
     "rotation": 0,
     "visible": true,
     "properties": []
    },
    {
     "id": 1070,
     "name": "",
     "type": "",
     "x": 288,
     "y": 192,
     "width": 32,
     "height": 32,
     "rotation": 0,
     "visible": true,
     "properties": []
    },
    {
     "id": 1071,
     "name": "",
     "type": "",
     "x": 448,
     "y": 192,
     "width": 32,
     "height": 32,
     "rotation": 0,
     "visible": true,
     "properties": []
    },
    {
     "id": 1072,
     "name": "",
     "type": "",
     "x": 0,
     "y": 224,
     "width": 32,
     "height": 32,
     "rotation": 0,
     "visible": true,
     "properties": []
    },
    {
     "id": 1073,
     "name": "",
     "type": "",
     "x": 224,
     "y": 224,
     "width": 32,
     "height": 32,
     "rotation": 0,
     "visible": true,
     "properties": []
    },
    {
     "id": 1074,
     "name": "",
     "type": "",
     "x": 256,
     "y": 224,
     "width": 32,
     "height": 32,
     "rotation": 0,
     "visible": true,
     "properties": []
    },
    {
     "id": 1075,
     "name": "",
     "type": "",
     "x": 224,
     "y": 256,
     "width": 32,
     "height": 32,
     "rotation": 0,
     "visible": true,
     "properties": []
    },
    {
     "id": 1076,
     "name": "",
     "type": "",
     "x": 256,
     "y": 256,
     "width": 32,
     "height": 32,
     "rotation": 0,
     "visible": true,
     "properties": []
    },
    {
     "id": 1077,
     "name": "",
     "type": "",
     "x": 32,
     "y": 288,
     "width": 32,
     "height": 32,
     "rotation": 0,
     "visible": true,
     "properties": []
    },
    {
     "id": 1078,
     "name": "",
     "type": "",
     "x": 64,
     "y": 288,
     "width": 32,
     "height": 32,
     "rotation": 0,
     "visible": true,
     "properties": []
    },
    {
     "id": 1079,
     "name": "",
     "type": "",
     "x": 96,
     "y": 288,
     "width": 32,
     "height": 32,
     "rotation": 0,
     "visible": true,
     "properties": []
    },
    {
     "id": 1080,
     "name": "",
     "type": "",
     "x": 128,
     "y": 288,
     "width": 32,
     "height": 32,
     "rotation": 0,
     "visible": true,
     "properties": []
    },
    {
     "id": 1081,
     "name": "",
     "type": "",
     "x": 224,
     "y": 288,
     "width": 32,
     "height": 32,
     "rotation": 0,
     "visible": true,
     "properties": []
    },
    {
     "id": 1082,
     "name": "",
     "type": "",
     "x": 256,
     "y": 288,
     "width": 32,
     "height": 32,
     "rotation": 0,
     "visible": true,
     "properties": []
    },
    {
     "id": 1083,
     "name": "",
     "type": "",
     "x": 288,
     "y": 288,
     "width": 32,
     "height": 32,
     "rotation": 0,
     "visible": true,
     "properties": []
    },
    {
     "id": 1084,
     "name": "",
     "type": "",
     "x": 448,
     "y": 288,
     "width": 32,
     "height": 32,
     "rotation": 0,
     "visible": true,
     "properties": []
    },
    {
     "id": 1085,
     "name": "",
     "type": "",
     "x": 32,
     "y": 320,
     "width": 32,
     "height": 32,
     "rotation": 0,
     "visible": true,
     "properties": []
    },
    {
     "id": 1086,
     "name": "",
     "type": "",
     "x": 64,
     "y": 320,
     "width": 32,
     "height": 32,
     "rotation": 0,
     "visible": true,
     "properties": []
    },
    {
     "id": 1087,
     "name": "",
     "type": "",
     "x": 96,
     "y": 320,
     "width": 32,
     "height": 32,
     "rotation": 0,
     "visible": true,
     "properties": []
    },
    {
     "id": 1088,
     "name": "",
     "type": "",
     "x": 128,
     "y": 320,
     "width": 32,
     "height": 32,
     "rotation": 0,
     "visible": true,
     "properties": []
    },
    {
     "id": 1089,
     "name": "",
     "type": "",
     "x": 224,
     "y": 320,
     "width": 32,
     "height": 32,
     "rotation": 0,
     "visible": true,
     "properties": []
    },
    {
     "id": 1090,
     "name": "",
     "type": "",
     "x": 256,
     "y": 320,
     "width": 32,
     "height": 32,
     "rotation": 0,
     "visible": true,
     "properties": []
    },
    {
     "id": 1091,
     "name": "",
     "type": "",
     "x": 32,
     "y": 352,
     "width": 32,
     "height": 32,
     "rotation": 0,
     "visible": true,
     "properties": []
    },
    {
     "id": 1092,
     "name": "",
     "type": "",
     "x": 64,
     "y": 352,
     "width": 32,
     "height": 32,
     "rotation": 0,
     "visible": true,
     "properties": []
    },
    {
     "id": 1093,
     "name": "",
     "type": "",
     "x": 96,
     "y": 352,
     "width": 32,
     "height": 32,
     "rotation": 0,
     "visible": true,
     "properties": []
    },
    {
     "id": 1094,
     "name": "",
     "type": "",
     "x": 128,
     "y": 352,
     "width": 32,
     "height": 32,
     "rotation": 0,
     "visible": true,
     "properties": []
    },
    {
     "id": 1095,
     "name": "",
     "type": "",
     "x": 224,
     "y": 352,
     "width": 32,
     "height": 32,
     "rotation": 0,
     "visible": true,
     "properties": []
    },
    {
     "id": 1096,
     "name": "",
     "type": "",
     "x": 256,
     "y": 352,
     "width": 32,
     "height": 32,
     "rotation": 0,
     "visible": true,
     "properties": []
    },
    {
     "id": 1097,
     "name": "",
     "type": "",
     "x": 224,
     "y": 384,
     "width": 32,
     "height": 32,
     "rotation": 0,
     "visible": true,
     "properties": []
    },
    {
     "id": 1098,
     "name": "",
     "type": "",
     "x": 256,
     "y": 384,
     "width": 32,
     "height": 32,
     "rotation": 0,
     "visible": true,
     "properties": []
    },
    {
     "id": 1099,
     "name": "",
     "type": "",
     "x": 288,
     "y": 384,
     "width": 32,
     "height": 32,
     "rotation": 0,
     "visible": true,
     "properties": []
    },
    {
     "id": 1100,
     "name": "",
     "type": "",
     "x": 448,
     "y": 384,
     "width": 32,
     "height": 32,
     "rotation": 0,
     "visible": true,
     "properties": []
    },
    {
     "id": 1101,
     "name": "",
     "type": "",
     "x": 0,
     "y": 480,
     "width": 32,
     "height": 32,
     "rotation": 0,
     "visible": true,
     "properties": []
    },
    {
     "id": 1102,
     "name": "",
     "type": "",
     "x": 32,
     "y": 480,
     "width": 32,
     "height": 32,
     "rotation": 0,
     "visible": true,
     "properties": []
    },
    {
     "id": 1103,
     "name": "",
     "type": "",
     "x": 64,
     "y": 480,
     "width": 32,
     "height": 32,
     "rotation": 0,
     "visible": true,
     "properties": []
    },
    {
     "id": 1104,
     "name": "",
     "type": "",
     "x": 96,
     "y": 480,
     "width": 32,
     "height": 32,
     "rotation": 0,
     "visible": true,
     "properties": []
    },
    {
     "id": 1105,
     "name": "",
     "type": "",
     "x": 128,
     "y": 480,
     "width": 32,
     "height": 32,
     "rotation": 0,
     "visible": true,
     "properties": []
    },
    {
     "id": 1106,
     "name": "",
     "type": "",
     "x": 160,
     "y": 480,
     "width": 32,
     "height": 32,
     "rotation": 0,
     "visible": true,
     "properties": []
    },
    {
     "id": 1107,
     "name": "",
     "type": "",
     "x": 192,
     "y": 480,
     "width": 32,
     "height": 32,
     "rotation": 0,
     "visible": true,
     "properties": []
    },
    {
     "id": 1108,
     "name": "",
     "type": "",
     "x": 224,
     "y": 480,
     "width": 32,
     "height": 32,
     "rotation": 0,
     "visible": true,
     "properties": []
    },
    {
     "id": 1109,
     "name": "",
     "type": "",
     "x": 256,
     "y": 480,
     "width": 32,
     "height": 32,
     "rotation": 0,
     "visible": true,
     "properties": []
    },
    {
     "id": 1110,
     "name": "",
     "type": "",
     "x": 448,
     "y": 480,
     "width": 32,
     "height": 32,
     "rotation": 0,
     "visible": true,
     "properties": []
    },
    {
     "id": 1111,
     "name": "",
     "type": "",
     "x": 0,
     "y": 512,
     "width": 32,
     "height": 32,
     "rotation": 0,
     "visible": true,
     "properties": []
    },
    {
     "id": 1112,
     "name": "",
     "type": "",
     "x": 32,
     "y": 512,
     "width": 32,
     "height": 32,
     "rotation": 0,
     "visible": true,
     "properties": []
    },
    {
     "id": 1113,
     "name": "",
     "type": "",
     "x": 64,
     "y": 512,
     "width": 32,
     "height": 32,
     "rotation": 0,
     "visible": true,
     "properties": []
    },
    {
     "id": 1114,
     "name": "",
     "type": "",
     "x": 96,
     "y": 512,
     "width": 32,
     "height": 32,
     "rotation": 0,
     "visible": true,
     "properties": []
    },
    {
     "id": 1115,
     "name": "",
     "type": "",
     "x": 128,
     "y": 512,
     "width": 32,
     "height": 32,
     "rotation": 0,
     "visible": true,
     "properties": []
    },
    {
     "id": 1116,
     "name": "",
     "type": "",
     "x": 160,
     "y": 512,
     "width": 32,
     "height": 32,
     "rotation": 0,
     "visible": true,
     "properties": []
    },
    {
     "id": 1117,
     "name": "",
     "type": "",
     "x": 192,
     "y": 512,
     "width": 32,
     "height": 32,
     "rotation": 0,
     "visible": true,
     "properties": []
    },
    {
     "id": 1118,
     "name": "",
     "type": "",
     "x": 224,
     "y": 512,
     "width": 32,
     "height": 32,
     "rotation": 0,
     "visible": true,
     "properties": []
    },
    {
     "id": 1119,
     "name": "",
     "type": "",
     "x": 256,
     "y": 512,
     "width": 32,
     "height": 32,
     "rotation": 0,
     "visible": true,
     "properties": []
    },
    {
     "id": 1120,
     "name": "",
     "type": "",
     "x": 0,
     "y": 544,
     "width": 32,
     "height": 32,
     "rotation": 0,
     "visible": true,
     "properties": []
    },
    {
     "id": 1121,
     "name": "",
     "type": "",
     "x": 448,
     "y": 576,
     "width": 32,
     "height": 32,
     "rotation": 0,
     "visible": true,
     "properties": []
    },
    {
     "id": 1122,
     "name": "",
     "type": "",
     "x": 0,
     "y": 608,
     "width": 32,
     "height": 32,
     "rotation": 0,
     "visible": true,
     "properties": []
    },
    {
     "id": 1123,
     "name": "",
     "type": "",
     "x": 32,
     "y": 608,
     "width": 32,
     "height": 32,
     "rotation": 0,
     "visible": true,
     "properties": []
    },
    {
     "id": 1124,
     "name": "",
     "type": "",
     "x": 64,
     "y": 608,
     "width": 32,
     "height": 32,
     "rotation": 0,
     "visible": true,
     "properties": []
    },
    {
     "id": 1125,
     "name": "",
     "type": "",
     "x": 96,
     "y": 608,
     "width": 32,
     "height": 32,
     "rotation": 0,
     "visible": true,
     "properties": []
    },
    {
     "id": 1126,
     "name": "",
     "type": "",
     "x": 128,
     "y": 608,
     "width": 32,
     "height": 32,
     "rotation": 0,
     "visible": true,
     "properties": []
    },
    {
     "id": 1127,
     "name": "",
     "type": "",
     "x": 160,
     "y": 608,
     "width": 32,
     "height": 32,
     "rotation": 0,
     "visible": true,
     "properties": []
    },
    {
     "id": 1128,
     "name": "",
     "type": "",
     "x": 192,
     "y": 608,
     "width": 32,
     "height": 32,
     "rotation": 0,
     "visible": true,
     "properties": []
    },
    {
     "id": 1129,
     "name": "",
     "type": "",
     "x": 224,
     "y": 608,
     "width": 32,
     "height": 32,
     "rotation": 0,
     "visible": true,
     "properties": []
    },
    {
     "id": 1130,
     "name": "",
     "type": "",
     "x": 256,
     "y": 608,
     "width": 32,
     "height": 32,
     "rotation": 0,
     "visible": true,
     "properties": []
    },
    {
     "id": 1131,
     "name": "",
     "type": "",
     "x": 288,
     "y": 608,
     "width": 32,
     "height": 32,
     "rotation": 0,
     "visible": true,
     "properties": []
    },
    {
     "id": 1132,
     "name": "",
     "type": "",
     "x": 320,
     "y": 608,
     "width": 32,
     "height": 32,
     "rotation": 0,
     "visible": true,
     "properties": []
    },
    {
     "id": 1133,
     "name": "",
     "type": "",
     "x": 352,
     "y": 608,
     "width": 32,
     "height": 32,
     "rotation": 0,
     "visible": true,
     "properties": []
    },
    {
     "id": 1134,
     "name": "",
     "type": "",
     "x": 384,
     "y": 608,
     "width": 32,
     "height": 32,
     "rotation": 0,
     "visible": true,
     "properties": []
    },
    {
     "id": 1135,
     "name": "",
     "type": "",
     "x": 416,
     "y": 608,
     "width": 32,
     "height": 32,
     "rotation": 0,
     "visible": true,
     "properties": []
    },
    {
     "id": 1136,
     "name": "",
     "type": "",
     "x": 448,
     "y": 608,
     "width": 32,
     "height": 32,
     "rotation": 0,
     "visible": true,
     "properties": []
    }
   ]
  },
  {
   "id": 5,
   "name": "eventi",
   "type": "objectgroup",
   "opacity": 1,
   "visible": true,
   "x": 0,
   "y": 0,
   "objects": [
    {
     "id": 1,
     "name": "npc_albano_condominio_b_random_17",
     "type": "",
     "point": true,
     "x": 208,
     "y": 224,
     "width": 0,
     "height": 0,
     "rotation": 0,
     "visible": true,
     "properties": [
      {
       "name": "type",
       "type": "string",
       "value": "npc"
      },
      {
       "name": "id",
       "type": "string",
       "value": "npc_albano_condominio_b_random_17"
      },
      {
       "name": "nota_origine",
       "type": "string",
       "value": "0"
      }
     ]
    },
    {
     "id": 2,
     "name": "npc_albano_condominio_b_random_18",
     "type": "",
     "point": true,
     "x": 176,
     "y": 224,
     "width": 0,
     "height": 0,
     "rotation": 0,
     "visible": true,
     "properties": [
      {
       "name": "type",
       "type": "string",
       "value": "npc"
      },
      {
       "name": "id",
       "type": "string",
       "value": "npc_albano_condominio_b_random_18"
      },
      {
       "name": "nota_origine",
       "type": "string",
       "value": "0"
      }
     ]
    },
    {
     "id": 3,
     "name": "uscita_1",
     "type": "",
     "x": 128,
     "y": 64,
     "width": 32,
     "height": 32,
     "rotation": 0,
     "visible": true,
     "properties": [
      {
       "name": "type",
       "type": "string",
       "value": "warp"
      },
      {
       "name": "destinazione",
       "type": "string",
       "value": "albano_condominio_b_1f"
      },
      {
       "name": "spawn_id",
       "type": "string",
       "value": "da_1f_a_out"
      }
     ]
    },
    {
     "id": 4,
     "name": "uscita_2",
     "type": "",
     "x": 64,
     "y": 64,
     "width": 32,
     "height": 32,
     "rotation": 0,
     "visible": true,
     "properties": [
      {
       "name": "type",
       "type": "string",
       "value": "warp"
      },
      {
       "name": "destinazione",
       "type": "string",
       "value": "albano_condominio_b_3f"
      },
      {
       "name": "spawn_id",
       "type": "string",
       "value": "da_2f_a_in"
      }
     ]
    },
    {
     "id": 5,
     "name": "uscita_3",
     "type": "",
     "x": 352,
     "y": 64,
     "width": 32,
     "height": 32,
     "rotation": 0,
     "visible": true,
     "properties": [
      {
       "name": "type",
       "type": "string",
       "value": "warp"
      },
      {
       "name": "destinazione",
       "type": "string",
       "value": "albano_condominio_b_3f"
      },
      {
       "name": "spawn_id",
       "type": "string",
       "value": "da_2f_b_in"
      }
     ]
    },
    {
     "id": 6,
     "name": "uscita_4",
     "type": "",
     "x": 384,
     "y": 64,
     "width": 32,
     "height": 32,
     "rotation": 0,
     "visible": true,
     "properties": [
      {
       "name": "type",
       "type": "string",
       "value": "warp"
      },
      {
       "name": "destinazione",
       "type": "string",
       "value": "albano_condominio_b_1f"
      },
      {
       "name": "spawn_id",
       "type": "string",
       "value": "da_1f_b_out"
      }
     ]
    },
    {
     "id": 7,
     "name": "spawn_da_1f_a_in",
     "type": "",
     "x": 128,
     "y": 64,
     "width": 0,
     "height": 0,
     "rotation": 0,
     "visible": true,
     "point": true,
     "properties": [
      {
       "name": "type",
       "type": "string",
       "value": "spawn"
      },
      {
       "name": "id",
       "type": "string",
       "value": "da_1f_a_in"
      }
     ]
    },
    {
     "id": 8,
     "name": "spawn_da_1f_b_in",
     "type": "",
     "x": 384,
     "y": 64,
     "width": 0,
     "height": 0,
     "rotation": 0,
     "visible": true,
     "point": true,
     "properties": [
      {
       "name": "type",
       "type": "string",
       "value": "spawn"
      },
      {
       "name": "id",
       "type": "string",
       "value": "da_1f_b_in"
      }
     ]
    },
    {
     "id": 9,
     "name": "spawn_da_2f_a_out",
     "type": "",
     "x": 64,
     "y": 64,
     "width": 0,
     "height": 0,
     "rotation": 0,
     "visible": true,
     "point": true,
     "properties": [
      {
       "name": "type",
       "type": "string",
       "value": "spawn"
      },
      {
       "name": "id",
       "type": "string",
       "value": "da_2f_a_out"
      }
     ]
    },
    {
     "id": 10,
     "name": "spawn_da_2f_b_out",
     "type": "",
     "x": 352,
     "y": 64,
     "width": 0,
     "height": 0,
     "rotation": 0,
     "visible": true,
     "point": true,
     "properties": [
      {
       "name": "type",
       "type": "string",
       "value": "spawn"
      },
      {
       "name": "id",
       "type": "string",
       "value": "da_2f_b_out"
      }
     ]
    }
   ]
  }
 ]
}