<?xml version="1.0" encoding="UTF-8"?>
<map version="1.10" tiledversion="1.12.2" orientation="orthogonal" renderorder="right-down" width="16" height="16" tilewidth="32" tileheight="32" infinite="0" nextlayerid="7" nextobjectid="15">
 <editorsettings>
  <export format="json"/>
 </editorsettings>
 <tileset firstgid="1" source="../../Emerald_Outside.tsx"/>
 <tileset firstgid="5249" source="../Tiled/Gyms interior.tsx"/>
 <tileset firstgid="6401" source="../../outside.tsx"/>
 <layer id="1" name="ground" width="16" height="16">
  <data encoding="csv">
2853,2854,2853,2854,2853,2854,2853,2854,2853,2854,2853,2854,2853,2854,2853,2854,
2861,2862,2861,2862,2861,2862,2861,2862,2861,2862,2861,2862,2861,2862,2861,2862,
2853,2854,2853,2854,2853,2854,2853,2854,2853,2854,2853,2854,2853,2854,2853,2854,
2861,2862,2861,2862,2861,2862,2861,2862,2861,2862,2861,2862,2861,2862,2861,2862,
2853,2854,2853,2854,2853,2854,2853,2854,2853,2854,2853,2854,2853,2854,2853,2854,
2861,2862,2861,2862,2861,2862,2861,2862,2861,2862,2861,2862,2861,2862,2861,2862,
2853,2854,2853,2854,2853,2854,2853,2854,2853,2854,2853,2854,2853,2854,2853,2854,
2861,2862,2861,2862,2861,2862,2861,2862,2861,2862,2861,2862,2861,2862,2861,2862,
2853,2854,2853,2854,2853,2854,2853,2854,2853,2854,2853,2854,2853,2854,2853,2854,
2861,2862,2861,2862,2861,2862,2861,2862,2861,2862,2861,2862,2861,2862,2861,2862,
2853,2854,2853,2854,2853,2854,2853,2854,2853,2854,2853,2854,2853,2854,2853,2854,
2861,2862,2861,2862,2861,2862,2861,2862,2861,2862,2861,2862,2861,2862,2861,2862,
2853,2854,2853,2854,2853,2854,2853,2854,2853,2854,2853,2854,2853,2854,2853,2854,
2861,2862,2861,2862,2861,2862,2861,2862,2861,2862,2861,2862,2861,2862,2861,2862,
2853,2854,2853,2854,2853,2854,2853,2854,2853,2854,2853,2854,2853,2854,2853,2854,
2861,2862,2861,2862,2861,2862,2861,2862,2861,2862,2861,2862,2861,2862,2861,2862
</data>
 </layer>
 <layer id="2" name="deco_sotto" width="16" height="16">
  <data encoding="csv">
5777,5777,5777,5777,5777,5777,5777,5777,5777,5777,5777,5777,5777,5777,5777,5777,
5785,5785,5785,5785,5785,5785,5785,5785,5785,5785,5785,5785,5785,5785,5785,5785,
0,0,0,0,0,0,0,0,0,0,0,0,0,0,0,0,
0,0,0,0,0,0,0,0,0,0,0,0,0,0,0,0,
0,0,0,0,0,0,0,0,0,0,0,0,0,0,0,0,
0,0,0,0,0,0,0,0,0,0,0,0,0,0,0,0,
0,0,0,0,0,0,0,0,0,0,0,0,0,0,0,0,
0,0,0,0,0,0,0,5934,5935,5936,0,0,0,0,0,0,
0,0,0,0,0,0,0,5942,5943,5944,0,0,0,0,0,0,
0,0,0,0,0,0,0,5950,5951,5952,0,0,0,0,0,0,
0,0,0,0,0,0,0,0,0,0,0,0,0,0,0,0,
0,0,0,0,0,0,0,0,0,0,0,0,0,0,0,0,
0,0,0,0,0,0,0,0,0,0,0,0,0,0,0,0,
0,0,0,0,0,0,0,0,0,0,0,0,0,0,0,0,
0,0,0,0,0,0,0,0,0,0,0,0,0,0,0,0,
0,0,0,0,0,0,0,6666,6667,6668,0,0,0,0,0,0
</data>
 </layer>
 <layer id="3" name="edifici" width="16" height="16">
  <data encoding="csv">
0,0,0,0,0,0,0,0,0,0,0,0,0,0,0,0,
0,0,0,0,7237,7238,0,0,0,0,0,7237,7238,0,0,0,
0,0,0,0,7245,7246,0,0,0,0,0,7245,7246,0,0,0,
0,0,0,0,7253,7254,0,0,0,0,0,7253,7254,0,0,0,
0,0,7237,7238,7261,7262,0,0,0,0,0,7261,7262,7237,7238,0,
0,0,7245,7246,0,0,0,0,0,0,0,0,0,7245,7246,0,
0,0,7253,7254,0,0,0,0,0,0,0,0,0,7253,7254,0,
0,0,7237,7238,0,0,0,0,0,0,0,0,0,7237,7238,0,
0,0,7245,7246,0,0,0,0,0,0,0,0,0,7245,7246,0,
0,0,7253,7254,0,0,0,0,0,0,0,0,0,7253,7254,0,
0,0,7261,7262,7237,7238,0,0,0,0,0,7237,7238,7261,7262,0,
0,0,0,0,7245,7246,0,0,0,0,0,7245,7246,0,0,0,
0,0,0,0,7253,7254,0,0,0,0,0,7253,7254,0,0,0,
0,0,0,0,7261,7262,0,0,0,0,0,7261,7262,0,0,0,
0,0,0,0,0,0,0,0,0,0,0,0,0,0,0,0,
0,0,0,0,0,0,0,0,0,0,0,0,0,0,0,0
</data>
 </layer>
 <layer id="4" name="sopra_testa" width="16" height="16">
  <data encoding="csv">
0,0,0,0,0,0,0,0,0,0,0,0,0,0,0,0,
0,0,0,0,0,0,0,0,0,0,0,0,0,0,0,0,
0,0,0,0,0,0,0,0,0,0,0,0,0,0,0,0,
0,0,0,0,0,0,0,0,0,0,0,0,0,0,0,0,
0,0,0,0,0,0,0,0,0,0,0,0,0,0,0,0,
0,0,0,0,0,0,0,0,0,0,0,0,0,0,0,0,
0,0,0,0,0,0,0,0,0,0,0,0,0,0,0,0,
0,0,0,0,0,0,0,0,0,0,0,0,0,0,0,0,
0,0,0,0,0,0,0,0,0,0,0,0,0,0,0,0,
0,0,0,0,0,0,0,0,0,0,0,0,0,0,0,0,
0,0,0,0,0,0,0,0,0,0,0,0,0,0,0,0,
0,0,0,0,0,0,0,0,0,0,0,0,0,0,0,0,
0,0,0,0,0,0,0,0,0,0,0,0,0,0,0,0,
0,0,0,0,0,0,0,0,0,0,0,0,0,0,0,0,
0,0,0,0,0,0,0,0,0,0,0,0,0,0,0,0,
0,0,0,0,0,0,0,0,0,0,0,0,0,0,0,0
</data>
 </layer>
 <objectgroup id="5" name="collisioni">
  <object id="1" x="126" y="84.5" width="62.5" height="68.5"/>
  <object id="2" x="-3.5" y="-0.5" width="519.5" height="60"/>
  <object id="3" x="351" y="81" width="64.5" height="71"/>
  <object id="4" x="414.5" y="181.5" width="65.5" height="66.5"/>
  <object id="5" x="415.5" y="273.5" width="61.5" height="82"/>
  <object id="6" x="351" y="369.5" width="70.5" height="77"/>
  <object id="7" x="126" y="371.5" width="65" height="74.5"/>
  <object id="8" x="66" y="273" width="61.5" height="79.5"/>
  <object id="9" x="66" y="183.5" width="60.5" height="71.5"/>
 </objectgroup>
 <objectgroup color="#ff0000" id="6" name="eventi">
  <properties>
   <property name="dialogo" value="Regiiiiii"/>
   <property name="id" value="Regice"/>
   <property name="livello" value="65"/>
   <property name="type" value="pokemon leggendario"/>
  </properties>
  <object id="10" name="regirock" type="pokemon leggendario" x="257.5" y="253.5" width="32" height="32">
   <properties>
    <property name="direzione" value="sud"/>
    <property name="id" value="pokemon leggendario"/>
    <property name="livello" value="65"/>
    <property name="sprite" value="regirock"/>
    <property name="type" value="pokemon leggendario"/>
   </properties>
  </object>
  <object id="11" name="warp" type="warp" x="224.763" y="514.779" width="32" height="91.5239" rotation="269.582">
   <properties>
    <property name="destinazione" value="tuscolo_profondo"/>
    <property name="spawn_id" value="da_antro registeel"/>
    <property name="type" value="warp"/>
   </properties>
  </object>
  <object id="14" name="spawn" type="spawn" x="253.095" y="481.179" width="32" height="32" rotation="269.582">
   <properties>
    <property name="id" value="da_tuscolo_profondo"/>
    <property name="type" value="spawn"/>
   </properties>
  </object>
 </objectgroup>
</map>
