<?xml version="1.0" encoding="UTF-8"?>
<map version="1.10" tiledversion="1.12.2" orientation="orthogonal" renderorder="right-down" width="48" height="45" tilewidth="32" tileheight="32" infinite="0" backgroundcolor="#000000" nextlayerid="21" nextobjectid="59">
 <tileset firstgid="1" source="../../outside.tsx"/>
 <tileset firstgid="4017" source="../../Emerald_Outside.tsx"/>
 <layer id="1" name="ground" width="48" height="45">
  <data encoding="csv">
5,5,5,5,5,5,5,5,5,5,5,5,5,5,5,5,5,5,5,5,5,5,5,5,5,5,5,5,5,5,5,5,5,5,5,5,5,5,5,5,5,5,5,5,5,5,5,5,
5,5,5,5,5,5,5,5,5,5,5,5,5,5,5,5,5,5,5,5,5,5,5,5,5,5,5,5,5,5,5,5,5,5,5,5,5,5,5,5,5,5,5,5,5,5,5,5,
5,5,5,5,5,5,5,5,5,5,5,5,5,5,5,5,5,5,5,5,5,5,5,5,5,5,5,5,5,5,5,5,5,5,5,5,5,5,5,5,5,5,5,5,5,5,5,5,
5,5,5,5,5,5,5,5,5,5,5,5,5,5,5,5,5,5,5,5,5,5,5,5,5,5,5,5,5,5,5,5,5,5,5,5,5,5,5,5,5,5,5,5,5,5,5,5,
5,5,5,5,5,5,5,5,5,5,5,5,5,5,5,5,5,5,5,5,5,5,5,5,5,5,5,5,5,5,5,5,5,5,5,5,5,5,5,5,5,5,5,5,5,5,5,5,
5,5,5,5,5,5,5,5,5,5,5,5,5,5,5,5,5,5,5,5,5,5,5,5,5,5,5,5,5,5,5,5,5,5,5,5,5,5,5,5,5,5,5,5,5,5,5,5,
5,5,5,5,5,5,5,5,5,5,5,5,5,5,5,5,5,5,5,5,5,5,5,5,5,5,5,5,5,5,5,5,5,5,5,5,5,5,5,5,5,5,5,5,5,5,5,5,
5,5,5,5,5,5,5,5,5,5,5,5,5,5,5,5,5,5,5,5,5,5,5,5,5,5,5,5,5,5,5,5,5,5,5,5,5,5,5,5,5,5,5,5,5,5,5,5,
5,5,5,5,5,5,5,5,5,5,5,5,5,5,5,5,5,5,5,5,5,5,5,5,5,5,5,5,5,5,5,5,5,5,5,5,5,5,5,5,5,5,5,5,5,5,5,5,
5,5,5,5,5,5,5,5,5,5,5,5,5,5,5,5,5,5,5,5,5,5,5,5,5,5,5,5,5,5,5,5,5,5,5,5,5,5,5,5,5,5,5,5,5,5,5,5,
5,5,5,5,5,5,5,5,5,5,5,5,5,5,5,5,5,5,5,5,5,5,5,5,5,5,5,5,5,5,5,5,5,5,5,5,5,5,5,5,5,5,5,5,5,5,5,5,
5,5,5,5,5,5,5,5,5,5,5,5,5,5,5,5,5,5,5,5,5,5,5,5,5,5,5,5,5,5,5,5,5,5,5,5,5,5,5,5,5,5,5,5,5,5,5,5,
5,5,5,5,5,5,5,5,5,5,5,5,5,5,5,5,5,5,5,5,5,5,5,5,5,5,5,5,5,5,5,5,5,5,5,5,5,5,5,5,5,5,5,5,5,5,5,5,
5,5,5,5,5,5,5,5,446,447,446,447,446,447,446,447,446,447,446,447,446,447,446,447,446,447,446,447,446,447,446,447,446,447,446,447,446,447,446,447,5,5,5,5,5,5,5,5,
5,5,5,5,5,5,5,5,454,455,454,455,454,455,454,455,454,455,454,455,454,455,454,455,454,455,454,455,454,455,454,455,454,455,454,455,454,455,454,455,5,5,5,5,5,5,5,5,
5,5,5,5,5,5,5,5,462,463,462,463,462,463,462,463,462,463,462,463,462,463,462,463,462,463,462,463,462,463,462,463,462,463,462,463,462,463,462,463,5,5,5,5,5,5,5,5,
5,5,5,5,5,5,5,5,2,2,2,2,2,2,2,2,2,2,2,2,2,2,2,2,2,2,2,2,2,2,2,2,2,2,2,2,2,2,2,2,5,5,5,5,5,5,5,5,
5,5,5,5,5,5,5,5,2,2,2,2,2,2,2,2,2,2,2,2,2,2,2,2,2,2,2,2,2,2,2,2,2,2,2,2,2,2,2,2,5,5,5,5,5,5,5,5,
5,5,5,5,5,5,5,5,2,2,2,2,2,2,2,2,2,2,2,2,2,2,2,2,2,2,2,2,2,2,2,2,2,2,2,2,2,2,2,2,5,5,5,5,5,5,5,5,
5,5,5,5,5,5,5,5,2,2,2,2,2,2,2,2,2,2,2,2,2,2,2,2,2,2,2,2,2,2,2,2,2,2,2,2,2,2,2,2,5,5,5,5,5,5,5,5,
5,5,5,5,5,5,5,5,2,2,2,2,2,2,2,2,2,2,2,2,2,2,2,2,2,2,2,2,2,2,2,2,2,2,2,2,2,2,2,2,5,5,5,5,5,5,5,5,
5,5,5,5,5,5,5,5,2,2,2,2,2,2,2,2,2,2,2,2,2,2,2,2,2,2,2,2,2,2,2,2,2,2,2,2,2,2,2,2,5,5,5,5,5,5,5,5,
5,5,5,5,5,5,5,5,2,2,2,2,2,2,2,2,2,2,2,2,2,2,2,2,2,2,2,2,2,2,2,2,2,2,2,2,2,2,2,2,5,5,5,5,5,5,5,5,
5,5,5,5,5,5,5,5,2,2,2,2,2,2,2,2,2,2,2,2,2,2,2,2,2,2,2,2,2,2,2,2,2,2,2,2,2,2,2,2,5,5,5,5,5,5,5,5,
5,5,5,5,5,5,5,5,2,2,2,2,2,2,2,2,2,2,2,2,2,2,2,2,2,2,2,2,2,2,2,2,2,2,2,2,2,2,2,2,5,5,5,5,5,5,5,5,
5,5,5,5,5,5,5,5,2,2,2,2,2,2,2,2,2,2,2,2,2,2,2,2,2,2,2,2,2,2,2,2,2,2,2,2,2,2,2,2,5,5,5,5,5,5,5,5,
5,5,5,5,5,5,5,5,2,2,2,2,2,2,2,2,2,2,2,2,2,2,2,2,2,2,2,2,2,2,2,2,2,2,2,2,2,2,2,2,5,5,5,5,5,5,5,5,
5,5,5,5,5,5,5,5,2,2,2,2,2,2,2,2,2,2,2,2,2,2,2,2,2,2,2,2,2,2,2,2,2,2,2,2,2,2,2,2,5,5,5,5,5,5,5,5,
5,5,5,5,5,5,5,5,2,2,2,2,2,2,2,2,2,2,2,2,2,2,2,2,2,2,2,2,2,2,2,2,2,2,2,2,2,2,2,2,5,5,5,5,5,5,5,5,
5,5,5,5,5,5,5,5,2,2,2,2,2,2,2,2,2,2,2,2,2,2,2,2,2,2,2,2,2,2,2,2,2,2,2,2,2,2,2,2,5,5,5,5,5,5,5,5,
5,5,5,5,5,5,5,5,2,2,2,2,2,2,2,2,2,2,2,2,2,2,2,2,2,2,2,2,2,2,2,2,2,2,2,2,2,2,2,2,5,5,5,5,5,5,5,5,
5,5,5,5,5,5,5,5,2,2,2,2,2,2,2,2,2,2,2,2,2,2,2,2,2,2,2,2,2,2,2,2,2,2,2,2,2,2,2,2,5,5,5,5,5,5,5,5,
5,5,5,5,5,5,5,5,2,2,2,2,2,2,2,2,2,2,2,2,2,2,2,2,2,2,2,2,2,2,2,2,2,2,2,2,2,2,2,2,5,5,5,5,5,5,5,5,
5,5,5,5,5,5,5,5,2,2,2,2,2,2,2,2,2,2,2,2,2,2,2,2,2,2,2,2,2,2,2,2,2,2,2,2,2,2,2,2,5,5,5,5,5,5,5,5,
5,5,5,5,5,5,5,5,2,2,2,2,2,2,2,2,2,2,2,2,2,2,2,2,2,2,2,2,2,2,2,2,2,2,2,2,2,2,2,2,5,5,5,5,5,5,5,5,
5,5,5,5,5,5,5,5,5,5,5,5,5,5,5,5,5,5,5,5,5,5,5,5,5,5,5,5,5,5,5,5,5,5,5,5,5,5,5,5,5,5,5,5,5,5,5,5,
5,5,5,5,5,5,5,5,5,5,5,5,5,5,5,5,5,5,5,5,5,5,5,5,5,5,5,5,5,5,5,5,5,5,5,5,5,5,5,5,5,5,5,5,5,5,5,5,
5,5,5,5,5,5,5,5,5,5,5,5,5,5,5,5,5,5,5,5,5,5,5,5,5,5,5,5,5,5,5,5,5,5,5,5,5,5,5,5,5,5,5,5,5,5,5,5,
5,5,5,5,5,5,5,5,5,5,5,5,5,5,5,5,5,5,5,5,5,5,5,5,5,5,5,5,5,5,5,5,5,5,5,5,5,5,5,5,5,5,5,5,5,5,5,5,
5,5,5,5,5,5,5,5,5,5,5,5,5,5,5,5,5,5,5,5,5,5,5,5,5,5,5,5,5,5,5,5,5,5,5,5,5,5,5,5,5,5,5,5,5,5,5,5,
5,5,5,5,5,5,5,5,5,5,5,5,5,5,5,5,5,5,5,5,5,5,5,5,5,5,5,5,5,5,5,5,5,5,5,5,5,5,5,5,5,5,5,5,5,5,5,5,
5,5,5,5,5,5,5,5,5,5,5,5,5,5,5,5,5,5,5,5,5,5,5,5,5,5,5,5,5,5,5,5,5,5,5,5,5,5,5,5,5,5,5,5,5,5,5,5,
5,5,5,5,5,5,5,5,5,5,5,5,5,5,5,5,5,5,5,5,5,5,5,5,5,5,5,5,5,5,5,5,5,5,5,5,5,5,5,5,5,5,5,5,5,5,5,5,
5,5,5,5,5,5,5,5,5,5,5,5,5,5,5,5,5,5,5,5,5,5,5,5,5,5,5,5,5,5,5,5,5,5,5,5,5,5,5,5,5,5,5,5,5,5,5,5,
5,5,5,5,5,5,5,5,5,5,5,5,5,5,5,5,5,5,5,5,5,5,5,5,5,5,5,5,5,5,5,5,5,5,5,5,5,5,5,5,5,5,5,5,5,5,5,5
</data>
 </layer>
 <layer id="2" name="deco_sotto" width="48" height="45">
  <data encoding="csv">
0,0,0,0,0,0,0,0,0,0,0,0,0,0,0,0,0,0,0,0,0,0,0,0,0,0,0,0,0,0,0,0,0,0,0,0,0,0,0,0,0,0,0,0,0,0,0,0,
0,0,0,0,0,0,0,0,0,0,0,0,0,0,0,0,0,0,0,0,0,0,0,0,0,0,0,0,0,0,0,0,0,0,0,0,0,0,0,0,0,0,0,0,0,0,0,0,
0,0,0,0,0,0,0,0,0,0,0,0,0,0,0,0,0,0,0,0,0,0,0,0,0,0,0,0,0,0,0,0,0,0,0,0,0,0,0,0,0,0,0,0,0,0,0,0,
0,0,0,0,0,0,0,0,0,0,0,0,0,0,0,0,0,0,0,0,0,0,0,0,0,0,0,0,0,0,0,0,0,0,0,0,0,0,0,0,0,0,0,0,0,0,0,0,
0,0,0,0,0,0,0,0,0,0,0,0,0,0,0,0,0,0,0,0,0,0,0,0,0,0,0,0,0,0,0,0,0,0,0,0,0,0,0,0,0,0,0,0,0,0,0,0,
0,0,0,0,0,0,0,0,0,0,0,0,0,0,0,0,0,0,0,0,0,0,0,0,0,0,0,0,0,0,0,0,0,0,0,0,0,0,0,0,0,0,0,0,0,0,0,0,
0,0,0,0,0,0,0,0,0,0,0,0,0,0,0,0,0,0,0,0,0,0,0,0,0,0,0,0,0,0,0,0,0,0,0,0,0,0,0,0,0,0,0,0,0,0,0,0,
0,0,0,0,0,0,0,0,0,0,0,0,0,0,0,0,0,0,0,0,0,0,0,0,0,0,0,0,0,0,0,0,0,0,0,0,0,0,0,0,0,0,0,0,0,0,0,0,
0,0,0,0,0,0,0,0,0,0,0,0,0,0,0,0,0,0,0,0,0,0,0,0,0,0,0,0,0,0,0,0,0,0,0,0,0,0,0,0,0,0,0,0,0,0,0,0,
0,0,0,0,0,0,0,0,0,0,0,0,0,0,0,0,0,0,0,0,0,0,0,0,0,0,0,0,0,0,0,0,0,0,0,0,0,0,0,0,0,0,0,0,0,0,0,0,
0,0,0,0,0,0,0,0,0,0,0,0,0,0,0,0,0,0,0,0,0,0,0,0,0,0,0,0,0,0,0,0,0,0,0,0,0,0,0,0,0,0,0,0,0,0,0,0,
0,0,0,0,0,0,0,0,0,0,0,0,0,0,0,0,0,0,0,0,0,0,0,0,0,0,0,0,0,0,0,0,0,0,0,0,0,0,0,0,0,0,0,0,0,0,0,0,
0,0,0,0,0,0,0,0,0,0,0,0,0,0,0,0,0,0,0,0,0,0,0,0,0,0,0,0,0,0,0,0,0,0,0,0,0,0,0,0,0,0,0,0,0,0,0,0,
0,0,0,0,0,0,0,0,0,0,0,0,0,0,0,0,0,0,0,0,0,0,0,0,0,0,0,0,0,0,0,0,0,0,0,0,0,0,0,0,0,0,0,0,0,0,0,0,
0,0,0,0,0,0,0,0,0,0,0,0,0,0,0,0,0,0,0,0,0,0,0,0,0,0,0,0,0,0,0,0,0,0,0,0,0,0,0,0,0,0,0,0,0,0,0,0,
0,0,0,0,0,0,0,0,0,0,0,0,0,0,0,0,0,0,0,0,0,0,0,0,949,0,0,0,0,0,0,0,0,0,0,0,0,0,0,0,0,0,0,0,0,0,0,0,
0,0,0,0,0,0,0,0,0,0,0,0,32,0,0,0,0,0,0,32,0,0,0,0,0,0,0,0,32,0,0,7,7,7,7,7,7,7,7,7,0,0,0,0,0,0,0,0,
0,0,0,0,0,0,0,0,0,0,0,7,5,5,0,0,0,0,0,0,0,42,43,43,43,43,44,0,32,0,0,7,7,7,7,7,7,7,7,7,0,0,0,0,0,0,0,0,
0,0,0,0,0,0,0,0,0,0,0,7,7,5,0,949,0,0,32,0,0,50,51,51,51,51,52,0,0,0,0,7,7,7,7,7,7,7,7,7,0,0,0,0,0,0,0,0,
0,0,0,0,0,0,0,0,0,0,0,7,7,5,0,0,0,0,42,43,43,63,51,51,51,51,52,0,0,32,0,7,7,7,7,7,7,7,7,7,0,0,0,0,0,0,0,0,
0,0,0,0,0,0,0,0,43,43,43,7,7,7,43,43,43,43,51,59,59,59,59,59,59,59,60,0,0,0,3,7,7,7,7,7,7,7,7,7,0,0,0,0,0,0,0,0,
0,0,0,0,0,0,0,0,51,51,51,7,7,7,51,51,51,51,52,0,0,0,0,0,0,0,0,0,0,0,0,7,7,7,7,7,7,7,7,7,0,0,0,0,0,0,0,0,
0,0,0,0,0,0,0,0,59,59,59,7,7,7,59,59,59,59,60,0,0,0,0,0,0,0,0,32,0,0,32,7,7,7,7,7,7,7,7,7,0,0,0,0,0,0,0,0,
0,0,0,0,0,0,0,0,0,0,0,7,7,5,0,0,0,0,32,0,0,0,0,0,0,0,0,0,0,0,0,7,7,7,7,7,7,7,7,7,0,0,0,0,0,0,0,0,
0,0,0,0,0,0,0,0,0,0,0,0,0,0,0,0,0,0,0,0,0,0,0,0,0,0,0,0,0,0,0,7,7,7,7,7,7,7,7,7,0,0,0,0,0,0,0,0,
0,0,0,0,0,0,0,0,0,0,32,0,0,0,7,7,7,7,0,0,0,0,7,7,7,7,0,0,0,0,7,7,7,7,0,0,0,0,0,0,0,0,0,0,0,0,0,0,
0,0,0,0,0,0,0,0,0,0,0,0,0,0,7,7,7,7,0,0,32,0,7,7,7,7,0,0,0,32,7,7,7,7,0,0,0,0,0,0,0,0,0,0,0,0,0,0,
0,0,0,0,0,0,0,0,7,7,7,7,0,0,7,7,7,7,0,0,0,0,7,7,7,7,0,0,0,0,7,7,7,7,0,0,32,0,0,0,0,0,0,0,0,0,0,0,
0,0,0,0,0,0,0,0,0,0,32,0,0,0,7,7,7,7,0,0,32,0,7,7,7,7,0,0,0,0,7,7,7,7,0,0,7,7,7,7,0,0,0,0,0,0,0,0,
0,0,0,0,0,0,0,0,0,0,32,0,949,0,7,7,7,7,0,32,32,0,7,7,7,7,32,32,0,0,7,7,7,7,0,0,0,0,0,0,0,0,0,0,0,0,0,0,
0,0,0,0,0,0,0,0,7,7,7,7,32,0,7,7,7,7,0,32,32,0,7,7,7,7,0,32,0,0,7,7,7,7,0,32,0,0,32,0,0,0,0,0,0,0,0,0,
0,0,0,0,0,0,0,0,0,0,0,0,32,0,7,7,7,7,0,0,0,0,7,7,7,7,949,0,0,0,7,7,7,7,0,0,7,7,7,7,0,0,0,0,0,0,0,0,
0,0,0,0,0,0,0,0,0,32,32,0,0,0,7,7,7,7,3,3,3,3,7,7,7,7,3,3,3,3,7,7,7,7,0,0,0,0,32,0,0,0,0,0,0,0,0,0,
0,0,0,0,0,0,0,0,7,7,7,7,7,7,7,7,7,7,7,7,7,7,7,7,7,7,7,7,7,7,7,7,7,7,7,7,7,7,7,7,0,0,0,0,0,0,0,0,
0,0,0,0,0,0,0,0,7,7,7,7,7,7,7,7,7,7,7,7,7,7,7,7,7,7,7,7,7,7,7,7,7,7,7,7,7,7,7,7,0,0,0,0,0,0,0,0,
0,0,0,0,0,0,0,0,7,7,7,7,7,7,7,7,7,7,7,7,7,7,7,7,7,7,7,7,7,7,7,7,7,7,7,7,7,7,7,7,0,0,0,0,0,0,0,0,
0,0,0,0,0,0,0,0,0,0,0,0,0,0,0,0,0,0,0,0,0,0,0,0,0,0,0,0,0,0,0,0,0,0,0,0,0,0,0,0,0,0,0,0,0,0,0,0,
0,0,0,0,0,0,0,0,0,0,0,0,0,0,0,0,0,0,0,0,0,0,0,0,0,0,0,0,0,0,0,0,0,0,0,0,0,0,0,0,0,0,0,0,0,0,0,0,
0,0,0,0,0,0,0,0,0,0,0,0,0,0,0,0,0,0,0,0,0,0,0,0,0,0,0,0,0,0,0,0,0,0,0,0,0,0,0,0,0,0,0,0,0,0,0,0,
0,0,0,0,0,0,0,0,0,0,0,0,0,0,0,0,0,0,0,0,0,0,0,0,0,0,0,0,0,0,0,0,0,0,0,0,0,0,0,0,0,0,0,0,0,0,0,0,
0,0,0,0,0,0,0,0,0,0,0,0,0,0,0,0,0,0,0,0,0,0,0,0,0,0,0,0,0,0,0,0,0,0,0,0,0,0,0,0,0,0,0,0,0,0,0,0,
0,0,0,0,0,0,0,0,0,0,0,0,0,0,0,0,0,0,0,0,0,0,0,0,0,0,0,0,0,0,0,0,0,0,0,0,0,0,0,0,0,0,0,0,0,0,0,0,
0,0,0,0,0,0,0,0,0,0,0,0,0,0,0,0,0,0,0,0,0,0,0,0,0,0,0,0,0,0,0,0,0,0,0,0,0,0,0,0,0,0,0,0,0,0,0,0,
0,0,0,0,0,0,0,0,0,0,0,0,0,0,0,0,0,0,0,0,0,0,0,0,0,0,0,0,0,0,0,0,0,0,0,0,0,0,0,0,0,0,0,0,0,0,0,0,
0,0,0,0,0,0,0,0,0,0,0,0,0,0,0,0,0,0,0,0,0,0,0,0,0,0,0,0,0,0,0,0,0,0,0,0,0,0,0,0,0,0,0,0,0,0,0,0
</data>
 </layer>
 <layer id="3" name="edifici" width="48" height="45">
  <data encoding="csv">
421,422,421,422,421,422,421,422,421,422,421,422,421,422,421,422,421,422,421,422,421,422,421,422,421,422,421,422,421,422,421,422,421,422,421,422,421,422,421,422,421,422,421,422,421,422,421,422,
429,430,429,430,429,430,429,430,429,430,429,430,429,430,429,430,429,430,429,430,429,430,429,430,429,430,429,430,429,430,429,430,429,430,429,430,429,430,429,430,429,430,429,430,429,430,429,430,
437,438,437,438,437,438,437,438,437,438,437,438,437,438,437,438,437,438,437,438,437,438,437,438,437,438,437,438,437,438,437,438,437,438,437,438,437,438,437,438,437,438,437,438,437,438,437,438,
421,422,421,422,421,422,421,422,421,422,421,422,421,422,421,422,421,422,421,422,421,422,421,422,421,422,421,422,421,422,421,422,421,422,421,422,421,422,421,422,421,422,421,422,421,422,421,422,
429,430,429,430,429,430,429,430,429,430,429,430,429,430,429,430,429,430,429,430,429,430,429,430,429,430,429,430,429,430,429,430,429,430,429,430,429,430,429,430,429,430,429,430,429,430,429,430,
437,438,437,438,437,438,437,438,437,438,437,438,437,438,437,438,437,438,437,438,437,438,437,438,437,438,437,438,437,438,437,438,437,438,437,438,437,438,437,438,437,438,437,438,437,438,437,438,
421,422,421,422,421,422,421,422,421,422,421,422,421,422,421,422,421,422,421,422,421,422,421,422,421,422,421,422,421,422,421,422,421,422,421,422,421,422,421,422,421,422,421,422,421,422,421,422,
429,430,429,430,429,430,429,430,429,430,429,430,429,430,429,430,429,430,429,430,429,430,429,430,429,430,429,430,429,430,429,430,429,430,429,430,429,430,429,430,429,430,429,430,429,430,429,430,
437,438,437,438,437,438,437,438,437,438,437,438,437,438,437,438,437,438,437,438,437,438,437,438,437,438,437,438,437,438,437,438,437,438,437,438,437,438,437,438,437,438,437,438,437,438,437,438,
421,422,421,422,421,422,421,422,0,0,0,0,0,0,0,0,0,0,0,0,0,0,0,0,0,0,0,0,0,0,0,0,0,0,0,0,0,0,0,0,421,422,421,422,421,422,421,422,
429,430,429,430,429,430,429,430,0,0,0,0,0,0,0,0,0,0,0,0,0,0,0,0,0,0,0,0,0,0,0,0,0,0,0,0,0,0,0,0,429,430,429,430,429,430,429,430,
437,438,437,438,437,438,437,438,421,422,421,422,421,422,421,422,421,422,421,422,421,422,421,422,421,422,421,422,421,422,421,422,421,422,421,422,421,422,421,422,437,438,437,438,437,438,437,438,
421,422,421,422,421,422,421,422,429,430,429,430,429,430,429,430,429,430,429,430,429,430,429,430,429,430,429,430,429,430,429,430,429,430,429,430,429,430,429,430,421,422,421,422,421,422,421,422,
429,430,429,430,429,430,429,430,0,0,0,0,0,0,0,0,0,0,0,0,0,0,0,0,0,0,0,0,0,0,0,0,0,0,0,0,0,0,0,0,429,430,429,430,429,430,429,430,
437,438,437,438,437,438,437,438,0,0,0,476,0,0,0,0,0,0,0,0,0,0,0,6193,6194,6195,0,0,0,0,0,0,0,0,0,0,0,0,0,0,437,438,437,438,437,438,437,438,
421,422,421,422,421,422,421,422,0,0,0,476,0,0,0,0,0,0,0,0,0,0,0,6201,6202,6203,0,0,0,0,0,0,0,0,0,0,0,0,0,0,421,422,421,422,421,422,421,422,
429,430,429,430,429,430,429,430,0,0,0,476,0,0,0,0,0,0,0,0,0,955,0,6209,4224,6211,0,0,0,0,0,0,0,0,0,0,0,0,0,0,429,430,429,430,429,430,429,430,
437,438,437,438,437,438,437,438,476,476,476,476,0,0,0,0,0,0,0,0,0,0,0,0,0,0,0,0,0,0,0,0,0,0,0,0,0,0,0,0,437,438,437,438,437,438,437,438,
2908,2908,2908,2908,2908,2908,2908,2910,0,0,0,4148,4149,0,0,0,0,0,0,0,0,0,0,0,0,0,0,0,0,0,0,0,0,0,0,0,0,0,0,0,421,422,421,422,421,422,421,422,
2916,2916,2916,2916,2916,2916,2916,2918,2919,955,0,4156,4157,0,0,0,0,0,0,0,0,0,0,0,0,0,0,0,0,0,0,0,0,0,0,0,0,0,0,0,429,430,429,430,429,430,429,430,
2925,2925,2925,2925,2925,2925,2925,2926,2927,0,0,43,476,43,0,0,0,0,0,0,0,0,0,0,0,0,0,0,0,0,0,0,0,0,0,0,0,0,0,0,437,438,437,438,437,438,437,438,
2994,2994,2994,2994,2994,2994,2994,2934,2935,0,0,51,51,51,0,0,0,0,0,0,485,0,0,0,0,0,0,485,0,0,0,0,0,0,0,0,0,0,0,0,421,422,421,422,421,422,421,422,
3002,3002,3002,3002,3002,3002,3002,2942,2943,0,0,59,476,59,0,0,0,0,0,492,493,494,0,0,0,0,492,493,494,0,0,0,0,0,0,0,0,0,0,0,429,430,429,430,429,430,429,430,
0,0,0,0,0,0,0,0,476,476,476,476,476,0,0,0,0,0,0,500,501,502,0,0,0,0,500,501,502,0,0,0,0,0,0,0,0,0,0,0,437,438,437,438,437,438,437,438,
421,422,421,422,421,422,421,422,421,422,421,422,476,0,0,0,0,0,0,508,509,510,0,0,0,0,508,509,510,0,0,0,0,0,0,0,0,0,0,0,421,422,421,422,421,422,421,422,
429,430,429,430,429,430,429,430,429,430,429,430,0,0,0,0,0,0,0,0,0,0,0,0,0,0,0,0,0,0,0,0,0,0,0,0,421,422,421,422,429,430,429,430,429,430,429,430,
437,438,437,438,437,438,437,438,437,438,437,438,0,0,0,0,0,0,0,0,0,0,0,0,0,0,0,0,0,0,0,0,0,0,0,0,429,430,429,430,437,438,437,438,437,438,437,438,
421,422,421,422,421,422,421,422,421,422,421,422,0,0,0,0,0,0,0,485,0,0,0,0,0,0,0,0,485,0,0,0,0,0,0,0,437,438,437,438,421,422,421,422,421,422,421,422,
429,430,429,430,429,430,429,430,429,430,429,430,0,0,0,0,0,0,492,493,494,0,0,0,0,0,0,492,493,494,0,0,0,0,0,0,421,422,421,422,429,430,429,430,429,430,429,430,
437,438,437,438,437,438,437,438,437,438,437,438,0,0,0,0,0,0,500,501,502,0,0,0,0,0,0,500,501,502,0,0,0,0,0,0,429,430,429,430,437,438,437,438,437,438,437,438,
421,422,421,422,421,422,421,422,421,422,421,422,0,0,0,0,0,0,508,509,510,0,0,0,0,0,0,508,509,510,0,0,0,0,0,0,437,438,437,438,421,422,421,422,421,422,421,422,
429,430,429,430,429,430,429,430,429,430,429,430,0,0,0,0,0,0,0,0,0,0,0,0,0,0,0,0,0,0,0,0,0,0,0,0,421,422,421,422,429,430,429,430,429,430,429,430,
437,438,437,438,437,438,437,438,437,438,437,438,0,0,0,0,0,0,0,0,0,0,0,0,0,0,0,0,0,0,0,0,0,0,0,0,429,430,429,430,437,438,437,438,437,438,437,438,
421,422,421,422,421,422,421,422,0,0,0,0,0,0,0,0,0,0,0,0,0,0,0,0,0,0,0,0,0,0,0,0,0,0,0,0,437,438,437,438,421,422,421,422,421,422,421,422,
429,430,429,430,429,430,429,430,0,0,0,0,0,0,0,0,0,0,0,0,0,0,0,0,0,0,0,0,0,0,0,0,0,0,0,0,0,0,0,0,429,430,429,430,429,430,429,430,
437,438,437,438,437,438,437,438,0,0,0,0,0,0,0,0,0,0,0,0,0,0,0,0,0,0,0,0,0,0,0,0,0,0,0,0,0,0,0,0,437,438,437,438,437,438,437,438,
421,422,421,422,421,422,421,422,421,422,421,422,421,422,421,422,421,422,421,422,421,422,421,422,421,422,421,422,421,422,421,422,421,422,421,422,421,422,421,422,421,422,421,422,421,422,421,422,
429,430,429,430,429,430,429,430,429,430,429,430,429,430,429,430,429,430,429,430,429,430,429,430,429,430,429,430,429,430,429,430,429,430,429,430,429,430,429,430,429,430,429,430,429,430,429,430,
437,438,437,438,437,438,437,438,437,438,437,438,437,438,437,438,437,438,437,438,437,438,437,438,437,438,437,438,437,438,437,438,437,438,437,438,437,438,437,438,437,438,437,438,437,438,437,438,
421,422,421,422,421,422,421,422,421,422,421,422,421,422,421,422,421,422,421,422,421,422,421,422,421,422,421,422,421,422,421,422,421,422,421,422,421,422,421,422,421,422,421,422,421,422,421,422,
429,430,429,430,429,430,429,430,429,430,429,430,429,430,429,430,429,430,429,430,429,430,429,430,429,430,429,430,429,430,429,430,429,430,429,430,429,430,429,430,429,430,429,430,429,430,429,430,
437,438,437,438,437,438,437,438,437,438,437,438,437,438,437,438,437,438,437,438,437,438,437,438,437,438,437,438,437,438,437,438,437,438,437,438,437,438,437,438,437,438,437,438,437,438,437,438,
421,422,421,422,421,422,421,422,421,422,421,422,421,422,421,422,421,422,421,422,421,422,421,422,421,422,421,422,421,422,421,422,421,422,421,422,421,422,421,422,421,422,421,422,421,422,421,422,
429,430,429,430,429,430,429,430,429,430,429,430,429,430,429,430,429,430,429,430,429,430,429,430,429,430,429,430,429,430,429,430,429,430,429,430,429,430,429,430,429,430,429,430,429,430,429,430,
437,438,437,438,437,438,437,438,437,438,437,438,437,438,437,438,437,438,437,438,437,438,437,438,437,438,437,438,437,438,437,438,437,438,437,438,437,438,437,438,437,438,437,438,437,438,437,438
</data>
 </layer>
 <layer id="4" name="sopra_testa" width="48" height="45">
  <data encoding="csv">
0,0,0,0,0,0,0,0,0,0,0,0,0,0,0,0,0,0,0,0,0,0,0,0,0,0,0,0,0,0,0,0,0,0,0,0,0,0,0,0,0,0,0,0,0,0,0,0,
0,0,0,0,0,0,0,0,0,0,0,0,0,0,0,0,0,0,0,0,0,0,0,0,0,0,0,0,0,0,0,0,0,0,0,0,0,0,0,0,0,0,0,0,0,0,0,0,
0,0,0,0,0,0,0,0,0,0,0,0,0,0,0,0,0,0,0,0,0,0,0,0,0,0,0,0,0,0,0,0,0,0,0,0,0,0,0,0,0,0,0,0,0,0,0,0,
0,0,0,0,0,0,0,0,0,0,0,0,0,0,0,0,0,0,0,0,0,0,0,0,0,0,0,0,0,0,0,0,0,0,0,0,0,0,0,0,0,0,0,0,0,0,0,0,
0,0,0,0,0,0,0,0,0,0,0,0,0,0,0,0,0,0,0,0,0,0,0,0,0,0,0,0,0,0,0,0,0,0,0,0,0,0,0,0,0,0,0,0,0,0,0,0,
0,0,0,0,0,0,0,0,0,0,0,0,0,0,0,0,0,0,0,0,0,0,0,0,0,0,0,0,0,0,0,0,0,0,0,0,0,0,0,0,0,0,0,0,0,0,0,0,
0,0,0,0,0,0,0,0,0,0,0,0,0,0,0,0,0,0,0,0,0,0,0,0,0,0,0,0,0,0,0,0,0,0,0,0,0,0,0,0,0,0,0,0,0,0,0,0,
0,0,0,0,0,0,0,0,0,0,0,0,0,0,0,0,0,0,0,0,0,0,0,0,0,0,0,0,0,0,0,0,0,0,0,0,0,0,0,0,0,0,0,0,0,0,0,0,
0,0,0,0,0,0,0,0,0,0,0,0,0,0,0,0,0,0,0,0,0,0,0,0,0,0,0,0,0,0,0,0,0,0,0,0,0,0,0,0,0,0,0,0,0,0,0,0,
0,0,0,0,0,0,0,0,0,0,0,0,0,0,0,0,0,0,0,0,0,0,0,0,0,0,0,0,0,0,0,0,0,0,0,0,0,0,0,0,0,0,0,0,0,0,0,0,
0,0,0,0,0,0,0,0,0,0,0,0,0,0,0,0,0,0,0,0,0,0,0,0,0,0,0,0,0,0,0,0,0,0,0,0,0,0,0,0,0,0,0,0,0,0,0,0,
0,0,0,0,0,0,0,0,0,0,0,0,0,0,0,0,0,0,0,0,0,0,0,0,0,0,0,0,0,0,0,0,0,0,0,0,0,0,0,0,0,0,0,0,0,0,0,0,
0,0,0,0,0,0,0,0,0,0,0,0,0,0,0,0,0,0,0,0,0,0,0,0,0,0,0,0,0,0,0,0,0,0,0,0,0,0,0,0,0,0,0,0,0,0,0,0,
0,0,0,0,0,0,0,0,0,0,0,0,0,0,0,0,0,0,0,0,0,0,0,0,0,0,0,0,0,0,0,0,0,0,0,0,0,0,0,0,0,0,0,0,0,0,0,0,
0,0,0,0,0,0,0,0,0,0,0,0,0,0,0,0,0,0,0,0,0,0,0,0,0,0,0,0,0,0,0,0,0,0,0,0,0,0,0,0,0,0,0,0,0,0,0,0,
0,0,0,0,0,0,0,0,0,0,0,0,0,0,0,0,0,0,0,0,0,0,0,0,949,0,0,0,0,0,0,0,0,0,0,0,0,0,0,0,0,0,0,0,0,0,0,0,
0,0,0,0,0,0,0,0,0,0,0,0,0,0,0,0,0,0,0,0,0,0,0,0,0,0,0,0,0,0,0,0,0,0,0,0,0,0,0,0,0,0,0,0,0,0,0,0,
0,0,0,0,0,0,0,0,0,0,0,0,0,0,0,0,0,0,0,0,0,0,0,0,0,0,0,0,0,0,0,0,0,0,0,0,0,0,0,0,0,0,0,0,0,0,0,0,
0,0,0,0,0,0,0,0,0,0,0,0,0,0,0,0,0,0,0,0,0,0,0,0,0,0,0,0,0,0,0,0,0,0,0,0,0,0,0,0,0,0,0,0,0,0,0,0,
0,0,0,0,0,0,0,0,0,0,0,0,0,0,0,0,0,0,0,0,0,0,0,0,0,0,0,0,0,0,0,0,0,0,0,0,0,0,0,0,0,0,0,0,0,0,0,0,
0,0,0,0,0,0,0,0,0,0,0,0,0,0,0,0,0,0,0,0,0,0,0,0,0,0,0,0,0,0,0,0,0,0,0,0,0,0,0,0,0,0,0,0,0,0,0,0,
0,0,0,0,0,0,0,0,0,0,0,0,0,0,0,0,0,0,0,0,0,0,0,0,0,0,0,0,0,0,0,0,0,0,0,0,0,0,0,0,0,0,0,0,0,0,0,0,
0,0,0,0,0,0,0,0,0,0,0,0,0,0,0,0,0,0,0,0,0,0,0,0,0,0,0,0,0,0,0,0,0,0,0,0,0,0,0,0,0,0,0,0,0,0,0,0,
0,0,0,0,0,0,0,0,0,0,0,0,0,0,0,0,0,0,0,0,0,0,0,0,0,0,0,0,0,0,0,0,0,0,0,0,0,0,0,0,0,0,0,0,0,0,0,0,
0,0,0,0,0,0,0,0,0,0,0,0,0,0,0,0,0,0,0,0,0,0,0,0,0,0,0,0,0,0,0,0,0,0,0,0,0,0,0,0,0,0,0,0,0,0,0,0,
0,0,0,0,0,0,0,0,0,0,0,0,0,0,0,0,0,0,0,0,0,0,0,0,0,0,0,0,0,0,0,0,0,0,0,0,0,0,0,0,0,0,0,0,0,0,0,0,
0,0,0,0,0,0,0,0,0,0,0,0,0,0,0,0,0,0,0,0,0,0,0,0,0,0,0,0,0,0,0,0,0,0,0,0,0,0,0,0,0,0,0,0,0,0,0,0,
0,0,0,0,0,0,0,0,0,0,0,0,0,0,0,0,0,0,0,0,0,0,0,0,0,0,0,0,0,0,0,0,0,0,0,0,0,0,0,0,0,0,0,0,0,0,0,0,
0,0,0,0,0,0,0,0,0,0,0,0,0,0,0,0,0,0,0,0,0,0,0,0,0,0,0,0,0,0,0,0,0,0,0,0,0,0,0,0,0,0,0,0,0,0,0,0,
0,0,0,0,0,0,0,0,0,0,0,0,0,0,0,0,0,0,0,0,0,0,0,0,0,0,0,0,0,0,0,0,0,0,0,0,0,0,0,0,0,0,0,0,0,0,0,0,
0,0,0,0,0,0,0,0,0,0,0,0,0,0,0,0,0,0,0,0,0,0,0,0,0,0,0,0,0,0,0,0,0,0,0,0,0,0,0,0,0,0,0,0,0,0,0,0,
0,0,0,0,0,0,0,0,0,0,0,0,0,0,0,0,0,0,0,0,0,0,0,0,0,0,0,0,0,0,0,0,0,0,0,0,0,0,0,0,0,0,0,0,0,0,0,0,
0,0,0,0,0,0,0,0,0,0,0,0,0,0,0,0,0,0,0,0,0,0,0,0,0,0,0,0,0,0,0,0,0,0,0,0,0,0,0,0,0,0,0,0,0,0,0,0,
0,0,0,0,0,0,0,0,0,0,0,0,0,0,0,0,0,0,0,0,0,0,0,0,0,0,0,0,0,0,0,0,0,0,0,0,0,0,0,0,0,0,0,0,0,0,0,0,
0,0,0,0,0,0,0,0,0,0,0,0,0,0,0,0,0,0,0,0,0,0,0,0,0,0,0,0,0,0,0,0,0,0,0,0,0,0,0,0,0,0,0,0,0,0,0,0,
0,0,0,0,0,0,0,0,0,0,0,0,0,0,0,0,0,0,0,0,0,0,0,0,0,0,0,0,0,0,0,0,0,0,0,0,0,0,0,0,0,0,0,0,0,0,0,0,
0,0,0,0,0,0,0,0,0,0,0,0,0,0,0,0,0,0,0,0,0,0,0,0,0,0,0,0,0,0,0,0,0,0,0,0,0,0,0,0,0,0,0,0,0,0,0,0,
0,0,0,0,0,0,0,0,0,0,0,0,0,0,0,0,0,0,0,0,0,0,0,0,0,0,0,0,0,0,0,0,0,0,0,0,0,0,0,0,0,0,0,0,0,0,0,0,
0,0,0,0,0,0,0,0,0,0,0,0,0,0,0,0,0,0,0,0,0,0,0,0,0,0,0,0,0,0,0,0,0,0,0,0,0,0,0,0,0,0,0,0,0,0,0,0,
0,0,0,0,0,0,0,0,0,0,0,0,0,0,0,0,0,0,0,0,0,0,0,0,0,0,0,0,0,0,0,0,0,0,0,0,0,0,0,0,0,0,0,0,0,0,0,0,
0,0,0,0,0,0,0,0,0,0,0,0,0,0,0,0,0,0,0,0,0,0,0,0,0,0,0,0,0,0,0,0,0,0,0,0,0,0,0,0,0,0,0,0,0,0,0,0,
0,0,0,0,0,0,0,0,0,0,0,0,0,0,0,0,0,0,0,0,0,0,0,0,0,0,0,0,0,0,0,0,0,0,0,0,0,0,0,0,0,0,0,0,0,0,0,0,
0,0,0,0,0,0,0,0,0,0,0,0,0,0,0,0,0,0,0,0,0,0,0,0,0,0,0,0,0,0,0,0,0,0,0,0,0,0,0,0,0,0,0,0,0,0,0,0,
0,0,0,0,0,0,0,0,0,0,0,0,0,0,0,0,0,0,0,0,0,0,0,0,0,0,0,0,0,0,0,0,0,0,0,0,0,0,0,0,0,0,0,0,0,0,0,0,
0,0,0,0,0,0,0,0,0,0,0,0,0,0,0,0,0,0,0,0,0,0,0,0,0,0,0,0,0,0,0,0,0,0,0,0,0,0,0,0,0,0,0,0,0,0,0,0
</data>
 </layer>
 <objectgroup id="20" name="collisioni">
  <object id="30" x="258.807" y="417.684" width="1024.56" height="28.6316"/>
  <object id="31" x="809.544" y="445.754" width="16.8421" height="84.2105"/>
  <object id="32" x="731.509" y="443.509" width="25.8246" height="87.0175"/>
  <object id="33" x="716.912" y="447.439" width="139.228" height="16.8421"/>
  <object id="34" x="1157.05" y="808.982" width="113.965" height="265.544"/>
  <object id="35" x="262.175" y="778.667" width="112.281" height="272.281"/>
  <object id="36" x="389.053" y="709.053" width="22.4561" height="81.9649"/>
  <object id="37" x="354.246" y="436.772" width="25.8246" height="186.386"/>
  <object id="38" x="393.544" y="585.544" width="11.7895" height="77.4737"/>
  <object id="39" x="368.281" y="744.982" width="12.3509" height="49.4035"/>
  <object id="40" x="619.228" y="691.649" width="76.3509" height="96"/>
  <object id="41" x="585.544" y="885.333" width="70.7368" height="90.386"/>
  <object id="42" x="840.421" y="697.263" width="74.6667" height="87.0175"/>
  <object id="43" x="872.421" y="880.842" width="71.8596" height="90.9474"/>
  <object id="49" x="257.25" y="548.25" width="104" height="18.5"/>
  <object id="50" x="261.5" y="738.75" width="129.75" height="20.5"/>
  <object id="51" x="124.5" y="578.25" width="128.5" height="66.25"/>
  <object id="52" x="102.25" y="645" width="123.75" height="89.25"/>
  <object id="53" x="229.75" y="713.75" width="23" height="98.75"/>
  <object id="54" x="198.333" y="968.333" width="50" height="226.333"/>
  <object id="55" x="236" y="1159" width="1286" height="69"/>
  <object id="56" x="1285" y="103" width="238" height="1291"/>
  <object id="57" x="1" y="300" width="256" height="265"/>
  <object id="58" x="-159" y="818"/>
 </objectgroup>
 <objectgroup color="#ff0000" id="6" name="eventi">
  <object id="2" name="trainer" type="trainer" x="382.877" y="1022.88" width="32" height="32">
   <properties>
    <property name="direzione" value="est"/>
    <property name="id" value="all-boschetto-1"/>
    <property name="sprite" value="BUGCATCHER"/>
    <property name="type" value="trainer"/>
    <property name="vista" type="int" value="4"/>
   </properties>
  </object>
  <object id="3" name="trainer" type="trainer" x="876.912" y="807.86" width="32" height="32">
   <properties>
    <property name="direzione" value="ovest"/>
    <property name="direzione_ciclo" value="EO"/>
    <property name="id" value="all-bosch-2"/>
    <property name="pattuglia" type="bool" value="true"/>
    <property name="sprite" value="LASS"/>
    <property name="type" value="trainer"/>
    <property name="vista" type="int" value="5"/>
   </properties>
  </object>
  <object id="4" name="trainer" type="trainer" x="1118.32" y="1022.88" width="32" height="32">
   <properties>
    <property name="direzione" value="ovest"/>
    <property name="id" value="all-bosch-3"/>
    <property name="sprite" value="BIRDKEEPER"/>
    <property name="type" value="trainer"/>
    <property name="vista" type="int" value="4"/>
   </properties>
  </object>
  <object id="5" name="trainer" type="trainer" x="668.632" y="990.877" width="32" height="32">
   <properties>
    <property name="direzione" value="sud"/>
    <property name="direzione_ciclo" value="EO"/>
    <property name="id" value="all-bosch-4"/>
    <property name="pattuglia" type="bool" value="true"/>
    <property name="sprite" value="BUGCATCHER"/>
    <property name="type" value="trainer"/>
    <property name="vista" type="int" value="5"/>
   </properties>
  </object>
  <object id="6" name="gate_npc" type="npc" x="351.439" y="638.877" width="32" height="32">
   <properties>
    <property name="condizione" value="post_lega"/>
    <property name="direzione" value="sud"/>
    <property name="gate" type="bool" value="true"/>
    <property name="id" value="bosch_guardiano"/>
    <property name="sprite" value="NPC_GUARDIA"/>
    <property name="type" value="npc"/>
   </properties>
  </object>
  <object id="205" name="il_solitario" type="trainer" x="764.558" y="578.267" width="32" height="32">
   <properties>
    <property name="condizione" value="post_lega"/>
    <property name="direzione" value="sud"/>
    <property name="id" value="il_solitario"/>
    <property name="post_battaglia_npc" value="il_solitario_post"/>
    <property name="speciale" type="bool" value="true"/>
    <property name="sprite" value="CAMPIONE_SOLITARIO"/>
    <property name="type" value="trainer"/>
    <property name="vista" type="int" value="1"/>
   </properties>
  </object>
  <object id="207" name="il_solitario_post" type="npc" x="736" y="416" width="32" height="32" visible="0">
   <properties>
    <property name="condizione" value="il_solitario_sconfitto"/>
    <property name="direzione" value="sud"/>
    <property name="id" value="il_solitario_post"/>
    <property name="sprite" value="CAMPIONE_SOLITARIO"/>
    <property name="type" value="npc"/>
   </properties>
  </object>
  <object id="10" name="bosch_pietraimprv" type="oggetto" x="386.807" y="928.561" width="32" height="32">
   <properties>
    <property name="contenuto" value="pietra_improvvisa"/>
    <property name="id" value="bosch_pietraimprv"/>
    <property name="quantita" type="int" value="1"/>
    <property name="type" value="oggetto"/>
   </properties>
  </object>
  <object id="11" name="bosch_fullrestore" type="oggetto" x="833.684" y="987.509" width="32" height="32">
   <properties>
    <property name="contenuto" value="fullrestore"/>
    <property name="id" value="bosch_fullrestore"/>
    <property name="quantita" type="int" value="1"/>
    <property name="type" value="oggetto"/>
   </properties>
  </object>
  <object id="12" name="bosch_rarecandy" type="oggetto" x="767.857" y="482.246" width="32" height="32">
   <properties>
    <property name="contenuto" value="caramella_rara"/>
    <property name="id" value="bosch_rarecandy"/>
    <property name="quantita" type="int" value="1"/>
    <property name="type" value="oggetto"/>
   </properties>
  </object>
  <object id="13" name="bosch_pokeball" type="oggetto" x="480" y="576" width="32" height="32">
   <properties>
    <property name="contenuto" value="superball"/>
    <property name="id" value="bosch_pokeball"/>
    <property name="quantita" type="int" value="2"/>
    <property name="type" value="oggetto"/>
   </properties>
  </object>
  <object id="15" name="cartello" type="cartello" x="292.491" y="608.561" width="32" height="32">
   <properties>
    <property name="testo" value="I Pokémon qui sono più rari e più forti."/>
    <property name="type" value="cartello"/>
   </properties>
  </object>
  <object id="16" name="cartello" type="cartello" x="667.509" y="511.439" width="32" height="32">
   <properties>
    <property name="testo" value="Qualcuno si allena qui, in silenzio, da anni..."/>
    <property name="type" value="cartello"/>
   </properties>
  </object>
  <object id="17" name="warp" type="warp" x="232.25" y="648.75" width="19.25" height="19.25">
   <properties>
    <property name="destinazione" value="tuscolo_interno"/>
    <property name="spawn_id" value="da_boschetto_segreto"/>
    <property name="type" value="warp"/>
   </properties>
  </object>
  <object id="18" name="warp" type="warp" x="232.25" y="668" width="19.25" height="19.25">
   <properties>
    <property name="destinazione" value="tuscolo_interno"/>
    <property name="spawn_id" value="da_boschetto_segreto"/>
    <property name="type" value="warp"/>
   </properties>
  </object>
  <object id="19" name="warp" type="warp" x="232.25" y="687.25" width="19.25" height="19.25">
   <properties>
    <property name="destinazione" value="tuscolo_interno"/>
    <property name="spawn_id" value="da_boschetto_segreto"/>
    <property name="type" value="warp"/>
   </properties>
  </object>
  <object id="20" name="spawn" type="spawn" x="262.61" y="678.623" width="21" height="22">
   <properties>
    <property name="id" value="da_tuscolo_ovest"/>
    <property name="type" value="spawn"/>
   </properties>
  </object>
  <object id="44" name="erba alta percorso 1" x="994.394" y="513.722" width="282.089" height="276.136">
   <properties>
    <property name="id" value="incontri tuscolo"/>
    <property name="type" value="erba_alta"/>
   </properties>
  </object>
  <object id="45" name="erba alta percorso 1" x="444.499" y="801.16" width="132.194" height="276.136">
   <properties>
    <property name="id" value="incontri tuscolo"/>
    <property name="type" value="erba_alta"/>
   </properties>
  </object>
  <object id="46" name="erba alta percorso 1" x="703.587" y="806.774" width="132.194" height="276.136">
   <properties>
    <property name="id" value="incontri tuscolo"/>
    <property name="type" value="erba_alta"/>
   </properties>
  </object>
  <object id="47" name="erba alta percorso 1" x="962.956" y="800.037" width="132.194" height="276.136">
   <properties>
    <property name="id" value="incontri tuscolo"/>
    <property name="type" value="erba_alta"/>
   </properties>
  </object>
  <object id="48" name="erba alta percorso 1" x="262.324" y="1054.91" width="1016.4" height="83.8728">
   <properties>
    <property name="id" value="incontri tuscolo"/>
    <property name="type" value="erba_alta"/>
   </properties>
  </object>
 </objectgroup>
</map>
