<?xml version="1.0" encoding="UTF-8"?>
<map version="1.10" tiledversion="1.12.2" orientation="orthogonal" renderorder="right-down" width="15" height="19" tilewidth="32" tileheight="32" infinite="0" nextlayerid="3" nextobjectid="1">
 <tileset firstgid="1" source="../house1.tsj"/>
 <tileset firstgid="811" source="../house2.tsj"/>
 <tileset firstgid="991" source="../interno_edificio.tsj"/>
 <tileset firstgid="2360" source="../Interior_general_32.tsj"/>
 <layer id="1" name="ground" width="15" height="19">
  <data encoding="csv">
1011,1012,1013,1014,1015,1016,1017,1018,1019,1020,1021,1022,1023,1024,1025,
1048,1049,1050,1051,1052,1053,1054,1055,1056,1057,1058,1059,1060,1061,1062,
1085,1086,1087,1088,1089,1090,1091,1092,1093,1094,1095,1096,1097,1098,1099,
1122,1123,1124,1125,1126,1127,1128,1129,1130,1131,1132,1133,1134,1135,1136,
1159,1160,1161,1162,1163,1164,1165,1166,1167,1168,1169,1170,1171,1172,1173,
1196,1197,1198,1199,1200,1201,1202,1203,1204,1205,1206,1207,1208,1209,1210,
1233,1234,1235,1236,1237,1238,1239,1240,1241,1242,1243,1244,1244,1246,1247,
1270,1271,1272,1273,1274,1275,1276,1277,1278,1279,1280,1281,1281,1283,1284,
1307,1308,1309,1310,1311,1312,1313,1314,1315,1316,1317,1318,1318,1320,1321,
1344,1345,1346,1347,1348,1349,1350,1351,1352,1353,1354,1355,1355,1392,1358,
1381,1382,1383,1384,1385,1386,1387,1388,1389,1390,1391,1392,1392,1394,1395,
1418,1419,1420,1421,1422,1423,1424,1425,1426,1427,1428,1429,1430,1431,1432,
1455,1456,1457,1458,1459,1460,1461,1462,1463,1464,1465,1466,1467,1468,1469,
1492,1493,1494,1495,1496,1497,1498,1499,1500,1501,1502,1503,1504,1505,1506,
1529,1530,1531,1532,1533,1534,1535,1536,1537,1538,1539,1540,1541,1542,1543,
0,0,0,0,0,0,1535,1536,1537,1538,0,0,0,0,0,
0,0,0,0,0,0,1572,1573,1574,1575,0,0,0,0,0,
0,0,0,0,0,0,1609,1610,1611,1612,0,0,0,0,0,
0,0,0,0,0,0,0,0,0,0,0,0,0,0,0
</data>
 </layer>
 <layer id="2" name="deco_sotto" width="15" height="19">
  <data encoding="csv">
0,0,0,0,0,0,0,0,0,0,0,0,0,0,0,
0,0,0,0,0,0,0,0,0,0,0,0,0,0,0,
0,0,0,0,0,0,0,0,0,0,0,0,0,0,0,
0,0,0,0,0,0,0,0,0,0,0,0,0,0,0,
0,0,0,0,0,0,0,0,0,0,0,0,0,0,0,
0,0,0,0,0,0,0,0,0,0,0,0,0,0,0,
0,3664,0,0,0,0,0,0,0,0,0,0,0,3664,0,
0,3672,0,0,0,0,0,0,0,0,0,0,0,3672,0,
0,3680,0,0,0,0,0,0,0,0,0,0,0,3680,0,
0,3664,0,0,0,0,0,0,0,0,0,0,0,3664,0,
0,3672,0,0,0,0,0,0,0,0,0,0,0,3672,0,
0,3680,0,0,0,0,0,0,0,0,0,0,0,3680,0,
0,0,0,0,0,0,0,0,0,0,0,0,0,0,0,
0,0,0,0,0,0,0,0,0,0,0,0,0,0,0,
0,0,0,0,0,0,0,0,0,0,0,0,0,0,0,
0,0,0,0,0,0,0,0,0,0,0,0,0,0,0,
0,0,0,0,0,0,0,0,0,0,0,0,0,0,0,
0,0,0,0,0,0,0,0,0,0,0,0,0,0,0,
0,0,0,0,0,0,0,0,0,0,0,0,0,0,0
</data>
 </layer>
</map>
