<?xml version="1.0" encoding="UTF-8"?>
<map version="1.10" tiledversion="1.12.2" orientation="orthogonal" renderorder="right-down" width="10" height="10" tilewidth="32" tileheight="32" infinite="0" nextlayerid="4" nextobjectid="35">
 <tileset firstgid="1" name="casa_sul_lago_tileset" tilewidth="32" tileheight="32" tilecount="96" columns="16">
  <image source="../casa_sul_lago_tileset.png" width="512" height="192"/>
 </tileset>
 <tileset firstgid="97" source="../../outside.tsx"/>
 <layer id="1" name="ground" width="10" height="10">
  <data encoding="csv">
1,3,5,7,3,3,3,3,9,11,
13,15,17,19,21,21,23,25,27,29,
31,33,35,37,39,41,43,45,47,49,
39,51,53,53,53,53,53,53,55,57,
39,59,61,63,65,67,69,61,71,57,
41,59,61,63,73,75,69,61,71,57,
39,77,79,79,79,79,79,79,81,57,
41,57,57,57,57,57,57,57,57,57,
83,57,57,57,85,87,57,57,57,89,
0,0,0,0,97,97,0,0,0,0
</data>
 </layer>
 <layer id="5" name="deco_sotto" width="10" height="10">
  <data encoding="csv">
0,0,0,0,0,0,0,0,0,0,
0,0,0,0,0,0,0,0,0,0,
0,0,0,0,40,0,0,0,0,0,
40,52,54,54,54,54,54,54,56,58,
40,60,62,0,0,0,0,62,72,58,
0,60,62,0,0,0,0,62,72,58,
40,78,80,80,80,80,80,80,82,58,
0,58,58,58,58,58,58,58,58,58,
84,58,58,58,0,0,58,58,58,90,
0,0,0,0,0,0,0,0,0,0
</data>
 </layer>
 <layer id="2" name="edifici" width="10" height="10">
  <data encoding="csv">
2,4,6,8,4,4,4,4,10,12,
14,16,18,20,22,22,24,26,28,30,
32,34,36,38,0,42,44,46,48,50,
0,0,0,0,0,0,0,0,0,0,
0,0,0,64,66,68,70,0,0,0,
42,0,0,64,74,76,70,0,0,0,
0,0,0,0,0,0,0,0,0,0,
42,0,0,0,0,0,0,0,0,0,
0,0,0,0,86,88,0,0,0,0,
0,0,0,0,0,0,0,0,0,0
</data>
 </layer>
 <objectgroup id="3" name="collisioni">
  <object id="1000" x="0" y="0" width="32" height="32"/>
  <object id="1001" x="32" y="0" width="32" height="32"/>
  <object id="1002" x="64" y="0" width="32" height="32"/>
  <object id="1003" x="96" y="0" width="32" height="32"/>
  <object id="1004" x="128" y="0" width="32" height="32"/>
  <object id="1005" x="160" y="0" width="32" height="32"/>
  <object id="1006" x="192" y="0" width="32" height="32"/>
  <object id="1007" x="224" y="0" width="32" height="32"/>
  <object id="1008" x="256" y="0" width="32" height="32"/>
  <object id="1009" x="288" y="0" width="32" height="32"/>
  <object id="1010" x="0" y="32" width="32" height="32"/>
  <object id="1011" x="32" y="32" width="32" height="32"/>
  <object id="1012" x="64" y="32" width="32" height="32"/>
  <object id="1013" x="96" y="32" width="32" height="32"/>
  <object id="1014" x="128" y="32" width="32" height="32"/>
  <object id="1015" x="160" y="32" width="32" height="32"/>
  <object id="1016" x="192" y="32" width="32" height="32"/>
  <object id="1017" x="224" y="32" width="32" height="32"/>
  <object id="1018" x="256" y="32" width="32" height="32"/>
  <object id="1019" x="288" y="32" width="32" height="32"/>
  <object id="1020" x="160" y="64" width="32" height="32"/>
  <object id="1021" x="128" y="128" width="32" height="32"/>
  <object id="1022" x="160" y="128" width="32" height="32"/>
  <object id="1023" x="0" y="160" width="32" height="32"/>
  <object id="1024" x="128" y="160" width="32" height="32"/>
  <object id="1025" x="160" y="160" width="32" height="32"/>
  <object id="1026" x="0" y="224" width="32" height="32"/>
  <object id="1027" x="0" y="256" width="32" height="32"/>
  <object id="1028" x="288" y="256" width="32" height="32"/>
 </objectgroup>
 <objectgroup id="4" name="eventi">
  <object id="1" name="npc_casa_sul_lago_1" x="147.667" y="86.6667">
   <properties>
    <property name="id" value="npc_casa_sul_lago_1"/>
    <property name="nota_origine" value="trainer forte che se battuto ti dona surf!"/>
    <property name="type" value="npc"/>
   </properties>
   <point/>
  </object>
  <object id="2" name="npc_casa_sul_lago_2" x="112" y="160">
   <properties>
    <property name="id" value="npc_casa_sul_lago_2"/>
    <property name="nota_origine" value="OBJ_EVENT_GFX_GENTLEMAN"/>
    <property name="type" value="npc"/>
   </properties>
   <point/>
  </object>
  <object id="3" name="Lago_di_albano" x="129.667" y="288.333" width="60.6667" height="32">
   <properties>
    <property name="nota_origine" value="Lago_di_albano"/>
    <property name="type" value="warp"/>
   </properties>
  </object>
  <object id="34" name="spawn" x="128.333" y="256.667" width="61.6667" height="32">
   <properties>
    <property name="type" value="spawn da Lago_di_albano"/>
   </properties>
  </object>
 </objectgroup>
</map>
