{
 "compressionlevel": -1,
 "width": 17,
 "height": 9,
 "tilewidth": 32,
 "tileheight": 32,
 "infinite": false,
 "orientation": "orthogonal",
 "renderorder": "right-down",
 "type": "map",
 "version": "1.10",
 "tiledversion": "1.11.0",
 "nextlayerid": 4,
 "nextobjectid": 69,
 "tilesets": [
  {
   "firstgid": 1,
   "image": "../casa2_tileset.png",
   "imagewidth": 512,
   "imageheight": 224,
   "columns": 16,
   "tilecount": 104,
   "tilewidth": 32,
   "tileheight": 32,
   "name": "casa2_tileset",
   "margin": 0,
   "spacing": 0
  }
 ],
 "layers": [
  {
   "id": 1,
   "name": "ground",
   "type": "tilelayer",
   "width": 17,
   "height": 9,
   "data": [
    1,
    3,
    5,
    1,
    1,
    7,
    1,
    9,
    1,
    11,
    13,
    1,
    1,
    7,
    7,
    1,
    1,
    15,
    17,
    19,
    21,
    21,
    23,
    21,
    25,
    21,
    27,
    29,
    21,
    21,
    23,
    23,
    21,
    21,
    31,
    33,
    35,
    37,
    37,
    37,
    37,
    37,
    37,
    39,
    29,
    37,
    37,
    41,
    43,
    37,
    37,
    45,
    47,
    47,
    47,
    47,
    47,
    47,
    47,
    47,
    47,
    29,
    45,
    49,
    51,
    53,
    55,
    47,
    45,
    47,
    57,
    59,
    61,
    55,
    47,
    47,
    47,
    47,
    29,
    45,
    47,
    63,
    65,
    65,
    65,
    45,
    49,
    67,
    69,
    71,
    47,
    47,
    47,
    47,
    47,
    73,
    45,
    47,
    75,
    77,
    77,
    77,
    45,
    47,
    47,
    47,
    47,
    47,
    47,
    47,
    47,
    47,
    79,
    45,
    47,
    81,
    83,
    85,
    87,
    45,
    47,
    47,
    47,
    47,
    47,
    47,
    47,
    47,
    47,
    89,
    91,
    47,
    93,
    95,
    97,
    99,
    45,
    47,
    47,
    47,
    47,
    101,
    103,
    47,
    47,
    47,
    47,
    47,
    47,
    47,
    47,
    47,
    47
   ],
   "opacity": 1,
   "visible": true,
   "x": 0,
   "y": 0
  },
  {
   "id": 2,
   "name": "sopra_testa",
   "type": "tilelayer",
   "width": 17,
   "height": 9,
   "data": [
    2,
    4,
    6,
    2,
    2,
    8,
    2,
    10,
    2,
    12,
    14,
    2,
    2,
    8,
    8,
    2,
    2,
    16,
    18,
    20,
    22,
    22,
    24,
    22,
    26,
    22,
    28,
    30,
    22,
    22,
    24,
    24,
    22,
    22,
    32,
    34,
    36,
    38,
    38,
    38,
    38,
    38,
    38,
    40,
    30,
    38,
    38,
    42,
    44,
    38,
    38,
    46,
    48,
    48,
    48,
    48,
    48,
    48,
    48,
    48,
    48,
    30,
    46,
    50,
    52,
    54,
    56,
    48,
    46,
    48,
    58,
    60,
    62,
    56,
    48,
    48,
    48,
    48,
    30,
    46,
    48,
    64,
    66,
    66,
    66,
    46,
    50,
    68,
    70,
    72,
    48,
    48,
    48,
    48,
    48,
    74,
    46,
    48,
    76,
    78,
    78,
    78,
    46,
    48,
    48,
    48,
    48,
    48,
    48,
    48,
    48,
    48,
    80,
    46,
    48,
    82,
    84,
    86,
    88,
    46,
    48,
    48,
    48,
    48,
    48,
    48,
    48,
    48,
    48,
    90,
    92,
    48,
    94,
    96,
    98,
    100,
    46,
    48,
    48,
    48,
    48,
    102,
    104,
    48,
    48,
    48,
    48,
    48,
    48,
    48,
    48,
    48,
    48
   ],
   "opacity": 1,
   "visible": true,
   "x": 0,
   "y": 0
  },
  {
   "id": 3,
   "name": "collisioni",
   "type": "objectgroup",
   "opacity": 1,
   "visible": true,
   "x": 0,
   "y": 0,
   "objects": [
    {
     "id": 1000,
     "name": "",
     "type": "",
     "x": 0,
     "y": 0,
     "width": 32,
     "height": 32,
     "rotation": 0,
     "visible": true,
     "properties": []
    },
    {
     "id": 1001,
     "name": "",
     "type": "",
     "x": 32,
     "y": 0,
     "width": 32,
     "height": 32,
     "rotation": 0,
     "visible": true,
     "properties": []
    },
    {
     "id": 1002,
     "name": "",
     "type": "",
     "x": 64,
     "y": 0,
     "width": 32,
     "height": 32,
     "rotation": 0,
     "visible": true,
     "properties": []
    },
    {
     "id": 1003,
     "name": "",
     "type": "",
     "x": 96,
     "y": 0,
     "width": 32,
     "height": 32,
     "rotation": 0,
     "visible": true,
     "properties": []
    },
    {
     "id": 1004,
     "name": "",
     "type": "",
     "x": 128,
     "y": 0,
     "width": 32,
     "height": 32,
     "rotation": 0,
     "visible": true,
     "properties": []
    },
    {
     "id": 1005,
     "name": "",
     "type": "",
     "x": 160,
     "y": 0,
     "width": 32,
     "height": 32,
     "rotation": 0,
     "visible": true,
     "properties": []
    },
    {
     "id": 1006,
     "name": "",
     "type": "",
     "x": 192,
     "y": 0,
     "width": 32,
     "height": 32,
     "rotation": 0,
     "visible": true,
     "properties": []
    },
    {
     "id": 1007,
     "name": "",
     "type": "",
     "x": 224,
     "y": 0,
     "width": 32,
     "height": 32,
     "rotation": 0,
     "visible": true,
     "properties": []
    },
    {
     "id": 1008,
     "name": "",
     "type": "",
     "x": 256,
     "y": 0,
     "width": 32,
     "height": 32,
     "rotation": 0,
     "visible": true,
     "properties": []
    },
    {
     "id": 1009,
     "name": "",
     "type": "",
     "x": 288,
     "y": 0,
     "width": 32,
     "height": 32,
     "rotation": 0,
     "visible": true,
     "properties": []
    },
    {
     "id": 1010,
     "name": "",
     "type": "",
     "x": 320,
     "y": 0,
     "width": 32,
     "height": 32,
     "rotation": 0,
     "visible": true,
     "properties": []
    },
    {
     "id": 1011,
     "name": "",
     "type": "",
     "x": 352,
     "y": 0,
     "width": 32,
     "height": 32,
     "rotation": 0,
     "visible": true,
     "properties": []
    },
    {
     "id": 1012,
     "name": "",
     "type": "",
     "x": 384,
     "y": 0,
     "width": 32,
     "height": 32,
     "rotation": 0,
     "visible": true,
     "properties": []
    },
    {
     "id": 1013,
     "name": "",
     "type": "",
     "x": 416,
     "y": 0,
     "width": 32,
     "height": 32,
     "rotation": 0,
     "visible": true,
     "properties": []
    },
    {
     "id": 1014,
     "name": "",
     "type": "",
     "x": 448,
     "y": 0,
     "width": 32,
     "height": 32,
     "rotation": 0,
     "visible": true,
     "properties": []
    },
    {
     "id": 1015,
     "name": "",
     "type": "",
     "x": 480,
     "y": 0,
     "width": 32,
     "height": 32,
     "rotation": 0,
     "visible": true,
     "properties": []
    },
    {
     "id": 1016,
     "name": "",
     "type": "",
     "x": 512,
     "y": 0,
     "width": 32,
     "height": 32,
     "rotation": 0,
     "visible": true,
     "properties": []
    },
    {
     "id": 1017,
     "name": "",
     "type": "",
     "x": 0,
     "y": 32,
     "width": 32,
     "height": 32,
     "rotation": 0,
     "visible": true,
     "properties": []
    },
    {
     "id": 1018,
     "name": "",
     "type": "",
     "x": 32,
     "y": 32,
     "width": 32,
     "height": 32,
     "rotation": 0,
     "visible": true,
     "properties": []
    },
    {
     "id": 1019,
     "name": "",
     "type": "",
     "x": 64,
     "y": 32,
     "width": 32,
     "height": 32,
     "rotation": 0,
     "visible": true,
     "properties": []
    },
    {
     "id": 1020,
     "name": "",
     "type": "",
     "x": 96,
     "y": 32,
     "width": 32,
     "height": 32,
     "rotation": 0,
     "visible": true,
     "properties": []
    },
    {
     "id": 1021,
     "name": "",
     "type": "",
     "x": 128,
     "y": 32,
     "width": 32,
     "height": 32,
     "rotation": 0,
     "visible": true,
     "properties": []
    },
    {
     "id": 1022,
     "name": "",
     "type": "",
     "x": 160,
     "y": 32,
     "width": 32,
     "height": 32,
     "rotation": 0,
     "visible": true,
     "properties": []
    },
    {
     "id": 1023,
     "name": "",
     "type": "",
     "x": 192,
     "y": 32,
     "width": 32,
     "height": 32,
     "rotation": 0,
     "visible": true,
     "properties": []
    },
    {
     "id": 1024,
     "name": "",
     "type": "",
     "x": 224,
     "y": 32,
     "width": 32,
     "height": 32,
     "rotation": 0,
     "visible": true,
     "properties": []
    },
    {
     "id": 1025,
     "name": "",
     "type": "",
     "x": 256,
     "y": 32,
     "width": 32,
     "height": 32,
     "rotation": 0,
     "visible": true,
     "properties": []
    },
    {
     "id": 1026,
     "name": "",
     "type": "",
     "x": 288,
     "y": 32,
     "width": 32,
     "height": 32,
     "rotation": 0,
     "visible": true,
     "properties": []
    },
    {
     "id": 1027,
     "name": "",
     "type": "",
     "x": 320,
     "y": 32,
     "width": 32,
     "height": 32,
     "rotation": 0,
     "visible": true,
     "properties": []
    },
    {
     "id": 1028,
     "name": "",
     "type": "",
     "x": 352,
     "y": 32,
     "width": 32,
     "height": 32,
     "rotation": 0,
     "visible": true,
     "properties": []
    },
    {
     "id": 1029,
     "name": "",
     "type": "",
     "x": 384,
     "y": 32,
     "width": 32,
     "height": 32,
     "rotation": 0,
     "visible": true,
     "properties": []
    },
    {
     "id": 1030,
     "name": "",
     "type": "",
     "x": 416,
     "y": 32,
     "width": 32,
     "height": 32,
     "rotation": 0,
     "visible": true,
     "properties": []
    },
    {
     "id": 1031,
     "name": "",
     "type": "",
     "x": 448,
     "y": 32,
     "width": 32,
     "height": 32,
     "rotation": 0,
     "visible": true,
     "properties": []
    },
    {
     "id": 1032,
     "name": "",
     "type": "",
     "x": 480,
     "y": 32,
     "width": 32,
     "height": 32,
     "rotation": 0,
     "visible": true,
     "properties": []
    },
    {
     "id": 1033,
     "name": "",
     "type": "",
     "x": 512,
     "y": 32,
     "width": 32,
     "height": 32,
     "rotation": 0,
     "visible": true,
     "properties": []
    },
    {
     "id": 1034,
     "name": "",
     "type": "",
     "x": 320,
     "y": 64,
     "width": 32,
     "height": 32,
     "rotation": 0,
     "visible": true,
     "properties": []
    },
    {
     "id": 1035,
     "name": "",
     "type": "",
     "x": 416,
     "y": 64,
     "width": 32,
     "height": 32,
     "rotation": 0,
     "visible": true,
     "properties": []
    },
    {
     "id": 1036,
     "name": "",
     "type": "",
     "x": 448,
     "y": 64,
     "width": 32,
     "height": 32,
     "rotation": 0,
     "visible": true,
     "properties": []
    },
    {
     "id": 1037,
     "name": "",
     "type": "",
     "x": 320,
     "y": 96,
     "width": 32,
     "height": 32,
     "rotation": 0,
     "visible": true,
     "properties": []
    },
    {
     "id": 1038,
     "name": "",
     "type": "",
     "x": 416,
     "y": 96,
     "width": 32,
     "height": 32,
     "rotation": 0,
     "visible": true,
     "properties": []
    },
    {
     "id": 1039,
     "name": "",
     "type": "",
     "x": 448,
     "y": 96,
     "width": 32,
     "height": 32,
     "rotation": 0,
     "visible": true,
     "properties": []
    },
    {
     "id": 1040,
     "name": "",
     "type": "",
     "x": 64,
     "y": 128,
     "width": 32,
     "height": 32,
     "rotation": 0,
     "visible": true,
     "properties": []
    },
    {
     "id": 1041,
     "name": "",
     "type": "",
     "x": 96,
     "y": 128,
     "width": 32,
     "height": 32,
     "rotation": 0,
     "visible": true,
     "properties": []
    },
    {
     "id": 1042,
     "name": "",
     "type": "",
     "x": 128,
     "y": 128,
     "width": 32,
     "height": 32,
     "rotation": 0,
     "visible": true,
     "properties": []
    },
    {
     "id": 1043,
     "name": "",
     "type": "",
     "x": 320,
     "y": 128,
     "width": 32,
     "height": 32,
     "rotation": 0,
     "visible": true,
     "properties": []
    },
    {
     "id": 1044,
     "name": "",
     "type": "",
     "x": 64,
     "y": 160,
     "width": 32,
     "height": 32,
     "rotation": 0,
     "visible": true,
     "properties": []
    },
    {
     "id": 1045,
     "name": "",
     "type": "",
     "x": 96,
     "y": 160,
     "width": 32,
     "height": 32,
     "rotation": 0,
     "visible": true,
     "properties": []
    },
    {
     "id": 1046,
     "name": "",
     "type": "",
     "x": 128,
     "y": 160,
     "width": 32,
     "height": 32,
     "rotation": 0,
     "visible": true,
     "properties": []
    },
    {
     "id": 1047,
     "name": "",
     "type": "",
     "x": 320,
     "y": 160,
     "width": 32,
     "height": 32,
     "rotation": 0,
     "visible": true,
     "properties": []
    },
    {
     "id": 1048,
     "name": "",
     "type": "",
     "x": 416,
     "y": 160,
     "width": 32,
     "height": 32,
     "rotation": 0,
     "visible": true,
     "properties": []
    },
    {
     "id": 1049,
     "name": "",
     "type": "",
     "x": 448,
     "y": 160,
     "width": 32,
     "height": 32,
     "rotation": 0,
     "visible": true,
     "properties": []
    },
    {
     "id": 1050,
     "name": "",
     "type": "",
     "x": 480,
     "y": 160,
     "width": 32,
     "height": 32,
     "rotation": 0,
     "visible": true,
     "properties": []
    },
    {
     "id": 1051,
     "name": "",
     "type": "",
     "x": 512,
     "y": 160,
     "width": 32,
     "height": 32,
     "rotation": 0,
     "visible": true,
     "properties": []
    },
    {
     "id": 1052,
     "name": "",
     "type": "",
     "x": 320,
     "y": 192,
     "width": 32,
     "height": 32,
     "rotation": 0,
     "visible": true,
     "properties": []
    },
    {
     "id": 1053,
     "name": "",
     "type": "",
     "x": 416,
     "y": 192,
     "width": 32,
     "height": 32,
     "rotation": 0,
     "visible": true,
     "properties": []
    },
    {
     "id": 1054,
     "name": "",
     "type": "",
     "x": 448,
     "y": 192,
     "width": 32,
     "height": 32,
     "rotation": 0,
     "visible": true,
     "properties": []
    },
    {
     "id": 1055,
     "name": "",
     "type": "",
     "x": 480,
     "y": 192,
     "width": 32,
     "height": 32,
     "rotation": 0,
     "visible": true,
     "properties": []
    },
    {
     "id": 1056,
     "name": "",
     "type": "",
     "x": 512,
     "y": 192,
     "width": 32,
     "height": 32,
     "rotation": 0,
     "visible": true,
     "properties": []
    }
   ]
  },
  {
   "id": 4,
   "name": "eventi",
   "type": "objectgroup",
   "opacity": 1,
   "visible": true,
   "x": 0,
   "y": 0,
   "objects": [
    {
     "id": 1,
     "name": "npc_casa2_1",
     "type": "",
     "point": true,
     "x": 144,
     "y": 224,
     "width": 0,
     "height": 0,
     "rotation": 0,
     "visible": true,
     "properties": [
      {
       "name": "type",
       "type": "string",
       "value": "npc"
      },
      {
       "name": "id",
       "type": "string",
       "value": "npc_casa2_1"
      },
      {
       "name": "nota_origine",
       "type": "string",
       "value": "OBJ_EVENT_GFX_GIRL_2"
      }
     ]
    },
    {
     "id": 2,
     "name": "npc_casa2_2",
     "type": "",
     "point": true,
     "x": 48,
     "y": 192,
     "width": 0,
     "height": 0,
     "rotation": 0,
     "visible": true,
     "properties": [
      {
       "name": "type",
       "type": "string",
       "value": "npc"
      },
      {
       "name": "id",
       "type": "string",
       "value": "npc_casa2_2"
      },
      {
       "name": "nota_origine",
       "type": "string",
       "value": "OBJ_EVENT_GFX_WOMAN_2"
      }
     ]
    },
    {
     "id": 3,
     "name": "npc_casa2_3",
     "type": "",
     "point": true,
     "x": 176,
     "y": 160,
     "width": 0,
     "height": 0,
     "rotation": 0,
     "visible": true,
     "properties": [
      {
       "name": "type",
       "type": "string",
       "value": "npc"
      },
      {
       "name": "id",
       "type": "string",
       "value": "npc_casa2_3"
      },
      {
       "name": "nota_origine",
       "type": "string",
       "value": "OBJ_EVENT_GFX_MAN_1"
      }
     ]
    },
    {
     "id": 4,
     "name": "npc_casa2_4",
     "type": "",
     "point": true,
     "x": 304,
     "y": 128,
     "width": 0,
     "height": 0,
     "rotation": 0,
     "visible": true,
     "properties": [
      {
       "name": "type",
       "type": "string",
       "value": "npc"
      },
      {
       "name": "id",
       "type": "string",
       "value": "npc_casa2_4"
      },
      {
       "name": "nota_origine",
       "type": "string",
       "value": "OBJ_EVENT_GFX_EXPERT_M"
      }
     ]
    },
    {
     "id": 5,
     "name": "npc_casa2_5",
     "type": "",
     "point": true,
     "x": 176,
     "y": 96,
     "width": 0,
     "height": 0,
     "rotation": 0,
     "visible": true,
     "properties": [
      {
       "name": "type",
       "type": "string",
       "value": "npc"
      },
      {
       "name": "id",
       "type": "string",
       "value": "npc_casa2_5"
      },
      {
       "name": "nota_origine",
       "type": "string",
       "value": "OBJ_EVENT_GFX_TWIN"
      }
     ]
    },
    {
     "id": 6,
     "name": "npc_casa2_6",
     "type": "",
     "point": true,
     "x": 464,
     "y": 256,
     "width": 0,
     "height": 0,
     "rotation": 0,
     "visible": true,
     "properties": [
      {
       "name": "type",
       "type": "string",
       "value": "npc"
      },
      {
       "name": "id",
       "type": "string",
       "value": "npc_casa2_6"
      },
      {
       "name": "nota_origine",
       "type": "string",
       "value": "OBJ_EVENT_GFX_LITTLE_BOY"
      }
     ]
    },
    {
     "id": 7,
     "name": "npc_casa2_7",
     "type": "",
     "point": true,
     "x": 400,
     "y": 128,
     "width": 0,
     "height": 0,
     "rotation": 0,
     "visible": true,
     "properties": [
      {
       "name": "type",
       "type": "string",
       "value": "npc"
      },
      {
       "name": "id",
       "type": "string",
       "value": "npc_casa2_7"
      },
      {
       "name": "nota_origine",
       "type": "string",
       "value": "OBJ_EVENT_GFX_SCHOOL_KID_M"
      }
     ]
    },
    {
     "id": 8,
     "name": "npc_casa2_8",
     "type": "",
     "point": true,
     "x": 496,
     "y": 128,
     "width": 0,
     "height": 0,
     "rotation": 0,
     "visible": true,
     "properties": [
      {
       "name": "type",
       "type": "string",
       "value": "npc"
      },
      {
       "name": "id",
       "type": "string",
       "value": "npc_casa2_8"
      },
      {
       "name": "nota_origine",
       "type": "string",
       "value": "OBJ_EVENT_GFX_PSYCHIC_M"
      }
     ]
    },
    {
     "id": 9,
     "name": "npc_casa2_9",
     "type": "",
     "point": true,
     "x": 272,
     "y": 224,
     "width": 0,
     "height": 0,
     "rotation": 0,
     "visible": true,
     "properties": [
      {
       "name": "type",
       "type": "string",
       "value": "npc"
      },
      {
       "name": "id",
       "type": "string",
       "value": "npc_casa2_9"
      },
      {
       "name": "nota_origine",
       "type": "string",
       "value": "OBJ_EVENT_GFX_MANIAC"
      }
     ]
    },
    {
     "id": 10,
     "name": "uscita_1",
     "type": "",
     "x": 160,
     "y": 256,
     "width": 32,
     "height": 32,
     "rotation": 0,
     "visible": true,
     "properties": [
      {
       "name": "type",
       "type": "string",
       "value": "uscita"
      },
      {
       "name": "nota_origine",
       "type": "string",
       "value": "verso MAP_DEWFORD_TOWN (da ricollegare a una tua mappa)"
      }
     ]
    },
    {
     "id": 11,
     "name": "uscita_2",
     "type": "",
     "x": 192,
     "y": 256,
     "width": 32,
     "height": 32,
     "rotation": 0,
     "visible": true,
     "properties": [
      {
       "name": "type",
       "type": "string",
       "value": "uscita"
      },
      {
       "name": "nota_origine",
       "type": "string",
       "value": "verso MAP_DEWFORD_TOWN (da ricollegare a una tua mappa)"
      }
     ]
    }
   ]
  }
 ]
}