<?xml version="1.0" encoding="UTF-8"?>
<map version="1.10" tiledversion="1.12.2" orientation="orthogonal" renderorder="right-down" width="10" height="9" tilewidth="32" tileheight="32" infinite="0" nextlayerid="4" nextobjectid="31">
 <tileset firstgid="1" name="PROVA_lavaridge_house_tileset" tilewidth="32" tileheight="32" tilecount="80" columns="16">
  <image source="../PROVA_lavaridge_house_tileset.png" width="512" height="160"/>
 </tileset>
 <tileset firstgid="81" source="../../outside.tsx"/>
 <layer id="1" name="ground" width="10" height="9">
  <data encoding="csv">
1,3,5,7,9,11,13,15,9,17,
19,21,23,25,27,29,31,33,35,37,
39,41,43,45,45,47,49,51,53,55,
45,57,57,59,61,63,59,57,57,57,
45,57,57,59,65,67,59,57,57,57,
45,57,57,57,57,57,57,57,57,57,
69,71,71,71,71,71,71,71,71,71,
73,75,75,77,79,75,75,75,75,75,
0,0,0,81,81,0,0,0,0,0
</data>
 </layer>
 <layer id="2" name="ground" width="10" height="9">
  <data encoding="csv">
2,4,6,8,10,12,14,16,10,18,
20,22,24,26,28,30,32,34,36,38,
40,42,44,46,46,48,50,52,54,56,
46,58,58,60,62,64,60,58,58,58,
46,58,58,60,66,68,60,58,58,58,
46,58,58,58,58,58,58,58,58,58,
70,72,72,72,72,72,72,72,72,72,
74,76,76,78,80,76,76,76,76,76,
0,0,0,0,0,0,0,0,0,0
</data>
 </layer>
 <objectgroup id="3" name="collisioni">
  <object id="1000" x="0" y="0" width="32" height="32"/>
  <object id="1001" x="32" y="0" width="32" height="32"/>
  <object id="1002" x="64" y="0" width="32" height="32"/>
  <object id="1003" x="96" y="0" width="32" height="32"/>
  <object id="1004" x="128" y="0" width="32" height="32"/>
  <object id="1005" x="160" y="0" width="32" height="32"/>
  <object id="1006" x="192" y="0" width="32" height="32"/>
  <object id="1007" x="224" y="0" width="32" height="32"/>
  <object id="1008" x="256" y="0" width="32" height="32"/>
  <object id="1009" x="288" y="0" width="32" height="32"/>
  <object id="1010" x="0" y="32" width="32" height="32"/>
  <object id="1011" x="32" y="32" width="32" height="32"/>
  <object id="1012" x="64" y="32" width="32" height="32"/>
  <object id="1013" x="96" y="32" width="32" height="32"/>
  <object id="1014" x="128" y="32" width="32" height="32"/>
  <object id="1015" x="160" y="32" width="32" height="32"/>
  <object id="1016" x="192" y="32" width="32" height="32"/>
  <object id="1017" x="224" y="32" width="32" height="32"/>
  <object id="1018" x="256" y="32" width="32" height="32"/>
  <object id="1019" x="288" y="32" width="32" height="32"/>
  <object id="1020" x="128" y="96" width="32" height="32"/>
  <object id="1021" x="160" y="96" width="32" height="32"/>
  <object id="1022" x="128" y="128" width="32" height="32"/>
  <object id="1023" x="160" y="128" width="32" height="32"/>
 </objectgroup>
 <objectgroup id="4" name="eventi">
  <object id="1" name="npc_lavaridge_house_1" x="80" y="128">
   <properties>
    <property name="id" value="npc_lavaridge_house_1"/>
    <property name="nota_origine" value="OBJ_EVENT_GFX_OLD_MAN"/>
    <property name="type" value="npc"/>
   </properties>
   <point/>
  </object>
  <object id="2" name="npc_lavaridge_house_2" x="208" y="224">
   <properties>
    <property name="id" value="npc_lavaridge_house_2"/>
    <property name="nota_origine" value="OBJ_EVENT_GFX_ZIGZAGOON_2"/>
    <property name="type" value="npc"/>
   </properties>
   <point/>
  </object>
  <object id="3" name="npc_lavaridge_house_3" x="272" y="160">
   <properties>
    <property name="id" value="npc_lavaridge_house_3"/>
    <property name="nota_origine" value="OBJ_EVENT_GFX_NINJA_BOY"/>
    <property name="type" value="npc"/>
   </properties>
   <point/>
  </object>
  <object id="4" name="uscita_1" x="97" y="255" width="32" height="32">
   <properties>
    <property name="nota_origine" value="verso MAP_LAVARIDGE_TOWN (da ricollegare a una tua mappa)"/>
    <property name="type" value="uscita"/>
   </properties>
  </object>
  <object id="5" name="uscita_2" x="129" y="255" width="32" height="32">
   <properties>
    <property name="nota_origine" value="verso MAP_LAVARIDGE_TOWN (da ricollegare a una tua mappa)"/>
    <property name="type" value="uscita"/>
   </properties>
  </object>
  <object id="30" name="spawn" x="109.25" y="221.25" width="32" height="32">
   <properties>
    <property name="type" value="spawn"/>
   </properties>
  </object>
 </objectgroup>
</map>
