<?xml version="1.0" encoding="UTF-8"?>
<map version="1.10" tiledversion="1.12.2" orientation="orthogonal" renderorder="right-down" width="15" height="15" tilewidth="32" tileheight="32" infinite="0" nextlayerid="2" nextobjectid="1">
 <tileset firstgid="1" source="../house1.tsj"/>
 <tileset firstgid="755" source="../house2.tsj"/>
 <layer id="1" name="ground" width="15" height="15">
  <data encoding="csv">
755,756,757,758,759,760,761,762,763,764,765,766,767,768,804,
769,770,771,772,773,774,775,776,777,778,779,780,781,782,804,
783,784,785,786,787,788,789,790,791,792,793,794,795,796,804,
797,798,799,800,801,802,803,804,805,806,807,808,809,810,804,
811,812,813,814,815,816,817,818,819,820,821,822,823,824,804,
825,826,827,828,829,830,831,832,833,834,835,836,837,838,804,
839,840,841,842,843,844,845,846,847,848,849,850,851,852,804,
853,854,855,856,857,858,859,860,861,862,863,864,854,854,804,
868,868,869,870,871,872,873,874,875,876,877,878,868,868,804,
884,884,884,884,885,886,887,888,889,890,891,884,884,884,818,
899,899,899,899,899,899,899,899,899,899,899,899,899,899,818,
899,811,812,813,814,899,899,899,899,899,899,899,899,899,818,
899,825,826,827,828,899,899,899,899,899,899,899,899,899,818,
899,839,840,841,842,899,899,899,899,899,899,899,899,899,818,
899,899,899,899,899,899,901,902,903,899,899,899,899,899,818
</data>
 </layer>
</map>
