{
 "compressionlevel": -1,
 "width": 13,
 "height": 15,
 "tilewidth": 32,
 "tileheight": 32,
 "infinite": false,
 "orientation": "orthogonal",
 "renderorder": "right-down",
 "type": "map",
 "version": "1.10",
 "tiledversion": "1.11.0",
 "nextlayerid": 6,
 "nextobjectid": 91,
 "tilesets": [
  {
   "firstgid": 1,
   "image": "../celadon_dept_5f_tileset.png",
   "imagewidth": 512,
   "imageheight": 320,
   "columns": 16,
   "tilecount": 148,
   "tilewidth": 32,
   "tileheight": 32,
   "name": "celadon_dept_5f_tileset",
   "margin": 0,
   "spacing": 0
  }
 ],
 "layers": [
  {
   "id": 1,
   "name": "ground",
   "type": "tilelayer",
   "width": 13,
   "height": 15,
   "data": [
    1,
    3,
    3,
    3,
    3,
    5,
    7,
    9,
    11,
    3,
    3,
    3,
    13,
    15,
    17,
    19,
    21,
    21,
    23,
    25,
    27,
    29,
    21,
    21,
    21,
    31,
    15,
    33,
    35,
    37,
    39,
    41,
    43,
    45,
    39,
    47,
    49,
    51,
    31,
    53,
    55,
    57,
    59,
    61,
    61,
    61,
    61,
    61,
    63,
    65,
    67,
    69,
    71,
    71,
    73,
    75,
    75,
    75,
    75,
    75,
    75,
    75,
    77,
    79,
    81,
    83,
    83,
    85,
    87,
    89,
    89,
    89,
    89,
    89,
    89,
    91,
    93,
    95,
    97,
    89,
    99,
    87,
    89,
    89,
    89,
    89,
    89,
    89,
    101,
    101,
    101,
    103,
    105,
    107,
    87,
    89,
    89,
    89,
    109,
    109,
    89,
    109,
    109,
    89,
    111,
    113,
    115,
    87,
    89,
    89,
    89,
    117,
    117,
    119,
    117,
    117,
    119,
    97,
    101,
    101,
    121,
    89,
    89,
    89,
    123,
    123,
    87,
    123,
    123,
    87,
    97,
    125,
    127,
    89,
    125,
    127,
    89,
    101,
    101,
    121,
    101,
    101,
    121,
    97,
    129,
    131,
    119,
    129,
    131,
    119,
    109,
    109,
    89,
    109,
    109,
    89,
    97,
    133,
    135,
    87,
    133,
    135,
    87,
    117,
    117,
    119,
    117,
    117,
    119,
    137,
    139,
    141,
    87,
    139,
    141,
    87,
    123,
    123,
    87,
    123,
    123,
    143,
    145,
    101,
    101,
    121,
    101,
    101,
    121,
    101,
    101,
    121,
    101,
    101,
    147
   ],
   "opacity": 1,
   "visible": true,
   "x": 0,
   "y": 0
  },
  {
   "id": 2,
   "name": "deco_sotto",
   "type": "tilelayer",
   "width": 13,
   "height": 15,
   "data": [
    0,
    4,
    4,
    4,
    4,
    6,
    8,
    10,
    0,
    4,
    4,
    4,
    0,
    0,
    0,
    0,
    22,
    22,
    24,
    26,
    28,
    0,
    22,
    22,
    22,
    0,
    0,
    0,
    0,
    38,
    40,
    0,
    0,
    0,
    40,
    48,
    50,
    52,
    0,
    0,
    56,
    58,
    0,
    62,
    62,
    62,
    62,
    62,
    0,
    66,
    68,
    0,
    72,
    72,
    74,
    76,
    76,
    76,
    76,
    76,
    76,
    76,
    0,
    0,
    0,
    84,
    84,
    86,
    88,
    90,
    90,
    90,
    90,
    90,
    90,
    0,
    0,
    0,
    98,
    90,
    100,
    88,
    90,
    90,
    90,
    90,
    90,
    90,
    102,
    102,
    102,
    104,
    106,
    108,
    88,
    90,
    90,
    90,
    110,
    110,
    90,
    110,
    110,
    90,
    0,
    0,
    0,
    88,
    90,
    90,
    90,
    0,
    0,
    120,
    0,
    0,
    120,
    98,
    102,
    102,
    122,
    90,
    90,
    90,
    0,
    0,
    88,
    0,
    0,
    88,
    98,
    126,
    128,
    90,
    126,
    128,
    90,
    102,
    102,
    122,
    102,
    102,
    122,
    98,
    0,
    0,
    120,
    0,
    0,
    120,
    110,
    110,
    90,
    110,
    110,
    90,
    98,
    0,
    0,
    88,
    0,
    0,
    88,
    0,
    0,
    120,
    0,
    0,
    120,
    138,
    0,
    0,
    88,
    0,
    0,
    88,
    0,
    0,
    88,
    0,
    0,
    144,
    0,
    102,
    102,
    122,
    102,
    102,
    122,
    102,
    102,
    122,
    102,
    102,
    0
   ],
   "opacity": 1,
   "visible": true,
   "x": 0,
   "y": 0
  },
  {
   "id": 3,
   "name": "edifici",
   "type": "tilelayer",
   "width": 13,
   "height": 15,
   "data": [
    2,
    0,
    0,
    0,
    0,
    0,
    0,
    0,
    12,
    0,
    0,
    0,
    14,
    16,
    18,
    20,
    0,
    0,
    0,
    0,
    0,
    30,
    0,
    0,
    0,
    32,
    16,
    34,
    36,
    0,
    0,
    42,
    44,
    46,
    0,
    0,
    0,
    0,
    32,
    54,
    0,
    0,
    60,
    0,
    0,
    0,
    0,
    0,
    64,
    0,
    0,
    70,
    0,
    0,
    0,
    0,
    0,
    0,
    0,
    0,
    0,
    0,
    78,
    80,
    82,
    0,
    0,
    0,
    0,
    0,
    0,
    0,
    0,
    0,
    0,
    92,
    94,
    96,
    0,
    0,
    0,
    0,
    0,
    0,
    0,
    0,
    0,
    0,
    0,
    0,
    0,
    0,
    0,
    0,
    0,
    0,
    0,
    0,
    0,
    0,
    0,
    0,
    0,
    0,
    112,
    114,
    116,
    0,
    0,
    0,
    0,
    118,
    118,
    0,
    118,
    118,
    0,
    0,
    0,
    0,
    0,
    0,
    0,
    0,
    124,
    124,
    0,
    124,
    124,
    0,
    0,
    0,
    0,
    0,
    0,
    0,
    0,
    0,
    0,
    0,
    0,
    0,
    0,
    0,
    130,
    132,
    0,
    130,
    132,
    0,
    0,
    0,
    0,
    0,
    0,
    0,
    0,
    134,
    136,
    0,
    134,
    136,
    0,
    118,
    118,
    0,
    118,
    118,
    0,
    0,
    140,
    142,
    0,
    140,
    142,
    0,
    124,
    124,
    0,
    124,
    124,
    0,
    146,
    0,
    0,
    0,
    0,
    0,
    0,
    0,
    0,
    0,
    0,
    0,
    148
   ],
   "opacity": 1,
   "visible": true,
   "x": 0,
   "y": 0
  },
  {
   "id": 4,
   "name": "collisioni",
   "type": "objectgroup",
   "opacity": 1,
   "visible": true,
   "x": 0,
   "y": 0,
   "objects": [
    {
     "id": 1000,
     "name": "",
     "type": "",
     "x": 0,
     "y": 0,
     "width": 32,
     "height": 32,
     "rotation": 0,
     "visible": true,
     "properties": []
    },
    {
     "id": 1001,
     "name": "",
     "type": "",
     "x": 32,
     "y": 0,
     "width": 32,
     "height": 32,
     "rotation": 0,
     "visible": true,
     "properties": []
    },
    {
     "id": 1002,
     "name": "",
     "type": "",
     "x": 64,
     "y": 0,
     "width": 32,
     "height": 32,
     "rotation": 0,
     "visible": true,
     "properties": []
    },
    {
     "id": 1003,
     "name": "",
     "type": "",
     "x": 96,
     "y": 0,
     "width": 32,
     "height": 32,
     "rotation": 0,
     "visible": true,
     "properties": []
    },
    {
     "id": 1004,
     "name": "",
     "type": "",
     "x": 128,
     "y": 0,
     "width": 32,
     "height": 32,
     "rotation": 0,
     "visible": true,
     "properties": []
    },
    {
     "id": 1005,
     "name": "",
     "type": "",
     "x": 160,
     "y": 0,
     "width": 32,
     "height": 32,
     "rotation": 0,
     "visible": true,
     "properties": []
    },
    {
     "id": 1006,
     "name": "",
     "type": "",
     "x": 192,
     "y": 0,
     "width": 32,
     "height": 32,
     "rotation": 0,
     "visible": true,
     "properties": []
    },
    {
     "id": 1007,
     "name": "",
     "type": "",
     "x": 224,
     "y": 0,
     "width": 32,
     "height": 32,
     "rotation": 0,
     "visible": true,
     "properties": []
    },
    {
     "id": 1008,
     "name": "",
     "type": "",
     "x": 256,
     "y": 0,
     "width": 32,
     "height": 32,
     "rotation": 0,
     "visible": true,
     "properties": []
    },
    {
     "id": 1009,
     "name": "",
     "type": "",
     "x": 288,
     "y": 0,
     "width": 32,
     "height": 32,
     "rotation": 0,
     "visible": true,
     "properties": []
    },
    {
     "id": 1010,
     "name": "",
     "type": "",
     "x": 320,
     "y": 0,
     "width": 32,
     "height": 32,
     "rotation": 0,
     "visible": true,
     "properties": []
    },
    {
     "id": 1011,
     "name": "",
     "type": "",
     "x": 352,
     "y": 0,
     "width": 32,
     "height": 32,
     "rotation": 0,
     "visible": true,
     "properties": []
    },
    {
     "id": 1012,
     "name": "",
     "type": "",
     "x": 384,
     "y": 0,
     "width": 32,
     "height": 32,
     "rotation": 0,
     "visible": true,
     "properties": []
    },
    {
     "id": 1013,
     "name": "",
     "type": "",
     "x": 0,
     "y": 32,
     "width": 32,
     "height": 32,
     "rotation": 0,
     "visible": true,
     "properties": []
    },
    {
     "id": 1014,
     "name": "",
     "type": "",
     "x": 32,
     "y": 32,
     "width": 32,
     "height": 32,
     "rotation": 0,
     "visible": true,
     "properties": []
    },
    {
     "id": 1015,
     "name": "",
     "type": "",
     "x": 64,
     "y": 32,
     "width": 32,
     "height": 32,
     "rotation": 0,
     "visible": true,
     "properties": []
    },
    {
     "id": 1016,
     "name": "",
     "type": "",
     "x": 96,
     "y": 32,
     "width": 32,
     "height": 32,
     "rotation": 0,
     "visible": true,
     "properties": []
    },
    {
     "id": 1017,
     "name": "",
     "type": "",
     "x": 128,
     "y": 32,
     "width": 32,
     "height": 32,
     "rotation": 0,
     "visible": true,
     "properties": []
    },
    {
     "id": 1018,
     "name": "",
     "type": "",
     "x": 160,
     "y": 32,
     "width": 32,
     "height": 32,
     "rotation": 0,
     "visible": true,
     "properties": []
    },
    {
     "id": 1019,
     "name": "",
     "type": "",
     "x": 192,
     "y": 32,
     "width": 32,
     "height": 32,
     "rotation": 0,
     "visible": true,
     "properties": []
    },
    {
     "id": 1020,
     "name": "",
     "type": "",
     "x": 224,
     "y": 32,
     "width": 32,
     "height": 32,
     "rotation": 0,
     "visible": true,
     "properties": []
    },
    {
     "id": 1021,
     "name": "",
     "type": "",
     "x": 256,
     "y": 32,
     "width": 32,
     "height": 32,
     "rotation": 0,
     "visible": true,
     "properties": []
    },
    {
     "id": 1022,
     "name": "",
     "type": "",
     "x": 288,
     "y": 32,
     "width": 32,
     "height": 32,
     "rotation": 0,
     "visible": true,
     "properties": []
    },
    {
     "id": 1023,
     "name": "",
     "type": "",
     "x": 320,
     "y": 32,
     "width": 32,
     "height": 32,
     "rotation": 0,
     "visible": true,
     "properties": []
    },
    {
     "id": 1024,
     "name": "",
     "type": "",
     "x": 352,
     "y": 32,
     "width": 32,
     "height": 32,
     "rotation": 0,
     "visible": true,
     "properties": []
    },
    {
     "id": 1025,
     "name": "",
     "type": "",
     "x": 384,
     "y": 32,
     "width": 32,
     "height": 32,
     "rotation": 0,
     "visible": true,
     "properties": []
    },
    {
     "id": 1026,
     "name": "",
     "type": "",
     "x": 0,
     "y": 64,
     "width": 32,
     "height": 32,
     "rotation": 0,
     "visible": true,
     "properties": []
    },
    {
     "id": 1027,
     "name": "",
     "type": "",
     "x": 32,
     "y": 64,
     "width": 32,
     "height": 32,
     "rotation": 0,
     "visible": true,
     "properties": []
    },
    {
     "id": 1028,
     "name": "",
     "type": "",
     "x": 64,
     "y": 64,
     "width": 32,
     "height": 32,
     "rotation": 0,
     "visible": true,
     "properties": []
    },
    {
     "id": 1029,
     "name": "",
     "type": "",
     "x": 320,
     "y": 64,
     "width": 32,
     "height": 32,
     "rotation": 0,
     "visible": true,
     "properties": []
    },
    {
     "id": 1030,
     "name": "",
     "type": "",
     "x": 352,
     "y": 64,
     "width": 32,
     "height": 32,
     "rotation": 0,
     "visible": true,
     "properties": []
    },
    {
     "id": 1031,
     "name": "",
     "type": "",
     "x": 384,
     "y": 64,
     "width": 32,
     "height": 32,
     "rotation": 0,
     "visible": true,
     "properties": []
    },
    {
     "id": 1032,
     "name": "",
     "type": "",
     "x": 0,
     "y": 96,
     "width": 32,
     "height": 32,
     "rotation": 0,
     "visible": true,
     "properties": []
    },
    {
     "id": 1033,
     "name": "",
     "type": "",
     "x": 32,
     "y": 96,
     "width": 32,
     "height": 32,
     "rotation": 0,
     "visible": true,
     "properties": []
    },
    {
     "id": 1034,
     "name": "",
     "type": "",
     "x": 64,
     "y": 96,
     "width": 32,
     "height": 32,
     "rotation": 0,
     "visible": true,
     "properties": []
    },
    {
     "id": 1035,
     "name": "",
     "type": "",
     "x": 320,
     "y": 96,
     "width": 32,
     "height": 32,
     "rotation": 0,
     "visible": true,
     "properties": []
    },
    {
     "id": 1036,
     "name": "",
     "type": "",
     "x": 352,
     "y": 96,
     "width": 32,
     "height": 32,
     "rotation": 0,
     "visible": true,
     "properties": []
    },
    {
     "id": 1037,
     "name": "",
     "type": "",
     "x": 384,
     "y": 96,
     "width": 32,
     "height": 32,
     "rotation": 0,
     "visible": true,
     "properties": []
    },
    {
     "id": 1038,
     "name": "",
     "type": "",
     "x": 0,
     "y": 128,
     "width": 32,
     "height": 32,
     "rotation": 0,
     "visible": true,
     "properties": []
    },
    {
     "id": 1039,
     "name": "",
     "type": "",
     "x": 32,
     "y": 128,
     "width": 32,
     "height": 32,
     "rotation": 0,
     "visible": true,
     "properties": []
    },
    {
     "id": 1040,
     "name": "",
     "type": "",
     "x": 64,
     "y": 128,
     "width": 32,
     "height": 32,
     "rotation": 0,
     "visible": true,
     "properties": []
    },
    {
     "id": 1041,
     "name": "",
     "type": "",
     "x": 320,
     "y": 128,
     "width": 32,
     "height": 32,
     "rotation": 0,
     "visible": true,
     "properties": []
    },
    {
     "id": 1042,
     "name": "",
     "type": "",
     "x": 352,
     "y": 128,
     "width": 32,
     "height": 32,
     "rotation": 0,
     "visible": true,
     "properties": []
    },
    {
     "id": 1043,
     "name": "",
     "type": "",
     "x": 384,
     "y": 128,
     "width": 32,
     "height": 32,
     "rotation": 0,
     "visible": true,
     "properties": []
    },
    {
     "id": 1044,
     "name": "",
     "type": "",
     "x": 64,
     "y": 160,
     "width": 32,
     "height": 32,
     "rotation": 0,
     "visible": true,
     "properties": []
    },
    {
     "id": 1045,
     "name": "",
     "type": "",
     "x": 320,
     "y": 160,
     "width": 32,
     "height": 32,
     "rotation": 0,
     "visible": true,
     "properties": []
    },
    {
     "id": 1046,
     "name": "",
     "type": "",
     "x": 352,
     "y": 160,
     "width": 32,
     "height": 32,
     "rotation": 0,
     "visible": true,
     "properties": []
    },
    {
     "id": 1047,
     "name": "",
     "type": "",
     "x": 384,
     "y": 160,
     "width": 32,
     "height": 32,
     "rotation": 0,
     "visible": true,
     "properties": []
    },
    {
     "id": 1048,
     "name": "",
     "type": "",
     "x": 64,
     "y": 192,
     "width": 32,
     "height": 32,
     "rotation": 0,
     "visible": true,
     "properties": []
    },
    {
     "id": 1049,
     "name": "",
     "type": "",
     "x": 64,
     "y": 224,
     "width": 32,
     "height": 32,
     "rotation": 0,
     "visible": true,
     "properties": []
    },
    {
     "id": 1050,
     "name": "",
     "type": "",
     "x": 0,
     "y": 256,
     "width": 32,
     "height": 32,
     "rotation": 0,
     "visible": true,
     "properties": []
    },
    {
     "id": 1051,
     "name": "",
     "type": "",
     "x": 32,
     "y": 256,
     "width": 32,
     "height": 32,
     "rotation": 0,
     "visible": true,
     "properties": []
    },
    {
     "id": 1052,
     "name": "",
     "type": "",
     "x": 64,
     "y": 256,
     "width": 32,
     "height": 32,
     "rotation": 0,
     "visible": true,
     "properties": []
    },
    {
     "id": 1053,
     "name": "",
     "type": "",
     "x": 224,
     "y": 256,
     "width": 32,
     "height": 32,
     "rotation": 0,
     "visible": true,
     "properties": []
    },
    {
     "id": 1054,
     "name": "",
     "type": "",
     "x": 256,
     "y": 256,
     "width": 32,
     "height": 32,
     "rotation": 0,
     "visible": true,
     "properties": []
    },
    {
     "id": 1055,
     "name": "",
     "type": "",
     "x": 320,
     "y": 256,
     "width": 32,
     "height": 32,
     "rotation": 0,
     "visible": true,
     "properties": []
    },
    {
     "id": 1056,
     "name": "",
     "type": "",
     "x": 352,
     "y": 256,
     "width": 32,
     "height": 32,
     "rotation": 0,
     "visible": true,
     "properties": []
    },
    {
     "id": 1057,
     "name": "",
     "type": "",
     "x": 224,
     "y": 288,
     "width": 32,
     "height": 32,
     "rotation": 0,
     "visible": true,
     "properties": []
    },
    {
     "id": 1058,
     "name": "",
     "type": "",
     "x": 256,
     "y": 288,
     "width": 32,
     "height": 32,
     "rotation": 0,
     "visible": true,
     "properties": []
    },
    {
     "id": 1059,
     "name": "",
     "type": "",
     "x": 320,
     "y": 288,
     "width": 32,
     "height": 32,
     "rotation": 0,
     "visible": true,
     "properties": []
    },
    {
     "id": 1060,
     "name": "",
     "type": "",
     "x": 352,
     "y": 288,
     "width": 32,
     "height": 32,
     "rotation": 0,
     "visible": true,
     "properties": []
    },
    {
     "id": 1061,
     "name": "",
     "type": "",
     "x": 32,
     "y": 352,
     "width": 32,
     "height": 32,
     "rotation": 0,
     "visible": true,
     "properties": []
    },
    {
     "id": 1062,
     "name": "",
     "type": "",
     "x": 64,
     "y": 352,
     "width": 32,
     "height": 32,
     "rotation": 0,
     "visible": true,
     "properties": []
    },
    {
     "id": 1063,
     "name": "",
     "type": "",
     "x": 128,
     "y": 352,
     "width": 32,
     "height": 32,
     "rotation": 0,
     "visible": true,
     "properties": []
    },
    {
     "id": 1064,
     "name": "",
     "type": "",
     "x": 160,
     "y": 352,
     "width": 32,
     "height": 32,
     "rotation": 0,
     "visible": true,
     "properties": []
    },
    {
     "id": 1065,
     "name": "",
     "type": "",
     "x": 32,
     "y": 384,
     "width": 32,
     "height": 32,
     "rotation": 0,
     "visible": true,
     "properties": []
    },
    {
     "id": 1066,
     "name": "",
     "type": "",
     "x": 64,
     "y": 384,
     "width": 32,
     "height": 32,
     "rotation": 0,
     "visible": true,
     "properties": []
    },
    {
     "id": 1067,
     "name": "",
     "type": "",
     "x": 128,
     "y": 384,
     "width": 32,
     "height": 32,
     "rotation": 0,
     "visible": true,
     "properties": []
    },
    {
     "id": 1068,
     "name": "",
     "type": "",
     "x": 160,
     "y": 384,
     "width": 32,
     "height": 32,
     "rotation": 0,
     "visible": true,
     "properties": []
    },
    {
     "id": 1069,
     "name": "",
     "type": "",
     "x": 224,
     "y": 384,
     "width": 32,
     "height": 32,
     "rotation": 0,
     "visible": true,
     "properties": []
    },
    {
     "id": 1070,
     "name": "",
     "type": "",
     "x": 256,
     "y": 384,
     "width": 32,
     "height": 32,
     "rotation": 0,
     "visible": true,
     "properties": []
    },
    {
     "id": 1071,
     "name": "",
     "type": "",
     "x": 320,
     "y": 384,
     "width": 32,
     "height": 32,
     "rotation": 0,
     "visible": true,
     "properties": []
    },
    {
     "id": 1072,
     "name": "",
     "type": "",
     "x": 352,
     "y": 384,
     "width": 32,
     "height": 32,
     "rotation": 0,
     "visible": true,
     "properties": []
    },
    {
     "id": 1073,
     "name": "",
     "type": "",
     "x": 32,
     "y": 416,
     "width": 32,
     "height": 32,
     "rotation": 0,
     "visible": true,
     "properties": []
    },
    {
     "id": 1074,
     "name": "",
     "type": "",
     "x": 64,
     "y": 416,
     "width": 32,
     "height": 32,
     "rotation": 0,
     "visible": true,
     "properties": []
    },
    {
     "id": 1075,
     "name": "",
     "type": "",
     "x": 128,
     "y": 416,
     "width": 32,
     "height": 32,
     "rotation": 0,
     "visible": true,
     "properties": []
    },
    {
     "id": 1076,
     "name": "",
     "type": "",
     "x": 160,
     "y": 416,
     "width": 32,
     "height": 32,
     "rotation": 0,
     "visible": true,
     "properties": []
    },
    {
     "id": 1077,
     "name": "",
     "type": "",
     "x": 224,
     "y": 416,
     "width": 32,
     "height": 32,
     "rotation": 0,
     "visible": true,
     "properties": []
    },
    {
     "id": 1078,
     "name": "",
     "type": "",
     "x": 256,
     "y": 416,
     "width": 32,
     "height": 32,
     "rotation": 0,
     "visible": true,
     "properties": []
    },
    {
     "id": 1079,
     "name": "",
     "type": "",
     "x": 320,
     "y": 416,
     "width": 32,
     "height": 32,
     "rotation": 0,
     "visible": true,
     "properties": []
    },
    {
     "id": 1080,
     "name": "",
     "type": "",
     "x": 352,
     "y": 416,
     "width": 32,
     "height": 32,
     "rotation": 0,
     "visible": true,
     "properties": []
    },
    {
     "id": 1081,
     "name": "",
     "type": "",
     "x": 0,
     "y": 448,
     "width": 32,
     "height": 32,
     "rotation": 0,
     "visible": true,
     "properties": []
    },
    {
     "id": 1082,
     "name": "",
     "type": "",
     "x": 384,
     "y": 448,
     "width": 32,
     "height": 32,
     "rotation": 0,
     "visible": true,
     "properties": []
    }
   ]
  },
  {
   "id": 5,
   "name": "eventi",
   "type": "objectgroup",
   "opacity": 1,
   "visible": true,
   "x": 0,
   "y": 0,
   "objects": [
    {
     "id": 1,
     "name": "npc_dept_random_8",
     "type": "",
     "point": true,
     "x": 368,
     "y": 224,
     "width": 0,
     "height": 0,
     "rotation": 0,
     "visible": true,
     "properties": [
      {
       "name": "type",
       "type": "string",
       "value": "npc"
      },
      {
       "name": "id",
       "type": "string",
       "value": "npc_dept_random_8"
      },
      {
       "name": "nota_origine",
       "type": "string",
       "value": "OBJ_EVENT_GFX_GENTLEMAN"
      }
     ]
    },
    {
     "id": 2,
     "name": "npc_dept_random_9",
     "type": "",
     "point": true,
     "x": 208,
     "y": 288,
     "width": 0,
     "height": 0,
     "rotation": 0,
     "visible": true,
     "properties": [
      {
       "name": "type",
       "type": "string",
       "value": "npc"
      },
      {
       "name": "id",
       "type": "string",
       "value": "npc_dept_random_9"
      },
      {
       "name": "nota_origine",
       "type": "string",
       "value": "OBJ_EVENT_GFX_SAILOR"
      }
     ]
    },
    {
     "id": 3,
     "name": "pokemon market venditore dept 5f",
     "type": "",
     "point": true,
     "x": 48,
     "y": 256,
     "width": 0,
     "height": 0,
     "rotation": 0,
     "visible": true,
     "properties": [
      {
       "name": "type",
       "type": "string",
       "value": "npc"
      },
      {
       "name": "id",
       "type": "string",
       "value": "pokemon market venditore dept 5f"
      },
      {
       "name": "nota_origine",
       "type": "string",
       "value": "OBJ_EVENT_GFX_CLERK"
      }
     ]
    },
    {
     "id": 4,
     "name": "pokemon market venditore dept 5f b",
     "type": "",
     "point": true,
     "x": 48,
     "y": 224,
     "width": 0,
     "height": 0,
     "rotation": 0,
     "visible": true,
     "properties": [
      {
       "name": "type",
       "type": "string",
       "value": "npc"
      },
      {
       "name": "id",
       "type": "string",
       "value": "pokemon market venditore dept 5f b"
      },
      {
       "name": "nota_origine",
       "type": "string",
       "value": "OBJ_EVENT_GFX_CLERK"
      }
     ]
    },
    {
     "id": 5,
     "name": "uscita_1",
     "type": "",
     "x": 192,
     "y": 32,
     "width": 32,
     "height": 32,
     "rotation": 0,
     "visible": true,
     "properties": [
      {
       "name": "type",
       "type": "string",
       "value": "uscita"
      },
      {
       "name": "nota_origine",
       "type": "string",
       "value": "verso MAP_CELADON_CITY_DEPARTMENT_STORE_ELEVATOR (da ricollegare a una tua mappa)"
      }
     ]
    },
    {
     "id": 6,
     "name": "uscita_2",
     "type": "",
     "x": 288,
     "y": 64,
     "width": 32,
     "height": 32,
     "rotation": 0,
     "visible": true,
     "properties": [
      {
       "name": "type",
       "type": "string",
       "value": "warp"
      },
      {
       "name": "destinazione",
       "type": "string",
       "value": "celadon_dept_4f"
      },
      {
       "name": "spawn_id",
       "type": "string",
       "value": "da_5f"
      }
     ]
    },
    {
     "id": 7,
     "name": "uscita_3",
     "type": "",
     "x": 96,
     "y": 64,
     "width": 32,
     "height": 32,
     "rotation": 0,
     "visible": true,
     "properties": [
      {
       "name": "type",
       "type": "string",
       "value": "warp"
      },
      {
       "name": "destinazione",
       "type": "string",
       "value": "celadon_dept_roof"
      },
      {
       "name": "spawn_id",
       "type": "string",
       "value": "da_5f"
      }
     ]
    },
    {
     "id": 8,
     "name": "spawn_da_4f",
     "type": "",
     "x": 288,
     "y": 96,
     "width": 0,
     "height": 0,
     "rotation": 0,
     "visible": true,
     "point": true,
     "properties": [
      {
       "name": "type",
       "type": "string",
       "value": "spawn"
      },
      {
       "name": "id",
       "type": "string",
       "value": "da_4f"
      }
     ]
    },
    {
     "id": 9,
     "name": "spawn_da_roof",
     "type": "",
     "x": 480,
     "y": 224,
     "width": 0,
     "height": 0,
     "rotation": 0,
     "visible": true,
     "point": true,
     "properties": [
      {
       "name": "type",
       "type": "string",
       "value": "spawn"
      },
      {
       "name": "id",
       "type": "string",
       "value": "da_roof"
      }
     ]
    }
   ]
  }
 ]
}