<?xml version="1.0" encoding="UTF-8"?>
<map version="1.10" tiledversion="1.12.2" orientation="orthogonal" renderorder="right-down" width="66" height="51" tilewidth="32" tileheight="32" infinite="0" nextlayerid="6" nextobjectid="8">
 <tileset firstgid="1" source="../../outside.tsx"/>
 <tileset firstgid="4017" source="../pokemon_soccer_field.tsj"/>
 <tileset firstgid="4497" source="../outside.tsx"/>
 <tileset firstgid="8513" source="../fiori_blu_animati.tsj"/>
 <layer id="1" name="ground" width="66" height="51">
  <data encoding="csv">
3,3,3,3,3,3,3,3,3,3,3,3,3,3,3,3,3,3,3,3,3,3,3,3,3,3,3,3,3,3,3,3,3,3,3,3,3,3,3,3,3,3,3,3,3,3,3,3,3,3,3,3,3,3,3,3,3,3,3,3,3,3,3,3,3,3,
3,3,3,3,3,3,3,3,3,3,3,3,3,3,3,3,3,3,3,3,3,3,3,3,3,3,3,3,3,3,3,3,3,3,3,3,3,3,3,3,3,3,3,3,3,3,3,3,3,3,3,3,3,3,3,3,3,3,3,3,3,3,3,3,3,3,
3,3,3,3,3,3,3,3,3,3,3,3,3,3,3,3,3,3,3,3,3,3,3,3,3,3,3,3,3,3,3,3,3,3,3,3,3,3,3,3,3,3,3,3,3,3,3,3,3,3,3,3,3,3,3,3,3,3,3,3,3,3,3,3,3,3,
3,3,3,3,3,3,3,3,3,3,3,3,3,3,3,3,3,3,3,3,3,3,3,3,3,3,3,3,3,3,3,3,3,3,3,3,3,3,3,3,3,3,3,3,3,3,3,3,3,3,3,3,3,3,3,3,3,3,3,3,3,3,3,3,3,3,
3,3,3,3,3,3,3,3,3,3,3,3,3,3,3,3,3,3,3,3,3,3,3,3,3,3,3,3,3,3,3,3,3,3,3,3,3,3,3,3,3,3,3,3,3,3,3,3,3,3,3,3,3,3,3,3,3,3,3,3,3,3,3,3,3,3,
3,3,3,3,3,3,3,3,3,3,3,3,3,3,3,3,3,3,3,3,3,3,3,3,3,3,3,3,3,3,3,3,3,3,3,3,3,3,3,3,3,3,3,3,3,3,3,3,3,3,3,3,3,3,3,3,3,3,3,3,3,3,3,3,3,3,
3,3,3,3,3,3,3,3,3,3,3,3,3,3,3,3,3,3,3,3,3,3,3,3,3,3,3,3,3,3,3,3,3,3,3,3,3,3,3,3,3,3,3,3,3,3,3,3,3,3,3,3,3,3,3,3,3,3,3,3,3,3,3,3,3,3,
3,3,3,3,3,3,3,3,3,3,3,3,3,3,3,3,3,3,3,3,3,3,3,3,3,3,3,3,3,3,3,3,3,3,3,3,3,3,3,3,3,3,3,3,3,3,3,3,3,3,3,3,3,3,3,3,3,3,3,3,3,3,3,3,3,3,
3,3,3,3,3,3,3,3,3,3,3,3,3,3,3,3,3,3,3,3,3,3,3,3,3,3,3,3,3,3,3,3,3,3,3,3,3,3,3,3,3,3,3,3,3,3,3,3,3,3,3,3,3,3,3,3,3,3,3,3,3,3,3,3,3,3,
3,3,3,3,3,3,3,3,3,3,3,3,3,3,3,3,3,3,3,3,3,3,3,3,3,3,3,3,3,3,3,3,3,3,3,3,3,3,3,3,3,3,3,3,3,3,3,3,3,3,3,3,3,3,3,3,3,3,3,3,3,3,3,3,3,3,
3,3,3,3,3,3,3,3,3,3,3,3,3,3,3,3,3,3,3,3,3,3,3,3,3,3,3,3,3,3,3,3,3,3,3,3,3,3,3,3,3,3,3,3,3,3,3,3,3,3,3,3,3,3,3,3,3,3,3,3,3,3,3,3,3,3,
3,3,3,3,3,3,3,3,3,3,3,3,3,3,3,3,3,3,3,3,3,3,3,3,3,3,3,3,3,3,3,3,3,3,3,3,3,3,3,3,3,3,3,3,3,3,3,3,3,3,3,3,3,3,3,3,3,3,3,3,3,3,3,3,3,3,
3,3,3,3,3,3,3,3,3,3,3,3,3,3,3,3,3,3,3,3,3,3,3,3,3,3,3,3,3,3,3,3,3,3,3,3,3,3,3,3,3,3,3,3,3,3,3,3,3,3,3,3,3,3,3,3,3,3,3,3,3,3,3,3,3,3,
3,3,3,3,3,3,3,3,3,3,3,3,3,3,3,3,3,3,3,3,3,3,3,3,3,3,3,3,3,3,3,3,3,3,3,3,3,3,3,3,3,3,3,3,3,3,3,3,3,3,3,3,3,3,3,3,3,3,3,3,3,3,3,3,3,3,
3,3,3,3,3,3,3,3,3,3,3,3,3,3,3,3,3,3,3,3,3,3,3,3,3,3,3,3,3,3,3,3,3,3,3,3,3,3,3,3,3,3,3,3,3,3,3,3,3,3,3,3,3,3,3,3,3,3,3,3,3,3,3,3,3,3,
3,3,3,3,3,3,3,3,3,3,3,3,3,3,3,3,3,3,3,3,3,3,3,3,3,3,3,3,3,3,3,3,3,3,3,3,3,3,3,3,3,3,3,3,3,3,3,3,3,3,3,3,3,3,3,3,3,3,3,3,3,3,3,3,3,3,
3,3,3,3,3,3,3,3,3,3,3,3,3,3,3,3,3,3,3,3,3,3,3,3,3,3,3,3,3,3,3,3,3,3,3,3,3,3,3,3,3,3,3,3,3,3,3,3,3,3,3,3,3,3,3,3,3,3,3,3,3,3,3,3,3,3,
3,3,3,3,3,3,3,3,3,3,3,3,3,3,3,3,3,3,3,3,3,3,3,3,3,3,3,3,3,3,3,3,3,3,3,3,3,3,3,3,3,3,3,3,3,3,3,3,3,3,3,3,3,3,3,3,3,3,3,3,3,3,3,3,3,3,
3,3,3,3,3,3,3,3,3,3,3,3,3,3,3,3,3,3,3,3,3,3,3,3,3,3,3,3,3,3,3,3,3,3,3,3,3,3,3,3,3,3,3,3,3,3,3,3,3,3,3,3,3,3,3,3,3,3,3,3,3,3,3,3,3,3,
3,3,3,3,3,3,3,3,3,3,3,3,3,3,3,3,3,3,3,3,3,3,3,3,3,3,3,3,3,3,3,3,3,3,3,3,3,3,3,3,3,3,3,3,3,3,3,3,3,3,3,3,3,3,3,3,3,3,3,3,3,3,3,3,3,3,
3,3,3,3,3,3,3,3,3,3,3,3,3,3,3,3,3,3,3,3,3,3,3,3,3,3,3,3,3,3,3,3,3,3,3,3,3,3,3,3,3,3,3,3,3,3,3,3,3,3,3,3,3,3,3,3,3,3,3,3,3,3,3,3,3,3,
3,3,3,3,3,3,3,3,3,3,3,3,3,3,3,3,3,3,3,3,3,3,3,3,3,3,3,3,3,3,3,3,3,3,3,3,3,3,3,3,3,3,3,3,3,3,3,3,3,3,3,3,3,3,3,3,3,3,3,3,3,3,3,3,3,3,
3,3,3,3,3,3,3,3,3,3,3,3,3,3,3,3,3,3,3,3,3,3,3,3,3,3,3,3,3,3,3,3,3,3,3,3,3,3,3,3,3,3,3,3,3,3,3,3,3,3,3,3,3,3,3,3,3,3,3,3,3,3,3,3,3,3,
3,3,3,3,3,3,3,3,3,3,3,3,3,3,3,3,3,3,3,3,3,3,3,3,3,3,3,3,3,3,3,3,3,3,3,3,3,3,3,3,3,3,3,3,3,3,3,3,3,3,3,3,3,3,3,3,3,3,3,3,3,3,3,3,3,3,
3,3,3,3,3,3,3,3,3,3,3,3,3,3,3,3,3,3,3,3,3,3,3,3,3,3,3,3,3,3,3,3,3,3,3,3,3,3,3,3,3,3,3,3,3,3,3,3,3,3,3,3,3,3,3,3,3,3,3,3,3,3,3,3,3,3,
3,3,3,3,3,3,3,3,3,3,3,3,3,3,3,3,3,3,3,3,3,3,3,3,3,3,3,3,3,3,3,3,3,3,3,3,3,3,3,3,3,3,3,3,3,3,3,3,3,3,3,3,3,3,3,3,3,3,3,3,3,3,3,3,3,3,
3,3,3,3,3,3,3,3,3,3,3,3,3,3,3,3,3,3,3,3,3,3,3,3,3,3,3,3,3,3,3,3,3,3,3,3,3,3,3,3,3,3,3,3,3,3,3,3,3,3,3,3,3,3,3,3,3,3,3,3,3,3,3,3,3,3,
3,3,3,3,3,3,3,3,3,3,3,3,3,3,3,3,3,3,3,3,3,3,3,3,3,3,3,3,3,3,3,3,3,3,3,3,3,3,3,3,3,3,3,3,3,3,3,3,3,3,3,3,3,3,3,3,3,3,3,3,3,3,3,3,3,3,
3,3,3,3,3,3,3,3,3,3,3,3,3,3,3,3,3,3,3,3,3,3,3,3,3,3,3,3,3,3,3,3,3,3,3,3,3,3,3,3,3,3,3,3,3,3,3,3,3,3,3,3,3,3,3,3,3,3,3,3,3,3,3,3,3,3,
3,3,3,3,3,3,3,3,3,3,3,3,3,3,3,3,3,3,3,3,3,3,3,3,3,3,3,3,3,3,3,3,3,3,3,3,3,3,3,3,3,3,3,3,3,3,3,3,3,3,3,3,3,3,3,3,3,3,3,3,3,3,3,3,3,3,
3,3,3,3,3,3,3,3,3,3,3,3,3,3,3,3,3,3,3,3,3,3,3,3,3,3,3,3,3,3,3,3,3,3,3,3,3,3,3,3,3,3,3,3,3,3,3,3,3,3,3,3,3,3,3,3,3,3,3,3,3,3,3,3,3,3,
3,3,3,3,3,3,3,3,3,3,3,3,3,3,3,3,3,3,3,3,3,3,3,3,3,3,3,3,3,3,3,3,3,3,3,3,3,3,3,3,3,3,3,3,3,3,3,3,3,3,3,3,3,3,3,3,3,3,3,3,3,3,3,3,3,3,
3,3,3,3,3,3,3,3,3,3,3,3,3,3,3,3,3,3,3,3,3,3,3,3,3,3,3,3,3,3,3,3,3,3,3,3,3,3,3,3,3,3,3,3,3,3,3,3,3,3,3,3,3,3,3,3,3,3,3,3,3,3,3,3,3,3,
3,3,3,3,3,3,3,3,3,3,3,3,3,3,3,3,3,3,3,3,3,3,3,3,3,3,3,3,3,3,3,3,3,3,3,3,3,3,3,3,3,3,3,3,3,3,3,3,3,3,3,3,3,3,3,3,3,3,3,3,3,3,3,3,3,3,
3,3,3,3,3,3,3,3,3,3,3,3,3,3,3,3,3,3,3,3,3,3,3,3,3,3,3,3,3,3,3,3,3,3,3,3,3,3,3,3,3,3,3,3,3,3,3,3,3,3,3,3,3,3,3,3,3,3,3,3,3,3,3,3,3,3,
3,3,3,3,3,3,3,3,3,3,3,3,3,3,3,3,3,3,3,3,3,3,3,3,3,3,3,3,3,3,3,3,3,3,3,3,3,3,3,3,3,3,3,3,3,3,3,3,3,3,3,3,3,3,3,3,3,3,3,3,3,3,3,3,3,3,
3,3,3,3,3,3,3,3,3,3,3,3,3,3,3,3,3,3,3,3,3,3,3,3,3,3,3,3,3,3,3,3,3,3,3,3,3,3,3,3,3,3,3,3,3,3,3,3,3,3,3,3,3,3,3,3,3,3,3,3,3,3,3,3,3,3,
3,3,3,3,3,3,3,3,3,3,3,3,3,3,3,3,3,3,3,3,3,3,3,3,3,3,3,3,3,3,3,3,3,3,3,3,3,3,3,3,3,3,3,3,3,3,3,3,3,3,3,3,3,3,3,3,3,3,3,3,3,3,3,3,3,3,
3,3,3,3,3,3,3,3,3,3,3,3,3,3,3,3,3,3,3,3,3,3,3,3,3,3,3,3,3,3,3,3,3,3,3,3,3,3,3,3,3,3,3,3,3,3,3,3,3,3,3,3,3,3,3,3,3,3,3,3,3,3,3,3,3,3,
3,3,3,3,3,3,3,3,3,3,3,3,3,3,3,3,3,3,3,3,3,3,3,3,3,3,3,3,3,3,3,3,3,3,3,3,3,3,3,3,3,3,3,3,3,3,3,3,3,3,3,3,3,3,3,3,3,3,3,3,3,3,3,3,3,3,
3,3,3,3,3,3,3,3,3,3,3,3,3,3,3,3,3,3,3,3,3,3,3,3,3,3,3,3,3,3,3,3,3,3,3,3,3,3,3,3,3,3,3,3,3,3,3,3,3,3,3,3,3,3,3,3,3,3,3,3,3,3,3,3,3,3,
3,3,3,3,3,3,3,3,3,3,3,3,3,3,3,3,3,3,3,3,3,3,3,3,3,3,3,3,3,3,3,3,3,3,3,3,3,3,3,3,3,3,3,3,3,3,3,3,3,3,3,3,3,3,3,3,3,3,3,3,3,3,3,3,3,3,
3,3,3,3,3,3,3,3,3,3,3,3,3,3,3,3,3,3,3,3,3,3,3,3,3,3,3,3,3,3,3,3,3,3,3,3,3,3,3,3,3,3,3,3,3,3,3,3,3,3,3,3,3,3,3,3,3,3,3,3,3,3,3,3,3,3,
3,3,3,3,3,3,3,3,3,3,3,3,3,3,3,3,3,3,3,3,3,3,3,3,3,3,3,3,3,3,3,3,3,3,3,3,3,3,3,3,3,3,3,3,3,3,3,3,3,3,3,3,3,3,3,3,3,3,3,3,3,3,3,3,3,3,
3,3,3,3,3,3,3,3,3,3,3,3,3,3,3,3,3,3,3,3,3,3,3,3,3,3,3,3,3,3,3,3,3,3,3,3,3,3,3,3,3,3,3,3,3,3,3,3,3,3,3,3,3,3,3,3,3,3,3,3,3,3,3,3,3,3,
3,3,3,3,3,3,3,3,3,3,3,3,3,3,3,3,3,3,3,3,3,3,3,3,3,3,3,3,3,3,3,3,3,3,3,3,3,3,3,3,3,3,3,3,3,3,3,3,3,3,3,3,3,3,3,3,3,3,3,3,3,3,3,3,3,3,
3,3,3,3,3,3,3,3,3,3,3,3,3,3,3,3,3,3,3,3,3,3,3,3,3,3,3,3,3,3,3,3,3,3,3,3,3,3,3,3,3,3,3,3,3,3,3,3,3,3,3,3,3,3,3,3,3,3,3,3,3,3,3,3,3,3,
3,3,3,3,3,3,3,3,3,3,3,3,3,3,3,3,3,3,3,3,3,3,3,3,3,3,3,3,3,3,3,3,3,3,3,3,3,3,3,3,3,3,3,3,3,3,3,3,3,3,3,3,3,3,3,3,3,3,3,3,3,3,3,3,3,3,
3,3,3,3,3,3,3,3,3,3,3,3,3,3,3,3,3,3,3,3,3,3,3,3,3,3,3,3,3,3,3,3,3,3,3,3,3,3,3,3,3,3,3,3,3,3,3,3,3,3,3,3,3,3,3,3,3,3,3,3,3,3,3,3,3,3,
3,3,3,3,3,3,3,3,3,3,3,3,3,3,3,3,3,3,3,3,3,3,3,3,3,3,3,3,3,3,3,3,3,3,3,3,3,3,3,3,3,3,3,3,3,3,3,3,3,3,3,3,3,3,3,3,3,3,3,3,3,3,3,3,3,3,
3,3,3,3,3,3,3,3,3,3,3,3,3,3,3,3,3,3,3,3,3,3,3,3,3,3,3,3,3,3,3,3,3,3,3,3,3,3,3,3,3,3,3,3,3,3,3,3,3,3,3,3,3,3,3,3,3,3,3,3,3,3,3,3,3,3
</data>
 </layer>
 <layer id="2" name="deco_sotto" width="66" height="51">
  <data encoding="csv">
0,0,401,402,403,3,3,7,3,3,3,3,3,3,3,3,3,3,3,3,3,3,3,3,3,3,3,3,3,3,401,402,403,3,3,3,3,3,3,3,3,3,3,3,3,3,3,3,3,3,3,3,3,3,3,3,3,3,3,3,3,401,402,403,0,0,
0,0,401,402,403,3,3,7,7,7,7,7,7,7,7,7,7,7,7,7,7,7,7,7,7,7,7,7,3,3,401,402,403,3,3,0,0,0,0,0,0,0,0,0,0,0,0,0,0,0,0,0,0,0,3,3,3,3,3,3,3,401,402,403,0,0,
0,0,401,402,403,3,3,3,7,7,7,7,7,7,7,7,7,7,7,7,7,7,7,7,7,7,7,7,3,3,401,402,403,3,809,778,802,802,802,802,802,802,802,802,802,802,802,802,802,802,802,802,802,802,802,802,802,802,778,810,3,401,402,403,0,0,
0,0,401,402,403,3,3,3,3,3,3,3,3,3,3,3,3,3,3,3,3,3,3,3,3,3,3,3,3,3,401,402,403,3,795,0,0,0,0,0,0,0,0,0,0,0,0,0,0,0,0,0,0,0,0,0,0,0,0,793,0,401,402,403,0,0,
0,0,401,402,403,785,786,786,786,786,786,786,786,786,786,786,786,786,786,786,786,786,786,786,786,786,786,786,786,787,401,402,403,0,795,0,809,778,802,802,802,802,802,802,802,802,802,802,802,802,802,802,802,802,802,802,778,810,0,793,0,401,402,403,0,0,
0,0,401,402,403,793,0,785,786,786,786,786,786,786,786,786,786,786,786,786,786,786,786,786,786,786,786,786,787,795,401,402,403,0,795,0,795,0,476,0,0,0,0,0,0,0,0,0,0,0,0,0,0,0,0,476,0,793,0,793,0,401,402,403,0,0,
0,0,401,402,403,793,0,793,0,0,0,0,1316,0,0,0,0,0,0,0,0,1337,1338,1339,1340,1341,0,0,795,795,401,402,403,0,795,0,795,476,0,4017,4018,4019,4020,4021,4022,4023,4024,4025,4026,4027,4028,4029,4030,4031,476,0,0,793,0,793,0,401,402,403,0,0,
0,0,401,402,403,793,0,793,0,8513,8513,8513,1324,0,0,0,0,8513,0,8513,0,1345,1346,1347,1348,1349,0,8513,795,795,401,402,403,0,795,0,795,0,0,4032,4033,4034,4035,4036,4037,4038,4039,4040,4041,4042,4043,4044,4045,4046,476,0,0,793,0,793,0,401,402,403,0,0,
0,0,401,402,403,793,0,793,0,8513,0,0,1324,0,0,0,8513,0,0,0,0,1353,1354,1355,1356,1357,0,0,795,795,401,402,403,0,795,0,795,0,0,4047,4048,4049,4050,4051,4052,4053,4054,4055,4056,4057,4058,4059,4060,4061,476,0,0,793,0,793,0,401,402,403,0,0,
0,0,401,402,403,793,0,793,0,8513,8513,8513,1324,0,0,0,8513,0,0,0,0,1361,1362,1363,1364,1365,8513,0,795,795,401,402,403,0,795,0,795,0,0,4062,4063,4064,4065,4066,4067,4068,4069,4070,4071,4072,4073,4074,4075,4076,0,476,0,793,0,793,0,401,402,403,0,0,
0,0,401,402,403,793,0,793,0,0,0,0,1332,0,0,0,0,0,0,0,0,0,0,0,0,0,0,0,795,795,401,402,403,0,795,0,795,0,0,4077,4078,4079,4080,4081,4082,4083,4084,4085,4086,4087,4088,4089,4090,4091,0,476,0,793,0,793,0,401,402,403,0,0,
0,0,401,402,403,793,0,801,802,802,802,802,802,778,802,802,802,802,802,802,802,802,802,802,802,802,802,802,803,795,401,402,403,0,795,0,795,0,0,4092,4093,4094,4095,4096,4097,4098,4099,4100,4101,4102,4103,4104,4105,4106,0,476,0,793,0,793,0,401,402,403,0,0,
0,0,401,402,403,793,0,0,0,0,0,0,0,0,0,0,0,0,0,0,0,0,0,0,0,0,0,0,0,795,401,402,403,0,795,0,795,0,0,4107,4108,4109,4110,4111,4112,4113,4114,4115,4116,4117,4118,4119,4120,4121,476,0,0,793,0,793,0,401,402,403,0,0,
0,0,401,402,403,793,0,0,0,0,0,0,0,0,0,0,0,0,0,0,0,0,0,0,0,0,0,0,0,795,401,402,403,0,795,0,795,0,0,4122,4123,4124,4125,4126,4127,4128,4129,4130,4131,4132,4133,4134,4135,4136,476,0,0,793,0,793,0,401,402,403,0,0,
0,0,401,402,403,793,0,785,786,786,786,786,786,786,786,786,786,786,786,786,786,786,786,786,786,786,786,786,787,795,401,402,403,0,795,0,786,786,786,786,786,786,786,786,786,786,786,786,786,786,786,786,786,786,786,786,786,786,0,793,0,401,402,403,0,0,
0,0,401,402,403,793,0,793,0,0,0,0,0,0,0,0,0,0,0,0,0,0,7,7,7,0,0,0,795,795,401,402,403,0,795,0,0,0,0,0,0,0,0,0,0,0,0,0,0,0,0,0,0,0,0,0,0,0,0,793,0,401,402,403,0,0,
0,0,401,402,403,793,0,793,0,7,7,7,7,7,7,7,7,7,7,7,7,7,7,0,7,0,0,0,795,795,401,402,403,0,786,786,786,786,786,786,786,786,786,786,786,786,786,786,786,786,786,786,786,786,786,786,786,786,786,786,0,401,402,403,0,0,
0,0,401,402,403,793,0,793,0,0,0,7,7,7,7,7,7,7,0,0,0,7,7,7,7,0,0,0,795,795,401,402,403,785,786,786,786,786,786,786,786,786,786,786,786,786,786,786,786,786,786,786,786,786,786,786,786,786,786,786,787,401,402,403,0,0,
0,0,401,402,403,793,0,793,0,0,0,7,7,7,0,0,0,0,0,0,0,0,0,0,0,0,0,0,795,795,401,402,403,793,0,0,0,0,0,0,0,0,0,0,0,0,0,0,0,0,0,0,0,0,0,0,0,0,0,0,795,401,402,403,0,0,
0,0,401,402,403,793,0,793,785,786,786,786,786,786,786,786,786,786,786,786,786,786,786,786,786,786,786,787,795,795,401,402,403,793,0,0,0,0,0,0,0,0,0,0,0,0,0,0,0,0,0,0,0,0,0,0,0,0,0,0,795,401,402,403,0,0,
0,0,401,402,403,793,0,793,793,0,0,0,0,0,0,0,0,0,0,0,0,0,0,0,0,0,0,795,795,795,401,402,403,793,0,0,0,0,0,0,0,0,0,0,0,0,0,0,0,0,0,0,0,0,0,0,0,0,0,0,795,401,402,403,0,0,
0,0,401,402,403,793,0,793,793,0,0,0,0,0,0,0,0,0,0,0,0,0,0,0,0,0,0,795,795,795,401,402,403,793,785,786,786,786,786,786,786,786,786,786,786,786,786,786,786,786,786,786,786,786,786,786,786,786,787,0,795,401,402,403,0,0,
0,0,401,402,403,793,0,793,793,0,0,0,0,0,0,0,0,0,0,0,0,0,0,0,0,0,0,795,795,795,401,402,403,793,793,0,0,0,0,0,0,0,0,0,0,0,0,0,0,0,0,0,0,0,0,0,0,0,795,0,795,401,402,403,0,0,
0,0,401,402,403,793,0,793,793,0,0,0,0,0,0,0,0,0,0,0,0,0,0,0,0,0,0,795,795,795,401,402,403,793,793,0,0,0,0,0,0,0,0,0,0,0,0,0,0,0,0,0,0,0,0,0,0,0,795,0,795,401,402,403,0,0,
0,0,401,402,403,793,0,793,793,785,786,786,786,786,786,786,786,786,786,786,786,786,786,786,786,786,787,795,795,795,401,402,403,793,793,0,0,0,0,0,0,0,0,0,0,0,0,0,0,0,0,0,0,0,0,0,0,0,795,0,795,401,402,403,0,0,
0,0,401,402,403,793,0,793,793,793,0,0,0,0,0,0,7,7,7,7,7,0,0,0,0,0,795,795,795,795,401,402,403,793,793,785,786,786,786,786,786,786,786,786,786,786,786,786,786,786,786,786,786,787,0,0,0,0,795,0,795,401,402,403,0,0,
0,0,401,402,403,793,0,793,793,793,0,0,0,0,7,7,7,0,0,7,7,0,0,0,0,0,795,795,795,795,401,402,403,793,793,793,0,0,0,0,0,0,0,0,0,0,0,0,0,0,0,0,0,795,0,0,0,0,795,0,795,401,402,403,0,0,
0,0,401,402,403,793,0,793,793,793,0,0,0,0,0,7,7,7,7,7,7,7,7,0,0,0,795,795,795,795,401,402,403,793,793,793,0,0,0,0,0,0,0,0,0,0,0,0,0,0,0,0,0,795,0,0,0,0,795,0,795,401,402,403,0,0,
0,0,401,402,403,793,0,793,793,793,0,0,0,0,0,0,0,0,0,0,0,0,0,0,0,0,795,795,795,795,401,402,403,793,793,793,0,0,0,0,0,0,0,0,0,0,0,0,0,0,0,0,0,795,0,0,0,0,795,0,795,401,402,403,0,0,
0,0,401,402,403,793,0,793,793,801,802,802,802,802,802,802,802,802,802,802,802,802,802,802,802,802,803,795,795,795,401,402,403,793,793,793,0,0,0,0,0,0,0,0,0,0,0,0,0,0,0,0,0,795,0,0,0,0,795,0,795,401,402,403,0,0,
0,0,401,402,403,793,0,793,801,802,802,802,802,802,802,802,802,802,802,802,802,802,802,802,802,802,802,803,795,795,401,402,403,793,793,801,802,802,802,802,802,802,802,802,802,802,802,802,802,802,802,802,802,803,0,0,0,0,795,0,795,401,402,403,0,0,
0,0,401,402,403,793,0,801,802,802,802,802,802,802,802,802,802,802,802,802,802,802,802,802,802,802,802,802,803,795,401,402,403,793,801,802,802,802,802,802,802,802,802,802,802,802,802,802,802,802,802,802,802,802,802,802,802,802,803,0,795,401,402,403,0,0,
0,0,401,402,403,801,778,802,802,802,802,802,802,802,802,802,802,802,802,802,802,802,802,802,802,802,802,802,802,803,401,402,403,801,802,802,802,802,802,802,802,802,802,802,802,802,802,802,802,802,802,802,802,802,802,802,802,802,802,802,803,401,402,403,0,0,
0,0,401,402,403,0,0,0,0,0,0,0,0,0,0,0,0,0,0,0,0,0,0,0,0,0,0,0,0,0,401,402,403,0,7,0,0,0,0,0,0,0,0,0,0,0,0,0,0,0,0,0,0,0,0,0,0,0,0,0,0,401,402,403,0,0,
0,0,401,402,403,0,0,7,7,7,7,7,7,7,7,7,7,7,7,7,7,7,7,7,7,7,7,7,0,0,401,402,403,0,7,7,7,7,7,7,7,7,7,7,7,7,7,7,7,7,7,7,7,7,7,7,7,7,7,7,0,401,402,403,0,0,
0,0,401,402,403,0,0,7,7,7,7,7,7,7,7,7,7,7,7,7,7,7,7,7,7,7,7,7,0,0,401,402,403,0,0,7,7,7,7,7,7,7,7,7,7,7,7,7,7,7,7,7,7,7,7,7,7,7,0,0,7,401,402,403,0,0,
0,0,401,402,403,0,0,0,7,0,0,0,0,0,0,0,0,0,0,0,0,0,0,7,7,7,7,7,0,0,401,402,403,0,0,7,7,7,7,7,0,0,0,0,0,0,0,0,0,0,0,0,0,0,0,0,7,7,7,7,7,401,402,403,0,0,
0,0,401,402,397,394,394,394,394,394,394,394,394,394,394,394,394,394,394,394,394,394,394,394,394,394,394,394,394,394,396,402,397,394,394,394,394,394,394,394,394,394,394,394,394,394,394,394,394,394,394,394,394,394,394,394,394,394,394,394,394,396,402,403,0,0,
0,0,401,402,402,402,402,402,402,402,402,402,402,402,402,402,402,402,402,402,402,402,402,402,402,402,402,402,402,402,402,402,402,402,402,402,402,402,402,402,402,402,402,402,402,402,402,402,402,402,402,402,402,402,402,402,402,402,402,402,402,402,402,403,0,0,
0,0,409,410,410,410,410,410,410,410,410,410,410,410,410,410,410,410,410,410,410,410,410,410,410,410,410,410,410,410,410,410,410,410,410,410,410,410,410,410,410,410,410,410,410,410,410,410,410,410,410,410,410,410,410,410,410,410,410,410,410,410,410,411,0,0,
0,0,0,0,0,0,0,0,0,0,0,0,0,0,0,0,0,0,0,0,0,0,0,0,0,0,0,0,0,0,0,0,0,0,0,0,0,0,0,0,0,0,0,0,0,0,0,0,0,0,0,0,0,0,0,0,0,0,0,0,0,0,0,0,0,0,
0,0,0,0,0,0,0,0,0,0,0,0,0,0,0,0,0,0,0,0,0,0,0,0,0,0,0,0,0,0,0,0,0,0,0,0,0,0,0,0,0,0,0,0,0,0,0,0,0,0,0,0,0,0,0,0,0,0,0,0,0,0,0,0,0,0,
0,0,421,422,421,422,421,422,421,422,421,422,421,422,421,422,421,422,421,422,421,422,421,422,421,422,421,422,421,422,421,422,421,422,421,422,421,422,421,422,421,422,421,422,421,422,421,422,421,422,421,422,421,422,421,422,421,422,421,422,421,422,421,422,0,0,
0,0,429,430,429,430,429,430,429,430,429,430,429,430,429,430,429,430,429,430,429,430,429,430,429,430,429,430,429,430,429,430,429,430,429,430,429,430,429,430,429,430,429,430,429,430,429,430,429,430,429,430,429,430,429,430,429,430,429,430,429,430,429,430,0,0,
0,0,437,438,437,438,437,438,437,438,437,438,437,438,437,438,437,438,437,438,437,438,437,438,437,438,437,438,437,438,437,438,437,438,437,438,437,438,437,438,437,438,437,438,437,438,437,438,437,438,437,438,437,438,437,438,437,438,437,438,437,438,437,438,0,0,
0,0,421,422,421,422,421,422,421,422,421,422,421,422,421,422,421,422,421,422,421,422,421,422,421,422,421,422,421,422,421,422,421,422,421,422,421,422,421,422,421,422,421,422,421,422,421,422,421,422,421,422,421,422,421,422,421,422,421,422,421,422,421,422,0,0,
0,0,429,430,429,430,429,430,429,430,429,430,429,430,429,430,429,430,429,430,429,430,429,430,429,430,429,430,429,430,429,430,429,430,429,430,429,430,429,430,429,430,429,430,429,430,429,430,429,430,429,430,429,430,429,430,429,430,429,430,429,430,429,430,0,0,
0,0,437,438,437,438,437,438,437,438,437,438,437,438,437,438,437,438,437,438,437,438,437,438,437,438,437,438,437,438,437,438,437,438,437,438,437,438,437,438,437,438,437,438,437,438,437,438,437,438,437,438,437,438,437,438,437,438,437,438,437,438,437,438,0,0,
0,0,421,422,421,422,421,422,421,422,421,422,421,422,421,422,421,422,421,422,421,422,421,422,421,422,421,422,421,422,421,422,421,422,421,422,421,422,421,422,421,422,421,422,421,422,421,422,421,422,421,422,421,422,421,422,421,422,421,422,421,422,421,422,0,0,
0,0,429,430,429,430,429,430,429,430,429,430,429,430,429,430,429,430,429,430,429,430,429,430,429,430,429,430,429,430,429,430,429,430,429,430,429,430,429,430,429,430,429,430,429,430,429,430,429,430,429,430,429,430,429,430,429,430,429,430,429,430,429,430,0,0,
0,0,437,438,437,438,437,438,437,438,437,438,437,438,437,438,437,438,437,438,437,438,437,438,437,438,437,438,437,438,437,438,437,438,437,438,437,438,437,438,437,438,437,438,437,438,437,438,437,438,437,438,437,438,437,438,437,438,437,438,437,438,437,438,0,0
</data>
 </layer>
 <layer id="3" name="edifici" width="66" height="51">
  <data encoding="csv">
421,422,0,0,0,0,0,0,0,0,0,0,0,0,0,0,0,0,0,0,0,0,0,0,0,0,0,0,0,0,0,0,0,0,0,0,0,0,0,0,0,0,0,0,0,0,0,0,0,0,0,0,0,0,0,0,0,0,0,0,0,0,0,0,421,422,
429,430,0,0,0,0,0,0,0,0,0,0,0,0,0,0,0,0,0,0,0,0,0,0,0,0,0,0,0,0,0,0,0,0,0,0,0,0,0,0,0,0,0,0,0,0,0,0,0,0,0,0,0,0,0,0,0,0,0,0,0,0,0,0,429,430,
437,438,0,0,0,0,0,0,0,0,0,0,0,0,0,0,0,0,0,0,0,0,0,0,0,0,0,0,0,0,0,0,0,0,0,0,0,0,0,0,0,0,0,0,0,0,0,0,0,0,0,0,0,0,0,0,0,0,0,0,0,0,0,0,437,438,
421,422,0,0,0,0,0,0,0,0,0,0,0,0,0,0,0,0,0,0,0,0,0,0,0,0,0,0,0,0,0,0,0,0,0,0,0,0,0,0,0,0,0,0,0,0,0,0,0,0,0,0,0,0,0,0,0,0,0,0,0,0,0,0,421,422,
429,430,0,0,0,0,0,0,0,0,0,0,0,0,0,0,0,0,0,0,0,0,0,0,0,0,0,0,0,0,0,0,0,0,0,0,0,0,0,0,0,0,0,0,0,0,0,0,0,0,0,0,0,0,0,0,0,0,0,0,0,0,0,0,429,430,
437,438,0,0,0,0,0,0,0,0,0,0,0,0,0,0,0,0,0,0,0,0,0,0,0,0,0,0,0,0,0,0,0,0,0,0,0,0,0,0,0,0,0,0,0,0,0,0,0,0,0,0,0,0,0,0,0,0,0,0,0,0,0,0,437,438,
421,422,0,0,0,0,0,0,0,0,0,0,0,0,0,0,0,0,0,0,0,0,0,0,0,0,0,0,0,0,0,0,0,0,0,0,0,0,0,0,0,0,0,0,0,0,0,0,0,0,0,0,0,0,0,0,0,0,0,0,0,0,0,0,421,422,
429,430,0,0,0,0,0,0,0,0,0,0,0,0,0,0,0,0,0,0,0,0,0,0,0,0,0,0,0,0,0,0,0,0,0,0,0,0,0,0,0,0,0,0,0,0,0,0,0,0,0,0,0,0,0,0,0,0,0,0,0,0,0,0,429,430,
437,438,0,0,0,0,0,0,0,0,0,0,0,0,0,0,0,0,0,0,0,0,0,0,0,0,0,0,0,0,0,0,0,0,0,0,0,0,0,0,0,0,0,0,0,0,0,0,0,0,0,0,0,0,0,0,0,0,0,0,0,0,0,0,437,438,
421,422,0,0,0,0,0,0,0,0,0,0,0,0,0,0,0,0,0,0,0,0,0,0,0,0,0,0,0,0,0,0,0,0,0,0,0,0,0,0,0,0,0,0,0,0,0,0,0,0,0,0,0,0,0,0,0,0,0,0,0,0,0,0,421,422,
429,430,0,0,0,0,0,0,0,0,0,0,0,0,0,0,0,0,0,0,0,0,0,0,0,0,0,0,0,0,0,0,0,0,0,0,0,0,0,0,0,0,0,0,0,0,0,0,0,0,0,0,0,0,0,0,0,0,0,0,0,0,0,0,429,430,
437,438,0,0,0,0,0,0,0,0,0,0,0,0,0,0,0,0,0,0,0,0,0,0,0,0,0,0,0,0,0,0,0,0,0,0,0,0,0,0,0,0,0,0,0,0,0,0,0,0,0,0,0,0,0,0,0,0,0,0,0,0,0,0,437,438,
421,422,0,0,0,0,0,0,0,0,0,0,0,0,0,0,0,0,0,0,0,0,0,0,0,0,0,0,0,0,0,0,0,0,0,0,0,0,0,0,0,0,0,0,0,0,0,0,0,0,0,0,0,0,0,0,0,0,0,0,0,0,0,0,421,422,
429,430,0,0,0,0,0,0,0,0,0,0,0,0,0,0,0,0,0,0,0,0,0,0,0,0,0,0,0,0,0,0,0,0,0,0,0,0,0,0,0,0,0,0,0,0,0,0,0,0,0,0,0,0,0,0,0,0,0,0,0,0,0,0,429,430,
437,438,0,0,0,0,0,0,0,0,0,0,0,0,0,0,0,0,0,0,0,0,0,0,0,0,0,0,0,0,0,0,0,0,0,0,0,0,0,0,0,0,0,0,0,0,0,0,0,0,0,0,0,0,0,0,0,0,0,0,0,0,0,0,437,438,
421,422,0,0,0,0,0,0,0,0,0,0,0,0,0,0,0,0,0,0,0,0,0,0,0,0,0,0,0,0,0,0,0,0,0,0,0,0,0,0,0,0,0,0,0,0,0,0,0,0,0,0,0,0,0,0,0,0,0,0,0,0,0,0,421,422,
429,430,0,0,0,0,0,0,0,0,0,0,0,0,0,0,0,0,0,0,0,0,0,0,0,0,0,0,0,0,0,0,0,0,0,0,0,0,0,0,0,0,0,0,0,0,0,0,0,0,0,0,0,0,0,0,0,0,0,0,0,0,0,0,429,430,
437,438,0,0,0,0,0,0,0,0,0,0,0,0,0,0,0,0,0,0,0,0,0,0,0,0,0,0,0,0,0,0,0,0,0,0,485,0,0,485,0,0,485,0,0,485,0,0,485,0,0,485,0,0,485,0,0,485,0,0,0,0,0,0,437,438,
421,422,0,0,0,0,0,0,0,0,0,0,0,0,0,0,0,0,0,0,0,0,0,0,0,0,0,0,0,0,0,0,0,0,0,492,493,494,492,493,494,492,493,494,492,493,494,492,493,494,492,493,494,492,493,494,492,493,494,0,0,0,0,0,421,422,
429,430,0,0,0,0,0,0,0,0,0,0,0,0,0,0,0,0,0,0,0,0,0,0,0,0,0,0,0,0,0,0,0,0,0,500,501,502,500,501,502,500,501,502,500,501,502,500,501,502,500,501,502,500,501,502,500,501,502,0,0,0,0,0,429,430,
437,438,0,0,0,0,0,0,0,0,4981,0,0,0,0,4981,0,0,0,0,4981,0,0,0,0,4981,0,0,0,0,0,0,0,0,0,508,509,510,508,509,510,508,509,510,508,509,510,508,509,510,508,509,510,508,509,510,508,509,510,0,0,0,0,0,437,438,
421,422,0,0,0,0,0,0,0,4988,4989,4990,0,0,4988,4989,4990,0,0,4988,4989,4990,0,0,4988,4989,4990,0,0,0,0,0,0,0,0,0,0,485,0,0,485,0,0,485,0,0,485,0,0,485,0,0,485,0,0,485,0,0,0,0,0,0,0,0,421,422,
429,430,0,0,0,0,0,0,0,4996,4997,4998,0,0,4996,4997,4998,0,0,4996,4997,4998,0,0,4996,4997,4998,0,0,0,0,0,0,0,0,0,492,493,494,492,493,494,492,493,494,492,493,494,492,493,494,492,493,494,492,493,494,0,0,0,0,0,0,0,429,430,
437,438,0,0,0,0,0,0,0,5004,5005,5006,0,0,5004,5005,5006,0,0,5004,5005,5006,0,0,5004,5005,5006,0,0,0,0,0,0,0,0,0,500,501,502,500,501,502,500,501,502,500,501,502,500,501,502,500,501,502,500,501,502,0,0,0,0,0,0,0,437,438,
421,422,0,0,0,0,0,0,0,0,0,0,0,0,0,0,0,0,0,0,0,0,0,0,0,0,0,0,0,0,0,0,0,0,0,0,508,509,510,508,509,510,508,509,510,508,509,510,508,509,510,508,509,510,508,509,510,0,0,0,0,0,0,0,421,422,
429,430,0,0,0,0,0,0,0,0,0,4981,0,0,0,0,0,0,0,0,0,0,0,0,4981,0,0,0,0,0,0,0,0,0,0,0,0,0,0,0,0,0,0,0,0,0,0,0,0,0,0,0,0,0,0,485,0,0,0,0,0,0,0,0,429,430,
437,438,0,0,0,0,0,0,0,0,4988,4989,4990,0,0,0,0,0,0,0,0,0,0,4988,4989,4990,0,0,0,0,0,0,0,0,0,0,0,0,485,0,0,485,0,0,485,0,0,485,0,0,485,0,0,0,492,493,494,0,0,0,0,0,0,0,437,438,
421,422,0,0,0,0,0,0,0,0,4996,4997,4998,0,0,0,0,0,0,0,0,0,0,4996,4997,4998,0,0,0,0,0,0,0,0,0,0,0,492,493,494,492,493,494,492,493,494,492,493,494,492,493,494,0,0,500,501,502,0,0,0,0,0,0,0,421,422,
429,430,0,0,0,0,0,0,0,0,5004,5005,5006,0,0,0,0,0,0,0,0,0,0,5004,5005,5006,0,0,0,0,0,0,0,0,0,0,0,500,501,502,500,501,502,500,501,502,500,501,502,500,501,502,0,0,508,509,510,0,0,0,0,0,0,0,429,430,
437,438,0,0,0,0,0,0,0,0,0,0,0,0,0,0,0,0,0,0,0,0,0,0,0,0,0,0,0,0,0,0,0,0,0,0,0,508,509,510,508,509,510,508,509,510,508,509,510,508,509,510,0,0,0,0,0,0,0,0,0,0,0,0,437,438,
421,422,0,0,0,0,0,0,0,0,0,0,0,0,0,0,0,0,0,0,0,0,0,0,0,0,0,0,0,0,0,0,0,0,0,0,0,0,0,0,0,0,0,0,0,0,0,0,0,0,0,0,0,0,0,0,0,0,0,0,0,0,0,0,421,422,
429,430,0,0,0,0,0,0,0,0,0,0,0,0,0,0,0,0,0,0,0,0,0,0,0,0,0,0,0,0,0,0,0,0,0,0,0,0,0,0,0,0,0,0,0,0,0,0,0,0,0,0,0,0,0,0,0,0,0,0,0,0,0,0,429,430,
437,438,0,0,0,0,0,0,0,0,0,0,0,0,0,0,0,0,0,0,0,0,0,0,0,0,0,0,0,0,0,0,0,0,0,0,0,0,0,0,0,0,0,0,0,0,0,0,0,0,0,0,0,0,0,0,0,0,0,0,0,0,0,0,437,438,
421,422,0,0,0,0,0,0,0,0,0,0,0,0,0,0,0,0,0,0,0,0,0,0,0,0,0,0,0,0,0,0,0,0,0,0,0,0,0,0,0,0,0,0,0,0,0,0,0,0,0,0,0,0,0,0,0,0,0,0,0,0,0,0,421,422,
429,430,0,0,0,0,0,0,0,0,0,0,0,0,0,0,0,0,0,0,0,0,0,0,0,0,0,0,0,0,0,0,0,0,0,0,0,0,0,0,0,0,0,0,0,0,0,0,0,0,0,0,0,0,0,0,0,0,0,0,0,0,0,0,429,430,
437,438,0,0,0,0,0,0,0,0,0,0,0,0,0,0,0,0,0,0,0,0,0,0,0,0,0,0,0,0,0,0,0,0,0,0,0,0,0,0,0,0,0,0,0,0,0,0,0,0,0,0,0,0,0,0,0,0,0,0,0,0,0,0,437,438,
421,422,0,0,0,0,0,0,0,0,0,0,0,0,0,0,0,0,0,0,0,0,0,0,0,0,0,0,0,0,0,0,0,0,0,0,0,0,0,0,0,0,0,0,0,0,0,0,0,0,0,0,0,0,0,0,0,0,0,0,0,0,0,0,421,422,
429,430,0,0,0,0,0,0,0,0,0,0,0,0,0,0,0,0,0,0,0,0,0,0,0,0,0,0,0,0,0,0,0,0,0,0,0,0,0,0,0,0,0,0,0,0,0,0,0,0,0,0,0,0,0,0,0,0,0,0,0,0,0,0,429,430,
437,438,0,0,0,0,0,0,0,0,0,0,0,0,0,0,0,0,0,0,0,0,0,0,0,0,0,0,0,0,0,0,0,0,0,0,0,0,0,0,0,0,0,0,0,0,0,0,0,0,0,0,0,0,0,0,0,0,0,0,0,0,0,0,437,438,
421,422,0,0,0,0,0,0,0,0,0,0,0,0,0,0,0,0,0,0,0,0,0,0,0,0,0,0,0,0,0,0,0,0,0,0,0,0,0,0,0,0,0,0,0,0,0,0,0,0,0,0,0,0,0,0,0,0,0,0,0,0,0,0,421,422,
429,430,0,0,0,0,0,0,0,0,0,0,0,0,0,0,0,0,0,0,0,0,0,0,0,0,0,0,0,0,0,0,0,0,0,0,0,0,0,0,0,0,0,0,0,0,0,0,0,0,0,0,0,0,0,0,0,0,0,0,0,0,0,0,429,430,
437,438,0,0,0,0,0,0,0,0,0,0,0,0,0,0,0,0,0,0,0,0,0,0,0,0,0,0,0,0,0,0,0,0,0,0,0,0,0,0,0,0,0,0,0,0,0,0,0,0,0,0,0,0,0,0,0,0,0,0,0,0,0,0,437,438,
421,422,0,0,0,0,0,0,0,0,0,0,0,0,0,0,0,0,0,0,0,0,0,0,0,0,0,0,0,0,0,0,0,0,0,0,0,0,0,0,0,0,0,0,0,0,0,0,0,0,0,0,0,0,0,0,0,0,0,0,0,0,0,0,421,422,
429,430,0,0,0,0,0,0,0,0,0,0,0,0,0,0,0,0,0,0,0,0,0,0,0,0,0,0,0,0,0,0,0,0,0,0,0,0,0,0,0,0,0,0,0,0,0,0,0,0,0,0,0,0,0,0,0,0,0,0,0,0,0,0,429,430,
437,438,0,0,0,0,0,0,0,0,0,0,0,0,0,0,0,0,0,0,0,0,0,0,0,0,0,0,0,0,0,0,0,0,0,0,0,0,0,0,0,0,0,0,0,0,0,0,0,0,0,0,0,0,0,0,0,0,0,0,0,0,0,0,437,438,
421,422,0,0,0,0,0,0,0,0,0,0,0,0,0,0,0,0,0,0,0,0,0,0,0,0,0,0,0,0,0,0,0,0,0,0,0,0,0,0,0,0,0,0,0,0,0,0,0,0,0,0,0,0,0,0,0,0,0,0,0,0,0,0,421,422,
429,430,0,0,0,0,0,0,0,0,0,0,0,0,0,0,0,0,0,0,0,0,0,0,0,0,0,0,0,0,0,0,0,0,0,0,0,0,0,0,0,0,0,0,0,0,0,0,0,0,0,0,0,0,0,0,0,0,0,0,0,0,0,0,429,430,
437,438,0,0,0,0,0,0,0,0,0,0,0,0,0,0,0,0,0,0,0,0,0,0,0,0,0,0,0,0,0,0,0,0,0,0,0,0,0,0,0,0,0,0,0,0,0,0,0,0,0,0,0,0,0,0,0,0,0,0,0,0,0,0,437,438,
421,422,0,0,0,0,0,0,0,0,0,0,0,0,0,0,0,0,0,0,0,0,0,0,0,0,0,0,0,0,0,0,0,0,0,0,0,0,0,0,0,0,0,0,0,0,0,0,0,0,0,0,0,0,0,0,0,0,0,0,0,0,0,0,421,422,
429,430,0,0,0,0,0,0,0,0,0,0,0,0,0,0,0,0,0,0,0,0,0,0,0,0,0,0,0,0,0,0,0,0,0,0,0,0,0,0,0,0,0,0,0,0,0,0,0,0,0,0,0,0,0,0,0,0,0,0,0,0,0,0,429,430,
437,438,0,0,0,0,0,0,0,0,0,0,0,0,0,0,0,0,0,0,0,0,0,0,0,0,0,0,0,0,0,0,0,0,0,0,0,0,0,0,0,0,0,0,0,0,0,0,0,0,0,0,0,0,0,0,0,0,0,0,0,0,0,0,437,438
</data>
 </layer>
 <objectgroup id="4" name="collisioni"/>
 <objectgroup id="5" name="eventi">
  <object id="1" name="gate" x="171" y="19">
   <properties>
    <property name="type" value="npc"/>
    <property name="id" value="gate_colonna_calcio_1"/>
    <property name="direzione" value="ovest"/>
    <property name="condizione" value="legaCompletata"/>
    <property name="gate" type="bool" value="true"/>
   </properties>
   <point/>
  </object>
  <object id="2" name="gate" x="1099" y="57">
   <properties>
    <property name="type" value="npc"/>
    <property name="id" value="gate_colonna_calcio_2"/>
    <property name="direzione" value="ovest"/>
    <property name="condizione" value="legaCompletata"/>
    <property name="gate" type="bool" value="true"/>
   </properties>
   <point/>
  </object>
  <object id="3" name="warp_bunkerino" x="750" y="334">
   <properties>
    <property name="type" value="warp"/>
    <property name="destinazione" value="bunkerino"/>
    <property name="spawn_id" value="da_bunkerino"/>
   </properties>
   <point/>
  </object>
  <object id="5" name="spawn_bunkerino" x="750" y="366">
   <properties>
    <property name="type" value="spawn"/>
    <property name="id" value="da_bunkerino"/>
   </properties>
   <point/>
  </object>
  <object id="6" name="oggetto_colonna_maxpozione" x="420" y="900">
   <properties>
    <property name="type" value="oggetto"/>
    <property name="id" value="oggetto_colonna_maxpozione"/>
    <property name="contenuto" value="maxpozione"/>
    <property name="quantita" type="int" value="1"/>
   </properties>
   <point/>
  </object>
  <object id="7" name="oggetto_colonna_mt_shadow_ball" x="1450" y="1200">
   <properties>
    <property name="type" value="oggetto"/>
    <property name="id" value="oggetto_colonna_mt_shadow_ball"/>
    <property name="contenuto" value="mt_shadow_ball"/>
    <property name="quantita" type="int" value="1"/>
   </properties>
   <point/>
  </object>
 </objectgroup>
</map>
