<?xml version="1.0" encoding="UTF-8"?>
<map version="1.10" tiledversion="1.12.2" orientation="orthogonal" renderorder="right-down" width="40" height="40" tilewidth="32" tileheight="32" infinite="0" backgroundcolor="#000000" nextlayerid="21" nextobjectid="45">
 <tileset firstgid="1" source="../outside.tsx"/>
 <tileset firstgid="4017" source="../../outside.tsx"/>
 <layer id="1" name="ground" width="40" height="40">
  <data encoding="csv">
4,4,4,4,4,4,4,4,4,4,4,4,4,4,4,4,4,4,4,4,4,4,4,4,4,4,4,4,4,4,4,4,4,4,4,4,4,4,4,4,
4,4,4,4,4,4,4,4,4,4,4,4,4,4,4,4,4,4,4,4,4,4,4,4,4,4,4,4,4,4,4,4,4,4,4,4,4,4,4,4,
4,4,4,4,4,4,4,4,4,4,4,4,4,4,4,4,4,4,4,4,4,4,4,4,4,4,4,4,4,4,4,4,4,4,4,4,4,4,4,4,
4,4,4,4,4,4,4,4,4,4,4,4,4,4,4,4,4,4,4,4,4,4,4,4,4,4,4,4,4,4,4,4,4,4,4,4,4,4,4,4,
4,4,4,4,4,4,4,4,4,4,4,4,4,4,4,4,4,4,4,4,4,4,4,4,4,4,4,4,4,4,4,4,4,4,4,4,4,4,4,4,
4,4,4,4,4,4,4,4,4,4,4,4,4,4,4,4,4,4,4,4,4,4,4,4,4,4,4,4,4,4,4,4,4,4,4,4,4,4,4,4,
4,4,4,4,4,4,4,4,4,4,4,4,4,4,4,4,4,4,4,4,4,4,4,4,4,4,4,4,4,4,4,4,4,4,4,4,4,4,4,4,
4,4,4,4,4,4,4,4,4,4,4,4,4,4,4,4,4,4,4,4,4,4,4,4,4,4,4,4,4,4,4,4,4,4,4,4,4,4,4,4,
4,4,4,4,4,4,4,4,4,4,4,4,4,4,4,4,4,4,4,4,4,4,4,4,4,4,4,4,4,4,4,4,4,4,4,4,4,4,4,4,
4,4,4,4,4,4,4,4,4,4,4,4,4,4,4,4,4,4,4,4,4,4,4,4,4,4,4,4,4,4,4,4,4,4,4,4,4,4,4,4,
4,4,4,4,4,4,4,4,4,4,4,4,4,4,4,4,4,4,4,4,4,4,4,4,4,4,4,4,4,4,4,4,4,4,4,4,4,4,4,4,
4,4,4,4,4,4,4,4,4,4,4,4,4,4,4,4,4,4,4,4,4,4,4,4,4,4,4,4,4,4,4,4,4,4,4,4,4,4,4,4,
4,4,4,7,7,7,7,7,7,7,7,2,2,2,2,2,407,343,343,343,343,343,407,4,2,2,2,2,2,4048,2,7,7,7,7,7,7,7,7,4,
4,4,4,7,7,7,7,7,7,7,7,2,2,2,2,2,407,343,343,343,343,343,407,4,2,2,2,2,2,4019,2,7,7,7,7,7,7,4019,7,4,
4,4,4,7,7,7,4019,7,7,7,7,2,2,4048,2,2,407,343,343,343,343,343,407,4,2,2,2,4048,2,4019,2,7,7,7,7,7,4019,4019,7,4,
4,4,4,7,7,7,7,7,7,7,7,2,2,2,2,2,407,343,343,343,343,343,407,4,2,2,2,2,2,4048,2,7,7,7,7,4019,4019,4019,7,4,
4,4,4,7,7,7,7,7,7,7,7,2,2,2,2,2,407,343,343,343,343,343,407,4,2,2,2,2,2,4019,2,7,7,7,4019,4019,4019,4019,7,4,
4,4,4,7,7,7,7,7,7,7,7,2,2,2,2,2,407,343,343,343,343,343,407,4,2,2,2,2,2,4048,2,7,7,4019,4019,4019,4019,4048,7,4,
4,4,4,7,7,7,7,7,7,7,7,2,2,2,2,2,407,343,343,343,343,343,407,4,2,2,2,2,2,2,2,7,4019,4019,4019,4019,4019,4019,7,4,
4,4,4,7,7,4019,4019,4019,7,7,7,2,2,2,2,2,407,343,343,343,343,343,407,4,2,4048,2,2,2,2,2,4019,4019,4019,4019,4019,4019,4019,7,4,
4,4,4,7,7,4019,4019,4019,7,7,7,2,2,2,2,2,407,343,343,343,343,343,407,4,2,2,2,2,2,2,2,7,7,7,7,7,7,7,7,4,
4,4,4,7,7,4019,4019,4019,7,7,7,2,2,2,2,2,407,343,343,343,343,343,407,4,2,2,2,2,2,2,2,7,7,7,7,7,7,7,7,4,
4,4,4,7,7,7,7,7,7,7,7,2,2,2,2,2,407,343,343,343,343,343,407,4,2,2,2,2,2,2,2,7,7,7,7,7,7,7,7,4,
4,4,4,7,7,7,7,7,7,7,7,2,2,2,2,2,407,343,343,343,343,343,407,4,2,2,2,2,2,2,2,7,7,7,7,7,7,7,7,4,
4,4,4,7,7,7,7,7,7,7,7,2,2,2,2,2,407,343,343,343,343,343,407,4,2,2,4048,2,2,2,2,7,7,7,7,7,7,7,7,4,
4,4,4,7,7,7,7,7,7,7,7,2,2,2,4048,2,407,343,343,343,343,343,407,4,2,2,2,2,2,2,2,7,7,7,7,7,7,7,7,4,
4,4,4,7,7,7,7,7,7,7,7,2,2,2,4048,2,407,343,343,343,343,343,407,4,2,2,2,2,2,2,2,7,7,7,7,7,7,7,7,4,
4,4,4,7,7,7,7,7,7,7,7,2,2,2,2,2,407,343,343,343,343,343,407,4,2,2,2,2,2,2,2,7,7,7,7,7,7,7,7,4,
4,4,4,7,7,7,7,7,7,7,7,2,2,2,2,2,407,343,343,343,343,343,407,4,2,2,2,2,2,2,2,7,7,7,7,7,7,7,7,4,
4,4,4,7,7,7,7,7,7,7,7,2,4048,2,2,2,407,343,343,343,343,343,407,4,2,2,2,2,2,2,2,7,7,7,7,7,7,7,7,4,
4,4,4,7,4018,4018,4018,4018,7,7,7,2,2,2,2,2,407,343,343,343,343,343,407,4,2,2,2,2,2,2,2,7,7,7,7,7,7,7,7,4,
4,4,4,7,4018,4019,4019,4019,7,7,7,2,2,2,2,2,407,343,343,343,343,343,407,4,2,2,2,2,2,2,2,7,7,4019,4019,4019,4019,7,7,4,
4,4,4,7,4018,4019,4019,4019,7,7,7,2,2,2,2,2,407,343,343,343,343,343,407,4,2,2,2,2,2,2,2,7,7,4019,4019,4019,4019,7,7,4,
4,4,4,7,4018,4019,4019,4019,7,7,7,2,2,2,2,4048,407,343,343,343,343,343,407,4,2,2,2,2,2,4048,2,7,7,4019,4019,4019,4019,7,7,4,
4,4,4,7,7,7,7,7,7,7,7,2,2,2,2,4048,407,343,343,343,343,343,407,4,2,2,2,2,2,4048,2,7,7,4019,4019,4019,4019,7,7,4,
4,4,4,7,7,7,7,7,7,7,7,2,2,2,2,2,407,343,343,343,343,343,407,4,2,2,2,2,2,2,2,7,7,7,7,7,7,7,7,4,
4,4,4,7,7,7,7,7,7,7,7,2,2,2,2,2,407,343,343,343,343,343,407,4,2,2,2,2,2,2,2,7,7,7,7,7,7,7,7,4,
4,4,4,7,7,7,7,4019,7,7,7,2,2,2,2,2,407,343,343,343,343,343,407,4,2,2,2,2,2,2,2,7,7,7,7,7,7,7,7,4,
4,4,4,7,7,7,7,7,7,7,7,2,2,2,2,2,407,343,343,343,343,343,407,4,2,2,2,2,2,2,2,7,7,7,7,7,7,7,7,4,
4,4,4,7,7,7,7,7,7,7,7,2,2,2,2,2,407,343,343,343,343,343,407,4,2,2,2,2,2,2,2,7,7,7,7,7,7,7,7,4
</data>
 </layer>
 <layer id="2" name="deco_sotto" width="40" height="40">
  <data encoding="csv">
0,0,0,0,0,0,0,0,0,0,0,0,0,0,0,0,0,0,0,0,0,0,0,0,0,0,0,0,0,0,0,0,0,0,0,0,0,0,0,0,
0,0,0,0,0,0,0,0,0,0,0,0,0,0,0,0,0,0,0,0,0,0,0,0,0,0,0,0,0,0,0,0,0,0,0,0,0,0,0,0,
0,0,0,0,0,0,0,0,0,0,0,0,0,0,0,0,0,0,0,0,0,0,0,0,0,0,0,0,0,0,0,0,0,0,0,0,0,0,0,0,
0,0,0,0,0,0,0,0,0,0,0,0,0,0,0,0,0,0,0,0,0,0,0,0,0,0,0,0,0,0,0,0,0,0,0,0,0,0,0,0,
0,0,0,0,0,0,0,0,0,0,0,0,0,0,0,0,0,0,0,0,0,0,0,0,0,0,0,0,0,0,0,0,0,0,0,0,0,0,0,0,
0,0,0,0,0,0,0,0,0,0,0,0,0,0,0,0,0,0,0,0,0,0,0,0,0,0,0,0,0,0,0,0,0,0,0,0,0,0,0,0,
0,0,0,0,0,0,0,0,0,0,0,0,0,0,0,0,0,0,0,0,0,0,0,0,0,0,0,0,0,0,0,0,0,0,0,0,0,0,0,0,
0,0,0,0,0,0,0,0,0,0,0,0,0,0,0,0,0,0,0,0,0,0,0,0,0,0,0,0,0,0,0,0,0,0,0,0,0,0,0,0,
0,0,0,0,0,0,0,0,0,0,0,0,0,0,0,0,0,0,0,0,0,0,0,0,0,0,0,0,0,0,0,0,0,0,0,0,0,0,0,0,
0,0,0,0,0,0,0,0,0,0,0,0,0,0,0,0,0,0,0,0,0,0,0,0,0,0,0,0,0,0,0,0,0,0,0,0,0,0,0,0,
0,0,0,0,0,0,0,0,0,0,0,0,0,0,0,0,0,0,0,0,0,0,0,0,0,0,0,0,0,0,0,0,0,0,0,0,0,0,0,0,
0,0,0,0,0,0,0,0,0,0,0,0,0,0,0,0,0,0,0,0,0,0,0,0,0,0,0,0,0,0,0,0,0,0,0,0,0,0,0,0,
0,0,0,0,0,0,0,0,0,0,0,0,0,0,0,0,0,0,0,0,0,0,0,0,0,0,0,0,0,0,0,0,0,0,0,0,0,0,0,0,
0,0,0,0,0,0,0,0,0,0,0,0,0,0,0,0,0,0,0,0,0,0,0,0,0,0,0,0,0,0,0,0,0,0,0,0,0,0,0,0,
0,0,0,0,0,0,0,0,0,0,0,0,0,0,0,0,0,0,0,0,0,0,0,0,0,0,0,0,0,0,0,0,0,0,0,0,0,0,0,0,
0,0,0,0,0,0,0,0,0,0,0,0,0,0,0,0,0,955,0,0,0,0,0,0,0,0,0,0,0,0,0,0,0,0,0,0,0,0,0,0,
0,0,0,0,0,0,0,0,0,0,0,0,0,0,0,0,0,0,0,0,0,0,0,0,0,0,0,0,0,0,0,0,0,0,0,0,0,0,0,0,
0,0,0,0,0,0,0,0,0,0,0,0,0,0,0,0,0,0,0,0,0,0,0,0,0,0,0,0,0,0,0,0,0,0,0,0,0,0,0,0,
0,0,0,0,0,0,0,0,0,0,0,0,0,0,0,0,0,0,0,0,0,0,0,0,0,0,0,0,0,0,0,0,0,0,0,0,0,0,0,0,
0,0,0,0,0,0,0,0,0,0,0,0,0,0,0,0,0,0,0,0,0,0,0,0,0,0,0,0,0,0,0,0,0,0,0,0,0,0,0,0,
0,0,0,0,0,0,4965,0,0,0,0,0,0,0,0,0,0,0,0,0,0,0,0,0,0,0,0,0,0,0,0,0,0,0,0,0,0,0,0,0,
0,0,0,0,0,0,0,0,0,0,0,0,0,0,0,0,0,0,0,0,0,0,0,0,0,0,0,0,0,0,0,0,0,0,0,0,0,0,0,0,
0,0,0,0,0,0,0,0,0,0,0,0,0,0,0,0,0,0,0,0,0,0,0,0,0,0,0,0,0,0,0,0,0,0,0,0,0,0,0,0,
0,0,0,0,0,0,0,0,0,0,0,0,0,0,0,0,0,0,0,0,0,0,0,0,0,0,0,0,0,0,0,0,0,0,0,0,0,0,0,0,
0,0,0,0,0,0,0,0,0,0,0,0,0,0,0,0,0,0,0,0,0,0,0,0,0,0,0,0,0,0,0,0,0,0,0,0,0,0,0,0,
0,0,0,0,0,0,0,0,0,0,0,0,0,0,0,0,0,0,0,0,0,0,0,0,0,0,0,0,0,0,0,0,0,0,0,0,0,0,0,0,
0,0,0,0,0,0,0,0,0,0,0,0,0,0,0,0,0,0,0,0,0,0,0,0,0,0,0,0,0,0,0,0,0,0,0,0,0,0,0,0,
0,0,0,0,0,0,0,0,0,0,0,0,0,0,0,0,0,0,0,0,0,0,0,0,0,0,0,0,0,0,0,0,0,0,0,0,0,0,0,0,
0,0,0,0,0,0,0,0,0,0,0,0,0,0,0,0,0,0,0,0,0,0,0,0,0,0,0,0,0,0,0,0,0,0,0,0,0,0,0,0,
0,0,0,0,0,0,0,0,0,0,0,0,0,0,0,0,0,0,0,0,0,0,0,0,0,0,0,0,0,0,0,0,0,0,0,0,0,0,0,0,
0,0,0,0,0,0,0,0,0,0,0,0,0,0,0,0,0,0,0,0,0,0,0,0,0,0,0,0,0,0,0,0,0,0,0,0,0,0,0,0,
0,0,0,0,0,0,0,0,0,0,0,0,0,0,0,0,0,0,0,0,0,0,0,0,0,0,0,0,0,0,0,0,0,0,0,0,0,0,0,0,
0,0,0,0,0,0,0,0,0,0,0,0,0,0,0,0,0,0,0,0,0,0,0,0,0,0,0,0,0,0,0,0,0,0,0,0,0,0,0,0,
0,0,0,0,0,0,0,0,0,0,0,0,0,0,0,0,0,0,0,0,0,0,0,0,0,0,0,0,0,0,0,0,0,0,0,0,0,0,0,0,
0,0,0,0,0,0,0,0,0,0,0,0,0,0,0,0,0,0,0,0,0,0,0,0,0,0,0,0,0,0,0,0,0,0,0,0,0,0,0,0,
0,0,0,0,0,0,0,0,0,0,0,0,0,0,0,0,0,0,0,0,0,0,0,0,0,0,0,0,0,0,0,0,0,0,0,0,0,0,0,0,
0,0,0,0,0,0,0,0,0,0,0,0,0,0,0,0,0,0,0,0,0,0,0,0,0,0,0,0,0,0,0,0,0,0,0,0,0,0,0,0,
0,0,0,0,0,0,0,0,0,0,0,0,0,0,0,0,0,0,0,0,0,0,0,955,0,0,0,0,0,0,0,0,0,0,0,0,0,0,0,0,
0,0,0,0,0,0,0,0,0,0,0,0,0,0,0,0,0,0,0,0,0,0,0,0,0,0,0,0,0,0,0,0,0,0,0,0,0,0,0,0,
0,0,0,0,0,0,0,0,0,0,0,0,0,0,0,0,0,0,0,0,0,0,0,0,0,0,0,0,0,0,0,0,0,0,0,0,0,0,0,0
</data>
 </layer>
 <layer id="3" name="edifici" width="40" height="40">
  <data encoding="csv">
421,422,421,422,421,422,421,422,421,422,421,422,421,422,421,422,421,422,421,422,421,422,421,422,421,422,421,422,421,422,421,422,421,422,421,422,421,422,421,422,
429,430,429,430,429,430,429,430,429,430,429,430,429,430,429,430,429,430,429,430,429,430,429,430,429,430,429,430,429,430,429,430,429,430,429,430,429,430,429,430,
437,438,437,438,437,438,437,438,437,438,437,438,437,438,437,438,437,438,437,438,437,438,437,438,437,438,437,438,437,438,437,438,437,438,437,438,437,438,437,438,
421,422,421,422,421,422,421,422,421,422,421,422,421,422,421,422,421,422,421,422,421,422,421,422,421,422,421,422,421,422,421,422,421,422,421,422,421,422,421,422,
429,430,429,430,429,430,429,430,429,430,429,430,429,430,429,430,429,430,429,430,429,430,429,430,429,430,429,430,429,430,429,430,429,430,429,430,429,430,429,430,
437,438,437,438,437,438,437,438,437,438,437,438,437,438,437,438,437,438,437,438,437,438,437,438,437,438,437,438,437,438,437,438,437,438,437,438,437,438,437,438,
421,422,421,422,421,422,421,422,421,422,421,422,421,422,421,422,421,422,421,422,421,422,421,422,421,422,421,422,421,422,421,422,421,422,421,422,421,422,421,422,
429,430,429,430,429,430,429,430,429,430,429,430,429,430,429,430,429,2906,2907,2908,2909,2910,429,430,429,430,429,430,429,430,429,430,429,430,429,430,429,430,429,430,
437,438,437,438,437,438,437,438,437,438,437,438,437,438,437,438,437,2914,2915,2916,2917,2918,437,438,437,438,437,438,437,438,437,438,437,438,437,438,437,438,437,438,
421,422,421,422,421,422,421,422,421,422,421,422,421,422,421,422,421,2922,2923,2924,2925,2926,421,422,421,422,421,422,421,422,421,422,421,422,421,422,421,422,421,422,
429,430,429,430,429,430,429,430,429,430,429,430,429,430,429,430,429,2930,2931,2932,2933,2934,429,430,429,430,429,430,429,430,429,430,429,430,429,430,429,430,429,430,
437,438,437,438,437,438,437,438,437,438,437,438,437,438,437,438,437,2938,2939,2940,2941,2942,437,438,437,438,437,438,437,438,437,438,437,438,437,438,437,438,437,438,
0,0,0,0,0,0,0,0,0,0,0,0,0,441,442,443,0,0,2947,2948,2949,0,0,0,441,442,443,0,0,0,0,0,0,0,0,0,0,0,0,0,
0,0,0,0,0,0,0,0,0,0,0,0,0,449,450,451,0,0,0,0,0,0,0,0,449,450,451,0,0,0,0,0,0,0,0,0,0,0,0,0,
0,0,0,0,0,0,0,0,0,0,0,0,0,457,458,459,0,0,0,0,0,0,0,0,457,458,459,0,0,0,0,0,0,0,0,0,0,0,0,0,
0,0,0,0,0,0,0,0,0,0,0,0,0,441,442,443,0,0,0,0,0,0,0,0,441,442,443,0,0,0,0,0,0,0,0,0,0,0,0,0,
0,0,0,0,0,0,0,0,0,0,0,0,0,449,450,451,0,0,0,0,0,0,0,0,449,450,451,0,0,0,0,0,0,0,0,0,0,0,0,0,
0,0,0,0,0,0,0,0,0,0,0,5,0,457,458,459,0,0,0,0,0,0,0,0,457,458,459,0,0,0,0,0,0,0,0,0,0,0,0,0,
0,0,0,0,0,0,0,0,0,0,0,0,0,441,442,443,0,0,0,0,0,0,0,0,441,442,443,0,0,0,0,0,0,0,0,0,0,0,0,0,
0,0,0,0,0,0,0,0,0,0,0,0,0,449,450,451,0,0,0,0,0,0,0,0,449,450,451,0,0,0,0,0,0,0,0,0,0,0,0,0,
0,0,0,0,0,0,0,0,0,0,0,0,0,457,458,459,0,0,0,0,0,0,0,0,457,458,459,0,0,0,0,0,0,0,0,0,0,0,0,0,
0,0,0,0,0,0,0,0,0,0,0,0,0,441,442,443,0,0,0,0,0,0,0,0,441,442,443,0,0,0,0,0,0,0,0,0,0,0,0,0,
0,0,0,0,0,0,0,0,0,0,0,0,0,449,450,451,0,0,0,0,0,0,0,0,449,450,451,0,0,0,0,0,0,0,0,0,0,0,0,0,
0,0,0,0,0,0,0,0,0,0,0,0,0,457,458,459,0,0,0,0,0,0,0,0,457,458,459,0,0,0,0,0,0,0,0,0,0,0,0,0,
0,0,0,0,0,0,0,0,0,0,0,0,0,441,442,443,0,0,0,0,0,0,0,0,441,442,443,0,0,0,0,0,0,0,0,0,0,0,0,0,
0,0,0,0,0,0,0,0,0,0,0,0,0,449,450,451,0,0,0,0,0,0,0,0,449,450,451,0,0,0,0,0,0,0,0,0,0,0,0,0,
0,0,0,0,0,0,0,0,0,0,0,0,0,457,458,459,0,0,0,0,0,0,0,0,457,458,459,0,0,0,0,0,0,0,0,0,0,0,0,0,
0,0,0,0,0,0,0,0,0,0,0,0,0,441,442,443,0,0,0,0,0,0,0,0,441,442,443,0,0,0,0,0,0,0,0,0,0,0,0,0,
0,0,0,0,0,0,0,0,0,0,0,0,0,449,450,451,0,0,0,0,0,0,0,0,449,450,451,0,0,0,0,0,0,0,0,0,0,0,0,0,
0,0,0,0,0,4853,4854,0,0,0,0,0,0,457,458,459,0,0,0,0,0,0,0,0,457,458,459,0,0,0,0,0,0,0,0,0,0,0,0,0,
0,0,0,0,0,4861,4862,0,0,0,0,0,0,441,442,443,0,0,0,0,0,0,0,0,441,442,443,0,0,0,0,0,0,0,4853,4854,0,0,0,0,
0,0,0,0,0,4869,4870,0,0,0,0,0,0,449,450,451,0,0,0,0,0,0,0,0,449,450,451,0,0,0,0,0,0,0,4861,4862,0,0,0,0,
0,0,0,0,0,4877,4878,0,0,0,0,0,0,457,458,459,0,0,0,0,0,0,0,0,457,458,459,0,0,0,0,0,0,0,4869,4870,0,0,0,0,
0,0,0,0,0,0,0,0,0,0,0,0,0,441,442,443,0,0,0,0,0,0,0,0,441,442,443,0,0,0,0,0,0,0,4877,4878,0,0,0,0,
0,0,0,0,0,0,0,0,0,0,0,0,0,449,450,451,0,0,0,0,0,0,0,0,449,450,451,0,0,0,0,0,0,0,0,0,0,0,0,0,
0,0,0,0,0,0,0,0,0,0,0,0,0,457,458,459,0,0,0,0,0,0,0,0,457,458,459,0,0,0,0,0,0,0,0,0,0,0,0,0,
0,0,0,0,0,0,0,0,0,0,0,0,0,0,0,0,0,0,0,0,0,0,0,0,0,0,0,0,0,0,0,0,0,0,0,0,0,0,0,0,
0,0,0,0,0,0,0,0,0,0,0,0,0,0,0,0,0,0,0,0,0,0,0,0,0,0,0,0,0,0,0,0,0,0,0,0,0,0,0,0,
0,0,0,0,0,0,0,0,0,0,0,0,0,0,0,0,0,0,0,0,0,0,0,0,0,0,0,0,0,0,0,0,0,0,0,0,0,0,0,0,
0,0,0,0,0,0,0,0,0,0,0,0,0,0,0,0,0,0,0,0,0,0,0,0,0,0,0,0,0,0,0,0,0,0,0,0,0,0,0,0
</data>
 </layer>
 <layer id="4" name="sopra_testa" width="40" height="40">
  <data encoding="csv">
0,0,0,0,0,0,0,0,0,0,0,0,0,0,0,0,0,0,0,0,0,0,0,0,0,0,0,0,0,0,0,0,0,0,0,0,0,0,0,0,
0,0,0,0,0,0,0,0,0,0,0,0,0,0,0,0,0,0,0,0,0,0,0,0,0,0,0,0,0,0,0,0,0,0,0,0,0,0,0,0,
0,0,0,0,0,0,0,0,0,0,0,0,0,0,0,0,0,0,0,0,0,0,0,0,0,0,0,0,0,0,0,0,0,0,0,0,0,0,0,0,
0,0,0,0,0,0,0,0,0,0,0,0,0,0,0,0,0,0,0,0,0,0,0,0,0,0,0,0,0,0,0,0,0,0,0,0,0,0,0,0,
0,0,0,0,0,0,0,0,0,0,0,0,0,0,0,0,0,0,0,0,0,0,0,0,0,0,0,0,0,0,0,0,0,0,0,0,0,0,0,0,
0,0,0,0,0,0,0,0,0,0,0,0,0,0,0,0,0,0,0,0,0,0,0,0,0,0,0,0,0,0,0,0,0,0,0,0,0,0,0,0,
0,0,0,0,0,0,0,0,0,0,0,0,0,0,0,0,0,0,0,0,0,0,0,0,0,0,0,0,0,0,0,0,0,0,0,0,0,0,0,0,
0,0,0,0,0,0,0,0,0,0,0,0,0,0,0,0,0,0,0,0,0,0,0,0,0,0,0,0,0,0,0,0,0,0,0,0,0,0,0,0,
0,0,0,0,0,0,0,0,0,0,0,0,0,0,0,0,0,0,0,0,0,0,0,0,0,0,0,0,0,0,0,0,0,0,0,0,0,0,0,0,
0,0,0,0,0,0,0,0,0,0,0,0,0,0,0,0,0,0,0,0,0,0,0,0,0,0,0,0,0,0,0,0,0,0,0,0,0,0,0,0,
0,0,0,0,0,0,0,0,0,0,0,0,0,0,0,0,0,0,0,0,0,0,0,0,0,0,0,0,0,0,0,0,0,0,0,0,0,0,0,0,
0,0,0,0,0,0,0,0,0,0,0,0,0,0,0,0,0,0,0,0,0,0,0,0,0,0,0,0,0,0,0,0,0,0,0,0,0,0,0,0,
0,0,0,0,0,0,0,0,0,0,0,0,0,0,0,0,0,0,0,0,0,0,0,0,0,0,0,0,0,0,0,0,0,0,0,0,0,0,0,0,
0,0,0,0,0,0,0,0,0,0,0,0,0,0,0,0,0,0,0,0,0,0,0,0,0,0,0,0,0,0,0,0,0,0,0,0,0,0,0,0,
0,0,0,0,0,0,0,0,0,0,0,0,0,0,0,0,0,0,0,0,0,0,0,0,0,0,0,0,0,0,0,0,0,0,0,0,0,0,0,0,
0,0,0,0,0,0,0,0,0,0,0,0,0,0,0,0,0,0,0,0,0,0,0,0,0,0,0,0,0,0,0,0,0,0,0,0,0,0,0,0,
0,0,0,0,0,0,0,0,0,0,0,0,0,0,0,0,0,0,0,0,0,0,0,0,0,0,0,0,0,0,0,0,0,0,0,0,0,0,0,0,
0,0,0,0,0,0,0,0,0,0,0,0,0,0,0,0,0,0,0,0,0,0,0,0,0,0,0,0,0,0,0,0,0,0,0,0,0,0,0,0,
0,0,0,0,0,0,0,0,0,0,0,0,0,0,0,0,0,0,0,0,0,0,0,0,0,0,0,0,0,0,0,0,0,0,0,0,0,0,0,0,
0,0,0,0,0,0,0,0,0,0,0,0,0,0,0,0,0,0,0,0,0,0,0,0,0,0,0,0,0,0,0,0,0,0,0,0,0,0,0,0,
0,0,0,0,0,0,0,0,0,0,0,0,0,0,0,0,0,0,0,0,0,0,0,0,0,0,0,0,0,0,0,0,0,0,0,0,0,0,0,0,
0,0,0,0,0,0,0,0,0,0,0,0,0,0,0,0,0,0,0,0,0,0,0,0,0,0,0,0,0,0,0,0,0,0,0,0,0,0,0,0,
0,0,0,0,0,0,0,0,0,0,0,0,0,0,0,0,0,0,0,0,0,0,0,0,0,0,0,0,0,0,0,0,0,0,0,0,0,0,0,0,
0,0,0,0,0,0,0,0,0,0,0,0,0,0,0,0,0,0,0,0,0,0,0,0,0,0,0,0,0,0,0,0,0,0,0,0,0,0,0,0,
0,0,0,0,0,0,0,0,0,0,0,0,0,0,0,0,0,0,0,0,0,0,0,0,0,0,0,0,0,0,0,0,0,0,0,0,0,0,0,0,
0,0,0,0,0,0,0,0,0,0,0,0,0,0,0,0,0,0,0,0,0,0,0,0,0,0,0,0,0,0,0,0,0,0,0,0,0,0,0,0,
0,0,0,0,0,0,0,0,0,0,0,0,0,0,0,0,0,0,0,0,0,0,0,0,0,0,0,0,0,0,0,0,0,0,0,0,0,0,0,0,
0,0,0,0,0,0,0,0,0,0,0,0,0,0,0,0,0,0,0,0,0,0,0,0,0,0,0,0,0,0,0,0,0,0,0,0,0,0,0,0,
0,0,0,0,0,0,0,0,0,0,0,0,0,0,0,0,0,0,0,0,0,0,0,0,0,0,0,0,0,0,0,0,0,0,0,0,0,0,0,0,
0,0,0,0,0,0,0,0,0,0,0,0,0,0,0,0,0,0,0,0,0,0,0,0,0,0,0,0,0,0,0,0,0,0,0,0,0,0,0,0,
0,0,0,0,0,0,0,0,0,0,0,0,0,0,0,0,0,0,0,0,0,0,0,0,0,0,0,0,0,0,0,0,0,0,0,0,0,0,0,0,
0,0,0,0,0,0,0,0,0,0,0,0,0,0,0,0,0,0,0,0,0,0,0,0,0,0,0,0,0,0,0,0,0,0,0,0,0,0,0,0,
0,0,0,0,0,0,0,0,0,0,0,0,0,0,0,0,0,0,0,0,0,0,0,0,0,0,0,0,0,0,0,0,0,0,0,0,0,0,0,0,
0,0,0,0,0,0,0,0,0,0,0,0,0,0,0,0,0,0,0,0,0,0,0,0,0,0,0,0,0,0,0,0,0,0,0,0,0,0,0,0,
0,0,0,0,0,0,0,0,0,0,0,0,0,0,0,0,0,0,0,0,0,0,0,0,0,0,0,0,0,0,0,0,0,0,0,0,0,0,0,0,
0,0,0,0,0,0,0,0,0,0,0,0,0,0,0,0,0,0,0,0,0,0,0,0,0,0,0,0,0,0,0,0,0,0,0,0,0,0,0,0,
0,0,0,0,0,0,0,0,0,0,0,0,0,0,0,0,0,0,0,0,0,0,0,0,0,0,0,0,0,0,0,0,0,0,0,0,0,0,0,0,
0,0,0,0,0,0,0,0,0,0,0,0,0,0,0,0,0,0,0,0,0,0,0,0,0,0,0,0,0,0,0,0,0,0,0,0,0,0,0,0,
0,0,0,0,0,0,0,0,0,0,0,0,0,0,0,0,0,0,0,0,0,0,0,0,0,0,0,0,0,0,0,0,0,0,0,0,0,0,0,0,
0,0,0,0,0,0,0,0,0,0,0,0,0,0,0,0,0,0,0,0,0,0,0,0,0,0,0,0,0,0,0,0,0,0,0,0,0,0,0,0
</data>
 </layer>
 <objectgroup id="20" name="collisioni">
  <object id="32" x="432.842" y="387.368" width="59.5088" height="756.772"/>
  <object id="33" x="776.421" y="386.246" width="65.1228" height="748.826"/>
  <object id="34" x="1088.56" y="1028.49" width="65.1228" height="56.1404"/>
  <object id="35" x="156.632" y="999.298" width="65.1228" height="47.1579"/>
  <object id="36" x="743.368" y="1193.01" width="16.8421" height="12.3509"/>
  <object id="37" x="551.86" y="489.544" width="12.3509" height="13.4737"/>
  <object id="39" x="12" y="9.33333" width="473.333" height="362.667"/>
  <object id="40" x="781.333" y="9.33333" width="496" height="364"/>
  <object id="41" x="472" y="11" width="336" height="309"/>
  <object id="42" x="725" y="264" width="37" height="109"/>
  <object id="43" x="466" y="220" width="101" height="149"/>
  <object id="44" x="677" y="218" width="42" height="158"/>
 </objectgroup>
 <objectgroup color="#ff0000" id="6" name="eventi">
  <object id="2" name="cartello" type="cartello" x="545.5" y="482.5" width="27.5" height="24">
   <properties>
    <property name="testo" value="Boschi del Tuscolo — Attenzione: Pokémon selvatici forti!"/>
    <property name="type" value="cartello"/>
   </properties>
  </object>
  <object id="3" name="cartello" type="cartello" x="739.423" y="1189.31" width="24.9091" height="19.2727">
   <properties>
    <property name="testo" value="← Frascati Centro"/>
    <property name="type" value="cartello"/>
   </properties>
  </object>
  <object id="4" name="npc" type="npc" x="1135.16" y="548.491" width="32" height="32">
   <properties>
    <property name="direzione" value="sud"/>
    <property name="id" value="fra_nord_npc1"/>
    <property name="sprite" value="NPC_09"/>
    <property name="type" value="npc"/>
   </properties>
  </object>
  <object id="5" name="npc" type="npc" x="394.667" y="1217.68" width="32" height="32">
   <properties>
    <property name="direzione" value="ovest"/>
    <property name="id" value="fra_nord_npc2"/>
    <property name="movimento" value="random"/>
    <property name="raggio" type="int" value="3"/>
    <property name="sprite" value="NPC_10"/>
    <property name="type" value="npc"/>
   </properties>
  </object>
  <object id="6" name="npc" type="npc" x="706.807" y="1057.68" width="32" height="32">
   <properties>
    <property name="direzione" value="nord"/>
    <property name="id" value="fra_nord_npc3"/>
    <property name="sprite" value="NPC_11"/>
    <property name="type" value="npc"/>
   </properties>
  </object>
  <object id="7" name="npc" type="npc" x="864" y="960" width="32" height="32">
   <properties>
    <property name="direzione" value="est"/>
    <property name="id" value="fra_nord_npc4"/>
    <property name="sprite" value="NPC_12"/>
    <property name="type" value="npc"/>
   </properties>
  </object>
  <object id="8" name="fra_nord_antidoto" type="oggetto" x="192" y="640" width="32" height="32">
   <properties>
    <property name="contenuto" value="antidoto"/>
    <property name="id" value="fra_nord_antidoto"/>
    <property name="quantita" type="int" value="1"/>
    <property name="type" value="oggetto"/>
   </properties>
  </object>
  <object id="11" name="warp" type="warp" x="590.5" y="344" width="32" height="32">
   <properties>
    <property name="destinazione" value="tuscolo_ingresso"/>
    <property name="spawn_id" value="da_frascati_nord"/>
    <property name="type" value="warp"/>
   </properties>
  </object>
  <object id="12" name="warp" type="warp" x="625.5" y="342" width="32" height="32">
   <properties>
    <property name="destinazione" value="tuscolo_ingresso"/>
    <property name="spawn_id" value="da_frascati_nord"/>
    <property name="type" value="warp"/>
   </properties>
  </object>
  <object id="13" name="warp" type="warp" x="609" y="346.5" width="32" height="32">
   <properties>
    <property name="destinazione" value="tuscolo_ingresso"/>
    <property name="spawn_id" value="da_frascati_nord"/>
    <property name="type" value="warp"/>
   </properties>
  </object>
  <object id="21" name="spawn" type="spawn" x="611.482" y="388.289" width="32" height="32">
   <properties>
    <property name="id" value="da_tuscolo_ingresso"/>
    <property name="type" value="spawn"/>
   </properties>
  </object>
  <object id="38" name="erba_alta_auto_incontri_frascati" x="128" y="416">
   <properties>
    <property name="id" value="incontri frascati"/>
    <property name="type" value="erba_alta"/>
   </properties>
   <point/>
  </object>
 </objectgroup>
</map>
