<?xml version="1.0" encoding="UTF-8"?>
<map version="1.10" tiledversion="1.12.2" orientation="orthogonal" renderorder="right-down" width="40" height="35" tilewidth="32" tileheight="32" infinite="0" backgroundcolor="#000000" nextlayerid="22" nextobjectid="142">
 <tileset firstgid="1" source="../outside.tsx"/>
 <tileset firstgid="4017" source="../../outside.tsx"/>
 <layer id="1" name="ground" width="40" height="35">
  <data encoding="csv">
4354,4354,4354,4354,4354,4354,4354,4354,4354,4354,4354,4354,4354,4354,4354,4354,4354,407,4359,4359,4359,4359,407,4354,4354,4354,4354,4354,4354,4354,4354,4354,4354,4354,4354,4354,4354,4354,4354,4354,
4354,4354,4354,4354,4354,4354,4354,4354,4354,4354,4354,4354,4354,4354,4354,4354,4354,407,4359,4359,4359,4359,407,4354,4354,4354,4354,4354,4354,4354,4354,4354,4354,4354,4354,4354,4354,4354,4354,4354,
4354,4354,4354,4354,4354,4354,4354,4354,4354,4354,4354,4354,4354,4354,4354,4354,4354,407,4359,4359,4359,4359,407,4354,4354,4354,4354,4354,4354,4354,4354,4354,4354,4354,4354,4354,4354,4354,4354,4354,
4354,4354,4354,4354,4354,4354,4354,4354,4354,4354,4354,4354,4354,4354,4354,4354,4354,407,4359,4359,4359,4359,407,4354,4354,4354,4354,4354,4354,4354,4354,4354,4354,4354,4354,4354,4354,4354,4354,4354,
4354,4354,4354,4354,4354,4354,4354,4354,4354,4354,4354,4354,4354,4354,4354,4354,4354,407,4359,4359,4359,4359,407,4354,4354,4354,4354,4354,4354,4354,4354,4354,4354,4354,4354,4354,4354,4354,4354,4354,
4354,4354,4354,4354,4354,4354,4354,4354,4354,4354,4354,4354,4354,4354,4354,4354,4354,407,4359,4359,4359,4359,407,4354,4354,4354,4354,4354,4354,4354,4354,4354,4354,4354,4354,4354,4354,4354,4354,4354,
4354,4354,4354,4354,4354,4354,4354,4354,5332,4354,4354,4354,4354,4354,4354,4354,4354,407,4359,4359,4359,4359,407,4354,4354,4354,4354,4354,4354,4354,4354,4354,4354,4354,4354,4354,4354,4354,4354,4354,
4354,4354,4354,4354,4354,4354,4354,4354,4354,4354,4354,4354,4354,4354,4354,4354,4354,407,4359,4359,4359,4359,407,4354,4354,4354,4354,4354,4354,4354,4354,4354,4354,4354,4354,4354,4354,4354,4354,4354,
4354,4354,4354,4354,4354,4354,4354,4354,4354,4354,4354,4354,4354,4354,4354,4354,4354,407,4359,4359,4359,4359,407,4354,4354,4354,4354,4354,4354,4354,4354,4354,4354,4354,4354,4354,4354,4354,4354,4354,
4354,4354,4354,4354,4354,4354,4354,4354,4354,4354,4354,4354,4354,4354,4354,4354,4354,407,4359,4359,4359,4359,407,4354,4354,4354,4354,4354,4354,4354,4354,4354,4354,4354,4354,4354,4354,4354,4354,4354,
4354,4354,4354,4354,4354,4354,4354,4354,4354,4354,4354,4354,4354,4354,4354,4354,4354,407,4359,4359,4359,4359,407,4354,4354,4354,4354,4354,4354,4354,4354,4354,4354,4354,4354,4354,4354,4354,4354,4354,
4354,4354,4354,4354,4354,4354,4354,4354,4354,4354,4354,4354,4354,4354,4354,4354,4354,407,4359,4359,4359,4359,407,4354,4354,4354,4354,4354,4354,4354,4354,4354,4354,4354,4354,4354,4354,4354,4354,4354,
4354,4354,4354,4354,4354,4354,4354,4354,4354,4354,4354,4354,4354,4354,4354,4354,4354,407,4359,4359,4359,4359,407,4354,4354,4354,4354,4354,4354,4354,4354,4354,4354,4354,4354,4354,4354,4354,4354,4354,
4354,4354,4354,4354,4354,4354,4354,4354,4354,4354,4354,4354,4354,4354,4354,4354,4354,407,4359,4359,4359,4359,407,4354,4354,4354,4354,4354,4354,4354,4354,4354,4354,4354,4354,4354,4354,4354,4354,4354,
4354,4354,4354,4354,4354,4354,4354,4354,4354,4354,4354,4354,4354,4423,4423,4423,4423,407,4359,4359,4359,4359,4359,4423,4423,4423,4423,4354,4354,4354,4354,4354,4354,4354,4354,4354,4354,4354,4354,4354,
407,407,407,407,407,407,407,407,407,407,407,407,407,4359,4359,4359,4359,4423,4359,4359,4359,4359,4359,4359,4359,4359,4359,407,407,407,407,407,407,407,407,407,407,407,407,407,
4423,4423,4423,4423,4423,4423,4423,4423,4423,4423,4423,4423,4423,4423,4423,4423,4423,4359,4359,4359,4359,4359,4359,4359,4359,4359,4359,4359,4359,4359,4359,4359,4359,4359,4359,4359,4359,4359,4359,4359,
4359,4359,4359,4359,4359,4359,4359,4359,4359,4359,4359,4359,4359,4359,4359,4359,4359,4359,4359,4359,4359,4359,4359,4359,4359,4359,4359,4359,4359,4359,4359,4359,4359,4359,4359,4359,4359,4359,4359,4359,
4359,4359,4359,4359,4359,4359,4359,4359,4359,4359,4359,4359,4359,4359,4359,4359,4359,4359,4359,4359,4359,4359,4359,4359,4359,4359,4359,407,407,407,407,407,407,407,407,407,407,407,407,407,
4359,4359,4359,4359,4359,4359,4359,4359,4359,4359,4359,4359,4359,4359,4359,4359,4359,4359,4359,4359,4359,4359,4359,4423,4423,4423,4423,4354,4354,4354,4354,4354,4354,4354,4354,4354,4354,4354,4354,4354,
4423,4423,4423,4423,4423,4423,4423,4423,4423,4423,4423,4423,4423,4359,4359,4359,4359,4359,4359,4359,4359,4359,407,4354,4354,4354,4354,4354,4354,4354,4354,4354,4354,4354,4354,4354,4354,4354,4354,4354,
4354,4354,4354,4354,4354,4354,4354,4354,4354,4354,4354,4354,4423,4423,4423,4423,4423,4359,4359,4359,4359,4359,407,4354,4354,4354,4354,4354,4354,4354,4354,4354,4354,4354,4354,4354,4354,4354,4354,4354,
4354,4354,4354,4354,4354,4354,4354,4354,4354,4354,4354,4354,4354,4354,4354,4354,4354,407,4359,4359,4359,4359,407,4354,4354,4354,4354,4354,4354,4354,4354,4354,4354,4354,4354,4354,4354,4354,4354,4354,
4354,4354,4354,4354,4354,4354,4354,4354,4354,4354,4354,4354,4354,4354,4354,4354,4354,407,4359,4359,4359,4359,407,4354,4354,4354,4354,4354,4354,4354,4354,4354,4354,4354,4354,4354,4354,4354,4354,4354,
4354,4354,4354,4354,4354,4354,4354,4354,4354,4354,4354,4354,4354,4354,4354,4354,4354,407,4359,4359,4359,4359,407,4354,4354,4354,4354,4354,4354,4354,4354,4354,4354,4354,4354,4354,4354,4354,4354,4354,
4354,4354,4354,4354,4354,4354,4354,4354,4354,4354,4354,4354,4354,4354,4354,4354,4354,407,4359,4359,4359,4359,407,4354,4354,4354,4354,4354,4354,4354,4354,4354,4354,4354,4354,4354,4354,4354,4354,4354,
4354,4354,4354,4354,4354,4354,4354,4354,4354,4354,4354,4354,4354,4354,4354,4354,4354,407,4359,4359,4359,4359,407,4354,4354,4354,4354,4354,4354,4354,4354,4354,4354,4354,4354,4354,4354,4354,4354,4354,
4354,4354,4354,4354,4354,4354,4354,4354,4354,4354,4354,4354,4354,4354,4354,4354,4354,407,4359,4359,4359,4359,407,4354,4354,4354,4354,4354,4354,4354,4354,4354,4354,4354,4354,4354,4354,4354,4354,4354,
4354,4354,4354,4354,4354,4354,4354,4354,4354,4354,4354,4354,4354,4354,4354,4354,4354,407,4359,4359,4359,4359,407,4354,4354,4354,4354,4354,4354,4354,4354,4354,4354,4354,4354,4354,4354,4354,4354,4354,
4354,4354,4354,4354,4354,4354,4354,4354,4354,4354,4354,4354,4354,4354,4354,4354,4354,407,4359,4359,4359,4359,407,4354,4354,4354,4354,4354,4354,4354,4354,4354,4354,4354,4354,4354,4354,4354,4354,4354,
4354,4354,4354,4354,4354,4354,4354,4354,4354,4354,4354,4354,4354,4354,4354,4354,4354,407,4359,4359,4359,4359,407,4354,4354,4354,4354,4354,4354,4354,4354,4354,4354,4354,4354,4354,4354,4354,4354,4354,
4354,4354,4354,4354,4354,4354,4354,4354,4354,4354,4354,4354,4354,4354,4354,4354,4354,407,4359,4359,4359,4359,407,4354,4354,4354,4354,4354,4354,4354,4354,4354,4354,4354,4354,4354,4354,4354,4354,4354,
4354,4354,4354,4354,4354,4354,4354,4354,4354,4354,4354,4354,4354,4354,4354,4354,4354,407,4359,4359,4359,4359,407,4354,4354,4354,4354,4354,4354,4354,4354,4354,4354,4354,4354,4354,4354,4354,4354,4354,
4354,4354,4354,4354,4354,4354,4354,4354,4354,4354,4354,4354,4354,4354,4354,4354,4354,407,4359,4359,4359,4359,407,4354,4354,4354,4354,4354,4354,4354,4354,4354,4354,4354,4354,4354,4354,4354,4354,4354,
4354,4354,4354,4354,4354,4354,4354,4354,4354,4354,4354,4354,4354,4354,4354,4354,4354,407,4359,4359,4359,4359,407,4354,4354,4354,4354,4354,4354,4354,4354,4354,4354,4354,4354,4354,4354,4354,4354,4354
</data>
 </layer>
 <layer id="2" name="deco_sotto" width="40" height="35">
  <data encoding="csv">
4685,4703,4703,4703,4703,4703,4703,4703,4703,4703,4703,4703,4703,4703,4703,4703,4685,0,0,0,0,0,0,0,0,0,0,0,0,0,0,0,0,0,0,0,0,0,0,0,
4693,0,0,0,0,0,0,0,0,0,0,0,0,0,0,0,4693,0,0,0,0,0,0,0,0,0,0,0,0,0,0,0,0,0,0,0,0,0,0,0,
4693,0,4067,4067,4067,4067,4067,4067,4067,4067,4067,4067,4067,4067,4067,0,4693,0,0,0,0,0,0,5169,5169,5169,5169,5169,5169,5169,5169,5169,5169,5169,5169,5169,5169,5169,5169,0,
4693,0,4067,4067,4067,4067,4067,4067,4067,4067,4067,4067,4067,4067,4067,0,4693,0,0,0,0,0,0,5177,5177,5177,5177,5177,5177,5177,5177,5177,5177,5177,5177,5177,5177,5177,5169,0,
4693,0,4067,4067,4067,4067,4067,4067,4067,4067,4067,4067,4067,4067,4067,0,4693,0,0,0,0,0,0,0,0,0,0,0,0,0,0,0,0,0,0,0,0,0,5169,0,
4693,0,4067,4067,4067,4067,4067,4067,4067,4067,4067,4067,4067,4067,4067,0,4693,0,0,0,0,0,0,5169,5169,5169,5169,5169,5169,5169,5169,5169,5169,5169,5169,0,0,0,5169,0,
4693,0,4067,4067,4067,4067,4067,4067,4067,4067,4067,4067,4067,4067,4067,0,4693,0,0,0,0,0,0,5177,5177,5177,5177,5169,5177,5177,5177,5177,5177,5177,5177,0,0,0,5169,0,
4693,0,4067,4067,4067,4067,4067,4067,4067,4067,4067,4067,4067,4067,4067,0,4693,0,0,0,0,0,0,0,0,0,0,5169,0,0,0,0,0,0,0,0,0,0,5169,0,
4693,0,4067,4067,4067,4067,4067,4067,4067,4067,4067,4067,4067,4067,4067,0,4693,0,0,0,0,0,0,0,0,0,0,5169,0,0,0,0,0,0,0,0,0,0,5169,0,
4693,0,4067,4067,4067,4067,4067,4067,4067,4067,4067,4067,4067,4067,4067,0,4693,0,0,0,0,0,0,0,0,0,0,5169,0,0,0,0,0,0,0,4980,0,0,5169,0,
4693,0,4067,4067,4067,4067,4067,4067,4067,4067,4067,4067,4067,4067,4067,0,4693,0,0,0,0,0,0,0,0,0,0,5169,4980,0,0,0,0,0,0,4988,0,0,5169,0,
4693,0,4067,4067,4067,4067,4067,4067,4067,4067,4067,4067,4067,4067,4067,0,4693,0,0,0,0,0,0,0,0,0,0,5169,4988,0,0,0,0,0,0,0,0,0,5169,0,
4693,0,4067,4067,4067,4067,4067,4067,4067,4067,4067,4067,4067,4067,4067,0,4693,0,0,0,0,0,0,0,0,0,0,5169,0,0,0,0,0,0,0,0,0,0,5169,0,
4693,0,4067,4067,4067,4067,4067,4067,4067,4067,4067,4067,4067,4067,4067,0,4693,0,0,0,0,0,0,0,0,0,0,5169,5169,5169,5169,5169,5169,5169,5169,5169,5169,5169,5169,0,
4693,0,0,0,0,0,0,0,0,0,0,0,0,0,0,0,4701,0,0,0,0,0,0,0,0,0,0,5177,5177,5177,5177,5177,5177,5177,5177,5177,5177,5177,5177,0,
4701,5313,5314,5315,5313,5314,5315,0,0,0,5313,5314,5315,5313,5314,5315,5316,0,0,0,0,0,0,0,0,0,0,0,0,0,0,0,0,0,0,0,0,0,0,0,
0,0,0,0,0,0,0,0,0,4971,0,0,0,0,0,0,0,0,0,0,0,0,0,0,0,0,0,0,0,0,0,0,0,0,0,0,0,0,0,0,
0,0,0,0,0,0,0,0,0,0,0,0,0,0,0,0,0,0,0,0,0,0,0,0,0,0,0,0,0,0,0,0,0,0,0,0,0,0,0,0,
0,0,0,0,0,0,0,0,0,0,0,0,0,0,0,0,0,0,0,0,0,0,0,0,0,0,0,0,0,0,0,0,0,0,0,0,0,0,0,0,
0,0,0,0,0,0,0,0,0,0,0,0,0,0,0,0,0,0,0,0,0,0,0,0,0,0,0,0,0,0,0,0,0,0,0,0,0,0,0,0,
0,0,0,0,0,0,0,0,0,0,0,0,0,0,0,0,0,0,0,0,0,0,0,0,0,0,0,0,0,0,0,0,0,0,0,0,0,0,0,0,
5333,0,0,0,0,0,0,0,0,0,0,0,0,0,0,0,0,0,0,0,0,0,0,0,0,0,0,0,0,0,0,0,0,0,0,0,0,0,0,0,
5341,0,0,0,0,0,0,0,0,0,0,0,0,0,0,0,0,0,0,0,0,0,0,0,0,0,0,0,0,0,0,0,0,0,0,0,0,0,0,0,
5349,0,0,0,0,0,0,0,0,0,0,0,0,0,0,0,0,0,0,0,0,0,0,0,0,0,0,0,0,0,0,0,0,0,0,0,0,0,0,0,
5333,0,0,0,0,0,0,0,0,0,0,0,0,0,0,0,0,0,0,0,0,0,0,0,0,0,0,0,0,0,0,0,0,0,0,0,0,0,0,0,
5341,0,0,0,0,0,0,0,0,0,0,0,0,0,0,0,0,0,0,0,0,0,0,0,0,0,0,0,0,0,0,0,0,0,0,0,0,0,0,0,
5349,0,0,0,0,0,0,0,0,0,0,0,0,0,0,0,0,0,0,0,0,0,0,0,0,0,0,0,0,0,0,0,0,0,0,0,0,0,0,0,
5333,0,0,0,0,0,0,0,0,0,0,0,0,0,0,0,0,0,0,0,0,0,0,0,0,0,0,0,0,0,0,0,0,0,0,0,0,0,0,0,
5341,0,4058,4059,4059,4059,4059,4059,4060,0,0,0,0,0,0,0,0,0,0,0,0,0,0,0,0,0,0,0,0,0,0,0,0,0,0,0,0,0,0,0,
5349,0,4066,4974,4067,4067,4067,4974,4068,0,0,0,0,0,0,0,0,0,0,0,0,0,0,0,0,0,0,0,0,0,0,0,0,0,0,0,0,0,0,0,
5333,0,4066,4067,4067,4067,4067,4067,4068,0,0,0,0,0,0,0,0,0,0,0,0,0,0,0,0,0,0,0,0,0,0,0,0,0,0,0,0,0,0,0,
5341,0,4066,4067,4067,4974,4067,4067,4068,0,0,0,0,0,0,0,0,0,0,0,0,0,0,0,0,0,0,0,0,0,0,0,0,0,0,0,0,0,0,0,
5349,0,4066,4067,4067,4067,4067,4067,4068,0,0,0,0,0,0,0,0,0,0,0,0,0,0,0,0,0,0,0,0,0,0,0,0,0,0,0,0,0,0,0,
5333,0,4066,4974,4067,4067,4067,4974,4068,0,0,0,0,0,0,0,0,0,0,0,0,0,0,0,0,0,0,0,0,0,0,0,0,0,0,0,0,0,0,0,
5341,0,4074,4075,4075,4075,4075,4075,4076,0,0,0,0,0,0,0,0,0,0,0,0,0,0,0,0,0,0,0,0,0,0,0,0,0,0,0,0,0,0,0
</data>
 </layer>
 <layer id="3" name="edifici" width="40" height="35">
  <data encoding="csv">
0,0,0,0,0,0,0,0,0,0,0,0,0,0,0,0,0,0,0,0,0,0,0,5118,5119,5120,5118,5119,5120,5118,5119,5120,5118,5119,5120,5118,5119,5120,0,0,
0,4409,4410,4410,4410,4410,4410,4410,4410,4410,4410,4410,4410,4410,4410,4411,0,0,0,0,0,0,0,5126,5127,5128,5126,5127,5128,5126,5127,5128,5126,5127,5128,5126,5127,5128,0,0,
0,4417,0,4501,0,6417,6418,6419,6420,6421,6422,6423,0,4501,0,4419,0,0,0,0,0,0,0,0,0,0,0,0,0,0,0,0,0,0,0,0,0,0,0,0,
0,4417,4508,4509,4510,6425,6426,6427,6428,6429,6430,6431,4508,4509,4510,4419,0,0,0,0,0,0,0,0,0,0,0,0,0,0,0,0,0,0,0,0,0,0,0,0,
0,4417,4516,4517,4518,6433,6434,6435,6436,6437,6438,6439,4516,4517,4518,4419,0,0,0,0,0,0,0,0,0,0,0,0,0,0,0,0,0,0,0,0,0,0,0,0,
0,4417,4524,4525,4526,6441,6442,6443,6444,6445,6446,6447,4524,4525,4526,4419,0,0,0,0,0,0,0,0,0,0,0,0,2745,2746,2747,2748,2749,2750,2751,0,0,0,0,0,
0,4417,0,4501,0,6449,6450,6451,6452,6453,6454,6455,0,4501,0,4419,0,0,0,0,0,0,0,5118,5119,5120,0,0,2753,2754,2755,2756,2757,2758,2759,0,0,0,0,0,
0,4417,4508,4509,4510,0,0,6459,6460,6461,0,0,4508,4509,4510,4419,0,0,0,0,0,0,0,5126,5127,5128,0,0,2761,2762,2763,2764,2765,2766,2767,0,0,0,0,0,
0,4417,4516,4517,4518,0,0,0,0,0,0,0,4516,4517,4518,4419,0,0,0,0,0,0,0,5118,5119,5120,0,0,2769,2770,2771,2772,2773,2774,2775,0,0,0,0,0,
0,4417,4524,4525,4526,0,0,0,0,0,0,0,4524,4525,4526,4419,0,0,0,0,0,0,0,5126,5127,5128,0,0,2777,2778,2779,2780,2781,2782,2783,0,0,0,0,0,
0,4417,0,4501,0,0,0,5134,5135,5136,0,0,0,4501,0,4419,0,0,0,0,0,0,0,5118,5119,5120,0,0,2785,2786,2787,2788,2789,2790,2791,0,0,0,0,0,
0,4417,4508,4509,4510,0,0,5142,5143,5144,0,0,4508,4509,4510,4419,0,0,0,0,0,0,0,5126,5127,5128,0,0,2,2,2795,2,2797,2,2,0,0,0,0,0,
0,4417,4516,4517,4518,0,0,5150,5151,5152,0,0,4516,4517,4518,4419,0,0,0,0,0,0,0,5118,5119,5120,0,0,0,0,0,0,0,0,0,0,0,0,0,0,
0,4417,4524,4525,4526,0,0,5158,5159,5160,0,0,4524,4525,4526,4419,0,0,0,0,0,0,0,5126,5127,5128,0,0,0,0,0,0,0,0,0,0,0,0,0,0,
0,4425,4426,4426,4426,4426,4426,4426,4426,4426,4426,4426,4426,4426,4426,4427,0,0,0,0,0,0,0,0,0,0,0,0,0,0,0,0,0,0,0,0,0,0,0,0,
0,0,0,0,0,0,0,0,0,0,0,0,0,0,0,0,0,0,0,0,0,0,0,0,0,0,0,0,0,0,0,0,0,0,0,0,0,0,0,0,
0,0,0,0,0,0,0,0,0,0,0,0,0,0,0,0,0,0,0,0,0,0,0,0,0,0,0,0,0,0,0,0,0,0,0,0,0,0,0,0,
0,0,0,0,0,0,0,0,0,0,0,0,0,0,0,0,0,0,0,0,0,0,0,0,0,0,0,0,0,0,0,0,0,0,0,0,0,0,0,0,
0,0,0,0,0,0,0,0,0,0,0,0,0,0,0,0,0,0,0,0,0,0,0,0,0,0,0,0,0,0,0,0,0,0,0,0,0,0,0,0,
0,0,0,0,0,0,0,0,0,0,0,0,0,0,0,0,0,0,0,0,0,0,0,0,0,0,0,0,0,0,0,0,0,0,0,0,0,0,0,0,
0,0,0,0,0,0,0,0,0,0,0,0,0,0,0,0,0,0,0,0,0,0,0,5593,5594,5595,5596,5597,0,0,0,0,0,0,0,0,0,0,0,0,
0,0,0,0,0,0,0,0,0,0,0,0,0,0,0,0,0,5104,0,0,0,0,5104,5601,5602,5603,5604,5605,5104,0,0,0,0,0,0,0,0,0,0,0,
0,0,0,2609,2610,2611,2612,2613,0,0,0,0,0,0,0,0,0,5112,0,0,0,0,5112,5609,5610,5611,5612,5613,5112,0,0,0,0,6669,6670,6671,6672,0,0,0,
0,0,0,2617,2618,2619,2620,2621,0,0,0,0,0,0,0,0,0,0,0,0,0,0,0,5617,5618,5619,5620,5621,0,0,0,0,0,6677,6678,6679,6680,0,0,0,
0,0,0,2625,2626,2627,2628,2629,0,0,0,0,0,0,0,0,0,5104,0,0,0,0,5104,5625,5626,5627,5628,5629,5104,0,0,0,0,6685,6686,6687,6688,0,0,0,
0,0,0,2633,2634,2635,2636,2637,0,0,0,5593,5594,5595,5596,5597,0,5112,0,0,0,0,5112,5593,5594,5595,5596,5597,5112,0,0,0,0,6693,6694,6695,6696,0,0,0,
0,0,0,2641,2642,2643,2644,2645,0,0,0,5601,5602,5603,5604,5605,0,0,0,0,0,0,0,5601,5602,5603,5604,5605,0,0,0,0,0,0,0,0,0,0,0,0,
0,0,0,0,0,0,0,0,0,0,0,5609,5610,5611,5612,5613,0,5104,0,0,0,0,5104,5609,5610,5611,5612,5613,5104,0,0,0,0,0,5513,5514,5515,5516,5517,5518,
0,0,0,0,0,0,0,0,0,0,0,5617,5618,5619,5620,5621,0,5112,0,0,0,0,5112,5617,5618,5619,5620,5621,5112,0,0,0,0,0,5521,5522,5523,5524,5525,5526,
0,0,0,0,0,0,0,0,0,0,0,5625,5626,5627,5628,5629,0,0,0,0,0,0,0,5625,5626,5627,5628,5629,0,0,0,0,0,0,5529,5530,5531,5532,5533,5534,
0,0,0,0,0,0,0,0,0,0,0,5593,5594,5595,5596,5597,0,5104,0,0,0,0,5104,5593,5594,5595,5596,5597,5104,5593,5594,5595,5596,5597,5537,5538,5539,5540,5541,5542,
0,0,0,0,0,0,0,0,0,0,0,5601,5602,5603,5604,5605,0,5112,0,0,0,0,5112,5601,5602,5603,5604,5605,5112,5601,5602,5603,5604,5605,5513,5514,5515,5516,5517,5518,
0,0,0,0,0,0,0,0,0,0,0,5609,5610,5611,5612,5613,0,0,0,0,0,0,0,5609,5610,5611,5612,5613,0,5609,5610,5611,5612,5613,5521,5522,5523,5524,5525,5526,
0,0,0,0,0,0,0,0,0,0,0,5617,5618,5619,5620,5621,0,5104,0,0,0,0,5104,5617,5618,5619,5620,5621,5104,5617,5618,5619,5620,5621,5529,5530,5531,5532,5533,5534,
0,0,0,0,0,0,0,0,0,0,0,5625,5626,5627,5628,5629,0,5112,0,0,0,0,5112,5625,5626,5627,5628,5629,5112,5625,5626,5627,5628,5629,5537,5538,5539,5540,5541,5542
</data>
 </layer>
 <layer id="4" name="sopra_testa" width="40" height="35">
  <data encoding="csv">
0,0,0,0,0,0,0,0,0,0,0,0,0,0,0,0,0,0,0,0,0,0,0,0,0,0,0,0,0,0,0,0,0,0,0,0,0,0,0,0,
0,0,0,0,0,0,0,0,0,0,0,0,0,0,0,0,0,0,0,0,0,0,0,0,0,0,0,0,0,0,0,0,0,0,0,0,0,0,0,0,
0,0,0,0,0,0,0,0,0,0,0,0,0,0,0,0,0,0,0,0,0,0,0,0,0,0,0,0,0,0,0,0,0,0,0,0,0,0,0,0,
0,0,0,0,0,0,0,0,0,0,0,0,0,0,0,0,0,0,0,0,0,0,0,0,0,0,0,0,0,0,0,0,0,0,0,0,0,0,0,0,
0,0,0,0,0,0,0,0,0,0,0,0,0,0,0,0,0,0,0,0,0,0,0,0,0,0,0,0,0,0,0,0,0,0,0,0,0,0,0,0,
0,0,0,0,0,0,0,0,0,0,0,0,0,0,0,0,0,0,0,0,0,0,0,0,0,0,0,0,0,0,0,0,0,0,0,0,0,0,0,0,
0,0,0,0,0,0,0,0,0,0,0,0,0,0,0,0,0,0,0,0,0,0,0,0,0,0,0,0,0,0,0,0,0,0,0,0,0,0,0,0,
0,0,0,0,0,0,0,0,0,0,0,0,0,0,0,0,0,0,0,0,0,0,0,0,0,0,0,0,0,0,0,0,0,0,0,0,0,0,0,0,
0,0,0,0,0,0,0,0,0,0,0,0,0,0,0,0,0,0,0,0,0,0,0,0,0,0,0,0,0,0,0,0,0,0,0,0,0,0,0,0,
0,0,0,0,0,0,0,0,0,0,0,0,0,0,0,0,0,0,0,0,0,0,0,0,0,0,0,0,0,0,0,0,0,0,0,0,0,0,0,0,
0,0,0,0,0,0,0,0,0,0,0,0,0,0,0,0,0,0,0,0,0,0,0,0,0,0,0,0,0,0,0,0,0,0,0,0,0,0,0,0,
0,0,0,0,0,0,0,0,0,0,0,0,0,0,0,0,0,0,0,0,0,0,0,0,0,0,0,0,0,0,0,0,0,0,0,0,0,0,0,0,
0,0,0,0,0,0,0,0,0,0,0,0,0,0,0,0,0,0,0,0,0,0,0,0,0,0,0,0,0,0,0,0,0,0,0,0,0,0,0,0,
0,0,0,0,0,0,0,0,0,0,0,0,0,0,0,0,0,0,0,0,0,0,0,0,0,0,0,0,0,0,0,0,0,0,0,0,0,0,0,0,
0,0,0,0,0,0,0,0,0,0,0,0,0,0,0,0,0,0,0,0,0,0,0,0,0,0,0,0,0,0,0,0,0,0,0,0,0,0,0,0,
0,0,0,0,0,0,0,0,0,0,0,0,0,0,0,0,0,0,0,0,0,0,0,0,0,0,0,0,0,0,0,0,0,0,0,0,0,0,0,0,
0,0,0,0,0,0,0,0,0,0,0,0,0,0,0,0,0,0,0,0,0,0,0,0,0,0,0,0,0,0,0,0,0,0,0,0,0,0,0,0,
0,0,0,0,0,0,0,0,0,0,0,0,0,0,0,0,0,0,0,0,0,0,0,0,0,0,0,0,0,0,0,0,0,0,0,0,0,0,0,0,
0,0,0,0,0,0,0,0,0,0,0,0,0,0,0,0,0,0,0,0,0,0,0,0,0,0,0,0,0,0,0,0,0,0,0,0,0,0,0,0,
0,0,0,0,0,0,0,0,0,0,0,0,0,0,0,0,0,0,0,0,0,0,0,0,0,0,0,0,0,0,0,0,0,0,0,0,0,0,0,0,
0,0,0,0,0,0,0,0,0,0,0,0,0,0,0,0,0,0,0,0,0,0,0,0,0,0,0,0,0,0,0,0,0,0,0,0,0,0,0,0,
0,0,0,0,0,0,0,0,0,0,0,0,0,0,0,0,0,0,0,0,0,0,0,0,0,0,0,0,0,0,0,0,0,0,0,0,0,0,0,0,
0,0,0,0,0,0,0,0,0,0,0,0,0,0,0,0,0,0,0,0,0,0,0,0,0,0,0,0,0,0,0,0,0,0,0,0,0,0,0,0,
0,0,0,0,0,0,0,0,0,0,0,0,0,0,0,0,0,0,0,0,0,0,0,0,0,0,0,0,0,0,0,0,0,0,0,0,0,0,0,0,
0,0,0,0,0,0,0,0,0,0,0,0,0,0,0,0,0,0,0,0,0,0,0,0,0,0,0,0,0,0,0,0,0,0,0,0,0,0,0,0,
0,0,0,0,0,0,0,0,0,0,0,0,0,0,0,0,0,0,0,0,0,0,0,0,0,0,0,0,0,0,0,0,0,0,0,0,0,0,0,0,
0,0,0,0,0,0,0,0,0,0,0,0,0,0,0,0,0,0,0,0,0,0,0,0,0,0,0,0,0,0,0,0,0,0,0,0,0,0,0,0,
0,0,0,0,0,0,0,0,0,0,0,0,0,0,0,0,0,0,0,0,0,0,0,0,0,0,0,0,0,0,0,0,0,0,0,0,0,0,0,0,
0,0,0,0,0,0,0,0,0,0,0,0,0,0,0,0,0,0,0,0,0,0,0,0,0,0,0,0,0,0,0,0,0,0,0,0,0,0,0,0,
0,0,0,0,0,0,0,0,0,0,0,0,0,0,0,0,0,0,0,0,0,0,0,0,0,0,0,0,0,0,0,0,0,0,0,0,0,0,0,0,
0,0,0,0,0,0,0,0,0,0,0,0,0,0,0,0,0,0,0,0,0,0,0,0,0,0,0,0,0,0,0,0,0,0,0,0,0,0,0,0,
0,0,0,0,0,0,0,0,0,0,0,0,0,0,0,0,0,0,0,0,0,0,0,0,0,0,0,0,0,0,0,0,0,0,0,0,0,0,0,0,
0,0,0,0,0,0,0,0,0,0,0,0,0,0,0,0,0,0,0,0,0,0,0,0,0,0,0,0,0,0,0,0,0,0,0,0,0,0,0,0,
0,0,0,0,0,0,0,0,0,0,0,0,0,0,0,0,0,0,0,0,0,0,0,0,0,0,0,0,0,0,0,0,0,0,0,0,0,0,0,0,
0,0,0,0,0,0,0,0,0,0,0,0,0,0,0,0,0,0,0,0,0,0,0,0,0,0,0,0,0,0,0,0,0,0,0,0,0,0,0,0
</data>
 </layer>
 <objectgroup id="20" name="collisioni">
  <object id="33" x="-1.24296" y="-2.48592" width="544.416" height="36.0458"/>
  <object id="34" x="-3.72888" y="-4.97184" width="34.8029" height="510.856"/>
  <object id="35" x="26.1022" y="476.054" width="185.201" height="29.831"/>
  <object id="36" x="324.413" y="478.54" width="216.275" height="31.074"/>
  <object id="37" x="508.371" y="1.24296" width="31.074" height="477.297"/>
  <object id="38" x="728.374" y="-6.2148" width="546.902" height="114.352"/>
  <object id="39" x="729.617" y="161.585" width="387.803" height="42.2606"/>
  <object id="40" x="732.103" y="197.631" width="98.1938" height="41.0177"/>
  <object id="41" x="733.346" y="265.993" width="95.7079" height="33.5599"/>
  <object id="42" x="733.346" y="333.113" width="91.979" height="32.317"/>
  <object id="43" x="725.889" y="398.99" width="103.166" height="28.5881"/>
  <object id="44" x="857.642" y="162.828" width="34.8029" height="292.096"/>
  <object id="45" x="862.614" y="413.906" width="380.346" height="44.7466"/>
  <object id="46" x="1214.37" y="67.1198" width="31.074" height="375.374"/>
  <object id="47" x="1049.06" y="706.001" width="134.24" height="121.81"/>
  <object id="53" x="546.43" y="1077.05" width="26.2888" height="22.5599"/>
  <object id="54" x="707.244" y="1072.05" width="37.2888" height="33.5599"/>
  <object id="58" x="894.931" y="686.735" width="37.2888" height="33.5599"/>
  <object id="59" x="893.688" y="781.2" width="37.2888" height="33.5599"/>
  <object id="60" x="894.931" y="879.394" width="37.2888" height="33.5599"/>
  <object id="61" x="894.931" y="976.345" width="37.2888" height="33.5599"/>
  <object id="62" x="896.174" y="1072.05" width="37.2888" height="33.5599"/>
  <object id="63" x="1088.83" y="866.343" width="191.416" height="254.807"/>
  <object id="65" x="919.79" y="980.695" width="166.557" height="130.511"/>
  <object id="66" x="733.346" y="660.012" width="157.856" height="452.437"/>
  <object id="67" x="349.272" y="815.382" width="162.828" height="298.31"/>
  <object id="68" x="96.9509" y="720.917" width="154.127" height="140.454"/>
  <object id="69" x="-2.48592" y="676.17" width="13.6726" height="437.522"/>
  <object id="70" x="3.72888" y="1104.99" width="348.029" height="12.4296"/>
  <object id="71" x="160.342" y="62.148" width="223.733" height="169.043"/>
  <object id="72" x="228.705" y="350.515" width="84.5213" height="60.905"/>
  <object id="73" x="389.046" y="340.571" width="88.2501" height="100.68"/>
  <object id="74" x="392.154" y="221.868" width="88.2501" height="100.68"/>
  <object id="75" x="389.668" y="82.6567" width="88.2501" height="100.68"/>
  <object id="76" x="68.9843" y="77.6849" width="88.2501" height="100.68"/>
  <object id="77" x="68.9843" y="216.896" width="88.2501" height="100.68"/>
  <object id="78" x="67.7413" y="339.949" width="88.2501" height="100.68"/>
  <object id="85" x="302.039" y="536.959">
   <point/>
  </object>
  <object id="86" x="1136.07" y="345.543">
   <point/>
  </object>
  <object id="87" x="239.891" y="952.107">
   <point/>
  </object>
  <object id="88" x="113.109" y="952.107">
   <point/>
  </object>
  <object id="89" x="171.528" y="1020.47">
   <point/>
  </object>
  <object id="90" x="244.863" y="1082.62">
   <point/>
  </object>
  <object id="91" x="111.866" y="1083.86">
   <point/>
  </object>
  <object id="129" x="546.856" y="984.72" width="26.2888" height="22.5599"/>
  <object id="130" x="549.856" y="887.22" width="26.2888" height="22.5599"/>
  <object id="131" x="548.856" y="788.22" width="26.2888" height="22.5599"/>
  <object id="132" x="549.856" y="696.22" width="26.2888" height="22.5599"/>
  <object id="133" x="705.856" y="691.72" width="26.2888" height="22.5599"/>
  <object id="134" x="707.356" y="788.72" width="26.2888" height="22.5599"/>
  <object id="135" x="707.356" y="882.72" width="26.2888" height="22.5599"/>
  <object id="136" x="709.356" y="979.72" width="26.2888" height="22.5599"/>
  <object id="137" x="712.856" y="1077.22" width="26.2888" height="22.5599"/>
  <object id="139" x="894.333" y="168.667" width="221.333" height="147.667"/>
  <object id="140" x="895.667" y="302.333" width="79" height="47"/>
  <object id="141" x="1028.33" y="308" width="90.6667" height="44.3333"/>
 </objectgroup>
 <objectgroup color="#ff0000" id="6" name="eventi">
  <object id="20" name="npc" type="npc" x="480" y="544" width="32" height="32">
   <properties>
    <property name="direzione" value="sud"/>
    <property name="id" value="fra_centro_npc1"/>
    <property name="sprite" value="NPC_05"/>
    <property name="type" value="npc"/>
   </properties>
  </object>
  <object id="21" name="npc" type="npc" x="736" y="544" width="32" height="32">
   <properties>
    <property name="direzione" value="nord"/>
    <property name="id" value="fra_centro_npc2"/>
    <property name="sprite" value="NPC_06"/>
    <property name="type" value="npc"/>
   </properties>
  </object>
  <object id="22" name="npc" type="npc" x="307.595" y="725.105" width="32" height="32">
   <properties>
    <property name="direzione" value="est"/>
    <property name="id" value="fra_centro_npc3"/>
    <property name="movimento" value="random"/>
    <property name="raggio" type="int" value="3"/>
    <property name="sprite" value="NPC_07"/>
    <property name="type" value="npc"/>
   </properties>
  </object>
  <object id="23" name="npc" type="npc" x="960" y="800" width="32" height="32">
   <properties>
    <property name="direzione" value="ovest"/>
    <property name="id" value="fra_centro_npc4"/>
    <property name="sprite" value="NPC_08"/>
    <property name="type" value="npc"/>
   </properties>
  </object>
  <object id="79" name="warp" type="warp" x="990.763" y="305.904" width="32" height="32">
   <properties>
    <property name="destinazione" value="palestra_frascati"/>
    <property name="spawn_id" value="da frascati centro"/>
    <property name="type" value="warp"/>
   </properties>
  </object>
  <object id="80" name="pokecenter_frascati" type="warp" x="160.5" y="832.942" width="32" height="32">
   <properties>
    <property name="destinazione" value="pokemon center frascati"/>
    <property name="spawn_id" value="da_frascati_centro"/>
    <property name="type" value="warp"/>
   </properties>
  </object>
  <object id="81" name="pokemarket_frascati" type="warp" x="1091.48" y="800.625" width="32" height="32">
   <properties>
    <property name="destinazione" value="pokemon market frascati"/>
    <property name="spawn_id" value="da_frascati_centro"/>
    <property name="type" value="warp"/>
   </properties>
  </object>
  <object id="82" name="villa aldobrandini" type="warp" x="254.965" y="211.462" width="32" height="32">
   <properties>
    <property name="destinazione" value="villa aldobrandini"/>
    <property name="messaggio_gate" value="I cancelli della Villa sono chiusi. Forse dopo la Lega..."/>
    <property name="richiede" value="legaCompletata"/>
    <property name="spawn_id" value="da_frascati_centro"/>
    <property name="type" value="warp"/>
   </properties>
  </object>
  <object id="83" name="cartel frascati centro" x="299.553" y="530.744">
   <properties>
    <property name="id" value="cartello frascati centro"/>
    <property name="testo" value="Villa Aldobrandini"/>
    <property name="type" value="cartello"/>
   </properties>
   <point/>
  </object>
  <object id="84" name="cartel frascati centro" x="1134.82" y="348.029">
   <properties>
    <property name="id" value="cartello frascati centro"/>
    <property name="testo" value="Palestra Erbone"/>
    <property name="type" value="cartello"/>
   </properties>
   <point/>
  </object>
 </objectgroup>
 <objectgroup id="21" name="luci">
  <object id="92" x="772" y="897" width="15" height="14">
   <properties>
    <property name="colore" value="#ffd27f"/>
    <property name="type" value="luce"/>
   </properties>
  </object>
  <object id="93" x="770.5" y="738" width="15" height="14">
   <properties>
    <property name="colore" value="#ffd27f"/>
    <property name="type" value="luce"/>
   </properties>
  </object>
  <object id="94" x="796.5" y="742" width="15" height="14">
   <properties>
    <property name="colore" value="#ffd27f"/>
    <property name="type" value="luce"/>
   </properties>
  </object>
  <object id="95" x="822.5" y="739" width="15" height="14">
   <properties>
    <property name="colore" value="#ffd27f"/>
    <property name="type" value="luce"/>
   </properties>
  </object>
  <object id="96" x="842.5" y="739" width="15" height="14">
   <properties>
    <property name="colore" value="#ffd27f"/>
    <property name="type" value="luce"/>
   </properties>
  </object>
  <object id="97" x="819.5" y="769" width="15" height="14">
   <properties>
    <property name="colore" value="#ffd27f"/>
    <property name="type" value="luce"/>
   </properties>
  </object>
  <object id="98" x="845.5" y="769" width="15" height="14">
   <properties>
    <property name="colore" value="#ffd27f"/>
    <property name="type" value="luce"/>
   </properties>
  </object>
  <object id="99" x="775.5" y="771" width="15" height="14">
   <properties>
    <property name="colore" value="#ffd27f"/>
    <property name="type" value="luce"/>
   </properties>
  </object>
  <object id="100" x="818.5" y="932" width="15" height="14">
   <properties>
    <property name="colore" value="#ffd27f"/>
    <property name="type" value="luce"/>
   </properties>
  </object>
  <object id="101" x="796.5" y="898" width="15" height="14">
   <properties>
    <property name="colore" value="#ffd27f"/>
    <property name="type" value="luce"/>
   </properties>
  </object>
  <object id="102" x="847.5" y="928" width="15" height="14">
   <properties>
    <property name="colore" value="#ffd27f"/>
    <property name="type" value="luce"/>
   </properties>
  </object>
  <object id="103" x="774.5" y="1057" width="15" height="14">
   <properties>
    <property name="colore" value="#ffd27f"/>
    <property name="type" value="luce"/>
   </properties>
  </object>
  <object id="104" x="793.5" y="1058" width="15" height="14">
   <properties>
    <property name="colore" value="#ffd27f"/>
    <property name="type" value="luce"/>
   </properties>
  </object>
  <object id="105" x="824.5" y="1058" width="15" height="14">
   <properties>
    <property name="colore" value="#ffd27f"/>
    <property name="type" value="luce"/>
   </properties>
  </object>
  <object id="106" x="838.5" y="1056" width="15" height="14">
   <properties>
    <property name="colore" value="#ffd27f"/>
    <property name="type" value="luce"/>
   </properties>
  </object>
  <object id="107" x="823.5" y="1083" width="15" height="14">
   <properties>
    <property name="colore" value="#ffd27f"/>
    <property name="type" value="luce"/>
   </properties>
  </object>
  <object id="108" x="841.5" y="1089" width="15" height="14">
   <properties>
    <property name="colore" value="#ffd27f"/>
    <property name="type" value="luce"/>
   </properties>
  </object>
  <object id="109" x="963.5" y="1061" width="15" height="14">
   <properties>
    <property name="colore" value="#ffd27f"/>
    <property name="type" value="luce"/>
   </properties>
  </object>
  <object id="110" x="991.5" y="1058" width="15" height="14">
   <properties>
    <property name="colore" value="#ffd27f"/>
    <property name="type" value="luce"/>
   </properties>
  </object>
  <object id="111" x="1014.5" y="1058" width="15" height="14">
   <properties>
    <property name="colore" value="#ffd27f"/>
    <property name="type" value="luce"/>
   </properties>
  </object>
  <object id="112" x="1038.5" y="1060" width="15" height="14">
   <properties>
    <property name="colore" value="#ffd27f"/>
    <property name="type" value="luce"/>
   </properties>
  </object>
  <object id="113" x="1009.5" y="1087" width="15" height="14">
   <properties>
    <property name="colore" value="#ffd27f"/>
    <property name="type" value="luce"/>
   </properties>
  </object>
  <object id="114" x="1037.5" y="1088" width="15" height="14">
   <properties>
    <property name="colore" value="#ffd27f"/>
    <property name="type" value="luce"/>
   </properties>
  </object>
  <object id="115" x="968.5" y="1093" width="15" height="14">
   <properties>
    <property name="colore" value="#ffd27f"/>
    <property name="type" value="luce"/>
   </properties>
  </object>
  <object id="116" x="389.5" y="898" width="15" height="14">
   <properties>
    <property name="colore" value="#ffd27f"/>
    <property name="type" value="luce"/>
   </properties>
  </object>
  <object id="117" x="414.5" y="900" width="15" height="14">
   <properties>
    <property name="colore" value="#ffd27f"/>
    <property name="type" value="luce"/>
   </properties>
  </object>
  <object id="118" x="437.5" y="901" width="15" height="14">
   <properties>
    <property name="colore" value="#ffd27f"/>
    <property name="type" value="luce"/>
   </properties>
  </object>
  <object id="119" x="458.5" y="899" width="15" height="14">
   <properties>
    <property name="colore" value="#ffd27f"/>
    <property name="type" value="luce"/>
   </properties>
  </object>
  <object id="120" x="438.5" y="927" width="15" height="14">
   <properties>
    <property name="colore" value="#ffd27f"/>
    <property name="type" value="luce"/>
   </properties>
  </object>
  <object id="121" x="462.5" y="926" width="15" height="14">
   <properties>
    <property name="colore" value="#ffd27f"/>
    <property name="type" value="luce"/>
   </properties>
  </object>
  <object id="122" x="392.5" y="931" width="15" height="14">
   <properties>
    <property name="colore" value="#ffd27f"/>
    <property name="type" value="luce"/>
   </properties>
  </object>
  <object id="123" x="200.5" y="130" width="15" height="14">
   <properties>
    <property name="colore" value="#ffd27f"/>
    <property name="type" value="luce"/>
   </properties>
  </object>
  <object id="124" x="184.5" y="199" width="15" height="14">
   <properties>
    <property name="colore" value="#ffd27f"/>
    <property name="type" value="luce"/>
   </properties>
  </object>
  <object id="125" x="347.5" y="168" width="15" height="14">
   <properties>
    <property name="colore" value="#ffd27f"/>
    <property name="type" value="luce"/>
   </properties>
  </object>
  <object id="126" x="162.5" y="832" width="28" height="33">
   <properties>
    <property name="colore" value="#ffd27f"/>
    <property name="type" value="luce"/>
   </properties>
  </object>
  <object id="142" name="spawn_palestra_frascati" type="spawn" x="988" y="360.75" width="32" height="16.5">
   <properties>
    <property name="id" value="da_palestra_frascati"/>
    <property name="type" value="spawn"/>
   </properties>
  </object>
 </objectgroup>
</map>
