<?xml version="1.0" encoding="UTF-8"?>
<map version="1.10" tiledversion="1.12.2" orientation="orthogonal" renderorder="right-down" width="44" height="36" tilewidth="32" tileheight="32" infinite="0" backgroundcolor="#000000" nextlayerid="21" nextobjectid="86">
 <tileset firstgid="1" source="../outside.tsx"/>
 <tileset firstgid="4017" source="../../outside.tsx"/>
 <layer id="1" name="ground" width="44" height="36">
  <data encoding="csv">
340,340,4291,4291,4291,4291,4291,4291,4291,4291,4291,4291,4354,4354,4357,4357,4357,4357,343,343,343,343,4357,4357,4357,4357,4357,4357,4357,4357,4357,4357,4357,4357,4357,4357,4357,4357,340,340,340,340,340,340,
340,340,4291,4291,4291,4291,4291,4291,4291,4291,4291,4291,4354,4354,4357,4357,4357,4357,343,343,343,343,4357,4357,4357,4357,4357,4357,4357,4357,4357,4357,4357,4357,4357,4357,4357,4357,340,340,340,340,340,340,
340,340,4291,4291,4291,4291,4291,4291,4291,4291,4291,4291,4354,4354,4354,4357,4357,4357,343,343,343,343,4357,4357,4357,4357,4357,4357,4357,4357,4357,4357,4357,4357,4357,4357,4357,4357,340,340,340,340,340,340,
340,340,4291,4291,4291,4291,4291,4291,4291,4291,4291,4291,4354,4354,4354,4357,4357,4357,343,343,343,343,4357,4357,4357,4357,4357,4357,4357,4357,4357,4357,4357,4357,4357,4357,4357,4357,340,340,340,340,340,340,
340,340,4291,4291,4291,4291,4291,4291,4291,4291,4291,4291,4354,4354,4354,4357,4357,4357,343,343,343,343,4357,4357,4357,4357,4357,4357,4357,4357,4357,4357,4357,4357,4357,4357,4357,4357,340,340,340,340,340,340,
340,340,4291,4291,4291,4291,4291,4291,4291,4291,4291,4291,4354,4354,4357,4357,4357,4357,343,343,343,343,4357,4357,4357,4357,4357,4357,4357,4357,4357,4357,4357,4357,4357,4357,4357,4357,340,340,340,340,340,340,
340,340,4291,4291,4291,4291,4291,4291,4291,4291,4291,4291,4354,4354,4357,4357,4357,4357,343,343,343,343,4357,4357,4357,4357,4357,4357,4357,4357,4357,4357,4357,4357,4357,4357,4357,4357,340,340,340,340,340,340,
340,340,4291,4291,4291,4291,4291,4291,4291,4291,4291,4291,4354,4354,4357,4357,4357,4357,343,343,343,343,4357,4357,4357,4357,4357,4357,4357,4357,4357,4357,4357,4357,4357,4357,4357,4357,340,340,340,340,340,340,
340,340,4291,4291,4291,4291,4291,4291,4291,4291,4291,4291,4354,4354,4357,4357,4357,4357,343,343,343,343,4357,4357,4357,4357,4357,4357,4357,4357,4357,4357,4357,4357,4357,4357,4357,4357,340,340,340,340,340,340,
340,340,4291,4291,4291,4291,4291,4291,4291,4291,4291,4291,4354,4354,4357,4357,4357,4357,343,343,343,343,4357,4357,4357,4357,4357,4357,4357,4357,4357,4357,4357,4357,4357,4357,4357,4357,340,340,340,340,340,340,
340,340,4291,4291,4291,4291,4291,4291,4291,4291,4291,4291,4357,4357,4357,4357,4357,4357,343,343,343,343,4357,4357,4357,4357,4357,4357,4357,4357,4357,4357,4357,4357,4357,4357,4357,4357,340,340,340,340,340,340,
340,340,4357,4357,4357,4357,4357,4357,4357,4357,4357,4357,4357,4357,4354,343,343,343,343,343,343,343,343,343,4357,4357,4357,4357,4357,4354,4354,4354,4357,4357,4357,4357,4357,4357,340,340,340,340,340,340,
340,340,4357,4357,4357,4354,4354,4357,4357,4357,4357,4357,4357,4357,4354,343,343,343,343,343,343,343,343,343,4357,4357,4357,4354,4354,4354,4354,4354,4357,4354,4354,4354,4354,4354,340,340,340,340,340,340,
340,340,4354,4354,4354,4354,4354,4357,4357,4354,4357,4354,4354,4354,4354,343,343,4048,4048,4048,4048,4048,343,343,4354,4354,4354,4354,4354,4354,4354,4354,4354,4354,4354,4354,4354,4354,340,340,340,340,340,340,
340,340,4354,4354,4354,4354,4354,4354,4354,4354,4354,4354,4354,4354,4354,343,343,4048,4058,4059,4060,4048,343,343,4354,4354,4354,4354,4354,4354,4354,4354,4354,4354,4354,4354,4354,4354,340,340,340,340,340,340,
340,340,4354,4354,4354,4354,4354,4354,4354,4354,4354,4354,4354,4354,4354,343,343,4048,4066,4067,4068,4048,343,343,4354,4354,4354,4354,4354,4354,4354,4354,4354,4354,4354,4354,4354,4354,340,340,340,340,340,340,
340,340,4354,4354,4354,4354,4354,4354,4354,4354,4354,4354,4354,4354,4354,343,343,4048,4074,4075,4076,4048,343,343,4354,4354,4354,4354,4354,4354,4354,4354,4354,4354,4354,4354,4354,4354,340,340,340,340,340,340,
340,340,4354,4354,4354,4354,4354,4357,4357,4357,4354,4354,4357,4354,4354,343,343,4048,4048,4048,4048,4048,343,343,4354,4354,4354,4354,4354,4354,4354,4354,4354,4354,4354,4354,4354,4354,340,340,340,340,340,340,
340,340,4354,4357,4354,4354,4354,4357,4357,4357,4357,4354,4357,4357,4354,343,343,343,343,343,343,343,343,343,4357,4357,4357,4354,4354,4354,4354,4354,4354,4354,4354,4354,4357,4357,340,340,340,340,340,340,
340,340,4357,4357,4354,4357,4357,4357,4357,4357,4357,4357,4357,4357,4354,343,343,343,343,343,343,343,343,343,4357,4357,4357,4357,4354,4357,4357,4354,4357,4357,4357,4357,4357,4357,340,340,340,340,340,340,
340,340,4357,4357,4357,4357,4357,4357,4357,4357,4357,4357,4357,4357,4357,4357,4357,343,343,343,343,4357,4357,4357,4357,4357,4357,4357,4357,4357,4357,4357,4357,4357,4357,4357,4357,4357,340,340,340,340,340,340,
340,340,4357,4357,4357,4357,4357,4357,4357,4357,4357,4357,4357,4357,4357,4357,4357,343,343,343,343,4357,4357,4357,4357,4357,4357,4357,4357,4357,4357,4357,4357,4357,4357,4357,4357,4357,340,340,340,340,340,340,
340,340,4357,4357,4357,4357,4357,4357,4357,4357,4357,4357,4357,4357,4357,4357,4357,343,343,343,343,4357,4357,4357,4357,4357,4357,4357,4357,4357,4357,4357,4357,4357,4357,4357,4357,4357,340,340,340,340,340,340,
340,340,4357,4357,4357,4357,4357,4357,4357,4357,4357,4357,4357,4357,4357,4357,4357,343,343,343,343,4357,4357,4357,4357,4357,4357,4357,4357,4357,4357,4357,4357,4357,4357,4357,4357,4357,340,340,340,340,340,340,
340,340,4357,4357,4357,4357,4357,4357,4357,4357,4357,4357,4357,4357,4357,4357,4357,343,343,343,343,4357,4357,4357,4357,4357,4357,4357,4357,4357,4357,4357,4357,4357,4357,4357,4357,4357,340,340,340,340,340,340,
340,340,4357,4357,4357,4357,4357,4357,4357,4357,4357,4357,4357,4357,4357,4357,4357,343,343,343,343,4357,4357,4357,4357,4357,4357,4357,4357,4357,4357,4357,4357,4357,4357,4357,4357,4357,340,340,340,340,340,340,
340,340,4357,4357,4357,4357,4357,4357,4357,4357,4357,4357,4357,4357,4357,4357,4357,343,343,343,343,4357,4357,4357,4357,4357,4357,4357,4357,4357,4357,4357,4357,4357,4357,4357,4357,4357,340,340,340,340,340,340,
340,340,4357,4357,4357,4357,4357,4357,4357,4357,4357,4357,4357,4357,4357,4357,4357,343,343,343,343,4357,4357,4357,4357,4357,4357,4357,4357,4357,4357,4357,4357,4357,4357,4357,4357,4357,340,340,340,340,340,340,
340,340,4357,4357,4357,4357,4357,4357,4357,4357,4357,4357,4357,4357,4357,4357,4357,343,343,343,343,4357,4357,4357,4357,4357,4357,4357,4357,4357,4357,4357,4357,4357,4357,4357,4357,4357,340,340,340,340,340,340,
340,340,4357,4357,4357,4357,4357,4357,4357,4357,4357,4357,4357,4357,4357,4357,4357,343,343,343,343,4357,4357,4357,4357,4357,4357,4357,4357,4357,4357,4357,4357,4357,4357,4357,4357,4357,340,340,340,340,340,340,
340,340,340,340,340,340,340,340,340,340,340,340,340,340,340,340,340,340,340,340,340,340,340,340,340,340,340,340,340,340,340,340,340,340,340,340,340,340,340,340,340,340,340,340,
340,340,340,340,340,340,340,340,340,340,340,340,340,340,340,340,340,340,340,340,340,340,340,340,340,340,340,340,340,340,340,340,340,340,340,340,340,340,340,340,340,340,340,340,
340,340,340,340,340,340,340,340,340,340,340,340,340,340,340,340,340,340,340,340,340,340,340,340,340,340,340,340,340,340,340,340,340,340,340,340,340,340,340,340,340,340,340,340,
340,340,340,340,340,340,340,340,340,340,340,340,340,340,340,340,340,340,340,340,340,340,340,340,340,340,340,340,340,340,340,340,340,340,340,340,340,340,340,340,340,340,340,340,
340,340,340,340,340,340,340,340,340,340,340,340,340,340,340,340,340,340,340,340,340,340,340,340,340,340,340,340,340,340,340,340,340,340,340,340,340,340,340,340,340,340,340,340,
340,340,340,340,340,340,340,340,340,340,340,340,340,340,340,340,340,340,340,340,340,340,340,340,340,340,340,340,340,340,340,340,340,340,340,340,340,340,340,340,340,340,340,340
</data>
 </layer>
 <layer id="2" name="deco_sotto" width="44" height="36">
  <data encoding="csv">
0,0,0,0,0,0,0,0,0,0,0,0,0,0,0,0,0,0,0,0,0,0,0,0,0,0,0,0,0,0,0,0,0,0,0,0,0,0,0,0,0,0,0,0,
0,0,0,0,0,0,0,0,0,0,0,0,0,0,0,0,0,0,0,0,0,0,0,0,0,0,0,0,0,0,0,0,0,0,0,0,0,0,0,0,0,0,0,0,
0,0,0,0,0,0,0,0,0,0,0,0,0,0,0,0,0,0,0,0,0,0,0,0,0,0,0,0,0,0,0,0,0,0,0,0,0,0,0,0,0,0,0,0,
0,0,0,0,0,0,0,0,0,0,0,0,0,0,0,0,0,0,0,0,0,0,0,0,0,0,0,0,0,0,0,0,0,0,0,0,0,0,0,0,0,0,0,0,
0,0,0,0,0,0,0,0,0,0,0,0,0,0,0,0,0,0,0,0,0,0,0,0,0,0,0,0,0,0,0,0,0,0,0,0,0,0,0,0,0,0,0,0,
0,0,0,0,0,0,0,0,0,0,0,0,0,0,0,0,0,0,0,0,0,0,0,0,0,0,0,0,0,0,0,0,0,0,0,0,0,0,0,0,0,0,0,0,
0,0,0,0,0,0,0,0,0,4965,0,0,0,0,0,0,0,0,0,0,0,0,0,0,0,0,0,0,0,0,0,0,0,0,0,0,0,0,0,0,0,0,0,0,
0,0,0,0,0,0,0,0,0,0,0,0,0,0,0,0,0,0,0,0,0,0,0,0,0,0,0,0,0,0,0,0,0,0,0,0,0,0,0,0,0,0,0,0,
0,0,0,0,0,0,0,0,0,0,0,0,0,0,0,0,0,0,0,0,0,0,0,0,0,0,0,0,0,0,0,0,0,0,0,0,0,0,0,0,0,0,0,0,
0,0,0,0,0,0,0,0,0,0,0,0,0,0,0,0,0,0,0,0,0,0,0,0,0,0,0,0,0,0,0,0,0,0,0,0,0,0,0,0,0,0,0,0,
0,0,0,0,0,0,0,0,0,0,0,0,0,0,0,0,0,0,0,0,0,0,0,0,0,0,0,0,0,0,0,0,0,0,0,0,0,0,0,0,0,0,0,0,
0,0,0,0,0,0,0,0,0,0,0,0,0,0,0,0,0,0,0,0,0,0,0,0,0,0,0,0,0,0,0,0,0,0,0,0,0,0,0,0,0,0,0,0,
0,0,0,0,0,0,0,0,0,0,0,0,0,0,0,0,0,0,0,0,0,0,0,0,0,0,0,0,0,0,0,0,0,0,0,0,0,0,0,0,0,0,0,0,
0,0,0,0,0,0,0,0,0,0,0,0,0,0,0,0,0,0,0,0,0,0,0,0,0,0,0,0,0,0,0,0,0,0,0,0,0,0,0,0,0,0,0,0,
0,0,0,0,0,0,0,0,0,0,0,0,0,0,0,0,0,0,0,0,0,0,0,0,0,0,0,0,0,0,0,0,0,0,0,0,0,0,0,0,0,0,0,0,
0,0,0,0,0,0,0,0,0,0,0,0,0,0,0,0,0,0,0,0,0,0,0,0,0,0,0,0,0,0,0,0,0,0,0,0,0,0,0,0,0,0,0,0,
0,0,0,0,0,0,0,0,0,0,0,0,0,0,0,0,0,0,0,0,0,0,0,0,0,0,0,0,0,0,0,0,0,0,0,0,0,0,0,0,0,0,0,0,
0,0,0,0,0,0,0,0,0,0,0,0,0,0,0,0,0,0,0,0,0,0,0,0,0,0,0,0,0,0,0,0,0,0,0,0,0,0,0,0,0,0,0,0,
0,0,0,0,0,0,0,0,0,0,0,0,0,0,0,0,0,0,0,0,0,0,0,0,0,0,0,0,0,0,0,0,0,0,0,0,0,0,0,0,0,0,0,0,
0,0,0,0,0,0,0,0,0,0,0,0,0,0,0,0,0,0,0,0,0,0,0,0,0,0,0,0,0,0,0,0,0,0,0,0,0,5104,0,0,0,0,0,0,
0,0,0,0,0,0,0,0,0,0,0,0,0,0,0,0,0,0,0,0,0,0,0,0,0,0,0,0,0,0,0,0,0,0,0,0,0,5112,0,0,0,0,0,0,
0,0,4997,4998,4997,4998,4997,4998,4997,4998,4997,4998,4997,4998,0,0,0,0,0,0,0,0,0,0,0,0,0,0,0,0,0,0,0,0,0,0,0,0,0,0,0,0,0,0,
0,0,4702,4703,4703,4703,4703,4703,4703,4703,4703,4703,4703,4703,4703,4703,4704,0,0,0,0,0,0,0,0,0,0,0,0,0,0,0,0,0,0,0,0,0,0,0,0,0,0,0,
0,0,0,0,0,0,0,0,0,0,0,0,0,0,0,0,4964,0,0,0,0,4970,0,0,0,0,0,0,0,0,0,0,0,0,0,0,0,0,0,0,0,0,0,0,
0,0,0,0,0,0,0,0,0,0,0,0,0,0,0,0,5041,5042,0,0,5043,5044,0,0,0,0,0,0,0,0,0,0,0,0,0,0,0,0,0,0,0,0,0,0,
0,0,0,0,0,0,0,4965,0,0,0,0,0,0,0,0,5049,0,0,0,0,5052,0,0,0,0,0,0,0,0,0,0,0,0,0,0,0,0,0,0,0,0,0,0,
0,0,0,0,0,0,0,0,0,0,0,0,0,0,0,0,5057,0,0,0,0,5060,0,0,0,0,0,0,0,0,0,0,0,0,0,0,0,0,0,0,0,0,0,0,
0,0,0,0,0,0,0,0,0,0,0,0,0,0,0,0,5041,5042,0,0,5043,5044,0,0,0,0,0,0,0,0,0,0,0,0,0,0,0,0,0,0,0,0,0,0,
0,0,0,0,0,0,0,0,0,0,0,0,0,0,0,0,5049,0,0,0,0,5052,0,0,0,0,0,0,0,0,0,0,0,0,0,0,0,0,0,0,0,0,0,0,
0,0,0,0,0,0,0,0,0,0,0,0,0,0,0,0,5057,0,0,0,0,5060,0,0,0,0,0,0,0,0,0,0,0,0,0,0,0,0,0,0,0,0,0,0,
0,0,0,0,0,0,0,0,0,0,0,0,0,0,0,0,0,0,0,0,0,0,0,0,0,0,0,0,0,0,0,0,0,0,0,0,0,0,0,0,0,0,0,0,
0,0,0,0,0,0,0,0,0,0,0,0,0,0,0,0,0,0,0,0,0,0,0,0,0,0,0,0,0,0,0,0,0,0,0,0,0,0,0,0,0,0,0,0,
0,0,0,0,0,0,0,0,0,0,0,0,0,0,0,0,0,0,0,0,0,0,0,0,0,0,0,0,0,0,0,0,0,0,0,0,0,0,0,0,0,0,0,0,
0,0,0,0,0,0,0,0,0,0,0,0,0,0,0,0,0,0,0,0,0,0,0,0,0,0,0,0,0,0,0,0,0,0,0,0,0,0,0,0,0,0,0,0,
0,0,0,0,0,0,0,0,0,0,0,0,0,0,0,0,0,0,0,0,0,0,0,0,0,0,0,0,0,0,0,0,0,0,0,0,0,0,0,0,0,0,0,0,
0,0,0,0,0,0,0,0,0,0,0,0,0,0,0,0,0,0,0,0,0,0,0,0,0,0,0,0,0,0,0,0,0,0,0,0,0,0,0,0,0,0,0,0
</data>
 </layer>
 <layer id="3" name="edifici" width="44" height="36">
  <data encoding="csv">
0,0,7241,7242,7243,7244,7245,7246,5089,5090,0,0,0,0,0,0,0,0,0,0,0,0,0,0,0,0,0,0,5730,5731,5732,5733,5734,5730,5731,5732,5733,5734,421,422,421,422,421,422,
0,0,7249,7250,7251,7252,7253,7254,5097,5098,5099,0,0,0,0,0,0,0,0,0,0,0,0,0,0,0,0,0,5738,5739,5740,5741,5742,5738,5739,5740,5741,5742,429,430,429,430,429,430,
0,0,7257,7258,7259,7260,7261,7262,5105,5106,5107,0,0,0,0,0,0,0,0,0,0,0,0,0,0,0,0,0,5746,5747,5748,5749,5750,5746,5747,5748,5749,5750,437,438,437,438,437,438,
0,0,7265,7266,7267,7268,7269,7270,5089,5090,0,0,0,0,0,0,0,0,0,0,0,0,0,0,0,0,0,0,5754,5755,5756,5757,5758,5754,5755,5756,5757,5758,421,422,421,422,421,422,
0,0,7273,7274,7275,7276,7277,7278,5097,5098,5099,0,0,0,0,0,0,0,0,0,0,0,0,0,0,0,0,0,5762,5763,5764,5765,5766,5762,5763,5764,5765,5766,429,430,429,430,429,430,
0,0,7281,7282,7283,7284,7285,7286,5105,5106,5107,0,0,0,0,0,0,0,0,0,0,0,0,0,0,0,0,0,5730,5731,5732,5733,5734,5730,5731,5732,5733,5734,437,438,437,438,437,438,
0,0,7289,7290,7291,7292,7293,7294,5089,5090,0,0,0,0,0,0,0,0,0,0,0,0,0,0,0,0,0,0,5738,5739,5740,5741,5742,5738,5739,5740,5741,5742,421,422,421,422,421,422,
0,0,7297,7298,7299,7300,7301,7302,5097,5098,5099,0,0,0,0,0,5041,5042,0,0,0,5043,5044,0,0,0,0,0,5746,5747,5748,5749,5750,5746,5747,5748,5749,5750,429,430,429,430,429,430,
0,0,7305,7306,7307,7308,7309,7310,5105,5106,5107,0,0,0,0,0,5049,0,0,0,0,0,5052,0,0,0,0,0,5754,5755,5756,5757,5758,5754,5755,5756,5757,5758,437,438,437,438,437,438,
0,0,7313,7314,7315,0,983,4977,4978,0,0,0,0,0,0,0,5057,0,0,0,0,0,5060,0,0,0,0,0,5762,5763,5764,5765,5766,5762,5763,5764,5765,5766,421,422,421,422,421,422,
0,0,0,0,0,0,983,4985,4986,0,0,0,0,0,0,5079,5080,0,0,0,0,0,5079,5080,0,0,0,0,5730,5731,5732,5733,5734,5730,5731,5732,5733,5734,429,430,429,430,429,430,
0,0,5685,5686,5687,5688,5685,5686,5687,5688,0,0,0,0,0,5087,5088,0,0,0,0,0,5087,5088,0,0,0,0,5738,5739,5740,5741,5742,5738,5739,5740,5741,5742,437,438,437,438,437,438,
0,0,5693,5694,5695,5696,5693,5694,5695,5696,0,0,0,0,0,0,0,0,0,0,0,0,0,0,0,0,0,0,5746,5747,5748,5749,5750,5746,5747,5748,5749,5750,421,422,421,422,421,422,
0,0,5701,5702,5703,5704,5701,5702,5703,5704,0,0,0,0,0,0,0,0,0,4549,0,0,0,0,0,0,0,0,5754,5755,5756,5757,5758,5754,5755,5756,5757,5758,429,430,429,430,429,430,
0,0,5685,5686,5687,5688,5685,5686,5687,5688,0,0,0,0,0,0,0,0,4556,4557,4558,0,0,0,0,0,0,0,5762,5763,5764,5765,5766,5762,5763,5764,5765,5766,437,438,437,438,437,438,
0,0,5693,5694,5695,5696,5693,5694,5695,5696,0,0,0,0,0,0,0,0,4564,4565,4566,0,0,0,0,0,0,0,5730,5731,5732,5733,5734,5730,5731,5732,5733,5734,421,422,421,422,421,422,
0,0,5701,5702,5703,5704,5701,5702,5703,5704,0,0,0,0,0,0,0,0,4572,4573,4574,0,0,0,0,0,0,0,5738,5739,5740,5741,5742,5738,5739,5740,5741,5742,429,430,429,430,429,430,
0,0,5685,5686,5687,5688,5685,5686,5687,5688,0,0,0,0,0,0,0,0,0,0,0,0,0,0,0,0,0,0,5746,5747,5748,5749,5750,5746,5747,5748,5749,5750,437,438,437,438,437,438,
0,0,5693,5694,5695,5696,5693,5694,5695,5696,0,0,0,0,0,0,0,0,0,0,0,0,0,0,0,0,0,0,5754,5755,5756,5757,5758,5754,5755,5756,5757,5758,421,422,421,422,421,422,
0,0,5701,5702,5703,5704,5701,5702,5703,5704,0,0,0,0,0,0,5041,5042,0,0,5043,5044,0,0,0,0,0,0,5762,5763,5764,5765,5766,5762,5763,5764,5765,5766,429,430,429,430,429,430,
0,0,0,0,0,0,0,0,0,0,983,0,0,0,4970,0,5049,0,0,0,0,5052,5593,5594,5595,5596,5597,5593,5594,5595,5596,5597,5593,5594,5595,5596,5597,0,437,438,437,438,437,438,
0,0,4999,0,4999,0,4999,0,4999,0,4999,0,4999,0,0,0,5057,0,0,0,0,5060,5601,5602,5603,5604,5605,5601,5602,5603,5604,5605,5601,5602,5603,5604,5605,0,421,422,421,422,421,422,
687,687,687,0,0,0,0,0,0,0,0,0,0,0,0,0,0,0,0,0,0,0,5609,5610,5611,5612,5613,5609,5610,5611,5612,5613,5609,5610,5611,5612,5613,0,429,430,429,430,429,430,
0,0,5833,5834,5835,5836,476,0,0,0,0,0,0,0,0,0,0,0,0,0,0,0,5617,5618,5619,5620,5621,5617,5618,5619,5620,5621,5617,5618,5619,5620,5621,0,437,438,437,438,437,438,
0,0,5841,5842,5843,5844,0,0,0,0,0,0,0,0,0,4685,0,0,0,0,0,0,5625,5626,5627,5628,5629,5625,5626,5627,5628,5629,5625,5626,5627,5628,5629,0,421,422,421,422,421,422,
0,0,5849,5850,5851,5852,0,0,0,0,0,5833,5834,5835,5836,4693,0,0,0,0,0,0,5833,5834,5835,5836,5833,5834,5835,5836,5833,5834,5835,5836,5833,5834,5835,5836,429,430,429,430,429,430,
0,0,5857,5858,5859,5860,421,422,0,0,0,5841,5842,5843,5844,4693,0,0,0,0,0,0,5841,5842,5843,5844,5841,5842,5843,5844,5841,5842,5843,5844,5841,5842,5843,5844,437,438,437,438,437,438,
0,0,0,0,0,0,429,430,0,0,0,5849,5850,5851,5852,4693,0,0,0,0,0,0,5849,5850,5851,5852,5849,5850,5851,5852,5849,5850,5851,5852,5849,5850,5851,5852,421,422,421,422,421,422,
0,0,0,0,0,0,437,438,0,0,0,5857,5858,5859,5860,4693,0,0,0,0,0,0,5857,5858,5859,5860,5857,5858,5859,5860,5857,5858,5859,5860,5857,5858,5859,5860,429,430,429,430,429,430,
421,422,421,422,421,422,421,422,421,422,421,422,421,422,421,677,0,0,0,0,0,0,421,422,421,422,421,422,421,422,421,422,421,422,421,422,421,422,437,438,437,438,437,438,
429,430,429,430,429,430,429,430,429,430,429,430,429,430,429,677,6922,0,0,0,6926,677,429,430,429,430,429,430,429,430,429,430,429,430,429,430,429,430,421,422,421,422,421,422,
437,438,437,438,437,438,437,438,437,438,437,438,437,438,437,677,6930,6931,6932,6933,6934,677,437,438,437,438,437,438,437,438,437,438,437,438,437,438,437,438,429,430,429,430,429,430,
421,422,421,422,421,422,421,422,421,422,421,422,421,422,421,677,6993,6994,6994,6994,6995,677,421,422,421,422,421,422,421,422,421,422,421,422,421,422,421,422,437,438,437,438,437,438,
429,430,429,430,429,430,429,430,429,430,429,430,429,430,429,677,7001,7002,7002,7002,7003,677,429,430,429,430,429,430,429,430,429,430,429,430,429,430,429,430,421,422,421,422,421,422,
437,438,437,438,437,438,437,438,437,438,437,438,437,438,437,677,7009,7010,7010,7010,7011,677,437,438,437,438,437,438,437,438,437,438,437,438,437,438,437,438,429,430,429,430,429,430,
0,0,0,0,0,0,0,0,0,0,0,0,0,0,0,677,7017,7018,7018,7018,7019,677,0,0,0,0,0,0,0,0,0,0,0,0,0,0,0,0,437,438,437,438,437,438
</data>
 </layer>
 <layer id="4" name="sopra_testa" width="44" height="36">
  <data encoding="csv">
0,0,0,0,0,0,0,0,0,0,0,0,0,0,0,0,0,0,0,0,0,0,0,0,0,0,0,0,0,0,0,0,0,0,0,0,0,0,0,0,0,0,0,0,
0,0,0,0,0,0,0,0,0,0,0,0,0,0,0,0,0,0,0,0,0,0,0,0,0,0,0,0,0,0,0,0,0,0,0,0,0,0,0,0,0,0,0,0,
0,0,0,0,0,0,0,0,0,0,0,0,0,0,0,0,0,0,0,0,0,0,0,0,0,0,0,0,0,0,0,0,0,0,0,0,0,0,0,0,0,0,0,0,
0,0,0,0,0,0,0,0,0,0,0,0,0,0,0,0,0,0,0,0,0,0,0,0,0,0,0,0,0,0,0,0,0,0,0,0,0,0,0,0,0,0,0,0,
0,0,0,0,0,0,0,0,0,0,0,0,0,0,0,0,0,0,0,0,0,0,0,0,0,0,0,0,0,0,0,0,0,0,0,0,0,0,0,0,0,0,0,0,
0,0,0,0,0,0,0,0,0,0,0,0,0,0,0,0,0,0,0,0,0,0,0,0,0,0,0,0,0,0,0,0,0,0,0,0,0,0,0,0,0,0,0,0,
0,0,0,0,0,0,0,0,0,0,0,0,0,0,0,0,0,0,0,0,0,0,0,0,0,0,0,0,0,0,0,0,0,0,0,0,0,0,0,0,0,0,0,0,
0,0,0,0,0,0,0,0,0,0,0,0,0,0,0,0,0,0,0,0,0,0,0,0,0,0,0,0,0,0,0,0,0,0,0,0,0,0,0,0,0,0,0,0,
0,0,0,0,0,0,0,0,0,0,0,0,0,0,0,0,0,0,0,0,0,0,0,0,0,0,0,0,0,0,0,0,0,0,0,0,0,0,0,0,0,0,0,0,
0,0,0,0,0,0,0,0,0,0,0,0,0,0,0,0,0,0,0,0,0,0,0,0,0,0,0,0,0,0,0,0,0,0,0,0,0,0,0,0,0,0,0,0,
0,0,0,0,0,0,0,0,0,0,0,0,0,0,0,0,0,0,0,0,0,0,0,0,0,0,0,0,0,0,0,0,0,0,0,0,0,0,0,0,0,0,0,0,
0,0,0,0,0,0,0,0,0,0,0,0,0,0,0,0,0,0,0,0,0,0,0,0,0,0,0,0,0,0,0,0,0,0,0,0,0,0,0,0,0,0,0,0,
0,0,0,0,0,0,0,0,0,0,0,0,0,0,0,0,0,0,0,0,0,0,0,0,0,0,0,0,0,0,0,0,0,0,0,0,0,0,0,0,0,0,0,0,
0,0,0,0,0,0,0,0,0,0,0,0,0,0,0,0,0,0,0,0,0,0,0,0,0,0,0,0,0,0,0,0,0,0,0,0,0,0,0,0,0,0,0,0,
0,0,0,0,0,0,0,0,0,0,0,0,0,0,0,0,0,0,0,0,0,0,0,0,0,0,0,0,0,0,0,0,0,0,0,0,0,0,0,0,0,0,0,0,
0,0,0,0,0,0,0,0,0,0,0,0,0,0,0,0,0,0,0,0,0,0,0,0,0,0,0,0,0,0,0,0,0,0,0,0,0,0,0,0,0,0,0,0,
0,0,0,0,0,0,0,0,0,0,0,0,0,0,0,0,0,0,0,0,0,0,0,0,0,0,0,0,0,0,0,0,0,0,0,0,0,0,0,0,0,0,0,0,
0,0,0,0,0,0,0,0,0,0,0,0,0,0,0,0,0,0,0,0,0,0,0,0,0,0,0,0,0,0,0,0,0,0,0,0,0,0,0,0,0,0,0,0,
0,0,0,0,0,0,0,0,0,0,0,0,0,0,0,0,0,0,0,0,0,0,0,0,0,0,0,0,0,0,0,0,0,0,0,0,0,0,0,0,0,0,0,0,
0,0,0,0,0,0,0,0,0,0,0,0,0,0,0,0,0,0,0,0,0,0,0,0,0,0,0,0,0,0,0,0,0,0,0,0,0,0,0,0,0,0,0,0,
0,0,0,0,0,0,0,0,0,0,0,0,0,0,0,0,0,0,0,0,0,0,0,0,0,0,0,0,0,0,0,0,0,0,0,0,0,0,0,0,0,0,0,0,
0,0,0,0,0,0,0,0,0,0,0,0,0,0,0,0,0,0,0,0,0,0,0,0,0,0,0,0,0,0,0,0,0,0,0,0,0,0,0,0,0,0,0,0,
0,0,0,0,0,0,0,0,0,0,0,0,0,0,0,0,0,0,0,0,0,0,0,0,0,0,0,0,0,0,0,0,0,0,0,0,0,0,0,0,0,0,0,0,
0,0,0,0,0,0,0,0,0,0,0,0,0,0,0,0,0,0,0,0,0,0,0,0,0,0,0,0,0,0,0,0,0,0,0,0,0,0,0,0,0,0,0,0,
0,0,0,0,0,0,0,0,0,0,0,0,0,0,0,0,0,0,0,0,0,0,0,0,0,0,0,0,0,0,0,0,0,0,0,0,0,0,0,0,0,0,0,0,
0,0,0,0,0,0,0,0,0,0,0,0,0,0,0,0,0,0,0,0,0,0,0,0,0,0,0,0,0,0,0,0,0,0,0,0,0,0,0,0,0,0,0,0,
0,0,0,0,0,0,0,0,0,0,0,0,0,0,0,0,0,0,0,0,0,0,0,0,0,0,0,0,0,0,0,0,0,0,0,0,0,0,0,0,0,0,0,0,
0,0,0,0,0,0,0,0,0,0,0,0,0,0,0,0,0,0,0,0,0,0,0,0,0,0,0,0,0,0,0,0,0,0,0,0,0,0,0,0,0,0,0,0,
0,0,0,0,0,0,0,0,0,0,0,0,0,0,0,0,0,0,0,0,0,0,0,0,0,0,0,0,0,0,0,0,0,0,0,0,0,0,0,0,0,0,0,0,
0,0,0,0,0,0,0,0,0,0,0,0,0,0,0,0,0,0,0,0,0,0,0,0,0,0,0,0,0,0,0,0,0,0,0,0,0,0,0,0,0,0,0,0,
0,0,0,0,0,0,0,0,0,0,0,0,0,0,0,0,0,6915,6916,6917,0,0,0,0,0,0,0,0,0,0,0,0,0,0,0,0,0,0,0,0,0,0,0,0,
0,0,0,0,0,0,0,0,0,0,0,0,0,0,0,0,0,6932,6932,6932,0,0,0,0,0,0,0,0,0,0,0,0,0,0,0,0,0,0,0,0,0,0,0,0,
0,0,0,0,0,0,0,0,0,0,0,0,0,0,0,0,0,0,0,0,0,0,0,0,0,0,0,0,0,0,0,0,0,0,0,0,0,0,0,0,0,0,0,0,
0,0,0,0,0,0,0,0,0,0,0,0,0,0,0,0,0,0,0,0,0,0,0,0,0,0,0,0,0,0,0,0,0,0,0,0,0,0,0,0,0,0,0,0,
0,0,0,0,0,0,0,0,0,0,0,0,0,0,0,0,0,0,0,0,0,0,0,0,0,0,0,0,0,0,0,0,0,0,0,0,0,0,0,0,0,0,0,0,
0,0,0,0,0,0,0,0,0,0,0,0,0,0,0,0,0,0,0,0,0,0,0,0,0,0,0,0,0,0,0,0,0,0,0,0,0,0,0,0,0,0,0,0
</data>
 </layer>
 <objectgroup id="20" name="collisioni">
  <object id="30" x="65.1187" y="-1.11866" width="191.292" height="291.971"/>
  <object id="31" x="66.2373" y="287.497" width="6.71198" height="372.515"/>
  <object id="34" x="221.732" y="303.158" width="60.4078" height="27.9666"/>
  <object id="35" x="57.288" y="670.08" width="387.058" height="61.5265"/>
  <object id="36" x="438.752" y="701.402" width="100.68" height="33.5599"/>
  <object id="37" x="481.262" y="781.946" width="31.3226" height="172.274"/>
  <object id="38" x="61.7627" y="751.742" width="127.528" height="107.392"/>
  <object id="39" x="348.141" y="813.269" width="120.816" height="109.629"/>
  <object id="40" x="700.52" y="653.3" width="481.025" height="145.426"/>
  <object id="41" x="1182.66" y="623.096" width="35.7972" height="32.4413"/>
  <object id="42" x="669.197" y="776.353" width="26.8479" height="181.224"/>
  <object id="43" x="513.703" y="777.403" width="24.6106" height="177.936"/>
  <object id="44" x="515.94" y="657.774" width="27.9666" height="29.0853"/>
  <object id="45" x="670.316" y="655.537" width="23.4919" height="33.5599"/>
  <object id="46" x="701.638" y="811.031" width="514.585" height="115.222"/>
  <object id="47" x="895.167" y="1.11866" width="316.582" height="315.463"/>
  <object id="48" x="251.936" y="29.0853" width="96.2051" height="68.2385"/>
  <object id="49" x="260.885" y="129.765" width="85.0185" height="46.9839"/>
  <object id="50" x="256.41" y="228.207" width="90.6118" height="53.6959"/>
  <object id="53" x="701.638" y="271.835" width="21.2546" height="33.5599"/>
  <object id="54" x="520.415" y="271.835" width="26.8479" height="32.4413"/>
  <object id="55" x="474.55" y="333.362" width="71.5945" height="35.7972"/>
  <object id="56" x="697.164" y="332.243" width="70.4758" height="38.0346"/>
  <object id="57" x="590.229" y="454.11" width="66.8491" height="62.8998"/>
  <object id="58" x="446.583" y="639.876" width="32.4413" height="29.0853"/>
  <object id="59" x="673.672" y="734.962" width="29.0853" height="32.4413"/>
  <object id="60" x="520.132" y="749.629" width="21.5373" height="16.6559"/>
  <object id="65" x="1208.39" y="301.48" width="6.71198" height="372.515"/>
  <object id="66" x="65.1187" y="347.904" width="251.699" height="291.971"/>
  <object id="67" x="897.405" y="313.226" width="327.768" height="338.955"/>
  <object id="70" x="520.697" y="748.454" width="17.3333" height="20.0003">
   <properties>
    <property name="id" value="&quot;univoco&quot;"/>
    <property name="type" value="trigger_taglio"/>
   </properties>
  </object>
  <object id="74" x="682" y="951.333" width="13.3333" height="214"/>
  <object id="75" x="486.667" y="946.667" width="13.3333" height="203.333"/>
  <object id="76" x="1236.67" y="22.6667" width="44.6667" height="108.667"/>
  <object id="77" x="202.667" y="743.333" width="8" height="16"/>
  <object id="78" x="206" y="847.333" width="43.3333" height="86"/>
  <object id="79" x="6" y="944" width="480" height="168.667"/>
  <object id="80" x="717.333" y="942.667" width="536" height="160.667"/>
  <object id="81" x="198.667" y="285.333" width="3.33333" height="65.3333"/>
  <object id="83" x="516" y="975" width="42.5" height="169.5"/>
  <object id="84" x="625.5" y="977.5" width="37" height="168.5"/>
  <object id="85" x="560.5" y="1013.5" width="61.5" height="134"/>
 </objectgroup>
 <objectgroup color="#ff0000" id="6" name="eventi">
  <object id="2" name="cartello" type="cartello" x="671.764" y="736.758" width="32" height="32">
   <properties>
    <property name="testo" value="Benvenuto a Frascati!"/>
    <property name="type" value="cartello"/>
   </properties>
  </object>
  <object id="4" name="warp" type="warp" x="560" y="976.5" width="32" height="32">
   <properties>
    <property name="destinazione" value="percorso_1b"/>
    <property name="spawn_id" value="da_frascati_sud"/>
    <property name="type" value="warp"/>
   </properties>
  </object>
  <object id="5" name="warp" type="warp" x="590" y="976" width="32" height="32">
   <properties>
    <property name="destinazione" value="percorso_1b"/>
    <property name="spawn_id" value="da_frascati_sud"/>
    <property name="type" value="warp"/>
   </properties>
  </object>
  <object id="14" name="spawn" type="spawn" x="578.576" y="934.348" width="32" height="32">
   <properties>
    <property name="id" value="da_percorso_1b"/>
    <property name="type" value="spawn"/>
   </properties>
  </object>
  <object id="16" name="npc" type="npc" x="384" y="256" width="32" height="32">
   <properties>
    <property name="direzione" value="sud"/>
    <property name="id" value="fra_sud_npc1"/>
    <property name="movimento" value="random"/>
    <property name="raggio" type="int" value="3"/>
    <property name="sprite" value="NPC_01"/>
    <property name="type" value="npc"/>
   </properties>
  </object>
  <object id="17" name="npc" type="npc" x="832" y="256" width="32" height="32">
   <properties>
    <property name="direzione" value="ovest"/>
    <property name="id" value="fra_sud_npc2"/>
    <property name="sprite" value="NPC_02"/>
    <property name="type" value="npc"/>
   </properties>
  </object>
  <object id="18" name="npc" type="npc" x="384" y="576" width="32" height="32">
   <properties>
    <property name="direzione" value="est"/>
    <property name="id" value="fra_sud_npc3"/>
    <property name="movimento" value="random"/>
    <property name="raggio" type="int" value="3"/>
    <property name="sprite" value="NPC_03"/>
    <property name="type" value="npc"/>
   </properties>
  </object>
  <object id="19" name="npc" type="npc" x="608" y="384" width="32" height="32">
   <properties>
    <property name="direzione" value="sud"/>
    <property name="id" value="fra_sud_npc4"/>
    <property name="sprite" value="NPC_04"/>
    <property name="type" value="npc"/>
   </properties>
  </object>
  <object id="20" name="fra_sud_potion" type="oggetto" x="285.527" y="192.472" width="32" height="32">
   <properties>
    <property name="contenuto" value="superpozione"/>
    <property name="id" value="fra_sud_potion"/>
    <property name="quantita" type="int" value="1"/>
    <property name="type" value="oggetto"/>
   </properties>
  </object>
  <object id="62" name="cartello" type="cartello" x="445.126" y="639.537" width="32" height="32">
   <properties>
    <property name="testo" value="Scaricate Lime e affitta una bici"/>
    <property name="type" value="cartello"/>
   </properties>
  </object>
  <object id="64" name="cartello" type="cartello" x="222.512" y="302.819" width="59.9666" height="32">
   <properties>
    <property name="testo" value="Ospedale di Frascati, in bocca al lupo!"/>
    <property name="type" value="cartello"/>
   </properties>
  </object>
  <object id="69" name="fra_sud_potion" type="oggetto" x="226.986" y="796.15" width="32" height="32">
   <properties>
    <property name="contenuto" value="rarecandy"/>
    <property name="id" value="fra_sud_potion"/>
    <property name="quantita" type="int" value="1"/>
    <property name="type" value="oggetto"/>
   </properties>
  </object>
  <object id="73" name="taglio frascati sud" type="albero_taglio" x="522" y="750" width="11.3333" height="11.3333">
   <properties>
    <property name="id" value="alb_taglio_frascati sud"/>
    <property name="type" value="albero_taglio"/>
   </properties>
  </object>
 </objectgroup>
</map>
