<?xml version="1.0" encoding="UTF-8"?>
<map version="1.10" tiledversion="1.12.2" orientation="orthogonal" renderorder="right-down" width="40" height="40" tilewidth="32" tileheight="32" infinite="0" nextlayerid="7" nextobjectid="15">
 <tileset firstgid="1" source="../Caves.tsj"/>
 <tileset firstgid="1593" source="../outside.tsx"/>
 <tileset firstgid="5609" source="../../outside.tsx"/>
 <tileset firstgid="9625" source="../Sea.tsj"/>
 <tileset firstgid="9723" source="../../Emerald_Outside.tsx"/>
 <layer id="1" name="ground" width="40" height="40">
  <data encoding="csv">
227,227,227,227,227,227,227,227,227,227,227,227,227,227,227,227,227,227,227,227,227,227,227,227,227,227,227,227,227,227,227,227,227,227,227,227,227,227,227,227,
227,227,227,227,227,227,227,227,227,227,227,227,227,227,227,227,227,227,227,227,227,227,227,227,227,227,227,227,227,227,227,227,227,227,227,227,227,227,227,227,
227,227,227,227,227,227,227,227,227,227,0,227,227,227,227,227,227,227,227,227,227,227,227,227,227,227,227,227,227,227,227,227,227,227,227,227,227,227,227,227,
227,227,227,227,227,227,227,227,227,227,0,227,227,227,227,227,227,227,227,227,227,227,227,227,227,227,227,227,227,227,227,227,227,227,227,227,227,227,227,227,
227,227,227,227,227,227,227,227,227,227,227,227,227,227,227,227,227,227,227,227,227,227,227,227,227,227,227,227,227,227,227,227,227,227,227,227,227,227,227,227,
227,227,227,227,227,227,227,227,227,227,227,227,227,227,227,227,227,227,227,227,227,227,227,227,227,227,227,227,227,227,227,227,227,227,227,227,227,227,227,227,
227,227,227,227,227,227,227,227,227,227,227,227,227,227,227,227,227,227,227,227,227,227,227,227,227,227,227,227,227,227,227,227,227,227,227,227,227,227,227,227,
227,227,227,227,227,227,227,227,227,227,227,227,227,227,227,227,227,227,227,227,227,227,227,227,227,227,227,227,227,227,227,227,227,227,227,227,227,227,227,227,
227,227,227,227,227,227,227,227,227,227,227,227,227,227,227,227,227,227,227,227,227,227,227,227,227,227,227,227,227,227,227,227,227,227,227,227,227,227,227,227,
227,227,227,227,227,227,227,227,227,227,227,227,227,227,227,227,227,227,227,227,227,227,227,227,227,227,227,227,227,227,227,227,227,227,227,227,227,227,227,227,
227,227,227,227,227,227,227,227,227,227,227,227,227,227,227,227,227,227,227,227,227,227,227,227,227,227,227,227,227,227,227,227,227,227,227,227,227,227,227,227,
227,227,227,227,227,227,227,227,227,227,227,227,227,227,227,227,227,227,227,227,227,227,227,227,227,227,227,227,227,227,227,227,227,227,227,227,227,227,227,227,
227,227,227,227,227,227,227,227,227,227,227,227,227,227,227,227,227,227,227,227,227,227,227,227,227,227,227,227,227,227,227,227,227,227,227,227,227,227,227,227,
227,227,227,227,227,227,227,227,227,227,227,227,227,227,227,227,227,227,227,227,227,227,227,227,227,227,227,227,227,227,227,227,227,227,227,227,227,227,227,227,
227,227,227,227,227,227,227,227,227,227,227,227,227,227,227,227,227,227,227,227,227,227,227,227,227,227,227,227,227,227,227,227,227,227,227,227,227,227,227,227,
227,227,227,227,227,227,227,227,227,227,227,227,227,227,227,227,227,227,227,227,227,227,227,227,227,227,227,227,227,227,227,227,227,227,227,227,227,227,227,227,
227,227,227,227,227,227,227,227,227,227,227,227,227,227,227,227,227,227,227,227,227,227,227,227,227,227,227,227,227,227,227,227,227,227,227,227,227,227,227,227,
227,227,227,227,227,227,227,227,227,227,227,227,227,227,227,227,227,227,227,227,227,227,227,227,227,227,227,227,227,227,227,227,227,227,227,227,227,227,227,227,
227,227,227,227,227,227,227,227,227,227,227,227,227,227,227,227,227,227,227,227,227,227,227,227,227,227,227,227,227,227,227,227,227,227,227,227,227,227,227,227,
227,227,227,227,227,227,227,227,227,227,227,227,227,227,227,227,227,227,227,227,227,227,227,227,227,227,227,227,227,227,227,227,227,227,227,227,227,227,227,227,
227,227,227,227,227,227,227,227,227,227,227,227,227,227,227,227,227,227,227,227,227,227,227,227,227,227,227,227,227,227,227,227,227,227,227,227,227,227,227,227,
227,227,227,227,227,227,227,227,227,227,227,227,227,227,227,227,227,227,227,227,227,227,227,227,227,227,227,227,227,227,227,227,227,227,227,227,227,227,227,227,
227,227,227,227,227,227,227,227,227,227,227,227,227,227,227,227,227,227,227,227,227,227,227,227,227,227,227,227,227,227,227,227,227,227,227,227,227,227,227,227,
227,227,227,227,227,227,227,227,227,227,227,227,227,227,227,227,227,227,227,227,227,227,227,227,227,227,227,227,227,227,227,227,227,227,227,227,227,227,227,227,
227,227,227,227,227,227,227,227,227,227,227,227,227,227,227,227,227,227,227,227,227,227,227,227,227,227,227,227,227,227,227,227,227,227,227,227,227,227,227,227,
227,227,227,227,227,227,227,227,227,227,227,227,227,227,227,227,227,227,227,227,227,227,227,227,227,227,227,227,227,227,227,227,227,227,227,227,227,227,227,227,
227,227,227,227,227,227,227,227,227,227,227,227,227,227,227,227,227,227,227,227,227,227,227,227,227,227,227,227,227,227,227,227,227,227,227,227,227,227,227,227,
227,227,227,227,227,227,227,227,227,227,227,227,227,227,227,227,227,227,227,227,227,227,227,227,227,227,227,227,227,227,227,227,227,227,227,227,227,227,227,227,
227,227,227,227,227,227,227,227,227,227,227,227,227,227,227,227,227,227,227,227,227,227,227,227,227,227,227,227,227,227,227,227,227,227,227,227,227,227,227,227,
227,227,227,227,227,227,227,227,227,227,227,227,227,227,227,227,227,227,227,227,227,227,227,227,227,227,227,227,227,227,227,227,227,227,227,227,227,227,227,227,
227,227,227,227,227,227,227,227,227,227,227,227,227,227,227,227,227,227,227,227,227,227,227,227,227,227,227,227,227,227,227,227,227,227,227,227,227,227,227,227,
227,227,227,227,227,227,227,227,227,227,227,227,227,227,227,227,227,227,227,227,227,227,227,227,227,227,227,227,227,227,227,227,227,227,227,227,227,227,227,227,
227,227,227,227,227,227,227,227,227,227,227,227,227,227,227,227,227,227,227,227,227,227,227,227,227,227,227,227,227,227,227,227,227,227,227,227,227,227,227,227,
227,227,227,227,227,227,227,227,227,227,227,227,227,227,227,227,227,227,227,227,227,227,227,227,227,227,227,227,227,227,227,227,227,227,227,227,227,227,227,227,
227,227,227,227,227,227,227,227,227,227,227,227,227,227,227,227,227,227,227,227,227,227,227,227,227,227,227,227,227,227,227,227,227,227,227,227,227,227,227,227,
227,227,227,227,227,227,227,227,227,227,227,227,227,227,227,227,227,227,227,227,227,227,227,227,227,227,227,227,227,227,227,227,227,227,227,227,227,227,227,227,
227,227,227,227,227,227,227,227,227,227,227,227,227,227,227,227,227,227,227,227,227,227,227,227,227,227,227,227,227,227,227,227,227,227,227,227,227,227,227,227,
227,227,227,227,227,227,227,227,227,227,227,227,227,227,227,227,227,227,227,227,227,227,227,227,227,227,227,227,227,227,227,227,227,227,227,227,227,227,227,227,
227,227,227,227,227,227,227,227,227,227,227,227,227,227,227,227,227,227,227,227,227,227,227,227,227,227,227,227,227,227,227,227,227,227,227,227,227,227,227,227,
227,227,227,227,227,227,227,227,227,227,227,227,227,227,227,227,227,227,227,227,227,227,227,227,227,227,227,227,227,227,227,227,227,227,227,227,227,227,227,227
</data>
 </layer>
 <layer id="3" name="deco_sotto" width="40" height="40">
  <data encoding="csv">
138,138,138,138,138,138,138,138,138,138,138,138,138,138,138,138,138,139,131,131,131,174,129,129,129,138,138,138,138,138,138,138,138,138,138,138,138,138,138,138,
127,138,138,138,138,138,138,138,138,138,138,138,138,138,138,138,138,138,139,131,131,174,129,129,137,138,138,138,138,138,138,138,138,138,138,138,138,138,138,138,
131,127,138,138,138,138,138,138,138,138,141,138,138,138,138,138,138,138,138,139,131,0,129,137,138,138,138,138,138,138,138,138,138,138,138,138,138,138,138,138,
131,131,127,138,138,138,138,138,138,138,149,138,138,138,138,138,138,138,138,138,139,0,137,138,138,138,138,138,138,138,138,138,138,138,138,138,138,138,138,138,
131,131,131,0,0,0,0,0,0,0,0,0,0,0,0,0,0,0,0,0,0,0,0,0,0,0,0,0,0,0,0,0,0,0,0,0,0,121,219,219,
131,131,131,0,0,0,0,0,0,0,0,0,0,0,0,0,0,0,0,0,0,0,0,0,0,0,0,0,0,0,0,0,0,0,0,0,0,129,121,219,
131,131,131,0,0,0,0,0,0,0,0,0,0,0,0,0,0,0,0,0,0,0,0,0,0,0,0,0,0,0,0,0,0,0,0,0,0,129,129,121,
131,131,131,0,0,0,0,0,0,0,0,0,0,0,0,0,0,0,0,0,0,0,0,0,0,0,0,0,0,0,0,0,0,0,0,0,0,129,129,129,
131,131,131,0,0,0,0,0,0,0,0,0,0,0,0,0,0,0,0,0,0,0,0,0,0,0,0,0,0,0,0,0,0,0,0,0,0,129,129,129,
131,131,131,0,0,0,0,0,0,0,0,0,0,0,0,0,0,0,0,0,0,0,0,0,0,0,0,0,0,0,0,0,0,0,0,0,0,129,129,129,
131,131,131,0,0,0,0,0,0,0,0,0,0,0,0,0,0,0,0,0,0,0,0,0,0,0,0,0,0,0,0,0,0,0,0,0,0,129,129,129,
131,131,131,0,0,0,0,0,0,0,0,0,0,0,0,0,0,0,0,0,0,0,0,0,0,0,0,0,0,0,0,0,0,0,0,0,0,129,129,129,
131,131,131,0,0,0,0,0,0,0,0,0,0,0,0,0,0,0,0,0,0,0,0,0,0,0,0,0,0,0,0,0,0,0,0,0,0,129,129,129,
131,131,131,0,0,0,0,0,0,0,0,0,0,0,9649,9650,9650,9650,9650,9650,9650,9650,9650,9650,9650,9650,9650,9650,9651,0,0,0,0,0,0,0,0,129,129,129,
131,131,131,0,0,0,0,0,0,0,0,0,0,0,9673,9677,9677,9677,9677,9677,9674,9674,9674,9677,9677,9677,9677,9677,9675,0,0,0,0,0,0,0,0,129,129,129,
131,131,131,0,0,0,0,0,0,0,0,0,0,0,9673,9677,9677,9677,9677,10092,10092,10092,10092,10092,9677,9677,9677,9677,9675,0,0,0,0,0,0,0,0,129,129,129,
131,131,131,0,0,0,0,0,0,0,0,0,0,0,9673,9677,9677,9677,9677,10092,10092,10092,10092,10092,9677,9677,9677,9677,9675,0,0,0,0,0,0,0,0,129,129,129,
131,131,131,0,0,0,0,0,0,0,0,0,0,0,9673,9677,9677,9677,9677,9677,9677,9677,9677,9677,9677,9677,9677,9677,9675,0,0,0,0,0,0,0,0,129,129,129,
131,131,131,0,0,0,0,0,0,0,0,0,0,0,9673,9677,9677,9677,169,170,170,170,170,170,171,9677,9677,9677,9675,0,0,0,0,0,0,0,0,129,129,129,
131,131,131,0,0,0,0,0,0,0,0,0,0,0,9673,9677,9677,9677,177,178,178,178,178,178,179,9677,9677,9677,9675,0,0,0,0,0,0,0,0,129,129,129,
131,131,131,0,0,0,0,0,0,0,0,0,0,0,9673,9677,9677,9677,177,178,178,178,178,178,179,9677,9677,9677,9675,0,0,0,0,0,0,0,0,129,129,129,
131,131,131,0,0,0,0,0,0,0,0,0,0,0,9673,9677,9677,9677,177,178,178,178,178,178,179,9677,9677,9677,9675,0,0,0,0,0,0,0,0,129,129,129,
131,131,131,0,0,0,0,0,0,0,0,0,0,0,9673,9677,9677,9677,177,178,178,178,178,178,179,9677,9677,9677,9675,0,0,0,0,0,0,0,0,129,129,129,
131,131,131,0,0,0,0,0,0,0,0,0,0,0,9673,9677,9677,9677,185,173,172,186,186,186,187,9677,9677,9677,9675,0,0,0,0,0,0,0,0,129,129,129,
131,131,131,0,0,0,0,0,0,0,0,0,0,0,9673,9677,9677,9677,9677,177,179,82,9677,9677,9677,9677,9677,9677,9675,0,0,0,0,0,0,0,0,129,129,129,
131,131,131,0,0,0,0,0,0,0,0,0,0,0,9673,9677,9677,9677,9677,177,179,82,9677,9677,9677,9677,9677,9677,9675,0,0,0,0,0,0,0,0,129,129,129,
131,131,131,0,0,0,0,0,0,0,0,0,0,0,9673,9677,9677,9677,9677,177,179,82,9677,9677,9677,9677,9677,9677,9675,0,0,0,0,0,0,0,0,129,129,129,
131,131,131,0,0,0,0,0,0,0,0,0,0,0,9673,9677,9677,9677,9677,177,179,82,9677,9677,9677,9677,9677,9677,9675,0,0,0,0,0,0,0,0,129,129,129,
131,131,131,0,0,0,0,0,0,0,0,0,0,0,9673,9677,9677,9677,9677,177,179,82,9677,9677,9677,9677,9677,9677,9675,0,0,0,0,0,0,0,0,129,129,129,
131,131,131,0,0,0,0,0,0,0,0,0,0,0,9673,9677,9677,9677,9677,177,179,82,9677,9677,9677,9677,9677,9677,9675,0,0,0,0,0,0,0,0,129,129,129,
131,131,131,121,122,122,122,122,122,122,122,122,123,174,0,0,0,0,0,0,0,0,0,0,0,0,0,0,0,0,0,0,0,0,0,0,0,129,129,129,
131,131,131,129,130,130,130,130,130,130,130,130,131,0,0,0,0,0,0,0,0,0,0,0,0,0,0,0,0,0,0,0,0,0,0,0,0,129,129,129,
131,131,131,137,138,138,138,138,138,138,138,138,139,0,0,0,0,0,0,0,0,0,0,0,0,0,0,0,0,0,0,0,0,0,0,0,0,129,129,129,
131,131,131,0,0,0,0,0,0,0,0,0,0,0,0,0,0,0,0,0,0,0,0,0,0,0,0,0,0,0,0,0,0,0,0,0,0,129,129,129,
131,131,131,0,0,0,0,0,0,0,0,0,0,0,0,0,0,0,0,0,0,0,0,0,0,0,0,0,0,0,0,0,0,0,0,0,0,129,129,129,
131,131,131,0,0,0,0,0,0,0,0,0,0,0,0,0,0,0,0,0,0,0,0,0,0,0,0,0,0,0,0,0,0,0,0,0,0,129,129,129,
131,131,131,0,0,0,0,0,0,0,0,0,0,0,0,0,0,0,0,0,0,0,0,0,0,0,0,0,0,0,0,0,0,0,0,0,0,129,129,129,
131,131,219,219,219,219,219,219,219,219,219,219,219,219,219,219,219,219,219,219,219,219,219,219,219,219,219,219,219,219,219,219,219,219,219,219,219,219,129,129,
131,219,219,219,219,219,219,219,219,219,219,219,219,219,219,219,219,219,219,219,219,219,219,219,219,219,219,219,219,219,219,219,219,219,219,219,219,219,219,129,
219,219,219,219,219,219,219,219,219,219,219,219,219,219,219,219,219,219,219,219,219,219,219,219,219,219,219,219,219,219,219,219,219,219,219,219,219,219,219,219
</data>
 </layer>
 <layer id="4" name="edifici" width="40" height="40">
  <data encoding="csv">
0,0,0,0,0,0,0,0,0,0,0,0,0,0,0,0,0,0,0,0,0,0,0,0,0,0,0,0,0,0,0,0,0,0,0,0,0,0,0,0,
0,0,0,0,0,0,0,0,0,0,0,0,0,0,0,0,0,0,0,0,0,0,0,0,0,0,0,0,0,0,0,0,0,0,0,0,0,0,0,0,
0,0,0,0,0,0,0,0,0,0,0,0,0,0,0,0,0,0,0,0,0,0,0,0,0,0,0,0,0,0,0,0,0,0,0,0,0,0,0,0,
0,0,0,0,0,143,144,0,0,0,0,0,0,0,0,143,144,0,0,0,0,0,0,0,0,0,0,0,0,0,0,0,0,0,143,144,0,0,0,0,
0,0,0,0,0,151,152,0,0,0,0,0,0,0,0,151,152,0,0,0,0,0,0,0,0,0,0,0,0,0,0,0,0,0,151,152,0,0,0,0,
0,0,0,0,0,159,160,0,0,0,0,0,0,0,0,159,160,0,0,0,0,0,0,0,0,0,0,0,0,0,0,0,0,0,159,160,0,0,0,0,
0,0,0,0,0,167,168,0,0,0,0,0,0,0,0,167,168,0,0,0,0,0,0,0,0,0,0,121,122,123,0,0,0,0,167,168,0,0,0,0,
0,0,0,0,0,0,0,0,0,0,0,0,0,0,0,0,0,0,0,0,0,0,0,0,0,0,0,129,130,131,0,0,0,0,0,0,0,0,0,0,
0,0,0,0,0,0,0,0,0,0,0,0,0,0,0,0,0,0,0,0,0,0,0,0,0,0,0,137,138,139,0,0,0,0,0,0,0,0,0,0,
0,0,0,0,0,0,0,0,0,0,0,0,0,0,0,0,0,0,0,0,0,0,0,0,0,0,0,0,0,0,0,0,0,0,0,0,0,0,0,0,
0,0,0,0,0,0,0,0,0,0,0,0,0,0,0,0,0,0,0,0,0,0,0,0,0,0,0,0,0,0,0,0,0,0,0,0,0,0,0,0,
0,0,0,0,121,122,122,123,0,0,0,0,0,0,0,0,0,0,0,0,0,0,0,0,0,0,0,0,0,0,0,0,121,122,122,123,0,0,0,0,
0,0,0,0,129,130,130,131,0,0,0,0,0,0,0,0,0,0,0,0,0,0,0,0,0,0,0,0,0,0,0,0,129,130,130,131,0,0,0,0,
0,0,0,0,137,143,144,139,0,0,0,0,0,0,0,0,6432,6432,6432,6432,6432,6432,6432,6432,6432,6432,6432,0,0,0,0,0,137,143,144,139,0,0,0,0,
0,0,0,0,0,151,152,0,0,0,0,0,0,0,0,6432,0,0,0,0,0,0,0,0,0,0,6432,0,0,0,0,0,0,151,152,0,0,0,0,0,
0,0,0,0,0,159,160,0,0,0,0,0,0,0,0,6432,0,0,0,0,0,0,0,0,0,0,182,0,0,0,0,0,0,159,160,0,0,0,0,0,
0,0,0,0,0,167,168,0,0,0,0,0,0,0,0,182,0,0,0,0,0,0,0,0,0,0,182,0,0,0,0,0,0,167,168,0,0,0,0,0,
0,0,0,0,0,0,0,0,0,0,0,0,0,0,0,0,182,0,0,0,0,0,0,0,0,0,182,182,0,0,0,0,0,0,0,0,0,0,0,0,
0,0,0,0,0,0,0,0,0,0,0,0,0,0,0,0,182,0,0,0,0,0,0,2541,0,0,0,182,0,0,0,0,0,0,0,0,0,0,0,0,
0,0,0,0,0,0,0,0,0,0,0,0,0,0,0,182,0,0,0,0,0,0,0,0,0,0,0,182,0,0,0,0,0,0,0,0,0,0,0,0,
0,0,0,0,0,0,0,0,0,0,0,0,0,0,0,0,182,0,0,0,0,0,0,0,0,0,0,182,0,0,0,0,0,0,0,0,0,0,0,0,
0,0,0,0,0,0,0,0,0,0,0,0,0,0,0,182,0,0,0,0,0,0,0,0,0,0,182,182,0,0,0,0,0,0,0,0,0,0,0,0,
0,0,0,0,0,0,0,0,0,0,121,122,123,0,0,0,182,0,0,0,0,0,0,0,0,0,182,0,0,0,0,0,0,0,0,0,0,0,0,0,
0,0,0,0,121,122,123,0,0,0,129,130,131,0,0,0,182,0,0,0,178,172,0,0,0,0,182,0,0,0,0,0,0,0,0,0,0,0,0,0,
0,0,0,0,129,130,131,0,0,0,137,138,139,0,0,182,0,0,0,0,178,179,0,0,0,0,182,0,0,0,0,0,0,0,0,0,0,0,0,0,
0,0,0,0,137,138,139,0,0,0,0,0,0,0,0,0,182,0,0,0,178,179,0,0,182,182,182,0,0,0,0,0,0,0,0,0,0,0,0,0,
0,0,0,0,0,0,0,0,0,0,0,0,0,0,0,182,0,0,0,0,178,179,0,0,182,0,0,0,0,0,0,0,0,0,0,0,0,0,0,0,
0,0,0,0,0,0,0,0,0,0,0,0,0,0,0,0,182,0,0,0,178,179,0,182,182,0,0,0,0,0,0,0,0,0,0,0,0,0,0,0,
0,0,0,0,0,0,0,0,0,0,0,0,0,0,0,182,0,0,0,0,178,179,0,182,0,0,0,0,0,0,0,0,0,0,0,0,0,0,0,0,
0,0,0,0,0,0,0,0,0,0,0,0,0,0,0,0,0,0,0,0,178,179,0,182,0,0,0,0,0,0,0,0,0,0,0,0,0,0,0,0,
0,0,0,0,0,0,0,0,0,0,0,0,0,0,0,0,0,0,0,0,0,0,0,0,0,0,0,0,0,0,0,0,0,0,0,0,0,0,0,0,
0,0,0,0,0,0,0,0,0,0,0,0,0,0,0,0,0,0,0,0,0,0,0,0,0,0,0,0,0,0,0,0,0,0,0,0,0,0,0,0,
0,0,0,0,0,0,0,0,143,144,0,0,0,0,0,121,122,123,0,0,0,0,0,0,0,0,0,0,0,0,0,0,0,121,122,122,123,0,0,0,
0,0,0,0,0,0,0,0,151,152,0,0,0,0,0,129,130,131,0,0,0,0,0,0,0,0,0,0,0,0,0,0,0,129,130,130,131,0,0,0,
0,0,0,0,0,0,0,0,159,160,0,0,0,0,0,137,138,139,0,0,0,0,0,0,0,0,0,0,0,0,0,0,0,137,138,138,139,0,0,0,
0,0,0,0,0,0,0,0,167,168,0,0,0,0,0,0,0,0,0,0,0,0,0,0,0,0,0,0,0,0,0,0,0,0,0,0,0,0,0,0,
0,0,0,0,0,0,0,0,0,0,0,0,0,0,0,0,0,0,0,0,0,0,0,0,0,0,0,0,0,0,0,0,0,0,0,0,0,0,0,0,
0,0,0,0,0,0,0,0,0,0,0,0,0,0,0,0,0,0,0,0,0,0,0,0,0,0,0,0,0,0,0,0,0,0,0,0,0,0,0,0,
0,0,0,0,0,0,0,0,0,0,0,0,0,0,0,0,0,0,0,0,0,0,0,0,0,0,0,0,0,0,0,0,0,0,0,0,0,0,0,0,
0,0,0,0,0,0,0,0,0,0,0,0,0,0,0,0,0,0,0,0,0,0,0,0,0,0,0,0,0,0,0,0,0,0,0,0,0,0,0,0
</data>
 </layer>
 <layer id="6" name="sopra_testa" width="40" height="40">
  <data encoding="csv">
0,0,0,0,0,0,0,0,0,0,0,0,0,0,0,0,0,0,0,0,0,0,0,0,0,0,0,0,0,0,0,0,0,0,0,0,0,0,0,0,
0,0,0,0,0,0,0,0,0,0,0,0,0,0,0,0,0,0,0,0,0,0,0,0,0,0,0,0,0,0,0,0,0,0,0,0,0,0,0,0,
0,0,0,0,0,0,0,0,0,0,0,0,0,0,0,0,0,0,0,0,0,0,0,0,0,0,0,0,0,0,0,0,0,0,0,0,0,0,0,0,
0,0,0,0,0,0,0,0,0,0,0,0,0,0,0,0,0,0,0,0,0,0,0,0,0,0,0,0,0,0,0,0,0,0,0,0,0,0,0,0,
0,0,0,0,0,0,0,0,0,0,0,0,0,0,0,0,0,0,0,0,0,0,0,0,0,0,0,0,0,0,0,0,0,0,0,0,0,0,0,0,
0,0,0,0,0,0,0,0,0,0,0,0,0,0,0,0,0,0,0,0,0,0,0,0,0,0,0,0,0,0,0,0,0,0,0,0,0,0,0,0,
0,0,0,0,0,0,0,0,0,0,0,0,0,0,0,0,0,0,0,0,0,0,0,0,0,0,0,0,0,0,0,0,0,0,0,0,0,0,0,0,
0,0,0,0,0,0,0,0,0,0,0,0,0,0,0,0,0,0,0,0,0,0,0,0,0,0,0,0,0,0,0,0,0,0,0,0,0,0,0,0,
0,0,0,0,0,0,0,0,0,0,0,0,0,0,0,0,0,0,0,0,0,0,0,0,0,0,0,0,0,0,0,0,0,0,0,0,0,0,0,0,
0,0,0,0,0,0,0,0,0,0,0,0,0,0,0,0,0,0,0,0,0,0,0,0,0,0,0,0,0,0,0,0,0,0,0,0,0,0,0,0,
0,0,0,0,0,0,0,0,0,0,0,0,0,0,0,0,0,0,0,0,0,0,0,0,0,0,0,0,0,0,0,0,0,0,0,0,0,0,0,0,
0,0,0,0,0,0,0,0,0,0,0,0,0,0,0,0,0,0,0,0,0,0,0,0,0,0,0,0,0,0,0,0,0,0,0,0,0,0,0,0,
0,0,0,0,0,0,0,0,0,0,0,0,0,0,0,0,0,0,0,0,0,0,0,0,0,0,0,0,0,0,0,0,0,0,0,0,0,0,0,0,
0,0,0,0,0,0,0,0,0,0,0,0,0,0,0,0,0,0,0,0,0,0,0,0,0,0,0,0,0,0,0,0,0,0,0,0,0,0,0,0,
0,0,0,0,0,0,0,0,0,0,0,0,0,0,0,0,0,0,0,0,0,0,0,0,0,0,0,0,0,0,0,0,0,0,0,0,0,0,0,0,
0,0,0,0,0,0,0,0,0,0,0,0,0,0,0,0,0,0,0,0,0,0,0,0,0,0,0,0,0,0,0,0,0,0,0,0,0,0,0,0,
0,0,0,0,0,0,0,0,0,0,0,0,0,0,0,0,0,0,0,0,0,0,0,0,0,0,0,0,0,0,0,0,0,0,0,0,0,0,0,0,
0,0,0,0,0,0,0,0,0,0,0,0,0,0,0,0,0,0,0,0,0,0,0,0,0,0,0,0,0,0,0,0,0,0,0,0,0,0,0,0,
0,0,0,0,0,0,0,0,0,0,0,0,0,0,0,0,0,0,0,0,0,0,0,0,0,0,0,0,0,0,0,0,0,0,0,0,0,0,0,0,
0,0,0,0,0,0,0,0,0,0,0,0,0,0,0,0,0,0,0,0,0,0,0,0,0,0,0,0,0,0,0,0,0,0,0,0,0,0,0,0,
0,0,0,0,0,0,0,0,0,0,0,0,0,0,0,0,0,0,0,0,0,0,0,0,0,0,0,0,0,0,0,0,0,0,0,0,0,0,0,0,
0,0,0,0,0,0,0,0,0,0,0,0,0,0,0,0,0,0,0,0,0,0,0,0,0,0,0,0,0,0,0,0,0,0,0,0,0,0,0,0,
0,0,0,0,0,0,0,0,0,0,0,0,0,0,0,0,0,0,0,0,0,0,0,0,0,0,0,0,0,0,0,0,0,0,0,0,0,0,0,0,
0,0,0,0,0,0,0,0,0,0,0,0,0,0,0,0,0,0,0,0,0,0,0,0,0,0,0,0,0,0,0,0,0,0,0,0,0,0,0,0,
0,0,0,0,0,0,0,0,0,0,0,0,0,0,0,0,0,0,0,0,0,0,0,0,0,0,0,0,0,0,0,0,0,0,0,0,0,0,0,0,
0,0,0,0,0,0,0,0,0,0,0,0,0,0,0,0,0,0,0,0,0,0,0,0,0,0,0,0,0,0,0,0,0,0,0,0,0,0,0,0,
0,0,0,0,0,0,0,0,0,0,0,0,0,0,0,0,0,0,0,0,0,0,0,0,0,0,0,0,0,0,0,0,0,0,0,0,0,0,0,0,
0,0,0,0,0,0,0,0,0,0,0,0,0,0,0,0,0,0,0,0,0,0,0,0,0,0,0,0,0,0,0,0,0,0,0,0,0,0,0,0,
0,0,0,0,0,0,0,0,0,0,0,0,0,0,0,0,0,0,0,0,0,0,0,0,0,0,0,0,0,0,0,0,0,0,0,0,0,0,0,0,
0,0,0,0,0,0,0,0,0,0,0,0,0,0,0,0,0,0,0,0,0,0,0,0,0,0,0,0,0,0,0,0,0,0,0,0,0,0,0,0,
0,0,0,0,0,0,0,0,0,0,0,0,0,0,0,0,0,0,0,0,0,0,0,0,0,0,0,0,0,0,0,0,0,0,0,0,0,0,0,0,
0,0,0,0,0,0,0,0,0,0,0,0,0,0,0,0,0,0,0,0,0,0,0,0,0,0,0,0,0,0,0,0,0,0,0,0,0,0,0,0,
0,0,0,0,0,0,0,0,0,0,0,0,0,0,0,0,0,0,0,0,0,0,0,0,0,0,0,0,0,0,0,0,0,0,0,0,0,0,0,0,
0,0,0,0,0,0,0,0,0,0,0,0,0,0,0,0,0,0,0,0,0,0,0,0,0,0,0,0,0,0,0,0,0,0,0,0,0,0,0,0,
0,0,0,0,0,0,0,0,0,0,0,0,0,0,0,0,0,0,0,0,0,0,0,0,0,0,0,0,0,0,0,0,0,0,0,0,0,0,0,0,
0,0,0,0,0,0,0,0,0,0,0,0,0,0,0,0,0,0,0,0,0,0,0,0,0,0,0,0,0,0,0,0,0,0,0,0,0,0,0,0,
0,0,0,0,0,0,0,0,0,0,0,0,0,0,0,0,0,0,0,0,0,0,0,0,0,0,0,0,0,0,0,0,0,0,0,0,0,0,0,0,
0,0,0,0,0,0,0,0,0,0,0,0,0,0,0,0,0,0,0,0,0,0,0,0,0,0,0,0,0,0,0,0,0,0,0,0,0,0,0,0,
0,0,0,0,0,0,0,0,0,0,0,0,0,0,0,0,0,0,0,0,0,0,0,0,0,0,0,0,0,0,0,0,0,0,0,0,0,0,0,0,
0,0,0,0,0,0,0,0,0,0,0,0,0,0,0,0,0,0,0,0,0,0,0,0,0,0,0,0,0,0,0,0,0,0,0,0,0,0,0,0
</data>
 </layer>
 <objectgroup id="2" name="collisioni"/>
 <objectgroup id="5" name="eventi">
  <object id="1" name="spawn_da_1f" type="spawn" x="335.294" y="174.901">
   <properties>
    <property name="id" value="da_1f"/>
   </properties>
   <point/>
  </object>
  <object id="2" name="uscita_1f" type="warp" x="337.294" y="102.568">
   <properties>
    <property name="destinazione" value="gdf_marino_1f"/>
    <property name="spawn_id" value="da_2f_b"/>
   </properties>
   <point/>
  </object>
  <object id="3" name="acqua_surf_2fb" type="acqua_surf" x="448" y="416" width="480" height="544"/>
  <object id="4" name="punto_immersione_2fb" type="acqua_sub" x="610.667" y="480.333" width="157.333" height="63.6667">
   <properties>
    <property name="destinazione" value="lago_albano_profondo"/>
    <property name="spawn_id" value="da_sub_marino"/>
   </properties>
  </object>
  <object id="5" name="gdf_grunt_marino_2fb_1" type="trainer" x="672" y="1024">
   <properties>
    <property name="direzione" value="nord"/>
    <property name="id" value="gdf_grunt_marino_2fb_1"/>
    <property name="vista" value="5"/>
   </properties>
   <point/>
  </object>
  <object id="6" name="gdf_capo_marino" type="trainer" x="672" y="640">
   <properties>
    <property name="direzione" value="sud"/>
    <property name="id" value="gdf_capo_marino"/>
   </properties>
   <point/>
  </object>
  <object id="7" name="oggetto" type="oggetto" x="749.333" y="598.667">
   <properties>
    <property name="contenuto" value="MT_24_FULMINE"/>
    <property name="id" value="gdf_marino_2fb_item"/>
    <property name="quantita" value="1"/>
   </properties>
   <point/>
  </object>
  <object id="8" name="gdf_grunt_marino_2fb_1" type="trainer" x="312" y="273">
   <properties>
    <property name="direzione" value="nord"/>
    <property name="id" value="gdf_grunt_marino_2fb_1"/>
    <property name="vista" value="5"/>
   </properties>
   <point/>
  </object>
  <object id="9" name="gdf_grunt_marino_2fb_1" type="trainer" x="478" y="269">
   <properties>
    <property name="direzione" value="nord"/>
    <property name="id" value="gdf_grunt_marino_2fb_1"/>
    <property name="vista" value="5"/>
   </properties>
   <point/>
  </object>
  <object id="10" name="gdf_grunt_marino_2fb_1" type="trainer" x="725" y="271">
   <properties>
    <property name="direzione" value="nord"/>
    <property name="id" value="gdf_grunt_marino_2fb_1"/>
    <property name="vista" value="5"/>
   </properties>
   <point/>
  </object>
  <object id="11" name="gdf_grunt_marino_2fb_1" type="trainer" x="959" y="368">
   <properties>
    <property name="direzione" value="nord"/>
    <property name="id" value="gdf_grunt_marino_2fb_1"/>
    <property name="vista" value="5"/>
   </properties>
   <point/>
  </object>
  <object id="12" name="gdf_grunt_marino_2fb_1" type="trainer" x="1040" y="611">
   <properties>
    <property name="direzione" value="nord"/>
    <property name="id" value="gdf_grunt_marino_2fb_1"/>
    <property name="vista" value="5"/>
   </properties>
   <point/>
  </object>
  <object id="13" name="gdf_grunt_marino_2fb_1" type="trainer" x="1079" y="808">
   <properties>
    <property name="direzione" value="nord"/>
    <property name="id" value="gdf_grunt_marino_2fb_1"/>
    <property name="vista" value="5"/>
   </properties>
   <point/>
  </object>
  <object id="14" name="gdf_grunt_marino_2fb_1" type="trainer" x="915" y="1142">
   <properties>
    <property name="direzione" value="nord"/>
    <property name="id" value="gdf_grunt_marino_2fb_1"/>
    <property name="vista" value="5"/>
   </properties>
   <point/>
  </object>
 </objectgroup>
</map>
