<?xml version="1.0" encoding="UTF-8"?>
<map version="1.10" tiledversion="1.12.2" orientation="orthogonal" renderorder="right-down" width="40" height="40" tilewidth="32" tileheight="32" infinite="0" nextlayerid="7" nextobjectid="30">
 <tileset firstgid="1" source="../Caves.tsj"/>
 <tileset firstgid="1593" source="../outside.tsx"/>
 <layer id="1" name="ground" width="40" height="40">
  <data encoding="csv">
227,227,227,227,227,227,227,227,227,227,227,227,227,227,227,227,227,227,227,227,227,227,227,227,227,227,227,227,227,227,227,227,227,227,227,227,227,227,227,227,
227,227,227,227,227,227,227,227,227,227,227,227,227,227,227,227,227,227,227,227,227,227,227,227,227,227,227,227,227,227,227,227,227,227,227,227,227,227,227,227,
227,227,227,227,227,227,227,227,227,227,227,227,227,227,227,227,227,227,227,227,227,227,227,227,227,227,227,227,227,227,227,227,227,227,227,227,227,227,227,227,
227,227,227,227,227,227,227,227,227,227,227,227,227,227,227,227,227,227,227,227,227,227,227,227,227,227,227,227,227,227,227,227,227,227,227,227,227,227,227,227,
227,227,227,227,227,227,227,227,227,227,227,227,227,227,227,227,227,227,227,227,227,227,227,227,227,227,227,227,227,227,227,227,227,227,227,227,227,227,227,227,
227,227,227,227,227,227,227,227,227,227,227,227,227,227,227,227,227,227,227,227,227,227,227,227,227,227,227,227,227,227,227,227,227,227,227,227,227,227,227,227,
227,227,227,227,227,227,227,227,227,227,227,227,227,227,227,227,227,227,227,227,227,227,227,227,227,227,227,227,227,227,227,227,227,227,227,227,227,227,227,227,
227,227,227,227,227,227,227,227,227,227,227,227,227,227,227,227,227,227,227,227,227,227,227,227,227,227,227,227,227,227,227,227,227,227,227,227,227,227,227,227,
227,227,227,227,227,227,227,227,227,227,227,227,227,227,227,227,227,227,227,227,227,227,227,227,227,227,227,227,227,227,227,227,227,227,227,227,227,227,227,227,
227,227,227,227,227,227,227,227,227,227,227,227,227,227,227,227,227,227,227,227,227,227,227,227,227,227,227,227,227,227,227,227,227,227,227,227,227,227,227,227,
227,227,227,227,227,227,227,227,227,227,227,227,227,227,227,227,227,227,227,227,227,227,227,227,227,227,227,227,227,227,227,227,227,227,227,227,227,227,227,227,
227,227,227,227,227,227,227,227,227,227,227,227,227,227,227,227,227,227,227,227,227,227,227,227,227,227,227,227,227,227,227,227,227,227,227,227,227,227,227,227,
227,227,227,227,227,227,227,227,227,227,227,227,227,227,227,227,227,227,227,227,227,227,227,227,227,227,227,159,160,227,227,227,227,227,227,227,227,227,227,227,
227,227,227,227,227,227,227,227,227,227,227,227,227,227,227,227,227,227,227,227,227,227,227,227,227,227,227,167,168,227,227,227,227,227,227,227,227,227,227,227,
227,227,227,227,227,227,227,227,227,227,227,227,227,227,227,227,227,227,227,227,227,227,227,227,227,227,227,227,227,227,227,227,227,227,227,227,227,227,227,227,
227,227,227,227,227,227,227,227,227,227,227,227,227,227,227,227,227,227,227,227,227,227,227,227,227,227,227,227,227,227,227,227,227,227,227,227,227,227,227,227,
227,227,227,227,227,227,227,227,227,227,227,227,227,227,227,227,227,227,227,227,159,160,227,227,227,227,227,227,227,227,227,227,227,227,227,227,227,227,227,227,
227,227,227,227,227,227,227,227,227,227,227,227,227,227,227,227,227,227,227,227,167,168,227,227,227,227,227,227,227,227,227,227,227,227,227,227,227,227,227,227,
227,227,227,227,227,227,227,227,227,227,227,227,227,227,227,227,227,227,227,227,227,227,227,227,227,227,227,227,227,227,227,227,227,227,227,227,227,227,227,227,
227,227,227,227,227,227,227,227,227,227,227,227,227,227,227,227,227,227,227,227,227,227,227,159,160,227,227,227,227,227,227,227,227,227,227,227,227,227,227,227,
227,227,227,227,227,227,227,227,227,227,227,227,227,227,227,227,227,227,227,227,227,227,227,167,168,227,227,227,227,227,227,227,227,227,227,227,227,227,227,227,
227,227,227,227,227,227,227,227,227,227,227,227,227,227,227,227,227,227,227,227,227,227,227,227,227,227,227,227,227,227,227,227,227,227,227,227,227,227,227,227,
227,227,227,227,227,227,227,227,227,227,227,227,227,227,227,227,227,227,227,227,227,227,227,227,227,227,227,227,227,227,227,227,227,227,227,227,227,227,227,227,
227,227,227,227,227,227,227,227,227,227,227,227,227,227,227,227,227,227,227,227,227,227,227,227,227,227,227,227,227,227,227,227,227,227,227,227,227,227,227,227,
227,227,227,227,227,227,227,227,227,227,227,227,227,227,227,227,227,227,227,227,227,227,227,227,227,227,227,227,227,227,227,227,227,227,227,227,227,227,227,227,
227,227,227,227,227,227,227,227,227,227,227,227,227,227,227,227,227,227,227,227,227,227,227,227,227,227,227,227,227,227,227,227,227,227,227,227,227,227,227,227,
227,227,227,227,227,227,227,227,227,227,227,227,227,227,227,227,227,227,227,227,227,227,227,227,227,227,227,227,227,227,227,227,227,227,227,227,227,227,227,227,
227,227,227,227,227,227,227,227,227,227,227,227,227,227,227,227,227,227,227,227,227,227,227,227,227,227,227,227,227,227,227,227,227,227,227,227,227,227,227,227,
227,227,227,227,227,227,227,227,227,227,227,227,227,227,227,227,227,227,227,227,227,227,227,227,227,227,227,227,227,227,227,227,227,227,227,227,227,227,227,227,
227,227,227,227,227,227,227,227,227,227,227,227,227,227,227,227,227,227,227,227,227,227,227,227,227,227,227,227,227,227,227,227,227,227,227,227,227,227,227,227,
227,227,227,227,227,227,227,227,227,227,227,227,227,227,227,227,227,227,227,227,227,227,227,227,227,227,227,227,227,227,227,227,227,227,227,227,227,227,227,227,
227,227,227,227,227,227,227,227,159,160,227,227,227,227,227,227,227,227,227,227,227,227,227,227,227,227,227,227,227,227,227,227,227,227,227,227,227,227,227,227,
227,227,227,227,227,227,227,227,167,168,227,227,227,227,227,227,227,227,227,227,227,227,227,227,227,227,227,227,227,227,227,227,227,227,227,227,227,227,227,227,
227,227,227,227,227,227,227,227,227,227,227,227,227,227,227,227,227,227,227,227,227,227,227,227,227,227,227,227,227,227,227,227,227,227,227,227,227,227,227,227,
227,227,227,227,227,227,227,227,227,227,227,227,227,227,227,227,227,227,227,227,227,227,227,227,227,227,227,227,227,227,227,227,227,227,227,227,227,227,227,227,
227,227,227,227,227,227,227,227,227,227,227,227,227,227,227,227,227,227,227,227,227,227,227,227,227,227,227,227,227,227,227,0,227,227,227,227,227,227,227,227,
227,227,227,227,227,227,227,227,227,227,227,227,227,227,227,227,227,227,227,227,227,227,227,227,227,227,227,227,227,227,227,227,227,227,227,227,227,227,227,227,
227,227,227,227,227,227,227,227,227,227,227,227,227,227,227,227,227,227,227,227,227,227,227,227,227,227,227,227,227,227,227,227,227,227,227,227,227,227,227,227,
227,227,227,227,227,227,227,227,227,227,227,227,227,227,227,227,227,227,227,227,227,227,227,227,227,227,227,227,227,227,227,227,227,227,227,227,227,227,227,227,
227,227,227,227,227,227,227,227,227,227,227,227,227,227,227,227,227,227,227,227,227,227,227,227,227,227,227,227,227,227,227,227,227,227,227,227,227,227,227,227
</data>
 </layer>
 <layer id="3" name="deco_sotto" width="40" height="40">
  <data encoding="csv">
127,138,138,138,138,138,138,138,138,138,138,138,138,138,138,138,138,138,138,138,138,138,138,138,138,138,138,138,138,138,138,138,138,138,138,138,138,138,138,128,
131,127,138,138,138,138,138,138,138,138,138,138,138,138,138,138,138,138,138,138,138,138,138,138,138,138,138,138,138,138,138,138,138,138,138,138,138,138,128,129,
131,131,127,138,138,138,138,138,138,138,138,138,138,138,138,138,138,138,138,138,138,138,138,138,138,138,138,138,138,138,138,138,138,138,138,138,138,128,129,129,
131,131,131,127,138,138,138,138,138,138,138,138,138,138,138,138,138,138,138,138,138,138,138,138,138,138,138,138,138,138,138,138,138,138,138,138,128,129,129,129,
131,131,131,131,127,138,138,138,138,138,138,138,138,138,138,138,138,138,138,138,138,138,138,138,138,138,138,138,138,138,138,138,138,138,138,128,129,129,129,129,
131,131,131,131,131,0,0,0,0,0,0,0,0,0,0,0,0,0,0,0,0,0,0,0,0,0,0,0,0,0,0,0,0,0,0,129,129,129,129,129,
131,131,131,131,131,0,0,0,0,0,0,0,0,0,0,0,0,0,0,0,0,0,0,0,0,0,0,0,0,0,0,0,0,0,0,129,129,129,129,129,
131,131,131,131,131,0,0,0,0,0,0,0,0,0,0,0,0,0,0,0,0,0,0,0,0,0,0,0,0,0,0,0,0,0,0,129,129,129,129,129,
131,131,131,131,131,0,0,0,0,0,0,0,0,0,0,0,0,0,0,0,0,0,0,0,0,0,0,0,0,0,0,0,0,0,0,129,129,129,129,129,
131,131,131,131,131,0,0,0,0,0,0,0,0,0,0,0,0,0,0,0,0,0,0,0,0,0,0,0,0,0,0,0,0,0,0,129,129,129,129,129,
131,131,131,131,131,0,0,0,0,0,0,0,0,0,0,0,0,0,0,0,0,0,0,0,0,0,0,0,0,0,0,0,0,0,0,129,129,129,129,129,
131,131,131,131,131,0,0,0,0,0,0,0,0,0,0,0,0,0,0,0,0,0,0,0,0,0,0,0,0,0,0,0,0,0,0,129,129,129,129,129,
131,131,131,131,131,0,0,0,0,0,0,0,0,0,0,0,0,0,0,0,0,0,0,0,0,0,0,0,0,0,0,0,0,0,0,129,129,129,129,129,
131,131,131,131,131,0,0,0,0,0,0,0,0,0,0,0,0,0,0,0,0,0,0,0,0,0,0,0,0,0,0,0,0,0,0,129,129,129,129,129,
131,131,131,131,131,0,0,0,0,0,0,0,0,0,0,0,0,0,0,0,0,0,0,0,0,0,0,0,0,0,0,0,0,0,0,129,129,129,129,129,
131,131,131,131,131,0,0,0,0,0,0,0,0,0,0,0,0,0,0,0,0,0,0,0,0,0,0,0,0,0,0,0,0,0,0,129,129,129,129,129,
131,131,131,131,131,0,0,0,0,0,0,0,0,0,0,0,0,0,0,0,0,0,0,0,0,0,0,0,0,0,0,0,0,0,0,129,129,129,129,129,
131,131,131,131,131,0,0,0,0,0,0,0,0,0,0,0,0,0,0,0,0,0,0,0,0,0,0,0,0,0,0,0,0,0,0,129,129,129,129,129,
131,131,131,131,131,0,0,0,0,0,0,0,0,0,0,0,0,0,0,0,0,0,0,0,0,0,0,0,0,0,0,0,0,0,0,129,129,129,129,129,
131,131,131,131,131,0,0,0,0,0,0,0,0,0,0,0,0,0,0,0,0,0,0,0,0,0,0,0,0,0,0,0,0,0,0,129,129,129,129,129,
131,131,131,131,134,0,0,0,0,0,0,0,0,0,0,0,0,0,0,0,0,0,0,0,0,0,0,0,0,0,0,0,0,0,0,129,129,129,129,129,
131,131,131,131,131,0,0,0,0,0,0,0,0,0,0,0,0,0,0,0,0,0,0,0,0,0,0,0,0,0,0,0,0,0,0,129,129,129,129,129,
131,131,131,131,131,0,2541,0,0,0,0,0,0,0,0,0,0,0,0,0,0,0,0,0,0,0,0,0,0,0,0,0,0,0,0,129,129,129,129,129,
131,131,131,131,131,0,0,2541,0,0,0,0,0,0,0,0,0,0,0,0,0,0,0,0,0,0,0,0,0,0,0,0,0,0,0,129,129,129,129,129,
131,131,131,131,131,2541,0,0,0,0,0,0,0,0,0,0,0,0,0,0,0,0,0,0,0,0,0,0,0,0,0,0,0,0,0,129,129,129,129,129,
131,131,131,131,131,0,0,0,0,0,0,0,0,0,0,0,0,0,0,0,0,0,0,0,0,0,0,0,0,0,0,0,0,0,0,129,129,129,129,129,
131,131,131,131,131,0,0,0,0,0,0,0,0,0,0,0,0,0,0,0,0,0,0,0,0,0,0,0,0,0,0,0,0,0,0,129,129,129,129,129,
131,131,131,131,131,0,0,2537,0,0,0,0,0,0,0,0,0,0,0,0,0,0,0,0,0,0,0,0,0,0,0,0,0,0,0,129,129,129,129,129,
131,131,131,131,131,0,0,0,0,0,0,0,0,0,0,0,0,0,0,0,0,0,0,0,0,0,0,0,0,0,0,0,0,0,0,129,129,129,129,129,
131,131,131,131,131,0,0,0,0,0,0,0,0,0,0,0,0,0,0,0,0,0,0,0,0,0,0,0,0,0,0,0,0,0,0,129,129,129,129,129,
131,131,131,131,131,0,2537,0,0,0,0,0,0,0,0,0,0,0,0,0,0,0,0,0,0,0,0,0,0,0,0,0,0,0,0,129,129,129,129,129,
131,131,131,131,131,0,0,0,0,0,0,0,0,0,0,0,0,0,0,0,0,0,0,0,0,0,0,0,0,0,0,0,0,0,0,129,129,129,129,129,
131,131,131,131,131,2541,2537,0,0,0,0,0,0,0,0,0,0,0,0,0,0,0,0,0,0,0,0,0,0,0,0,0,0,0,0,129,129,129,129,129,
131,131,131,131,131,0,0,0,0,0,0,0,0,0,0,0,0,0,0,0,0,0,0,0,0,0,0,0,0,0,0,0,0,0,0,129,129,129,129,129,
131,131,131,131,131,0,0,0,0,0,0,0,0,0,0,0,0,0,0,0,0,0,0,0,0,0,0,0,0,0,0,0,0,0,0,129,129,129,129,129,
131,131,131,131,219,219,219,219,219,219,219,219,219,219,219,123,219,219,219,219,219,219,219,219,219,219,219,219,219,219,219,227,219,219,219,219,129,129,129,129,
131,131,131,219,219,219,219,219,219,219,219,219,219,219,123,131,219,219,219,219,219,219,219,219,219,219,219,219,219,219,219,129,227,121,219,219,219,129,129,129,
131,131,219,219,219,219,219,219,219,219,219,219,219,123,219,219,219,219,219,219,219,219,219,219,219,219,219,219,219,219,219,219,219,129,121,219,219,219,129,129,
131,219,219,219,219,219,219,219,219,219,219,219,123,219,219,219,219,219,219,219,219,219,219,219,219,219,219,219,219,219,219,219,219,219,129,121,219,219,219,129,
219,219,219,219,219,219,219,219,219,219,219,123,219,219,219,219,219,219,219,219,219,219,219,219,219,219,219,219,219,219,219,219,219,219,219,129,227,227,227,219
</data>
 </layer>
 <layer id="4" name="edifici" width="40" height="40">
  <data encoding="csv">
0,0,0,0,0,0,0,0,0,0,0,0,0,0,0,0,0,0,0,0,0,0,0,0,0,0,0,0,0,0,0,0,0,0,0,0,0,0,0,0,
0,0,0,0,0,0,0,0,0,0,0,0,0,0,0,0,0,0,0,0,0,0,0,0,0,0,0,0,0,0,0,0,0,0,0,0,0,0,0,0,
0,0,0,0,0,0,0,0,0,0,0,0,0,0,0,0,0,0,0,0,0,0,0,0,0,0,0,0,0,0,0,0,0,0,0,0,0,0,0,0,
0,0,0,0,0,0,0,0,0,0,0,0,0,0,0,0,0,0,0,0,0,0,0,0,0,0,0,0,0,0,0,0,0,0,0,0,0,0,0,0,
0,0,0,0,0,0,0,0,0,143,144,0,0,0,0,0,0,0,0,0,0,0,0,0,0,0,0,0,0,0,0,0,143,144,0,0,0,0,0,0,
0,0,0,0,0,0,0,0,174,151,152,174,0,0,0,0,0,0,0,0,0,0,0,0,0,0,0,0,0,0,0,0,151,152,0,0,0,0,0,0,
0,0,0,0,0,0,174,174,174,159,2541,174,174,174,174,174,174,174,0,0,0,0,0,0,0,0,0,0,0,0,0,0,159,160,0,0,0,0,0,0,
0,0,0,0,0,0,174,2520,2520,167,168,2520,2520,0,0,0,0,174,0,0,0,0,0,0,0,0,0,0,0,0,0,0,167,168,0,0,0,0,0,0,
0,0,0,0,0,0,174,2520,2520,2520,0,2520,2520,2520,0,0,0,0,174,0,0,0,0,0,0,0,0,0,0,0,0,0,0,0,0,0,0,0,0,0,
0,0,0,0,0,0,174,2541,0,0,0,0,2538,0,0,0,0,0,174,0,0,0,0,0,0,0,0,0,0,0,0,0,0,0,0,0,0,0,0,0,
0,0,0,0,0,0,174,2520,2520,2520,0,0,2520,0,0,0,0,174,174,174,174,174,174,174,174,174,174,174,174,174,174,174,0,0,0,0,0,0,0,0,
0,0,0,0,0,0,174,0,0,0,2520,2520,0,0,0,0,0,0,0,0,0,0,0,174,0,0,0,0,0,0,0,174,0,0,0,0,0,0,0,0,
0,0,0,0,0,0,174,0,0,0,0,0,0,0,0,0,0,174,0,174,174,0,0,174,0,174,174,174,0,174,0,174,0,0,0,0,0,0,0,0,
0,0,0,0,0,0,174,174,174,174,174,174,174,0,0,0,0,174,0,174,0,0,0,174,0,0,0,174,0,174,0,174,0,0,0,0,0,0,0,0,
0,0,0,0,0,0,0,0,174,0,0,0,174,0,0,0,0,174,0,174,0,174,174,174,0,174,0,174,0,174,0,174,0,0,0,0,0,0,0,0,
0,0,0,0,0,0,0,0,0,0,0,0,174,0,0,0,0,174,0,0,0,174,0,174,0,174,0,0,0,174,0,174,0,0,0,0,0,0,0,0,
0,0,0,0,0,0,0,0,0,0,0,0,174,0,0,0,0,174,174,174,0,174,0,174,0,174,174,174,174,174,0,174,0,0,0,0,0,0,0,0,
0,0,0,0,0,0,0,0,174,174,0,0,174,0,0,0,0,174,2541,174,0,0,0,0,0,174,0,0,0,0,0,174,0,0,0,0,0,0,0,0,
0,0,0,0,0,0,0,174,174,174,174,0,174,0,0,0,0,174,0,174,174,174,174,174,174,0,0,174,0,0,174,174,0,0,0,0,0,0,0,0,
0,0,0,0,0,174,174,174,174,174,174,174,174,0,0,0,0,174,2537,0,0,174,0,0,0,0,174,0,0,174,0,174,0,0,0,0,0,0,0,0,
0,0,0,0,0,0,0,0,0,0,0,0,0,0,0,0,0,174,0,174,0,2537,0,174,0,0,0,174,0,0,0,0,0,0,0,0,0,0,0,0,
0,0,0,0,0,174,174,174,174,174,174,174,174,174,174,174,174,174,174,174,174,174,174,174,174,174,174,174,174,174,174,174,0,0,0,0,0,0,0,0,
0,0,0,0,0,0,0,174,174,174,174,0,0,0,0,0,182,182,182,182,182,182,182,182,182,182,182,182,182,182,182,0,0,0,0,0,0,0,0,0,
0,0,0,0,0,0,0,0,174,174,0,0,0,0,0,0,182,0,0,0,0,2520,2520,2539,2520,2520,0,0,0,0,182,0,0,0,0,0,0,0,0,0,
0,0,0,0,0,0,0,0,174,0,0,0,0,0,0,0,182,0,0,0,2520,2520,0,0,0,2520,2520,0,0,0,182,0,0,0,0,0,0,0,0,0,
0,0,0,0,0,0,0,174,174,0,0,0,0,0,0,0,182,0,0,2520,2539,0,0,0,0,0,2539,2520,0,0,182,0,0,0,0,0,0,0,0,0,
0,0,0,0,0,0,0,174,0,0,0,0,0,0,0,0,182,0,0,0,2520,0,2520,0,2520,0,2520,0,0,0,182,0,0,0,0,0,0,0,0,0,
0,0,0,0,0,0,0,0,0,0,0,0,0,0,0,0,182,0,0,0,2520,2539,2538,2538,2538,2539,2520,0,0,0,182,0,0,0,0,0,0,0,0,0,
0,0,0,0,0,0,0,174,0,0,0,0,0,0,0,0,182,0,0,0,2520,2520,0,0,0,2520,2520,0,0,0,182,0,0,0,0,0,0,0,0,0,
0,0,0,0,0,0,174,0,0,0,0,0,0,0,0,0,182,0,0,0,2520,2539,0,0,0,2539,2520,0,0,0,182,0,0,0,0,0,0,0,0,0,
0,0,0,0,0,0,0,0,0,0,0,0,0,0,0,0,182,0,0,0,2520,0,2538,0,2538,0,2520,0,0,0,182,0,0,0,0,0,0,0,0,0,
0,0,0,0,0,174,0,0,0,0,0,0,0,0,0,0,182,2520,2520,2520,2520,0,2538,0,2538,0,2520,0,0,0,182,0,0,0,0,0,0,0,0,0,
0,0,0,0,0,0,0,0,0,0,0,0,0,0,0,0,182,0,159,160,2520,0,0,0,0,0,2520,2520,2520,2520,182,0,0,0,0,0,0,0,0,0,
0,0,0,0,0,174,0,0,0,0,0,0,0,0,0,0,182,0,167,168,0,0,0,0,0,0,0,0,0,0,182,0,0,0,0,0,0,0,0,0,
0,0,0,0,0,0,0,0,0,0,0,0,0,0,0,0,2571,0,0,0,0,0,0,0,0,227,227,227,227,227,0,0,0,0,0,0,0,0,0,0,
0,0,0,0,0,0,0,0,0,0,0,0,0,0,0,0,182,227,227,227,227,227,227,227,227,227,227,227,227,227,182,121,0,0,0,0,0,0,0,0,
0,0,0,0,0,0,0,0,0,0,0,0,0,0,0,0,182,182,182,182,182,182,182,182,182,182,182,182,182,182,182,0,0,0,0,0,0,0,0,0,
0,0,0,0,0,0,0,0,0,0,0,0,0,0,0,0,219,0,0,0,0,0,0,0,0,0,0,0,0,0,0,0,0,0,0,0,0,0,0,0,
0,0,0,0,0,0,0,0,0,0,0,0,0,0,0,0,0,0,0,0,0,0,0,0,0,0,0,0,0,0,0,0,0,0,0,0,0,0,0,0,
0,0,0,0,0,0,0,0,0,0,0,0,0,0,0,0,0,0,0,0,0,0,0,0,0,0,0,0,0,0,0,0,0,0,0,0,0,0,0,0
</data>
 </layer>
 <layer id="6" name="sopra_testa" width="40" height="40">
  <data encoding="csv">
0,0,0,0,0,0,0,0,0,0,0,0,0,0,0,0,0,0,0,0,0,0,0,0,0,0,0,0,0,0,0,0,0,0,0,0,0,0,0,0,
0,0,0,0,0,0,0,0,0,0,0,0,0,0,0,0,0,0,0,0,0,0,0,0,0,0,0,0,0,0,0,0,0,0,0,0,0,0,0,0,
0,0,0,0,0,0,0,0,0,0,0,0,0,0,0,0,0,0,0,0,0,0,0,0,0,0,0,0,0,0,0,0,0,0,0,0,0,0,0,0,
0,0,0,0,0,0,0,0,0,0,0,0,0,0,0,0,0,0,0,0,0,0,0,0,0,0,0,0,0,0,0,0,0,0,0,0,0,0,0,0,
0,0,0,0,0,0,0,0,0,0,0,0,0,0,0,0,0,0,0,0,0,0,0,0,0,0,0,0,0,0,0,0,0,0,0,0,0,0,0,0,
0,0,0,0,0,0,0,0,0,0,0,0,0,0,0,0,0,0,0,0,0,0,0,0,0,0,0,0,0,0,0,0,0,0,0,0,0,0,0,0,
0,0,0,0,0,0,0,0,0,0,0,0,0,0,0,0,0,0,0,0,0,0,0,0,0,0,0,0,0,0,0,0,0,0,0,0,0,0,0,0,
0,0,0,0,0,0,0,0,0,0,0,0,0,0,0,0,0,0,0,0,0,0,0,0,0,0,0,0,0,0,0,0,0,0,0,0,0,0,0,0,
0,0,0,0,0,0,0,0,0,0,0,0,0,0,0,0,0,0,0,0,0,0,0,0,0,0,0,0,0,0,0,0,0,0,0,0,0,0,0,0,
0,0,0,0,0,0,0,0,0,0,0,0,0,0,0,0,0,0,0,0,0,0,0,0,0,0,0,0,0,0,0,0,0,0,0,0,0,0,0,0,
0,0,0,0,0,0,0,0,0,0,0,0,0,0,0,0,0,0,0,0,0,0,0,0,0,0,0,0,0,0,0,0,0,0,0,0,0,0,0,0,
0,0,0,0,0,0,0,0,0,0,0,0,0,0,0,0,0,0,0,0,0,0,0,0,0,0,0,0,0,0,0,0,0,0,0,0,0,0,0,0,
0,0,0,0,0,0,0,0,0,0,0,0,0,0,0,0,0,0,0,0,0,0,0,0,0,0,0,0,0,0,0,0,0,0,0,0,0,0,0,0,
0,0,0,0,0,0,0,0,0,0,0,0,0,0,0,0,0,0,0,0,0,0,0,0,0,0,0,0,0,0,0,0,0,0,0,0,0,0,0,0,
0,0,0,0,0,0,0,0,0,0,0,0,0,0,0,0,0,0,0,0,0,0,0,0,0,0,0,0,0,0,0,0,0,0,0,0,0,0,0,0,
0,0,0,0,0,0,0,0,0,0,0,0,0,0,0,0,0,0,0,0,0,0,0,0,0,0,0,0,0,0,0,0,0,0,0,0,0,0,0,0,
0,0,0,0,0,0,0,0,0,0,0,0,0,0,0,0,0,0,0,0,0,0,0,0,0,0,0,0,0,0,0,0,0,0,0,0,0,0,0,0,
0,0,0,0,0,0,0,0,0,0,0,0,0,0,0,0,0,0,0,0,0,0,0,0,0,0,0,0,0,0,0,0,0,0,0,0,0,0,0,0,
0,0,0,0,0,0,0,0,0,0,0,0,0,0,0,0,0,0,0,0,0,0,0,0,0,0,0,0,0,0,0,0,0,0,0,0,0,0,0,0,
0,0,0,0,0,0,0,0,0,0,0,0,0,0,0,0,0,0,0,0,0,0,0,0,0,0,0,0,0,0,0,0,0,0,0,0,0,0,0,0,
0,0,0,0,0,0,0,0,0,0,0,0,0,0,0,0,0,0,0,0,0,0,0,0,0,0,0,0,0,0,0,0,0,0,0,0,0,0,0,0,
0,0,0,0,0,0,0,0,0,0,0,0,0,0,0,0,0,0,0,0,0,0,0,0,0,0,0,0,0,0,0,0,0,0,0,0,0,0,0,0,
0,0,0,0,0,0,0,0,0,0,0,0,0,0,0,0,0,0,0,0,0,0,0,0,0,0,0,0,0,0,0,0,0,0,0,0,0,0,0,0,
0,0,0,0,0,0,0,0,0,0,0,0,0,0,0,0,0,0,0,0,0,0,0,0,0,0,0,0,0,0,0,0,0,0,0,0,0,0,0,0,
0,0,0,0,0,0,0,0,0,0,0,0,0,0,0,0,0,0,0,0,0,0,0,0,0,0,0,0,0,0,0,0,0,0,0,0,0,0,0,0,
0,0,0,0,0,0,0,0,0,0,0,0,0,0,0,0,0,0,0,0,0,0,0,0,0,0,0,0,0,0,0,0,0,0,0,0,0,0,0,0,
0,0,0,0,0,0,0,0,0,0,0,0,0,0,0,0,0,0,0,0,0,0,0,0,0,0,0,0,0,0,0,0,0,0,0,0,0,0,0,0,
0,0,0,0,0,0,0,0,0,0,0,0,0,0,0,0,0,0,0,0,0,0,0,0,0,0,0,0,0,0,0,0,0,0,0,0,0,0,0,0,
0,0,0,0,0,0,0,0,0,0,0,0,0,0,0,0,0,0,0,0,0,0,0,0,0,0,0,0,0,0,0,0,0,0,0,0,0,0,0,0,
0,0,0,0,0,0,0,0,0,0,0,0,0,0,0,0,0,0,0,0,0,0,0,0,0,0,0,0,0,0,0,0,0,0,0,0,0,0,0,0,
0,0,0,0,0,0,0,0,0,0,0,0,0,0,0,0,0,0,0,0,0,0,0,0,0,0,0,0,0,0,0,0,0,0,0,0,0,0,0,0,
0,0,0,0,0,0,0,0,0,0,0,0,0,0,0,0,0,0,0,0,0,0,0,0,0,0,0,0,0,0,0,0,0,0,0,0,0,0,0,0,
0,0,0,0,0,0,0,0,0,0,0,0,0,0,0,0,0,0,0,0,0,0,0,0,0,0,0,0,0,0,0,0,0,0,0,0,0,0,0,0,
0,0,0,0,0,0,0,0,0,0,0,0,0,0,0,0,0,0,0,0,0,0,0,0,0,0,0,0,0,0,0,0,0,0,0,0,0,0,0,0,
0,0,0,0,0,0,0,0,0,0,0,0,0,0,0,0,0,0,0,0,0,0,0,0,0,0,0,0,0,0,0,0,0,0,0,0,0,0,0,0,
0,0,0,0,0,0,0,0,0,0,0,0,0,0,0,0,0,0,0,0,0,0,0,0,0,0,0,0,0,0,0,0,0,0,0,0,0,0,0,0,
0,0,0,0,0,0,0,0,0,0,0,0,0,0,0,0,0,0,0,0,0,0,0,0,0,0,0,0,0,0,0,0,0,0,0,0,0,0,0,0,
0,0,0,0,0,0,0,0,0,0,0,0,0,0,0,0,0,0,0,0,0,0,0,0,0,0,0,0,0,0,0,0,0,0,0,0,0,0,0,0,
0,0,0,0,0,0,0,0,0,0,0,0,0,0,0,0,0,0,0,0,0,0,0,0,0,0,0,0,0,0,0,0,0,0,0,0,0,0,0,0,
0,0,0,0,0,0,0,0,0,0,0,0,0,0,0,0,0,0,0,0,0,0,0,0,0,0,0,0,0,0,0,0,0,0,0,0,0,0,0,0
</data>
 </layer>
 <objectgroup id="2" name="collisioni"/>
 <objectgroup id="5" name="eventi">
  <object id="1" name="spawn_da_1f" type="spawn" x="173" y="664">
   <properties>
    <property name="id" value="da_1f"/>
   </properties>
   <point/>
  </object>
  <object id="2" name="uscita_1f" type="warp" x="141" y="662">
   <properties>
    <property name="destinazione" value="gdf_marino_1f"/>
    <property name="spawn_id" value="da_2f_c"/>
   </properties>
   <point/>
  </object>
  <object id="3" name="gdf_grunt_marino_2fc_1" type="trainer" x="320" y="320">
   <properties>
    <property name="direzione" value="sud"/>
    <property name="id" value="gdf_grunt_marino_2fc_1"/>
    <property name="vista" value="5"/>
   </properties>
   <point/>
  </object>
  <object id="4" name="gdf_grunt_marino_2fc_2" type="trainer" x="214" y="1112">
   <properties>
    <property name="direzione" value="est"/>
    <property name="id" value="gdf_grunt_marino_2fc_2"/>
    <property name="vista" value="5"/>
   </properties>
   <point/>
  </object>
  <object id="5" name="gdf_grunt_marino_2fc_3" type="trainer" x="1018" y="778">
   <properties>
    <property name="direzione" value="ovest"/>
    <property name="id" value="gdf_grunt_marino_2fc_3"/>
    <property name="vista" value="5"/>
   </properties>
   <point/>
  </object>
  <object id="6" name="oggetto" type="oggetto" x="238" y="313">
   <properties>
    <property name="contenuto" value="iperpozione"/>
    <property name="id" value="gdf_marino_2fc_item1"/>
    <property name="quantita" value="1"/>
   </properties>
   <point/>
  </object>
  <object id="7" name="oggetto" type="oggetto" x="334" y="215">
   <properties>
    <property name="contenuto" value="superpozione"/>
    <property name="id" value="gdf_marino_2fc_item2"/>
    <property name="quantita" value="1"/>
   </properties>
   <point/>
  </object>
  <object id="8" name="oggetto" type="oggetto" x="173" y="1048">
   <properties>
    <property name="contenuto" value="superpozione"/>
    <property name="id" value="gdf_marino_2fc_item2"/>
    <property name="quantita" value="1"/>
   </properties>
   <point/>
  </object>
  <object id="9" name="oggetto" type="oggetto" x="174" y="793">
   <properties>
    <property name="contenuto" value="superpozione"/>
    <property name="id" value="gdf_marino_2fc_item2"/>
    <property name="quantita" value="1"/>
   </properties>
   <point/>
  </object>
  <object id="10" name="oggetto" type="oggetto" x="241" y="755">
   <properties>
    <property name="contenuto" value="superpozione"/>
    <property name="id" value="gdf_marino_2fc_item2"/>
    <property name="quantita" value="1"/>
   </properties>
   <point/>
  </object>
  <object id="11" name="oggetto" type="oggetto" x="208" y="726">
   <properties>
    <property name="contenuto" value="superpozione"/>
    <property name="id" value="gdf_marino_2fc_item2"/>
    <property name="quantita" value="1"/>
   </properties>
   <point/>
  </object>
  <object id="12" name="oggetto" type="oggetto" x="592" y="567">
   <properties>
    <property name="contenuto" value="superpozione"/>
    <property name="id" value="gdf_marino_2fc_item2"/>
    <property name="quantita" value="1"/>
   </properties>
   <point/>
  </object>
  <object id="14" name="pulsante dove posizionare un masso" type="pulsante" x="655" y="816">
   <properties>
    <property name="id" value="pulsante_2fc_1"/>
    <property name="type" value="pulsante"/>
   </properties>
   <point/>
  </object>
  <object id="15" name="pulsante dove posizionare un masso" type="pulsante" x="750" y="747.5">
   <properties>
    <property name="id" value="pulsante_2fc_2"/>
    <property name="type" value="pulsante"/>
   </properties>
   <point/>
  </object>
  <object id="16" name="pulsante dove posizionare un masso" type="pulsante" x="850" y="815.5">
   <properties>
    <property name="id" value="pulsante_2fc_3"/>
    <property name="type" value="pulsante"/>
   </properties>
   <point/>
  </object>
  <object id="17" name="pulsante dove posizionare un masso" type="pulsante" x="691" y="881">
   <properties>
    <property name="id" value="pulsante_2fc_4"/>
    <property name="type" value="pulsante"/>
   </properties>
   <point/>
  </object>
  <object id="18" name="pulsante dove posizionare un masso" type="pulsante" x="817" y="880">
   <properties>
    <property name="id" value="pulsante_2fc_5"/>
    <property name="type" value="pulsante"/>
   </properties>
   <point/>
  </object>
  <object id="19" name="pulsante dove posizionare un masso" type="pulsante" x="689.5" y="945">
   <properties>
    <property name="id" value="pulsante_2fc_6"/>
    <property name="type" value="pulsante"/>
   </properties>
   <point/>
  </object>
  <object id="20" name="pulsante dove posizionare un masso" type="pulsante" x="818" y="942.5">
   <properties>
    <property name="id" value="pulsante_2fc_7"/>
    <property name="type" value="pulsante"/>
   </properties>
   <point/>
  </object>
  <object id="21" name="cancello_pulsante_2fc" type="cancello_pulsante" x="512" y="1088" width="32" height="32">
   <properties>
    <property name="attivato_da" value="pulsante_2fc_1,pulsante_2fc_2,pulsante_2fc_3,pulsante_2fc_4,pulsante_2fc_5,pulsante_2fc_6,pulsante_2fc_7"/>
    <property name="type" value="cancello_pulsante"/>
   </properties>
  </object>
  <object id="22" name="masso_2fc_1" type="masso" x="576" y="800">
   <properties>
    <property name="id" value="masso_2fc_1"/>
    <property name="type" value="masso"/>
   </properties>
   <point/>
  </object>
  <object id="23" name="masso_2fc_2" type="masso" x="672" y="736">
   <properties>
    <property name="id" value="masso_2fc_2"/>
    <property name="type" value="masso"/>
   </properties>
   <point/>
  </object>
  <object id="24" name="masso_2fc_3" type="masso" x="768" y="800">
   <properties>
    <property name="id" value="masso_2fc_3"/>
    <property name="type" value="masso"/>
   </properties>
   <point/>
  </object>
  <object id="25" name="masso_2fc_4" type="masso" x="608" y="864">
   <properties>
    <property name="id" value="masso_2fc_4"/>
    <property name="type" value="masso"/>
   </properties>
   <point/>
  </object>
  <object id="26" name="masso_2fc_5" type="masso" x="736" y="864">
   <properties>
    <property name="id" value="masso_2fc_5"/>
    <property name="type" value="masso"/>
   </properties>
   <point/>
  </object>
  <object id="27" name="masso_2fc_6" type="masso" x="608" y="928">
   <properties>
    <property name="id" value="masso_2fc_6"/>
    <property name="type" value="masso"/>
   </properties>
   <point/>
  </object>
  <object id="28" name="masso_2fc_7" type="masso" x="736" y="928">
   <properties>
    <property name="id" value="masso_2fc_7"/>
    <property name="type" value="masso"/>
   </properties>
   <point/>
  </object>
 </objectgroup>
</map>
