{
 "compressionlevel": -1,
 "width": 28,
 "height": 11,
 "tilewidth": 32,
 "tileheight": 32,
 "infinite": false,
 "orientation": "orthogonal",
 "renderorder": "right-down",
 "type": "map",
 "version": "1.10",
 "tiledversion": "1.11.0",
 "nextlayerid": 6,
 "nextobjectid": 182,
 "tilesets": [
  {
   "firstgid": 1,
   "image": "../genzano_laboratorio_entrata_tileset.png",
   "imagewidth": 512,
   "imageheight": 224,
   "columns": 16,
   "tilecount": 104,
   "tilewidth": 32,
   "tileheight": 32,
   "name": "genzano_laboratorio_entrata_tileset",
   "margin": 0,
   "spacing": 0
  }
 ],
 "layers": [
  {
   "id": 1,
   "name": "ground",
   "type": "tilelayer",
   "width": 28,
   "height": 11,
   "data": [
    1,
    3,
    5,
    3,
    7,
    3,
    5,
    3,
    9,
    11,
    11,
    11,
    11,
    11,
    11,
    11,
    11,
    11,
    11,
    11,
    11,
    11,
    11,
    11,
    11,
    11,
    11,
    11,
    13,
    15,
    17,
    19,
    21,
    19,
    17,
    15,
    23,
    11,
    11,
    11,
    11,
    11,
    11,
    11,
    11,
    11,
    11,
    11,
    11,
    11,
    11,
    11,
    11,
    11,
    11,
    11,
    25,
    27,
    29,
    29,
    29,
    29,
    29,
    27,
    31,
    11,
    11,
    11,
    11,
    11,
    11,
    11,
    11,
    11,
    11,
    11,
    11,
    11,
    11,
    11,
    11,
    11,
    11,
    11,
    33,
    35,
    37,
    37,
    37,
    37,
    37,
    37,
    37,
    11,
    11,
    11,
    11,
    11,
    11,
    11,
    11,
    11,
    11,
    11,
    11,
    11,
    11,
    11,
    11,
    11,
    11,
    11,
    39,
    41,
    43,
    37,
    45,
    47,
    49,
    37,
    37,
    9,
    1,
    3,
    51,
    53,
    55,
    9,
    1,
    3,
    51,
    53,
    55,
    9,
    1,
    3,
    51,
    53,
    55,
    9,
    57,
    59,
    61,
    37,
    63,
    65,
    67,
    37,
    37,
    23,
    13,
    19,
    69,
    71,
    73,
    23,
    13,
    19,
    69,
    71,
    73,
    23,
    13,
    19,
    69,
    71,
    73,
    23,
    75,
    77,
    61,
    37,
    67,
    49,
    37,
    37,
    37,
    31,
    25,
    29,
    29,
    29,
    29,
    31,
    25,
    29,
    29,
    29,
    29,
    31,
    25,
    29,
    29,
    29,
    29,
    31,
    79,
    81,
    61,
    37,
    37,
    37,
    37,
    37,
    37,
    37,
    37,
    37,
    37,
    37,
    37,
    37,
    37,
    37,
    37,
    37,
    37,
    37,
    37,
    37,
    37,
    37,
    37,
    37,
    83,
    85,
    87,
    37,
    37,
    37,
    37,
    37,
    37,
    37,
    37,
    89,
    37,
    37,
    89,
    37,
    37,
    89,
    37,
    37,
    89,
    37,
    37,
    89,
    37,
    37,
    89,
    37,
    83,
    37,
    37,
    91,
    93,
    95,
    37,
    37,
    37,
    37,
    37,
    97,
    37,
    37,
    97,
    37,
    37,
    97,
    37,
    37,
    97,
    37,
    37,
    97,
    37,
    37,
    97,
    37,
    11,
    11,
    11,
    99,
    101,
    103,
    11,
    11,
    11,
    11,
    11,
    11,
    11,
    11,
    11,
    11,
    11,
    11,
    11,
    11,
    11,
    11,
    11,
    11,
    11,
    11,
    11,
    11
   ],
   "opacity": 1,
   "visible": true,
   "x": 0,
   "y": 0
  },
  {
   "id": 2,
   "name": "deco_sotto",
   "type": "tilelayer",
   "width": 28,
   "height": 11,
   "data": [
    0,
    0,
    0,
    0,
    0,
    0,
    0,
    0,
    0,
    12,
    12,
    12,
    12,
    12,
    12,
    12,
    12,
    12,
    12,
    12,
    12,
    12,
    12,
    12,
    12,
    12,
    12,
    12,
    0,
    16,
    0,
    0,
    0,
    0,
    0,
    16,
    0,
    12,
    12,
    12,
    12,
    12,
    12,
    12,
    12,
    12,
    12,
    12,
    12,
    12,
    12,
    12,
    12,
    12,
    12,
    12,
    0,
    0,
    0,
    0,
    0,
    0,
    0,
    0,
    0,
    12,
    12,
    12,
    12,
    12,
    12,
    12,
    12,
    12,
    12,
    12,
    12,
    12,
    12,
    12,
    12,
    12,
    12,
    12,
    34,
    36,
    38,
    38,
    38,
    38,
    38,
    38,
    38,
    12,
    12,
    12,
    12,
    12,
    12,
    12,
    12,
    12,
    12,
    12,
    12,
    12,
    12,
    12,
    12,
    12,
    12,
    12,
    40,
    42,
    44,
    38,
    0,
    0,
    0,
    38,
    38,
    0,
    0,
    0,
    0,
    0,
    0,
    0,
    0,
    0,
    0,
    0,
    0,
    0,
    0,
    0,
    0,
    0,
    0,
    0,
    0,
    0,
    62,
    38,
    0,
    0,
    0,
    38,
    38,
    0,
    0,
    0,
    0,
    0,
    0,
    0,
    0,
    0,
    0,
    0,
    0,
    0,
    0,
    0,
    0,
    0,
    0,
    0,
    76,
    78,
    62,
    38,
    0,
    0,
    38,
    38,
    38,
    0,
    0,
    0,
    0,
    0,
    0,
    0,
    0,
    0,
    0,
    0,
    0,
    0,
    0,
    0,
    0,
    0,
    0,
    0,
    80,
    82,
    62,
    38,
    38,
    38,
    38,
    38,
    38,
    38,
    38,
    38,
    38,
    38,
    38,
    38,
    38,
    38,
    38,
    38,
    38,
    38,
    38,
    38,
    38,
    38,
    38,
    38,
    84,
    86,
    88,
    38,
    38,
    38,
    38,
    38,
    38,
    38,
    38,
    90,
    38,
    38,
    90,
    38,
    38,
    90,
    38,
    38,
    90,
    38,
    38,
    90,
    38,
    38,
    90,
    38,
    84,
    38,
    38,
    0,
    0,
    0,
    38,
    38,
    38,
    38,
    38,
    0,
    38,
    38,
    0,
    38,
    38,
    0,
    38,
    38,
    0,
    38,
    38,
    0,
    38,
    38,
    0,
    38,
    12,
    12,
    12,
    0,
    0,
    0,
    12,
    12,
    12,
    12,
    12,
    12,
    12,
    12,
    12,
    12,
    12,
    12,
    12,
    12,
    12,
    12,
    12,
    12,
    12,
    12,
    12,
    12
   ],
   "opacity": 1,
   "visible": true,
   "x": 0,
   "y": 0
  },
  {
   "id": 3,
   "name": "edifici",
   "type": "tilelayer",
   "width": 28,
   "height": 11,
   "data": [
    2,
    4,
    6,
    4,
    8,
    4,
    6,
    4,
    10,
    0,
    0,
    0,
    0,
    0,
    0,
    0,
    0,
    0,
    0,
    0,
    0,
    0,
    0,
    0,
    0,
    0,
    0,
    0,
    14,
    0,
    18,
    20,
    22,
    20,
    18,
    0,
    24,
    0,
    0,
    0,
    0,
    0,
    0,
    0,
    0,
    0,
    0,
    0,
    0,
    0,
    0,
    0,
    0,
    0,
    0,
    0,
    26,
    28,
    30,
    30,
    30,
    30,
    30,
    28,
    32,
    0,
    0,
    0,
    0,
    0,
    0,
    0,
    0,
    0,
    0,
    0,
    0,
    0,
    0,
    0,
    0,
    0,
    0,
    0,
    0,
    0,
    0,
    0,
    0,
    0,
    0,
    0,
    0,
    0,
    0,
    0,
    0,
    0,
    0,
    0,
    0,
    0,
    0,
    0,
    0,
    0,
    0,
    0,
    0,
    0,
    0,
    0,
    0,
    0,
    0,
    0,
    46,
    48,
    50,
    0,
    0,
    10,
    2,
    4,
    52,
    54,
    56,
    10,
    2,
    4,
    52,
    54,
    56,
    10,
    2,
    4,
    52,
    54,
    56,
    10,
    58,
    60,
    0,
    0,
    64,
    66,
    68,
    0,
    0,
    24,
    14,
    20,
    70,
    72,
    74,
    24,
    14,
    20,
    70,
    72,
    74,
    24,
    14,
    20,
    70,
    72,
    74,
    24,
    0,
    0,
    0,
    0,
    68,
    50,
    0,
    0,
    0,
    32,
    26,
    30,
    30,
    30,
    30,
    32,
    26,
    30,
    30,
    30,
    30,
    32,
    26,
    30,
    30,
    30,
    30,
    32,
    0,
    0,
    0,
    0,
    0,
    0,
    0,
    0,
    0,
    0,
    0,
    0,
    0,
    0,
    0,
    0,
    0,
    0,
    0,
    0,
    0,
    0,
    0,
    0,
    0,
    0,
    0,
    0,
    0,
    0,
    0,
    0,
    0,
    0,
    0,
    0,
    0,
    0,
    0,
    0,
    0,
    0,
    0,
    0,
    0,
    0,
    0,
    0,
    0,
    0,
    0,
    0,
    0,
    0,
    0,
    0,
    0,
    0,
    0,
    92,
    94,
    96,
    0,
    0,
    0,
    0,
    0,
    98,
    0,
    0,
    98,
    0,
    0,
    98,
    0,
    0,
    98,
    0,
    0,
    98,
    0,
    0,
    98,
    0,
    0,
    0,
    0,
    100,
    102,
    104,
    0,
    0,
    0,
    0,
    0,
    0,
    0,
    0,
    0,
    0,
    0,
    0,
    0,
    0,
    0,
    0,
    0,
    0,
    0,
    0,
    0,
    0
   ],
   "opacity": 1,
   "visible": true,
   "x": 0,
   "y": 0
  },
  {
   "id": 4,
   "name": "collisioni",
   "type": "objectgroup",
   "opacity": 1,
   "visible": true,
   "x": 0,
   "y": 0,
   "objects": [
    {
     "id": 1000,
     "name": "",
     "type": "",
     "x": 0,
     "y": 0,
     "width": 32,
     "height": 32,
     "rotation": 0,
     "visible": true,
     "properties": []
    },
    {
     "id": 1001,
     "name": "",
     "type": "",
     "x": 32,
     "y": 0,
     "width": 32,
     "height": 32,
     "rotation": 0,
     "visible": true,
     "properties": []
    },
    {
     "id": 1002,
     "name": "",
     "type": "",
     "x": 64,
     "y": 0,
     "width": 32,
     "height": 32,
     "rotation": 0,
     "visible": true,
     "properties": []
    },
    {
     "id": 1003,
     "name": "",
     "type": "",
     "x": 96,
     "y": 0,
     "width": 32,
     "height": 32,
     "rotation": 0,
     "visible": true,
     "properties": []
    },
    {
     "id": 1004,
     "name": "",
     "type": "",
     "x": 128,
     "y": 0,
     "width": 32,
     "height": 32,
     "rotation": 0,
     "visible": true,
     "properties": []
    },
    {
     "id": 1005,
     "name": "",
     "type": "",
     "x": 160,
     "y": 0,
     "width": 32,
     "height": 32,
     "rotation": 0,
     "visible": true,
     "properties": []
    },
    {
     "id": 1006,
     "name": "",
     "type": "",
     "x": 192,
     "y": 0,
     "width": 32,
     "height": 32,
     "rotation": 0,
     "visible": true,
     "properties": []
    },
    {
     "id": 1007,
     "name": "",
     "type": "",
     "x": 224,
     "y": 0,
     "width": 32,
     "height": 32,
     "rotation": 0,
     "visible": true,
     "properties": []
    },
    {
     "id": 1008,
     "name": "",
     "type": "",
     "x": 256,
     "y": 0,
     "width": 32,
     "height": 32,
     "rotation": 0,
     "visible": true,
     "properties": []
    },
    {
     "id": 1009,
     "name": "",
     "type": "",
     "x": 288,
     "y": 0,
     "width": 32,
     "height": 32,
     "rotation": 0,
     "visible": true,
     "properties": []
    },
    {
     "id": 1010,
     "name": "",
     "type": "",
     "x": 320,
     "y": 0,
     "width": 32,
     "height": 32,
     "rotation": 0,
     "visible": true,
     "properties": []
    },
    {
     "id": 1011,
     "name": "",
     "type": "",
     "x": 352,
     "y": 0,
     "width": 32,
     "height": 32,
     "rotation": 0,
     "visible": true,
     "properties": []
    },
    {
     "id": 1012,
     "name": "",
     "type": "",
     "x": 384,
     "y": 0,
     "width": 32,
     "height": 32,
     "rotation": 0,
     "visible": true,
     "properties": []
    },
    {
     "id": 1013,
     "name": "",
     "type": "",
     "x": 416,
     "y": 0,
     "width": 32,
     "height": 32,
     "rotation": 0,
     "visible": true,
     "properties": []
    },
    {
     "id": 1014,
     "name": "",
     "type": "",
     "x": 448,
     "y": 0,
     "width": 32,
     "height": 32,
     "rotation": 0,
     "visible": true,
     "properties": []
    },
    {
     "id": 1015,
     "name": "",
     "type": "",
     "x": 480,
     "y": 0,
     "width": 32,
     "height": 32,
     "rotation": 0,
     "visible": true,
     "properties": []
    },
    {
     "id": 1016,
     "name": "",
     "type": "",
     "x": 512,
     "y": 0,
     "width": 32,
     "height": 32,
     "rotation": 0,
     "visible": true,
     "properties": []
    },
    {
     "id": 1017,
     "name": "",
     "type": "",
     "x": 544,
     "y": 0,
     "width": 32,
     "height": 32,
     "rotation": 0,
     "visible": true,
     "properties": []
    },
    {
     "id": 1018,
     "name": "",
     "type": "",
     "x": 576,
     "y": 0,
     "width": 32,
     "height": 32,
     "rotation": 0,
     "visible": true,
     "properties": []
    },
    {
     "id": 1019,
     "name": "",
     "type": "",
     "x": 608,
     "y": 0,
     "width": 32,
     "height": 32,
     "rotation": 0,
     "visible": true,
     "properties": []
    },
    {
     "id": 1020,
     "name": "",
     "type": "",
     "x": 640,
     "y": 0,
     "width": 32,
     "height": 32,
     "rotation": 0,
     "visible": true,
     "properties": []
    },
    {
     "id": 1021,
     "name": "",
     "type": "",
     "x": 672,
     "y": 0,
     "width": 32,
     "height": 32,
     "rotation": 0,
     "visible": true,
     "properties": []
    },
    {
     "id": 1022,
     "name": "",
     "type": "",
     "x": 704,
     "y": 0,
     "width": 32,
     "height": 32,
     "rotation": 0,
     "visible": true,
     "properties": []
    },
    {
     "id": 1023,
     "name": "",
     "type": "",
     "x": 736,
     "y": 0,
     "width": 32,
     "height": 32,
     "rotation": 0,
     "visible": true,
     "properties": []
    },
    {
     "id": 1024,
     "name": "",
     "type": "",
     "x": 768,
     "y": 0,
     "width": 32,
     "height": 32,
     "rotation": 0,
     "visible": true,
     "properties": []
    },
    {
     "id": 1025,
     "name": "",
     "type": "",
     "x": 800,
     "y": 0,
     "width": 32,
     "height": 32,
     "rotation": 0,
     "visible": true,
     "properties": []
    },
    {
     "id": 1026,
     "name": "",
     "type": "",
     "x": 832,
     "y": 0,
     "width": 32,
     "height": 32,
     "rotation": 0,
     "visible": true,
     "properties": []
    },
    {
     "id": 1027,
     "name": "",
     "type": "",
     "x": 864,
     "y": 0,
     "width": 32,
     "height": 32,
     "rotation": 0,
     "visible": true,
     "properties": []
    },
    {
     "id": 1028,
     "name": "",
     "type": "",
     "x": 0,
     "y": 32,
     "width": 32,
     "height": 32,
     "rotation": 0,
     "visible": true,
     "properties": []
    },
    {
     "id": 1029,
     "name": "",
     "type": "",
     "x": 32,
     "y": 32,
     "width": 32,
     "height": 32,
     "rotation": 0,
     "visible": true,
     "properties": []
    },
    {
     "id": 1030,
     "name": "",
     "type": "",
     "x": 64,
     "y": 32,
     "width": 32,
     "height": 32,
     "rotation": 0,
     "visible": true,
     "properties": []
    },
    {
     "id": 1031,
     "name": "",
     "type": "",
     "x": 96,
     "y": 32,
     "width": 32,
     "height": 32,
     "rotation": 0,
     "visible": true,
     "properties": []
    },
    {
     "id": 1032,
     "name": "",
     "type": "",
     "x": 128,
     "y": 32,
     "width": 32,
     "height": 32,
     "rotation": 0,
     "visible": true,
     "properties": []
    },
    {
     "id": 1033,
     "name": "",
     "type": "",
     "x": 160,
     "y": 32,
     "width": 32,
     "height": 32,
     "rotation": 0,
     "visible": true,
     "properties": []
    },
    {
     "id": 1034,
     "name": "",
     "type": "",
     "x": 192,
     "y": 32,
     "width": 32,
     "height": 32,
     "rotation": 0,
     "visible": true,
     "properties": []
    },
    {
     "id": 1035,
     "name": "",
     "type": "",
     "x": 224,
     "y": 32,
     "width": 32,
     "height": 32,
     "rotation": 0,
     "visible": true,
     "properties": []
    },
    {
     "id": 1036,
     "name": "",
     "type": "",
     "x": 256,
     "y": 32,
     "width": 32,
     "height": 32,
     "rotation": 0,
     "visible": true,
     "properties": []
    },
    {
     "id": 1037,
     "name": "",
     "type": "",
     "x": 288,
     "y": 32,
     "width": 32,
     "height": 32,
     "rotation": 0,
     "visible": true,
     "properties": []
    },
    {
     "id": 1038,
     "name": "",
     "type": "",
     "x": 320,
     "y": 32,
     "width": 32,
     "height": 32,
     "rotation": 0,
     "visible": true,
     "properties": []
    },
    {
     "id": 1039,
     "name": "",
     "type": "",
     "x": 352,
     "y": 32,
     "width": 32,
     "height": 32,
     "rotation": 0,
     "visible": true,
     "properties": []
    },
    {
     "id": 1040,
     "name": "",
     "type": "",
     "x": 384,
     "y": 32,
     "width": 32,
     "height": 32,
     "rotation": 0,
     "visible": true,
     "properties": []
    },
    {
     "id": 1041,
     "name": "",
     "type": "",
     "x": 416,
     "y": 32,
     "width": 32,
     "height": 32,
     "rotation": 0,
     "visible": true,
     "properties": []
    },
    {
     "id": 1042,
     "name": "",
     "type": "",
     "x": 448,
     "y": 32,
     "width": 32,
     "height": 32,
     "rotation": 0,
     "visible": true,
     "properties": []
    },
    {
     "id": 1043,
     "name": "",
     "type": "",
     "x": 480,
     "y": 32,
     "width": 32,
     "height": 32,
     "rotation": 0,
     "visible": true,
     "properties": []
    },
    {
     "id": 1044,
     "name": "",
     "type": "",
     "x": 512,
     "y": 32,
     "width": 32,
     "height": 32,
     "rotation": 0,
     "visible": true,
     "properties": []
    },
    {
     "id": 1045,
     "name": "",
     "type": "",
     "x": 544,
     "y": 32,
     "width": 32,
     "height": 32,
     "rotation": 0,
     "visible": true,
     "properties": []
    },
    {
     "id": 1046,
     "name": "",
     "type": "",
     "x": 608,
     "y": 32,
     "width": 32,
     "height": 32,
     "rotation": 0,
     "visible": true,
     "properties": []
    },
    {
     "id": 1047,
     "name": "",
     "type": "",
     "x": 640,
     "y": 32,
     "width": 32,
     "height": 32,
     "rotation": 0,
     "visible": true,
     "properties": []
    },
    {
     "id": 1048,
     "name": "",
     "type": "",
     "x": 672,
     "y": 32,
     "width": 32,
     "height": 32,
     "rotation": 0,
     "visible": true,
     "properties": []
    },
    {
     "id": 1049,
     "name": "",
     "type": "",
     "x": 704,
     "y": 32,
     "width": 32,
     "height": 32,
     "rotation": 0,
     "visible": true,
     "properties": []
    },
    {
     "id": 1050,
     "name": "",
     "type": "",
     "x": 736,
     "y": 32,
     "width": 32,
     "height": 32,
     "rotation": 0,
     "visible": true,
     "properties": []
    },
    {
     "id": 1051,
     "name": "",
     "type": "",
     "x": 768,
     "y": 32,
     "width": 32,
     "height": 32,
     "rotation": 0,
     "visible": true,
     "properties": []
    },
    {
     "id": 1052,
     "name": "",
     "type": "",
     "x": 800,
     "y": 32,
     "width": 32,
     "height": 32,
     "rotation": 0,
     "visible": true,
     "properties": []
    },
    {
     "id": 1053,
     "name": "",
     "type": "",
     "x": 832,
     "y": 32,
     "width": 32,
     "height": 32,
     "rotation": 0,
     "visible": true,
     "properties": []
    },
    {
     "id": 1054,
     "name": "",
     "type": "",
     "x": 864,
     "y": 32,
     "width": 32,
     "height": 32,
     "rotation": 0,
     "visible": true,
     "properties": []
    },
    {
     "id": 1055,
     "name": "",
     "type": "",
     "x": 32,
     "y": 64,
     "width": 32,
     "height": 32,
     "rotation": 0,
     "visible": true,
     "properties": []
    },
    {
     "id": 1056,
     "name": "",
     "type": "",
     "x": 224,
     "y": 64,
     "width": 32,
     "height": 32,
     "rotation": 0,
     "visible": true,
     "properties": []
    },
    {
     "id": 1057,
     "name": "",
     "type": "",
     "x": 288,
     "y": 64,
     "width": 32,
     "height": 32,
     "rotation": 0,
     "visible": true,
     "properties": []
    },
    {
     "id": 1058,
     "name": "",
     "type": "",
     "x": 320,
     "y": 64,
     "width": 32,
     "height": 32,
     "rotation": 0,
     "visible": true,
     "properties": []
    },
    {
     "id": 1059,
     "name": "",
     "type": "",
     "x": 352,
     "y": 64,
     "width": 32,
     "height": 32,
     "rotation": 0,
     "visible": true,
     "properties": []
    },
    {
     "id": 1060,
     "name": "",
     "type": "",
     "x": 384,
     "y": 64,
     "width": 32,
     "height": 32,
     "rotation": 0,
     "visible": true,
     "properties": []
    },
    {
     "id": 1061,
     "name": "",
     "type": "",
     "x": 416,
     "y": 64,
     "width": 32,
     "height": 32,
     "rotation": 0,
     "visible": true,
     "properties": []
    },
    {
     "id": 1062,
     "name": "",
     "type": "",
     "x": 448,
     "y": 64,
     "width": 32,
     "height": 32,
     "rotation": 0,
     "visible": true,
     "properties": []
    },
    {
     "id": 1063,
     "name": "",
     "type": "",
     "x": 480,
     "y": 64,
     "width": 32,
     "height": 32,
     "rotation": 0,
     "visible": true,
     "properties": []
    },
    {
     "id": 1064,
     "name": "",
     "type": "",
     "x": 512,
     "y": 64,
     "width": 32,
     "height": 32,
     "rotation": 0,
     "visible": true,
     "properties": []
    },
    {
     "id": 1065,
     "name": "",
     "type": "",
     "x": 544,
     "y": 64,
     "width": 32,
     "height": 32,
     "rotation": 0,
     "visible": true,
     "properties": []
    },
    {
     "id": 1066,
     "name": "",
     "type": "",
     "x": 576,
     "y": 64,
     "width": 32,
     "height": 32,
     "rotation": 0,
     "visible": true,
     "properties": []
    },
    {
     "id": 1067,
     "name": "",
     "type": "",
     "x": 608,
     "y": 64,
     "width": 32,
     "height": 32,
     "rotation": 0,
     "visible": true,
     "properties": []
    },
    {
     "id": 1068,
     "name": "",
     "type": "",
     "x": 640,
     "y": 64,
     "width": 32,
     "height": 32,
     "rotation": 0,
     "visible": true,
     "properties": []
    },
    {
     "id": 1069,
     "name": "",
     "type": "",
     "x": 672,
     "y": 64,
     "width": 32,
     "height": 32,
     "rotation": 0,
     "visible": true,
     "properties": []
    },
    {
     "id": 1070,
     "name": "",
     "type": "",
     "x": 704,
     "y": 64,
     "width": 32,
     "height": 32,
     "rotation": 0,
     "visible": true,
     "properties": []
    },
    {
     "id": 1071,
     "name": "",
     "type": "",
     "x": 736,
     "y": 64,
     "width": 32,
     "height": 32,
     "rotation": 0,
     "visible": true,
     "properties": []
    },
    {
     "id": 1072,
     "name": "",
     "type": "",
     "x": 768,
     "y": 64,
     "width": 32,
     "height": 32,
     "rotation": 0,
     "visible": true,
     "properties": []
    },
    {
     "id": 1073,
     "name": "",
     "type": "",
     "x": 800,
     "y": 64,
     "width": 32,
     "height": 32,
     "rotation": 0,
     "visible": true,
     "properties": []
    },
    {
     "id": 1074,
     "name": "",
     "type": "",
     "x": 832,
     "y": 64,
     "width": 32,
     "height": 32,
     "rotation": 0,
     "visible": true,
     "properties": []
    },
    {
     "id": 1075,
     "name": "",
     "type": "",
     "x": 864,
     "y": 64,
     "width": 32,
     "height": 32,
     "rotation": 0,
     "visible": true,
     "properties": []
    },
    {
     "id": 1076,
     "name": "",
     "type": "",
     "x": 288,
     "y": 96,
     "width": 32,
     "height": 32,
     "rotation": 0,
     "visible": true,
     "properties": []
    },
    {
     "id": 1077,
     "name": "",
     "type": "",
     "x": 320,
     "y": 96,
     "width": 32,
     "height": 32,
     "rotation": 0,
     "visible": true,
     "properties": []
    },
    {
     "id": 1078,
     "name": "",
     "type": "",
     "x": 352,
     "y": 96,
     "width": 32,
     "height": 32,
     "rotation": 0,
     "visible": true,
     "properties": []
    },
    {
     "id": 1079,
     "name": "",
     "type": "",
     "x": 384,
     "y": 96,
     "width": 32,
     "height": 32,
     "rotation": 0,
     "visible": true,
     "properties": []
    },
    {
     "id": 1080,
     "name": "",
     "type": "",
     "x": 416,
     "y": 96,
     "width": 32,
     "height": 32,
     "rotation": 0,
     "visible": true,
     "properties": []
    },
    {
     "id": 1081,
     "name": "",
     "type": "",
     "x": 448,
     "y": 96,
     "width": 32,
     "height": 32,
     "rotation": 0,
     "visible": true,
     "properties": []
    },
    {
     "id": 1082,
     "name": "",
     "type": "",
     "x": 480,
     "y": 96,
     "width": 32,
     "height": 32,
     "rotation": 0,
     "visible": true,
     "properties": []
    },
    {
     "id": 1083,
     "name": "",
     "type": "",
     "x": 512,
     "y": 96,
     "width": 32,
     "height": 32,
     "rotation": 0,
     "visible": true,
     "properties": []
    },
    {
     "id": 1084,
     "name": "",
     "type": "",
     "x": 544,
     "y": 96,
     "width": 32,
     "height": 32,
     "rotation": 0,
     "visible": true,
     "properties": []
    },
    {
     "id": 1085,
     "name": "",
     "type": "",
     "x": 576,
     "y": 96,
     "width": 32,
     "height": 32,
     "rotation": 0,
     "visible": true,
     "properties": []
    },
    {
     "id": 1086,
     "name": "",
     "type": "",
     "x": 608,
     "y": 96,
     "width": 32,
     "height": 32,
     "rotation": 0,
     "visible": true,
     "properties": []
    },
    {
     "id": 1087,
     "name": "",
     "type": "",
     "x": 640,
     "y": 96,
     "width": 32,
     "height": 32,
     "rotation": 0,
     "visible": true,
     "properties": []
    },
    {
     "id": 1088,
     "name": "",
     "type": "",
     "x": 672,
     "y": 96,
     "width": 32,
     "height": 32,
     "rotation": 0,
     "visible": true,
     "properties": []
    },
    {
     "id": 1089,
     "name": "",
     "type": "",
     "x": 704,
     "y": 96,
     "width": 32,
     "height": 32,
     "rotation": 0,
     "visible": true,
     "properties": []
    },
    {
     "id": 1090,
     "name": "",
     "type": "",
     "x": 736,
     "y": 96,
     "width": 32,
     "height": 32,
     "rotation": 0,
     "visible": true,
     "properties": []
    },
    {
     "id": 1091,
     "name": "",
     "type": "",
     "x": 768,
     "y": 96,
     "width": 32,
     "height": 32,
     "rotation": 0,
     "visible": true,
     "properties": []
    },
    {
     "id": 1092,
     "name": "",
     "type": "",
     "x": 800,
     "y": 96,
     "width": 32,
     "height": 32,
     "rotation": 0,
     "visible": true,
     "properties": []
    },
    {
     "id": 1093,
     "name": "",
     "type": "",
     "x": 832,
     "y": 96,
     "width": 32,
     "height": 32,
     "rotation": 0,
     "visible": true,
     "properties": []
    },
    {
     "id": 1094,
     "name": "",
     "type": "",
     "x": 864,
     "y": 96,
     "width": 32,
     "height": 32,
     "rotation": 0,
     "visible": true,
     "properties": []
    },
    {
     "id": 1095,
     "name": "",
     "type": "",
     "x": 0,
     "y": 128,
     "width": 32,
     "height": 32,
     "rotation": 0,
     "visible": true,
     "properties": []
    },
    {
     "id": 1096,
     "name": "",
     "type": "",
     "x": 32,
     "y": 128,
     "width": 32,
     "height": 32,
     "rotation": 0,
     "visible": true,
     "properties": []
    },
    {
     "id": 1097,
     "name": "",
     "type": "",
     "x": 128,
     "y": 128,
     "width": 32,
     "height": 32,
     "rotation": 0,
     "visible": true,
     "properties": []
    },
    {
     "id": 1098,
     "name": "",
     "type": "",
     "x": 160,
     "y": 128,
     "width": 32,
     "height": 32,
     "rotation": 0,
     "visible": true,
     "properties": []
    },
    {
     "id": 1099,
     "name": "",
     "type": "",
     "x": 288,
     "y": 128,
     "width": 32,
     "height": 32,
     "rotation": 0,
     "visible": true,
     "properties": []
    },
    {
     "id": 1100,
     "name": "",
     "type": "",
     "x": 320,
     "y": 128,
     "width": 32,
     "height": 32,
     "rotation": 0,
     "visible": true,
     "properties": []
    },
    {
     "id": 1101,
     "name": "",
     "type": "",
     "x": 352,
     "y": 128,
     "width": 32,
     "height": 32,
     "rotation": 0,
     "visible": true,
     "properties": []
    },
    {
     "id": 1102,
     "name": "",
     "type": "",
     "x": 384,
     "y": 128,
     "width": 32,
     "height": 32,
     "rotation": 0,
     "visible": true,
     "properties": []
    },
    {
     "id": 1103,
     "name": "",
     "type": "",
     "x": 416,
     "y": 128,
     "width": 32,
     "height": 32,
     "rotation": 0,
     "visible": true,
     "properties": []
    },
    {
     "id": 1104,
     "name": "",
     "type": "",
     "x": 448,
     "y": 128,
     "width": 32,
     "height": 32,
     "rotation": 0,
     "visible": true,
     "properties": []
    },
    {
     "id": 1105,
     "name": "",
     "type": "",
     "x": 480,
     "y": 128,
     "width": 32,
     "height": 32,
     "rotation": 0,
     "visible": true,
     "properties": []
    },
    {
     "id": 1106,
     "name": "",
     "type": "",
     "x": 512,
     "y": 128,
     "width": 32,
     "height": 32,
     "rotation": 0,
     "visible": true,
     "properties": []
    },
    {
     "id": 1107,
     "name": "",
     "type": "",
     "x": 544,
     "y": 128,
     "width": 32,
     "height": 32,
     "rotation": 0,
     "visible": true,
     "properties": []
    },
    {
     "id": 1108,
     "name": "",
     "type": "",
     "x": 576,
     "y": 128,
     "width": 32,
     "height": 32,
     "rotation": 0,
     "visible": true,
     "properties": []
    },
    {
     "id": 1109,
     "name": "",
     "type": "",
     "x": 608,
     "y": 128,
     "width": 32,
     "height": 32,
     "rotation": 0,
     "visible": true,
     "properties": []
    },
    {
     "id": 1110,
     "name": "",
     "type": "",
     "x": 640,
     "y": 128,
     "width": 32,
     "height": 32,
     "rotation": 0,
     "visible": true,
     "properties": []
    },
    {
     "id": 1111,
     "name": "",
     "type": "",
     "x": 672,
     "y": 128,
     "width": 32,
     "height": 32,
     "rotation": 0,
     "visible": true,
     "properties": []
    },
    {
     "id": 1112,
     "name": "",
     "type": "",
     "x": 704,
     "y": 128,
     "width": 32,
     "height": 32,
     "rotation": 0,
     "visible": true,
     "properties": []
    },
    {
     "id": 1113,
     "name": "",
     "type": "",
     "x": 736,
     "y": 128,
     "width": 32,
     "height": 32,
     "rotation": 0,
     "visible": true,
     "properties": []
    },
    {
     "id": 1114,
     "name": "",
     "type": "",
     "x": 768,
     "y": 128,
     "width": 32,
     "height": 32,
     "rotation": 0,
     "visible": true,
     "properties": []
    },
    {
     "id": 1115,
     "name": "",
     "type": "",
     "x": 800,
     "y": 128,
     "width": 32,
     "height": 32,
     "rotation": 0,
     "visible": true,
     "properties": []
    },
    {
     "id": 1116,
     "name": "",
     "type": "",
     "x": 832,
     "y": 128,
     "width": 32,
     "height": 32,
     "rotation": 0,
     "visible": true,
     "properties": []
    },
    {
     "id": 1117,
     "name": "",
     "type": "",
     "x": 864,
     "y": 128,
     "width": 32,
     "height": 32,
     "rotation": 0,
     "visible": true,
     "properties": []
    },
    {
     "id": 1118,
     "name": "",
     "type": "",
     "x": 32,
     "y": 160,
     "width": 32,
     "height": 32,
     "rotation": 0,
     "visible": true,
     "properties": []
    },
    {
     "id": 1119,
     "name": "",
     "type": "",
     "x": 128,
     "y": 160,
     "width": 32,
     "height": 32,
     "rotation": 0,
     "visible": true,
     "properties": []
    },
    {
     "id": 1120,
     "name": "",
     "type": "",
     "x": 160,
     "y": 160,
     "width": 32,
     "height": 32,
     "rotation": 0,
     "visible": true,
     "properties": []
    },
    {
     "id": 1121,
     "name": "",
     "type": "",
     "x": 288,
     "y": 160,
     "width": 32,
     "height": 32,
     "rotation": 0,
     "visible": true,
     "properties": []
    },
    {
     "id": 1122,
     "name": "",
     "type": "",
     "x": 320,
     "y": 160,
     "width": 32,
     "height": 32,
     "rotation": 0,
     "visible": true,
     "properties": []
    },
    {
     "id": 1123,
     "name": "",
     "type": "",
     "x": 352,
     "y": 160,
     "width": 32,
     "height": 32,
     "rotation": 0,
     "visible": true,
     "properties": []
    },
    {
     "id": 1124,
     "name": "",
     "type": "",
     "x": 384,
     "y": 160,
     "width": 32,
     "height": 32,
     "rotation": 0,
     "visible": true,
     "properties": []
    },
    {
     "id": 1125,
     "name": "",
     "type": "",
     "x": 448,
     "y": 160,
     "width": 32,
     "height": 32,
     "rotation": 0,
     "visible": true,
     "properties": []
    },
    {
     "id": 1126,
     "name": "",
     "type": "",
     "x": 480,
     "y": 160,
     "width": 32,
     "height": 32,
     "rotation": 0,
     "visible": true,
     "properties": []
    },
    {
     "id": 1127,
     "name": "",
     "type": "",
     "x": 512,
     "y": 160,
     "width": 32,
     "height": 32,
     "rotation": 0,
     "visible": true,
     "properties": []
    },
    {
     "id": 1128,
     "name": "",
     "type": "",
     "x": 544,
     "y": 160,
     "width": 32,
     "height": 32,
     "rotation": 0,
     "visible": true,
     "properties": []
    },
    {
     "id": 1129,
     "name": "",
     "type": "",
     "x": 576,
     "y": 160,
     "width": 32,
     "height": 32,
     "rotation": 0,
     "visible": true,
     "properties": []
    },
    {
     "id": 1130,
     "name": "",
     "type": "",
     "x": 640,
     "y": 160,
     "width": 32,
     "height": 32,
     "rotation": 0,
     "visible": true,
     "properties": []
    },
    {
     "id": 1131,
     "name": "",
     "type": "",
     "x": 672,
     "y": 160,
     "width": 32,
     "height": 32,
     "rotation": 0,
     "visible": true,
     "properties": []
    },
    {
     "id": 1132,
     "name": "",
     "type": "",
     "x": 704,
     "y": 160,
     "width": 32,
     "height": 32,
     "rotation": 0,
     "visible": true,
     "properties": []
    },
    {
     "id": 1133,
     "name": "",
     "type": "",
     "x": 736,
     "y": 160,
     "width": 32,
     "height": 32,
     "rotation": 0,
     "visible": true,
     "properties": []
    },
    {
     "id": 1134,
     "name": "",
     "type": "",
     "x": 768,
     "y": 160,
     "width": 32,
     "height": 32,
     "rotation": 0,
     "visible": true,
     "properties": []
    },
    {
     "id": 1135,
     "name": "",
     "type": "",
     "x": 832,
     "y": 160,
     "width": 32,
     "height": 32,
     "rotation": 0,
     "visible": true,
     "properties": []
    },
    {
     "id": 1136,
     "name": "",
     "type": "",
     "x": 864,
     "y": 160,
     "width": 32,
     "height": 32,
     "rotation": 0,
     "visible": true,
     "properties": []
    },
    {
     "id": 1137,
     "name": "",
     "type": "",
     "x": 32,
     "y": 192,
     "width": 32,
     "height": 32,
     "rotation": 0,
     "visible": true,
     "properties": []
    },
    {
     "id": 1138,
     "name": "",
     "type": "",
     "x": 0,
     "y": 224,
     "width": 32,
     "height": 32,
     "rotation": 0,
     "visible": true,
     "properties": []
    },
    {
     "id": 1139,
     "name": "",
     "type": "",
     "x": 32,
     "y": 224,
     "width": 32,
     "height": 32,
     "rotation": 0,
     "visible": true,
     "properties": []
    },
    {
     "id": 1140,
     "name": "",
     "type": "",
     "x": 352,
     "y": 288,
     "width": 32,
     "height": 32,
     "rotation": 0,
     "visible": true,
     "properties": []
    },
    {
     "id": 1141,
     "name": "",
     "type": "",
     "x": 448,
     "y": 288,
     "width": 32,
     "height": 32,
     "rotation": 0,
     "visible": true,
     "properties": []
    },
    {
     "id": 1142,
     "name": "",
     "type": "",
     "x": 544,
     "y": 288,
     "width": 32,
     "height": 32,
     "rotation": 0,
     "visible": true,
     "properties": []
    },
    {
     "id": 1143,
     "name": "",
     "type": "",
     "x": 640,
     "y": 288,
     "width": 32,
     "height": 32,
     "rotation": 0,
     "visible": true,
     "properties": []
    },
    {
     "id": 1144,
     "name": "",
     "type": "",
     "x": 736,
     "y": 288,
     "width": 32,
     "height": 32,
     "rotation": 0,
     "visible": true,
     "properties": []
    },
    {
     "id": 1145,
     "name": "",
     "type": "",
     "x": 832,
     "y": 288,
     "width": 32,
     "height": 32,
     "rotation": 0,
     "visible": true,
     "properties": []
    },
    {
     "id": 1146,
     "name": "",
     "type": "",
     "x": 0,
     "y": 320,
     "width": 32,
     "height": 32,
     "rotation": 0,
     "visible": true,
     "properties": []
    },
    {
     "id": 1147,
     "name": "",
     "type": "",
     "x": 32,
     "y": 320,
     "width": 32,
     "height": 32,
     "rotation": 0,
     "visible": true,
     "properties": []
    },
    {
     "id": 1148,
     "name": "",
     "type": "",
     "x": 64,
     "y": 320,
     "width": 32,
     "height": 32,
     "rotation": 0,
     "visible": true,
     "properties": []
    },
    {
     "id": 1149,
     "name": "",
     "type": "",
     "x": 96,
     "y": 320,
     "width": 32,
     "height": 32,
     "rotation": 0,
     "visible": true,
     "properties": []
    },
    {
     "id": 1150,
     "name": "",
     "type": "",
     "x": 128,
     "y": 320,
     "width": 32,
     "height": 32,
     "rotation": 0,
     "visible": true,
     "properties": []
    },
    {
     "id": 1151,
     "name": "",
     "type": "",
     "x": 160,
     "y": 320,
     "width": 32,
     "height": 32,
     "rotation": 0,
     "visible": true,
     "properties": []
    },
    {
     "id": 1152,
     "name": "",
     "type": "",
     "x": 192,
     "y": 320,
     "width": 32,
     "height": 32,
     "rotation": 0,
     "visible": true,
     "properties": []
    },
    {
     "id": 1153,
     "name": "",
     "type": "",
     "x": 224,
     "y": 320,
     "width": 32,
     "height": 32,
     "rotation": 0,
     "visible": true,
     "properties": []
    },
    {
     "id": 1154,
     "name": "",
     "type": "",
     "x": 256,
     "y": 320,
     "width": 32,
     "height": 32,
     "rotation": 0,
     "visible": true,
     "properties": []
    },
    {
     "id": 1155,
     "name": "",
     "type": "",
     "x": 288,
     "y": 320,
     "width": 32,
     "height": 32,
     "rotation": 0,
     "visible": true,
     "properties": []
    },
    {
     "id": 1156,
     "name": "",
     "type": "",
     "x": 320,
     "y": 320,
     "width": 32,
     "height": 32,
     "rotation": 0,
     "visible": true,
     "properties": []
    },
    {
     "id": 1157,
     "name": "",
     "type": "",
     "x": 352,
     "y": 320,
     "width": 32,
     "height": 32,
     "rotation": 0,
     "visible": true,
     "properties": []
    },
    {
     "id": 1158,
     "name": "",
     "type": "",
     "x": 384,
     "y": 320,
     "width": 32,
     "height": 32,
     "rotation": 0,
     "visible": true,
     "properties": []
    },
    {
     "id": 1159,
     "name": "",
     "type": "",
     "x": 416,
     "y": 320,
     "width": 32,
     "height": 32,
     "rotation": 0,
     "visible": true,
     "properties": []
    },
    {
     "id": 1160,
     "name": "",
     "type": "",
     "x": 448,
     "y": 320,
     "width": 32,
     "height": 32,
     "rotation": 0,
     "visible": true,
     "properties": []
    },
    {
     "id": 1161,
     "name": "",
     "type": "",
     "x": 480,
     "y": 320,
     "width": 32,
     "height": 32,
     "rotation": 0,
     "visible": true,
     "properties": []
    },
    {
     "id": 1162,
     "name": "",
     "type": "",
     "x": 512,
     "y": 320,
     "width": 32,
     "height": 32,
     "rotation": 0,
     "visible": true,
     "properties": []
    },
    {
     "id": 1163,
     "name": "",
     "type": "",
     "x": 544,
     "y": 320,
     "width": 32,
     "height": 32,
     "rotation": 0,
     "visible": true,
     "properties": []
    },
    {
     "id": 1164,
     "name": "",
     "type": "",
     "x": 576,
     "y": 320,
     "width": 32,
     "height": 32,
     "rotation": 0,
     "visible": true,
     "properties": []
    },
    {
     "id": 1165,
     "name": "",
     "type": "",
     "x": 608,
     "y": 320,
     "width": 32,
     "height": 32,
     "rotation": 0,
     "visible": true,
     "properties": []
    },
    {
     "id": 1166,
     "name": "",
     "type": "",
     "x": 640,
     "y": 320,
     "width": 32,
     "height": 32,
     "rotation": 0,
     "visible": true,
     "properties": []
    },
    {
     "id": 1167,
     "name": "",
     "type": "",
     "x": 672,
     "y": 320,
     "width": 32,
     "height": 32,
     "rotation": 0,
     "visible": true,
     "properties": []
    },
    {
     "id": 1168,
     "name": "",
     "type": "",
     "x": 704,
     "y": 320,
     "width": 32,
     "height": 32,
     "rotation": 0,
     "visible": true,
     "properties": []
    },
    {
     "id": 1169,
     "name": "",
     "type": "",
     "x": 736,
     "y": 320,
     "width": 32,
     "height": 32,
     "rotation": 0,
     "visible": true,
     "properties": []
    },
    {
     "id": 1170,
     "name": "",
     "type": "",
     "x": 768,
     "y": 320,
     "width": 32,
     "height": 32,
     "rotation": 0,
     "visible": true,
     "properties": []
    },
    {
     "id": 1171,
     "name": "",
     "type": "",
     "x": 800,
     "y": 320,
     "width": 32,
     "height": 32,
     "rotation": 0,
     "visible": true,
     "properties": []
    },
    {
     "id": 1172,
     "name": "",
     "type": "",
     "x": 832,
     "y": 320,
     "width": 32,
     "height": 32,
     "rotation": 0,
     "visible": true,
     "properties": []
    },
    {
     "id": 1173,
     "name": "",
     "type": "",
     "x": 864,
     "y": 320,
     "width": 32,
     "height": 32,
     "rotation": 0,
     "visible": true,
     "properties": []
    }
   ]
  },
  {
   "id": 5,
   "name": "eventi",
   "type": "objectgroup",
   "opacity": 1,
   "visible": true,
   "x": 0,
   "y": 0,
   "objects": [
    {
     "id": 1,
     "name": "npc_genzano_laboratorio_entrata_1",
     "type": "",
     "point": true,
     "x": 80,
     "y": 160,
     "width": 0,
     "height": 0,
     "rotation": 0,
     "visible": true,
     "properties": [
      {
       "name": "type",
       "type": "string",
       "value": "npc"
      },
      {
       "name": "id",
       "type": "string",
       "value": "npc_genzano_laboratorio_entrata_1"
      },
      {
       "name": "nota_origine",
       "type": "string",
       "value": "OBJ_EVENT_GFX_SCIENTIST"
      }
     ]
    },
    {
     "id": 2,
     "name": "uscita_1",
     "type": "",
     "x": 96,
     "y": 288,
     "width": 32,
     "height": 32,
     "rotation": 0,
     "visible": true,
     "properties": [
      {
       "name": "type",
       "type": "string",
       "value": "warp"
      },
      {
       "name": "destinazione",
       "type": "string",
       "value": "genzano"
      },
      {
       "name": "spawn_id",
       "type": "string",
       "value": "da_laboratorio_genzano"
      }
     ]
    },
    {
     "id": 3,
     "name": "uscita_2",
     "type": "",
     "x": 128,
     "y": 288,
     "width": 32,
     "height": 32,
     "rotation": 0,
     "visible": true,
     "properties": [
      {
       "name": "type",
       "type": "string",
       "value": "warp"
      },
      {
       "name": "destinazione",
       "type": "string",
       "value": "genzano"
      },
      {
       "name": "spawn_id",
       "type": "string",
       "value": "da_laboratorio_genzano"
      }
     ]
    },
    {
     "id": 4,
     "name": "uscita_3",
     "type": "",
     "x": 160,
     "y": 288,
     "width": 32,
     "height": 32,
     "rotation": 0,
     "visible": true,
     "properties": [
      {
       "name": "type",
       "type": "string",
       "value": "warp"
      },
      {
       "name": "destinazione",
       "type": "string",
       "value": "genzano"
      },
      {
       "name": "spawn_id",
       "type": "string",
       "value": "da_laboratorio_genzano"
      }
     ]
    },
    {
     "id": 5,
     "name": "uscita_4",
     "type": "",
     "x": 416,
     "y": 160,
     "width": 32,
     "height": 32,
     "rotation": 0,
     "visible": true,
     "properties": [
      {
       "name": "type",
       "type": "string",
       "value": "warp"
      },
      {
       "name": "destinazione",
       "type": "string",
       "value": "genzano_laboratorio_lounge"
      },
      {
       "name": "spawn_id",
       "type": "string",
       "value": "da_entrata"
      }
     ]
    },
    {
     "id": 6,
     "name": "uscita_5",
     "type": "",
     "x": 608,
     "y": 160,
     "width": 32,
     "height": 32,
     "rotation": 0,
     "visible": true,
     "properties": [
      {
       "name": "type",
       "type": "string",
       "value": "warp"
      },
      {
       "name": "destinazione",
       "type": "string",
       "value": "genzano_laboratorio_ricerca"
      },
      {
       "name": "spawn_id",
       "type": "string",
       "value": "da_entrata"
      }
     ]
    },
    {
     "id": 7,
     "name": "uscita_6",
     "type": "",
     "x": 800,
     "y": 160,
     "width": 32,
     "height": 32,
     "rotation": 0,
     "visible": true,
     "properties": [
      {
       "name": "type",
       "type": "string",
       "value": "warp"
      },
      {
       "name": "destinazione",
       "type": "string",
       "value": "genzano_laboratorio_esperimenti"
      },
      {
       "name": "spawn_id",
       "type": "string",
       "value": "da_entrata"
      }
     ]
    },
    {
     "id": 8,
     "name": "spawn_da_lounge",
     "type": "",
     "x": 416,
     "y": 192,
     "width": 0,
     "height": 0,
     "rotation": 0,
     "visible": true,
     "point": true,
     "properties": [
      {
       "name": "type",
       "type": "string",
       "value": "spawn"
      },
      {
       "name": "id",
       "type": "string",
       "value": "da_lounge"
      }
     ]
    },
    {
     "id": 9,
     "name": "spawn_da_ricerca",
     "type": "",
     "x": 608,
     "y": 192,
     "width": 0,
     "height": 0,
     "rotation": 0,
     "visible": true,
     "point": true,
     "properties": [
      {
       "name": "type",
       "type": "string",
       "value": "spawn"
      },
      {
       "name": "id",
       "type": "string",
       "value": "da_ricerca"
      }
     ]
    },
    {
     "id": 10,
     "name": "spawn_da_esperimenti",
     "type": "",
     "x": 800,
     "y": 192,
     "width": 0,
     "height": 0,
     "rotation": 0,
     "visible": true,
     "point": true,
     "properties": [
      {
       "name": "type",
       "type": "string",
       "value": "spawn"
      },
      {
       "name": "id",
       "type": "string",
       "value": "da_esperimenti"
      }
     ]
    },
    {
     "id": 11,
     "name": "spawn_da_genzano",
     "type": "",
     "x": 96,
     "y": 320,
     "width": 0,
     "height": 0,
     "rotation": 0,
     "visible": true,
     "point": true,
     "properties": [
      {
       "name": "type",
       "type": "string",
       "value": "spawn"
      },
      {
       "name": "id",
       "type": "string",
       "value": "da_genzano"
      }
     ]
    }
   ]
  }
 ]
}