<?xml version="1.0" encoding="UTF-8"?>
<map version="1.10" tiledversion="1.12.2" orientation="orthogonal" renderorder="right-down" width="25" height="105" tilewidth="32" tileheight="32" infinite="0" nextlayerid="5" nextobjectid="10">
 <tileset firstgid="1" source="../Caves.tsj"/>
 
 <layer id="1" name="ground" width="25" height="105">
  <data encoding="csv">
338,338,338,338,338,338,338,338,338,338,338,338,338,338,338,338,338,338,338,338,338,338,338,338,338,
338,338,338,338,338,338,338,338,338,338,338,338,338,338,338,338,338,338,338,338,338,338,338,338,338,
338,338,338,338,338,338,338,338,338,338,338,338,338,338,338,338,338,338,338,338,338,338,338,338,338,
338,338,338,338,338,338,338,338,338,338,338,338,338,338,338,338,338,338,338,338,338,338,338,338,338,
338,338,338,338,338,338,338,338,338,338,338,338,338,338,338,338,338,338,338,338,338,338,338,338,338,
338,338,338,338,338,338,338,338,338,338,338,338,338,338,338,338,338,338,338,338,338,338,338,338,338,
338,338,338,338,338,338,338,338,338,338,338,338,338,338,338,338,338,338,338,338,338,338,338,338,338,
338,338,338,338,338,338,338,338,338,338,338,338,338,338,338,338,338,338,338,338,338,338,338,338,338,
338,338,338,338,338,338,338,338,338,338,338,338,338,338,338,338,338,338,338,338,338,338,338,338,338,
338,338,338,338,338,338,338,338,338,338,338,338,338,338,338,338,338,338,338,338,338,338,338,338,338,
338,338,338,338,338,338,338,338,338,338,338,338,338,338,338,338,338,338,338,338,338,338,338,338,338,
338,338,338,338,338,338,338,338,338,338,338,338,338,338,338,338,338,338,338,338,338,338,338,338,338,
338,338,338,338,338,338,338,338,338,338,338,338,338,338,338,338,338,338,338,338,338,338,338,338,338,
338,338,338,338,338,338,338,338,338,338,338,338,338,338,338,338,338,338,338,338,338,338,338,338,338,
338,338,338,338,338,338,338,338,338,338,338,338,338,338,338,338,338,338,338,338,338,338,338,338,338,
338,338,338,338,338,338,338,338,338,338,338,338,338,338,338,338,338,338,338,338,338,338,338,338,338,
338,338,338,338,338,338,338,338,338,338,338,338,338,338,338,338,338,338,338,338,338,338,338,338,338,
338,338,338,338,338,338,338,338,338,338,338,338,338,338,338,338,338,338,338,338,338,338,338,338,338,
338,338,338,338,338,338,338,338,338,338,338,338,338,338,338,338,338,338,338,338,338,338,338,338,338,
338,338,338,338,338,338,338,338,338,338,338,338,338,338,338,338,338,338,338,338,338,338,338,338,338,
338,338,338,338,338,338,338,338,338,338,338,338,338,338,338,338,338,338,338,338,338,338,338,338,338,
338,338,338,338,338,338,338,338,338,338,338,338,338,338,338,338,338,338,338,338,338,338,338,338,338,
338,338,338,338,338,338,338,338,338,338,338,338,338,338,338,338,338,338,338,338,338,338,338,338,338,
338,338,338,338,338,338,338,338,338,338,338,338,338,338,338,338,338,338,338,338,338,338,338,338,338,
338,338,338,338,338,338,338,338,338,338,338,338,338,338,338,338,338,338,338,338,338,338,338,338,338,
338,338,338,338,338,338,338,338,338,338,338,338,338,338,338,338,338,338,338,338,338,338,338,338,338,
338,338,338,338,338,338,338,338,338,338,338,338,338,338,338,338,338,338,338,338,338,338,338,338,338,
338,338,338,338,338,338,338,338,338,338,338,338,338,338,338,338,338,338,338,338,338,338,338,338,338,
338,338,338,338,338,338,338,338,338,338,338,338,338,338,338,338,338,338,338,338,338,338,338,338,338,
338,338,338,338,338,338,338,338,338,338,338,338,338,338,338,338,338,338,338,338,338,338,338,338,338,
338,338,338,338,338,338,338,338,338,338,338,338,338,338,338,338,338,338,338,338,338,338,338,338,338,
338,338,338,338,338,338,338,338,338,338,338,338,338,338,338,338,338,338,338,338,338,338,338,338,338,
338,338,338,338,338,338,338,338,338,338,338,338,338,338,338,338,338,338,338,338,338,338,338,338,338,
338,338,338,338,338,338,338,338,338,338,338,338,338,338,338,338,338,338,338,338,338,338,338,338,338,
338,338,338,338,338,338,338,338,338,338,338,338,338,338,338,338,338,338,338,338,338,338,338,338,338,
338,338,338,338,338,338,338,338,338,338,338,338,338,338,338,338,338,338,338,338,338,338,338,338,338,
338,338,338,338,338,338,338,338,338,338,338,338,338,338,338,338,338,338,338,338,338,338,338,338,338,
338,338,338,338,338,338,338,338,338,338,338,338,338,338,338,338,338,338,338,338,338,338,338,338,338,
338,338,338,338,338,338,338,338,338,338,338,338,338,338,338,338,338,338,338,338,338,338,338,338,338,
338,338,338,338,338,338,338,338,338,338,338,338,338,338,338,338,338,338,338,338,338,338,338,338,338,
338,338,338,338,338,338,338,338,338,338,338,338,338,338,338,338,338,338,338,338,338,338,338,338,338,
338,338,338,338,338,338,338,338,338,338,338,338,338,338,338,338,338,338,338,338,338,338,338,338,338,
338,338,338,338,338,338,338,338,338,338,338,338,338,338,338,338,338,338,338,338,338,338,338,338,338,
338,338,338,338,338,338,338,338,338,338,338,338,338,338,338,338,338,338,338,338,338,338,338,338,338,
338,338,338,338,338,338,338,338,338,338,338,338,338,338,338,338,338,338,338,338,338,338,338,338,338,
338,338,338,338,338,338,338,338,338,338,338,338,338,338,338,338,338,338,338,338,338,338,338,338,338,
338,338,338,338,338,338,338,338,338,338,338,338,338,338,338,338,338,338,338,338,338,338,338,338,338,
338,338,338,338,338,338,338,338,338,338,338,338,338,338,338,338,338,338,338,338,338,338,338,338,338,
338,338,338,338,338,338,338,338,338,338,338,338,338,338,338,338,338,338,338,338,338,338,338,338,338,
338,338,338,338,338,338,338,338,338,338,338,338,338,338,338,338,338,338,338,338,338,338,338,338,338,
338,338,338,338,338,338,338,338,338,338,338,338,338,338,338,338,338,338,338,338,338,338,338,338,338,
338,338,338,338,338,338,338,338,338,338,338,338,338,338,338,338,338,338,338,338,338,338,338,338,338,
338,338,338,338,338,338,338,338,338,338,338,338,338,338,338,338,338,338,338,338,338,338,338,338,338,
338,338,338,338,338,338,338,338,338,338,338,338,338,338,338,338,338,338,338,338,338,338,338,338,338,
338,338,338,338,338,338,338,338,338,338,338,338,338,338,338,338,338,338,338,338,338,338,338,338,338,
338,338,338,338,338,338,338,338,338,338,338,338,338,338,338,338,338,338,338,338,338,338,338,338,338,
338,338,338,338,338,338,338,338,338,338,338,338,338,338,338,338,338,338,338,338,338,338,338,338,338,
338,338,338,338,338,338,338,338,338,338,338,338,338,338,338,338,338,338,338,338,338,338,338,338,338,
338,338,338,338,338,338,338,338,338,338,338,338,338,338,338,338,338,338,338,338,338,338,338,338,338,
338,338,338,338,338,338,338,338,338,338,338,338,338,338,338,338,338,338,338,338,338,338,338,338,338,
338,338,338,338,338,338,338,338,338,338,338,338,338,338,338,338,338,338,338,338,338,338,338,338,338,
338,338,338,338,338,338,338,338,338,338,338,338,338,338,338,338,338,338,338,338,338,338,338,338,338,
338,338,338,338,338,338,338,338,338,338,338,338,338,338,338,338,338,338,338,338,338,338,338,338,338,
338,338,338,338,338,338,338,338,338,338,338,338,338,338,338,338,338,338,338,338,338,338,338,338,338,
338,338,338,338,338,338,338,338,338,338,338,338,338,338,338,338,338,338,338,338,338,338,338,338,338,
338,338,338,338,338,338,338,338,338,338,338,338,338,338,338,338,338,338,338,338,338,338,338,338,338,
338,338,338,338,338,338,338,338,338,338,338,338,338,338,338,338,338,338,338,338,338,338,338,338,338,
338,338,338,338,338,338,338,338,338,338,338,338,338,338,338,338,338,338,338,338,338,338,338,338,338,
338,338,338,338,338,338,338,338,338,338,338,338,338,338,338,338,338,338,338,338,338,338,338,338,338,
338,338,338,338,338,338,338,338,338,338,338,338,338,338,338,338,338,338,338,338,338,338,338,338,338,
338,338,338,338,338,338,338,338,338,338,338,338,338,338,338,338,338,338,338,338,338,338,338,338,338,
338,338,338,338,338,338,338,338,338,338,338,338,338,338,338,338,338,338,338,338,338,338,338,338,338,
338,338,338,338,338,338,338,338,338,338,338,338,338,338,338,338,338,338,338,338,338,338,338,338,338,
338,338,338,338,338,338,338,338,338,338,338,338,338,338,338,338,338,338,338,338,338,338,338,338,338,
338,338,338,338,338,338,338,338,338,338,338,338,338,338,338,338,338,338,338,338,338,338,338,338,338,
338,338,338,338,338,338,338,338,338,338,338,338,338,338,338,338,338,338,338,338,338,338,338,338,338,
338,338,338,338,338,338,338,338,338,338,338,338,338,338,338,338,338,338,338,338,338,338,338,338,338,
338,338,338,338,338,338,338,338,338,338,338,338,338,338,338,338,338,338,338,338,338,338,338,338,338,
338,338,338,338,338,338,338,338,338,338,338,338,338,338,338,338,338,338,338,338,338,338,338,338,338,
338,338,338,338,338,338,338,338,338,338,338,338,338,338,338,338,338,338,338,338,338,338,338,338,338,
338,338,338,338,338,338,338,338,338,338,338,338,338,338,338,338,338,338,338,338,338,338,338,338,338,
338,338,338,338,338,338,338,338,338,338,338,338,338,338,338,338,338,338,338,338,338,338,338,338,338,
338,338,338,338,338,338,338,338,338,338,338,338,338,338,338,338,338,338,338,338,338,338,338,338,338,
338,338,338,338,338,338,338,338,338,338,338,338,338,338,338,338,338,338,338,338,338,338,338,338,338,
338,338,338,338,338,338,338,338,338,338,338,338,338,338,338,338,338,338,338,338,338,338,338,338,338,
338,338,338,338,338,338,338,338,338,338,338,338,338,338,338,338,338,338,338,338,338,338,338,338,338,
338,338,338,338,338,338,338,338,338,338,338,338,338,338,338,338,338,338,338,338,338,338,338,338,338,
338,338,338,338,338,338,338,338,338,338,338,338,338,338,338,338,338,338,338,338,338,338,338,338,338,
338,338,338,338,338,338,338,338,338,338,338,338,338,338,338,338,338,338,338,338,338,338,338,338,338,
338,338,338,338,338,338,338,338,338,338,338,338,338,338,338,338,338,338,338,338,338,338,338,338,338,
338,338,338,338,338,338,338,338,338,338,338,338,338,338,338,338,338,338,338,338,338,338,338,338,338,
338,338,338,338,338,338,338,338,338,338,338,338,338,338,338,338,338,338,338,338,338,338,338,338,338,
338,338,338,338,338,338,338,338,338,338,338,338,338,338,338,338,338,338,338,338,338,338,338,338,338,
338,338,338,338,338,338,338,338,338,338,338,338,338,338,338,338,338,338,338,338,338,338,338,338,338,
338,338,338,338,338,338,338,338,338,338,338,338,338,338,338,338,338,338,338,338,338,338,338,338,338,
338,338,338,338,338,338,338,338,338,338,338,338,338,338,338,338,338,338,338,338,338,338,338,338,338,
338,338,338,338,338,338,338,338,338,338,338,338,338,338,338,338,338,338,338,338,338,338,338,338,338,
338,338,338,338,338,338,338,338,338,338,338,338,338,338,338,338,338,338,338,338,338,338,338,338,338,
338,338,338,338,338,338,338,338,338,338,338,338,338,338,338,338,338,338,338,338,338,338,338,338,338,
338,338,338,338,338,338,338,338,338,338,338,338,338,338,338,338,338,338,338,338,338,338,338,338,338,
338,338,338,338,338,338,338,338,338,338,338,338,338,338,338,338,338,338,338,338,338,338,338,338,338,
338,338,338,338,338,338,338,338,338,338,338,338,338,338,338,338,338,338,338,338,338,338,338,338,338,
338,338,338,338,338,338,338,338,338,338,338,338,338,338,338,338,338,338,338,338,338,338,338,338,338,
338,338,338,338,338,338,338,338,338,338,338,338,338,338,338,338,338,338,338,338,338,338,338,338,338,
338,338,338,338,338,338,338,338,338,338,338,338,338,338,338,338,338,338,338,338,338,338,338,338,338
</data>
 </layer>
 <layer id="2" name="deco_sotto" width="25" height="105">
  <data encoding="csv">
346,346,346,346,346,346,346,346,346,346,346,346,346,346,346,346,346,346,346,346,346,346,346,346,346,
346,346,346,346,346,346,346,346,346,346,346,346,346,346,346,346,346,346,346,346,346,346,346,346,346,
346,346,346,346,346,346,346,346,346,346,346,346,346,346,346,346,346,346,346,346,346,346,346,346,346,
346,346,346,346,346,346,346,346,346,346,346,346,346,346,346,346,346,346,346,346,346,346,346,346,346,
346,346,346,346,346,346,346,346,346,346,346,346,346,346,346,346,346,346,346,346,346,346,346,346,346,
0,0,0,0,0,0,0,0,0,382,0,0,0,0,0,382,0,0,0,0,0,0,0,0,0,
0,0,0,0,0,0,0,329,330,331,0,0,0,0,0,329,330,331,0,0,0,0,0,0,0,
0,0,0,0,0,0,0,337,338,339,0,0,0,0,0,337,338,339,0,0,0,0,0,0,0,
0,0,0,0,0,0,0,345,346,347,0,0,0,0,0,345,346,347,0,0,0,0,0,0,0,
0,0,0,0,0,0,0,0,0,382,0,0,0,0,0,382,0,0,0,0,0,0,0,0,0,
330,330,330,330,330,330,330,330,330,330,331,0,0,0,329,330,330,330,330,330,330,330,330,330,330,
0,0,0,0,0,0,0,0,0,0,339,0,0,0,337,0,0,0,0,0,0,0,0,0,0,
0,380,381,0,0,0,0,0,0,0,339,0,0,0,337,0,0,0,0,380,381,0,0,0,0,
0,388,389,0,0,0,0,0,0,0,339,0,0,0,337,0,0,0,0,388,389,0,0,0,0,
0,0,0,0,0,0,0,0,0,0,339,0,0,0,337,0,0,0,0,0,0,0,0,0,0,
0,0,0,0,0,0,0,0,0,0,339,0,0,0,337,0,0,0,0,0,0,0,0,0,0,
0,0,0,0,0,0,0,0,0,0,339,0,0,0,337,0,0,0,0,0,0,0,0,0,0,
0,0,0,0,0,0,0,0,0,0,339,0,0,0,337,0,0,0,0,0,0,0,0,0,0,
0,0,0,380,381,0,0,0,0,0,339,0,0,0,337,0,0,0,0,0,0,0,0,0,0,
0,0,0,388,389,0,0,0,0,0,339,0,0,0,337,0,0,0,0,0,0,0,0,0,0,
0,0,0,0,0,0,0,0,0,0,339,0,0,0,337,0,0,0,0,0,0,380,381,0,0,
0,0,0,0,0,0,0,0,0,0,339,0,0,0,337,0,0,0,0,0,0,388,389,0,0,
0,0,0,0,0,0,0,0,0,0,339,0,0,0,337,0,0,0,0,0,0,380,381,0,0,
0,0,0,0,0,0,0,0,0,0,339,0,0,0,337,0,0,0,0,0,0,388,389,0,0,
0,0,0,0,0,0,0,0,0,0,339,0,0,0,337,0,0,0,0,0,0,380,381,0,0,
0,0,0,0,0,0,0,0,0,0,339,0,0,0,337,0,0,0,0,0,0,388,389,380,381,
0,0,0,0,0,380,381,0,0,0,339,0,0,0,337,0,0,0,0,0,0,380,381,388,389,
0,0,0,0,0,388,389,0,0,0,339,0,0,0,337,0,0,0,0,0,0,388,389,380,381,
0,0,0,0,0,0,0,0,0,0,339,0,0,0,337,0,0,0,0,0,0,380,381,388,389,
0,0,0,0,0,0,0,0,0,0,339,0,0,0,337,0,0,0,0,0,0,388,389,380,381,
0,0,0,0,0,0,0,0,0,0,339,0,0,0,337,0,0,0,0,0,0,0,0,388,389,
0,0,0,0,0,0,0,0,0,0,339,0,0,0,337,0,0,0,0,0,0,0,0,0,0,
0,0,0,0,0,0,0,0,0,0,339,0,0,0,337,0,0,0,0,0,0,0,380,381,0,
0,0,0,0,0,0,0,0,0,0,339,0,0,0,337,0,0,0,0,0,0,0,388,389,0,
0,0,0,0,0,0,0,0,0,0,339,0,0,0,337,0,0,0,0,0,0,380,381,380,381,
0,0,380,381,0,0,0,0,0,0,339,0,0,0,337,0,0,0,0,0,0,388,389,388,389,
0,0,388,389,0,0,0,0,0,0,339,0,0,0,337,0,0,0,0,0,0,380,381,0,0,
0,0,0,0,0,0,0,0,0,0,339,0,0,0,337,0,0,0,0,0,0,388,389,0,0,
0,0,0,0,0,380,381,0,0,0,339,0,0,0,337,0,0,0,0,0,0,0,0,0,0,
0,0,0,0,0,388,389,0,0,0,339,0,0,0,337,0,0,0,0,0,0,0,0,0,0,
0,0,0,0,0,0,0,0,0,0,339,0,0,0,337,0,0,0,0,380,381,0,0,0,0,
0,0,0,0,0,0,0,0,0,0,339,0,0,0,337,0,0,0,380,381,389,0,0,0,0,
0,0,0,0,0,0,0,0,0,0,339,0,0,0,337,0,0,0,380,381,0,0,0,0,0,
0,0,0,0,0,0,0,0,0,0,339,0,0,0,337,0,0,0,380,381,0,0,0,0,0,
0,0,0,0,0,0,0,0,0,0,339,0,0,0,337,0,0,0,388,389,0,0,0,0,0,
0,0,0,0,0,0,0,0,0,0,339,0,0,0,337,0,0,0,0,0,0,0,0,0,0,
0,0,0,0,0,380,381,0,0,0,339,0,0,0,337,0,0,0,0,0,0,0,0,0,0,
0,0,0,0,0,388,389,0,0,0,339,0,0,0,337,0,0,0,0,0,0,0,0,0,0,
0,0,0,0,0,0,0,0,0,0,339,0,0,0,337,0,0,0,380,381,0,0,0,0,0,
0,0,0,0,0,0,0,0,0,0,339,0,0,0,337,0,0,0,388,389,380,381,0,0,0,
0,0,0,380,381,0,0,0,0,0,339,0,0,0,337,0,0,0,380,381,388,389,0,0,0,
0,0,0,388,389,0,0,0,0,0,339,0,0,0,337,0,0,0,388,389,380,381,380,381,0,
0,0,0,0,0,0,0,0,0,0,339,0,0,0,337,0,0,0,0,0,388,389,388,389,0,
0,0,0,0,0,0,0,0,0,0,339,0,0,0,337,0,0,0,0,0,0,0,0,0,0,
0,0,0,0,0,0,0,0,0,0,339,0,0,0,337,0,0,0,0,0,0,0,0,0,0,
0,0,0,0,0,0,0,0,0,0,339,0,0,0,337,0,0,0,0,0,0,0,0,0,0,
0,0,0,0,0,0,0,0,0,0,339,0,0,0,337,0,0,0,0,0,0,0,0,0,0,
0,0,0,0,0,0,0,0,0,0,339,0,0,0,337,0,0,0,0,0,0,0,0,0,0,
0,0,0,0,0,0,0,0,0,0,339,0,0,0,337,0,0,0,0,0,0,0,0,0,0,
0,0,0,0,0,0,0,0,0,0,339,0,0,0,337,0,380,381,0,0,0,0,0,0,0,
0,0,0,0,0,0,0,0,0,0,339,0,0,0,337,0,388,389,0,0,0,0,0,0,0,
0,0,0,0,0,0,0,0,0,0,339,0,0,0,337,0,0,0,0,0,0,0,0,0,0,
0,0,0,0,0,0,0,0,0,0,339,0,0,0,337,0,0,0,0,0,0,0,0,0,0,
0,0,0,0,0,0,0,0,0,0,339,0,0,0,337,0,0,0,0,0,0,380,381,0,0,
0,0,0,0,0,0,0,0,0,0,339,0,0,0,337,0,0,0,0,0,0,380,381,0,0,
0,0,0,0,0,380,381,0,0,0,339,0,0,0,337,0,0,0,0,0,0,380,381,0,0,
0,0,0,0,0,388,389,0,0,0,339,0,0,0,337,0,0,0,0,0,0,380,381,0,0,
0,0,0,0,0,0,0,0,0,0,339,0,0,0,337,0,0,0,0,0,0,380,381,0,0,
0,0,0,0,0,0,0,0,0,0,339,0,0,0,337,0,0,0,0,0,0,388,389,0,0,
0,0,0,0,0,0,0,0,0,0,339,0,0,0,337,0,0,0,0,0,0,0,0,0,0,
0,0,0,0,0,0,0,0,0,0,339,0,0,0,337,0,0,0,0,0,0,0,0,0,0,
0,0,0,0,0,0,0,0,0,0,339,0,0,0,337,0,0,0,380,381,0,0,0,0,0,
0,0,0,0,0,0,0,0,0,0,339,0,0,0,337,0,0,0,388,389,0,0,0,0,0,
0,0,0,0,0,0,0,0,0,0,339,0,0,0,337,0,0,0,0,0,0,0,0,0,0,
0,0,380,381,0,0,0,0,0,0,339,0,0,0,337,0,0,0,0,0,0,0,0,0,0,
0,0,388,389,0,0,0,0,0,0,339,0,0,0,337,0,0,0,0,0,0,0,0,0,0,
0,0,0,0,0,0,0,0,0,0,339,0,0,0,337,0,380,381,0,0,0,0,0,0,0,
0,0,0,0,0,0,0,0,0,0,339,0,0,0,337,0,388,389,0,0,0,0,0,0,0,
0,0,0,0,0,0,380,381,0,0,339,0,0,0,337,0,0,0,0,0,0,0,0,0,0,
0,0,0,0,0,0,388,389,0,0,339,0,0,0,337,0,0,0,0,0,0,0,0,0,0,
0,0,0,0,0,0,0,0,0,0,339,0,0,0,337,0,0,0,0,0,0,0,0,0,0,
0,0,0,0,0,0,0,0,0,0,339,0,0,0,337,0,0,0,0,0,380,381,0,0,0,
0,0,0,0,0,0,0,0,0,0,339,0,0,0,337,0,0,0,0,0,388,389,0,0,0,
0,0,0,0,380,381,0,0,0,0,339,0,0,0,337,0,0,0,0,0,0,0,0,0,0,
0,0,0,0,388,389,0,0,0,0,339,0,0,0,337,0,0,0,0,0,0,0,0,0,0,
0,0,0,0,0,0,0,0,0,0,339,0,0,0,337,0,0,0,0,0,0,0,0,0,0,
0,0,0,0,0,0,0,0,0,0,339,0,0,0,337,0,0,0,0,0,0,0,0,0,0,
0,0,0,0,0,0,0,0,0,0,339,0,0,0,337,0,0,0,0,0,0,0,0,0,0,
0,0,0,0,0,0,0,0,0,0,339,0,0,0,337,0,0,0,0,0,0,0,0,0,0,
0,0,0,0,0,0,0,0,0,0,339,0,0,0,337,0,0,0,0,0,0,0,0,0,0,
0,0,0,0,0,0,0,0,0,0,339,0,0,0,337,0,0,0,0,0,0,0,0,0,0,
0,0,0,0,0,0,0,0,0,0,339,0,0,0,337,0,0,0,0,0,0,0,0,0,0,
0,0,0,0,0,0,0,0,0,0,339,0,0,0,337,0,0,0,0,0,0,0,0,0,0,
0,0,0,0,380,381,0,0,0,0,339,0,0,0,337,0,0,0,0,0,0,380,381,0,0,
0,0,0,0,388,389,0,0,0,0,339,0,0,0,337,0,0,0,0,0,0,388,389,0,0,
0,0,0,0,0,0,0,0,0,0,339,0,0,0,337,0,0,0,0,0,0,0,0,0,0,
0,0,0,0,0,0,0,0,0,0,339,0,0,0,337,0,0,0,0,0,0,0,0,0,0,
0,380,381,0,0,0,0,380,381,0,339,0,0,0,337,0,0,0,0,0,0,0,0,0,0,
0,388,389,0,0,0,0,388,389,0,339,0,0,0,337,0,0,0,0,380,381,0,0,0,0,
0,0,0,0,0,0,0,0,0,0,339,0,0,0,337,0,0,0,0,388,389,0,0,0,0,
0,0,0,0,380,381,0,0,0,0,339,0,0,0,337,0,0,0,0,0,0,0,0,0,0,
0,0,0,0,388,389,0,0,0,0,339,0,0,0,337,0,0,0,0,0,0,0,0,0,0,
0,0,0,0,0,0,0,0,0,0,339,0,0,0,337,0,0,0,0,0,0,0,0,0,0,
0,0,0,0,0,0,0,0,0,0,339,0,0,0,337,0,0,0,0,0,0,0,0,0,0,
346,346,346,346,346,346,346,346,346,346,347,364,364,364,345,346,346,346,346,346,346,346,346,346,346
</data>
 </layer>
 <objectgroup id="3" name="collisioni">
  <object id="1" x="2.66667" y="326.667" width="341.333" height="3022.67"/>
  <object id="2" x="10.6667" y="-2.66667" width="293.333" height="313.333"/>
  <object id="3" x="293.333" y="-4" width="524" height="160"/>
  <object id="4" x="490.667" y="152" width="344" height="202.667"/>
  <object id="6" x="458.667" y="332" width="334.667" height="3021.33"/>
 </objectgroup>
 <objectgroup id="4" name="eventi">
  <object id="7" name="da_ariccia" x="384" y="3264" width="32" height="32">
   <properties>
    <property name="type" value="spawn"/>
    <property name="id" value="da_ariccia"/>
   </properties>
  </object>
  <object id="8" name="uscita_grotta_hooh" x="352" y="3264" width="32" height="32">
   <properties>
    <property name="type" value="warp"/>
    <property name="destinazione" value="ariccia"/>
    <property name="spawn_id" value="da_grotta_hooh"/>
   </properties>
  </object>
  <object id="9" name="HOOH" x="384" y="160" width="32" height="32">
   <properties>
    <property name="type" value="pokemon leggendario"/>
    <property name="id" value="pokemon leggendario"/>
    <property name="sprite" value="ho-oh"/>
    <property name="livello" value="50"/>
    <property name="direzione" value="sud"/>
    <property name="condizione" value="piuma_porchettari"/>
   </properties>
  </object>
 </objectgroup>
</map>
