<?xml version="1.0" encoding="UTF-8"?>
<map version="1.10" tiledversion="1.12.2" orientation="orthogonal" renderorder="right-down" width="50" height="50" tilewidth="32" tileheight="32" infinite="0" backgroundcolor="#000000" nextlayerid="21" nextobjectid="136">
 <tileset firstgid="1" source="../../outside.tsx"/>
 <tileset firstgid="4017" source="../../Emerald_Outside.tsx"/>
 <tileset firstgid="9265" source="../outside.tsx"/>
 <tileset firstgid="13281" source="../pokemon_emerald_exterior_32.tsj"/>
 <tileset firstgid="19353" source="../chiesa.tsj"/>
 <tileset firstgid="19485" source="../church.tsj"/>
 <layer id="1" name="ground" width="50" height="50">
  <data encoding="csv">
9602,9602,9602,9602,9602,9602,9602,9602,9602,9602,9602,9602,9602,9602,9602,9602,9602,9602,9602,9602,9602,9602,9602,9602,9602,9602,9602,9602,9602,9602,9602,9602,9602,9602,9602,9602,9602,9371,9371,9371,9371,9371,9371,9371,9371,9371,9371,9602,9602,9602,
9602,9602,9602,9602,9602,9602,9602,9602,9602,9602,9602,9602,9602,9602,9602,9602,9602,9602,9602,9602,9602,9602,9602,9602,9602,9602,9602,9602,9602,9602,9602,9602,9602,9602,9602,9602,9602,9371,9371,9371,9371,9371,9371,9371,9371,9371,9371,9602,9602,9602,
9602,9602,9602,9602,9602,9602,9602,9602,9602,9602,9602,9602,9602,9602,9602,9602,9602,9602,9602,9602,9602,9602,9602,9602,9602,9602,9602,9602,9602,9602,9602,9602,9602,9602,9602,9602,9602,9371,9371,9371,9371,9371,9371,9371,9371,9371,9371,9602,9602,9602,
9602,9602,9602,9602,9602,9602,9602,9602,9602,9602,9602,9602,9602,9602,9602,9602,9602,9602,9602,9602,9602,9602,9602,9602,9602,9602,9602,9602,9602,9602,9602,9602,9602,9602,9602,9602,9602,9371,9371,9371,9371,9371,9371,9371,9371,9371,9371,9602,9602,9602,
9602,9602,9602,9602,9602,9602,9602,9602,9602,9602,9602,9602,9602,9602,9602,9602,9602,9602,9602,9602,9602,9602,9602,9602,9602,9602,9602,9602,9602,9602,9602,9602,9602,9602,9602,9602,9602,9371,9371,9371,9371,9371,9371,9371,9371,9371,9371,9602,9602,9602,
9602,9602,9602,9602,9602,9602,9602,9602,9602,9602,9602,9602,9602,9602,9602,9602,9602,9602,9602,9602,9602,9602,9602,9602,9602,9602,9602,9602,9602,9602,9602,9602,9602,9602,9602,9602,9602,9371,9371,9371,9371,9371,9371,9371,9371,9371,9371,9602,9602,9602,
9602,9602,9602,9602,9602,9602,9602,9602,9602,9602,9602,9602,9602,9602,9602,9602,9602,9602,9602,9602,9602,9602,9602,9602,9602,9602,9602,9602,9602,9602,9602,9602,9602,9602,9602,9602,9602,9371,9371,9371,9371,9371,9371,9371,9371,9371,9371,9602,9602,9602,
9602,9602,9602,9602,9602,9602,9602,9602,9602,9602,9602,9602,9602,9602,9602,9602,9602,9602,9602,9602,9602,9602,9602,9602,9602,9602,9602,9602,9602,9602,9602,9602,9602,9602,9602,9602,9602,9371,9371,9371,9371,9371,9371,9371,9371,9371,9371,9602,9602,9602,
9602,9602,9602,9602,9602,9602,9602,9602,338,338,338,338,338,338,338,338,338,338,338,338,338,338,338,338,338,338,338,338,338,338,338,338,9602,9602,9602,9602,9602,9371,9371,9371,9371,9371,9371,9371,9371,9371,9371,9602,9602,9602,
4,4,4,4,4,4,9602,9602,338,338,338,338,338,338,338,338,338,338,338,338,338,338,338,338,9530,9531,9531,9531,9531,9531,9531,9531,9532,9602,9602,9602,9602,9371,9371,9371,9371,9371,9371,9371,9371,9371,9371,9602,9602,9602,
4,4,4,4,4,4,9602,9602,338,338,338,338,338,338,338,338,338,338,338,338,338,338,338,338,9538,9539,9539,9539,9539,9539,9539,9539,9540,9602,9602,9602,9602,9371,9371,9371,9371,9371,9371,9371,9371,9371,9371,9602,9602,9602,
4,4,4,4,4,4,9602,9602,338,338,338,338,338,338,338,338,338,338,338,338,338,338,338,338,9538,9539,9539,9539,9539,9539,9539,9539,9540,9602,9602,9602,9602,9371,9371,9371,9371,9371,9371,9371,9371,9371,9371,9602,9602,9602,
4,4,4,4,4,4,9602,9602,338,338,338,338,338,338,338,338,338,338,338,338,338,338,338,338,9538,9539,9539,9539,9539,9539,9539,9539,9540,9602,9602,9602,9602,9371,9371,9371,9371,9371,9371,9371,9371,9371,9371,9602,9602,9602,
4,4,4,4,4,4,9602,9602,338,338,338,338,338,338,338,338,338,338,338,338,338,338,338,338,9538,9539,9539,9539,9539,9539,9539,9539,9540,9602,9602,9602,9602,9371,9371,9371,9371,9371,9371,9371,9371,9371,9371,9602,9602,9602,
4,4,4,4,4,4,9602,9602,338,338,338,338,338,338,338,338,338,338,338,338,338,338,338,338,9538,9539,9539,9539,9539,9539,9539,9539,9540,9602,9602,9602,9602,9371,9371,9371,9371,9371,9371,9371,9371,9371,9371,9602,9602,9602,
4,4,4,4,4,4,9602,9602,338,338,338,338,338,338,338,338,338,338,338,338,338,338,338,338,9546,9539,9539,9547,9547,9547,9547,9547,9548,9602,9602,9602,9602,9371,9371,9371,9371,9371,9371,9371,9371,9371,9371,9602,9602,9602,
4,4,4,4,4,4,9602,9602,338,338,338,338,338,338,338,338,338,338,338,338,338,338,338,338,338,338,338,338,338,338,338,338,9602,9602,9602,9602,9602,9602,9602,9602,9602,9602,9602,9602,9602,9602,9602,9602,9602,9602,
4,4,4,4,4,4,9602,9602,338,338,338,338,338,338,338,338,338,338,338,338,338,338,338,338,338,338,338,338,338,338,338,338,9602,9602,9602,9602,9602,9602,9602,9602,9602,9602,9602,9602,9602,9602,9602,9602,9602,9602,
4,4,4,4,4,4,9602,9602,338,338,338,338,338,338,338,338,338,338,338,338,338,338,338,338,338,338,338,338,338,338,338,338,9602,9602,9602,9602,9602,9602,9602,9602,9602,9602,9602,10043,9602,9602,9602,9602,9602,9602,
4,4,4,4,4,4,9602,9602,338,338,338,338,338,338,338,338,338,338,338,338,338,338,338,338,338,338,338,338,338,338,338,338,9602,9602,9602,9602,9602,9602,9602,9602,9602,9602,9602,9602,9602,9602,9602,9602,9602,9602,
4,4,4,4,4,4,9602,9602,338,338,338,338,338,338,338,338,338,338,338,338,338,338,338,338,338,338,338,338,338,338,338,338,9602,9602,9602,9602,9602,9602,9602,9602,9602,9602,9602,9602,9602,9602,9602,9602,9602,9602,
4,4,4,4,4,4,9602,9602,338,338,338,338,338,338,338,338,338,338,338,338,338,338,338,338,338,338,338,338,338,338,338,338,9602,9602,9602,9602,9602,9602,9602,9602,9602,9602,9602,9602,9602,9602,9602,9602,9602,9602,
4,4,4,4,4,4,9602,9602,338,338,338,338,338,338,338,338,338,338,338,338,338,338,338,338,338,338,338,338,338,338,338,338,338,338,338,338,338,338,338,338,338,338,338,338,9602,9602,9602,9602,9602,9602,
4,4,4,4,4,4,9602,9602,338,338,338,338,338,338,338,338,338,338,338,338,338,338,338,338,338,338,338,338,338,338,338,338,338,338,338,338,338,338,338,338,338,338,338,338,9602,9602,9602,9602,9602,9602,
4,4,4,4,4,4,9602,9602,338,338,338,338,338,338,338,338,338,338,338,338,338,338,338,338,338,338,338,338,338,338,338,338,338,338,338,338,338,338,338,338,338,338,338,338,9602,9602,9602,9602,9602,9602,
9531,9531,9531,9531,9531,9531,9531,9531,338,338,338,338,285,338,338,338,338,338,338,338,338,338,338,338,338,338,338,338,338,338,338,338,338,338,338,338,338,338,338,338,338,338,338,338,9602,9602,9602,9602,9602,9602,
9547,9547,9547,9547,9547,9547,9547,9547,338,338,338,338,338,338,338,338,338,338,338,338,338,338,338,338,338,338,338,338,338,338,338,338,338,338,338,338,338,338,338,338,338,338,338,338,9602,9602,9602,9602,9602,9602,
9602,9602,9602,9602,9602,9602,9602,9602,338,338,338,338,338,338,338,338,338,338,338,338,338,338,338,338,338,338,338,338,338,338,338,338,338,338,338,338,338,338,338,338,338,338,338,338,9602,9602,9602,9602,9602,9602,
9602,9602,9602,9602,9602,9602,9602,9602,338,338,338,338,338,338,338,338,338,338,338,338,338,338,338,338,338,338,338,338,338,338,338,338,338,338,338,338,338,338,338,338,338,338,338,338,9602,9602,9602,9602,9602,9602,
9268,9268,9268,9268,9268,9268,9602,9602,338,338,338,338,338,338,338,338,338,338,338,338,338,338,338,338,338,338,338,338,338,338,338,338,338,338,338,338,338,338,338,338,338,338,338,338,9602,9602,9602,9602,9602,9602,
9268,9268,9268,9268,9268,9268,9602,9602,338,338,338,338,338,338,338,338,338,338,338,338,338,338,338,338,338,338,338,338,338,338,338,338,338,338,338,338,338,338,338,338,338,338,338,338,9602,9602,9602,9602,9602,9602,
9268,9268,9268,9268,9268,9268,9602,9602,338,338,338,338,338,338,338,338,338,338,338,338,338,338,338,338,338,338,338,338,338,338,338,338,219,219,219,219,219,219,219,219,219,219,219,219,9602,9602,9602,9602,9602,9602,
9268,9268,9268,9268,9268,9268,9602,9602,338,338,338,338,338,338,338,338,338,338,338,338,338,338,338,338,338,338,338,338,338,338,338,338,219,219,219,219,219,219,219,219,219,219,219,219,9602,9602,9602,9602,9602,9602,
9268,9268,9268,9268,9268,9268,9602,9602,338,338,338,338,338,338,338,338,338,338,338,338,338,338,338,338,338,338,338,338,338,338,338,338,219,219,219,219,219,219,219,219,219,219,219,219,9602,9602,9602,9602,9602,9602,
9268,9268,9268,9268,9268,9268,9602,9602,338,338,338,338,338,338,338,338,338,338,338,338,338,338,338,338,338,338,338,338,338,338,338,338,219,219,219,219,219,219,219,219,219,219,219,219,9602,9602,9602,9602,9602,9602,
9268,9268,9268,9268,9268,9268,9602,9602,338,338,338,338,338,338,338,338,338,338,338,338,338,338,338,338,338,338,338,338,338,338,338,338,219,219,219,219,219,219,219,219,219,219,219,219,9602,9602,9602,9602,9602,9602,
9268,9268,9268,9268,9268,9268,9602,9602,338,338,338,338,338,338,338,338,338,338,338,338,338,338,338,338,338,338,338,338,338,338,338,338,219,219,219,219,219,219,219,219,219,219,219,219,9602,9602,9602,9602,9602,9602,
9268,9268,9268,9268,9268,9268,9602,9602,338,338,338,338,338,338,338,338,338,338,338,338,338,338,338,338,338,338,338,338,338,338,338,338,219,219,219,219,219,219,219,219,219,219,219,219,9602,9602,9602,9602,9602,9602,
9268,9268,9268,9268,9268,9268,9602,9602,338,338,338,338,338,338,338,338,338,338,338,338,338,338,338,338,338,338,338,338,338,338,338,338,219,219,219,219,219,219,219,219,219,219,219,219,9602,9602,9602,9602,9602,9602,
9268,9268,9268,9268,9268,9268,9602,9602,338,338,338,338,338,338,338,338,338,338,338,338,338,338,338,338,338,338,338,338,338,338,338,338,219,219,219,219,219,219,219,219,219,219,219,219,9602,9602,9602,9602,9602,9602,
9268,9268,9268,9268,9268,9268,9602,9602,338,338,338,338,338,338,338,338,338,338,338,338,338,338,338,338,338,338,338,338,338,338,338,338,219,219,219,219,219,219,219,219,219,219,219,219,9602,9602,9602,9602,9602,9602,
9268,9268,9268,9268,9268,9268,9602,9602,338,338,338,338,338,338,338,338,338,338,338,338,338,338,338,338,338,0,338,338,338,338,338,338,219,219,219,219,219,219,219,219,219,219,219,219,9602,9602,9602,9602,9602,9602,
9268,9268,9268,9268,9268,9268,9602,9602,9602,9602,9602,9602,9602,9602,9602,9602,9602,9602,9602,9602,9602,9602,9602,9602,9602,9602,9602,9602,9602,9602,9602,9602,9602,9602,9602,9602,9602,9602,9602,9602,9602,9602,9602,9602,9602,9602,9602,9602,9602,9602,
9268,9268,9268,9268,9268,9268,9602,9602,9602,9602,9602,9602,9602,9602,9602,9602,9602,9602,9602,9602,9602,9602,9602,9602,9602,9602,9602,9602,9602,9602,9602,9602,9602,9602,9602,9602,9602,9602,9602,9602,9602,9602,9602,9602,9602,9602,9602,9602,9602,9602,
9268,9268,9268,9268,9268,9268,9602,9602,9602,9602,9602,9602,9602,9602,9602,9602,9602,9602,9602,9602,9602,9602,9602,9602,9602,9602,9602,9602,9602,9602,9602,9602,9602,9602,9602,9602,9602,9602,9602,9602,9602,9602,9602,9602,9602,9602,9602,9602,9602,9602,
9268,9268,9268,9268,9268,9268,9268,9268,9268,9268,9268,9268,9268,9268,9268,9268,9268,9268,9268,9268,9268,9268,9268,9268,9268,9268,9268,9268,9268,9268,9268,9268,9268,9268,9268,9268,9268,9268,9268,9268,9268,9268,9268,9268,9268,9268,9268,9268,9268,9268,
9268,9268,9268,9268,9268,9268,9268,9268,9268,9268,9268,9268,9268,9268,9268,9268,9268,9268,9268,9268,9268,9268,9268,9268,9268,9268,9268,9268,9268,9268,9268,9268,9268,9268,9268,9268,9268,9268,9268,9268,9268,9268,9268,9268,9268,9268,9268,9268,9268,9268,
9268,9268,9268,9268,9268,9268,9268,9268,9268,9268,9268,9268,9268,9268,9268,9268,9268,9268,9268,9268,9268,9268,9268,9268,9268,9268,9268,9268,9268,9268,9268,9268,9268,9268,9268,9268,9268,9268,9268,9268,9268,9268,9268,9268,9268,9268,9268,9268,9268,9268,
9268,9268,9268,9268,9268,9268,9268,9268,9268,9268,9268,9268,9268,9268,9268,9268,9268,9268,9268,9268,9268,9268,9268,9268,9268,9268,9268,9268,9268,9268,9268,9268,9268,9268,9268,9268,9268,9268,9268,9268,9268,9268,9268,9268,9268,9268,9268,9268,9268,9268,
9268,9268,9268,9268,9268,9268,9268,9268,9268,9268,9268,9268,9268,9268,9268,9268,9268,9268,9268,9268,9268,9268,9268,9268,9268,9268,9268,9268,9268,9268,9268,9268,9268,9268,9268,9268,9268,9268,9268,9268,9268,9268,9268,9268,9268,9268,9268,9268,9268,9268
</data>
 </layer>
 <layer id="2" name="deco_sotto" width="50" height="50">
  <data encoding="csv">
0,0,0,0,0,0,0,0,0,0,0,0,0,0,0,0,274,276,0,0,0,0,0,0,0,0,0,0,0,0,0,0,0,0,10060,10060,10060,0,0,796,0,0,0,0,0,9371,0,797,10062,10059,
0,0,0,0,0,0,0,0,0,0,0,0,0,0,0,0,274,276,0,0,0,0,0,0,0,0,0,0,0,0,0,0,0,0,10060,10060,10060,0,0,804,0,0,0,0,0,9371,0,797,10062,10059,
0,0,0,0,0,0,0,0,0,0,0,0,0,0,0,0,274,276,0,0,0,0,0,0,0,0,0,0,0,0,0,0,0,0,10060,10060,10060,0,0,0,0,0,0,0,0,0,0,797,10062,10059,
0,0,0,0,0,0,0,0,0,0,0,0,0,0,0,0,274,276,0,0,0,0,0,0,0,0,0,0,0,0,0,0,0,0,10060,10060,10060,0,0,0,0,0,0,0,0,0,0,797,10062,10059,
0,0,0,0,0,0,0,0,0,0,0,0,0,0,0,0,274,276,0,0,0,0,0,0,0,0,0,0,0,0,0,0,0,0,10060,10060,10060,0,0,0,0,0,0,0,0,0,0,797,10062,10059,
0,0,0,0,0,0,0,0,0,0,0,0,0,0,0,0,274,276,0,0,0,0,0,0,0,0,0,0,0,0,0,0,0,0,10060,10060,10060,0,0,0,0,0,0,0,0,0,0,809,803,10059,
0,0,0,0,0,0,0,0,0,0,0,0,0,0,0,0,274,285,267,267,268,0,0,0,0,0,0,0,0,0,0,0,0,0,10060,10060,10060,0,0,0,0,0,0,0,0,0,0,10062,10062,10059,
0,0,0,0,0,0,0,0,0,0,0,0,0,0,0,0,282,283,283,271,276,0,0,0,0,0,0,0,0,0,0,0,0,0,10060,10060,10060,0,0,0,0,0,0,0,0,0,0,10062,10062,10059,
1334,1334,1334,1334,1334,1334,1317,0,0,0,0,0,0,0,0,0,0,0,0,274,276,0,0,0,0,0,0,0,0,0,0,0,0,0,10060,10060,10060,0,0,0,0,0,0,0,0,0,0,10062,10062,10059,
0,0,0,0,0,0,1325,0,0,0,0,0,0,0,0,0,0,0,0,274,276,0,0,0,0,0,0,0,0,0,0,0,0,0,10060,10060,10060,0,0,0,0,0,0,0,0,0,0,10062,10062,10059,
0,0,0,0,0,0,1325,0,0,0,0,0,0,0,0,0,0,0,0,274,276,0,0,0,0,0,0,0,0,0,0,0,0,0,10060,10060,10060,0,0,0,0,0,0,0,0,0,0,10062,10062,10059,
0,0,0,0,0,0,1325,0,0,0,0,0,0,0,0,0,0,0,0,274,276,0,0,0,0,0,0,0,0,0,0,0,0,0,10060,10060,10060,0,0,0,0,0,0,0,0,0,0,10062,10062,10059,
0,0,0,0,0,0,1325,0,0,0,0,0,0,0,0,0,0,0,0,274,276,0,0,0,0,0,0,0,0,0,0,0,0,0,10060,10060,10060,0,0,0,0,0,0,0,0,0,0,10062,10062,10059,
0,0,0,0,0,0,1325,0,0,0,266,267,267,267,268,0,0,0,0,274,276,0,0,0,0,0,0,0,0,0,0,0,0,0,10060,10060,10060,0,0,0,0,0,0,0,0,0,0,10062,10062,10059,
0,0,0,0,0,0,1325,0,0,266,275,275,275,275,275,268,0,0,0,274,276,0,0,0,0,0,0,0,0,0,0,0,0,0,10060,10060,10060,0,0,0,0,0,0,0,0,0,0,10062,10062,10059,
0,0,0,0,0,0,1325,0,0,274,275,275,275,275,275,276,0,0,0,274,276,0,0,0,0,0,0,0,0,955,0,0,0,0,10060,10060,10060,0,0,0,0,0,0,0,0,0,0,10062,10062,10059,
0,0,0,0,0,0,1325,0,0,274,275,275,275,275,275,276,0,0,0,274,276,0,0,0,0,0,0,0,0,0,0,0,0,0,10060,10060,10068,10069,10069,10069,10069,10043,10043,10069,10069,10069,10069,10070,10062,10059,
0,0,0,0,0,0,1325,0,0,274,275,275,275,275,275,276,0,0,0,274,276,0,0,0,0,0,0,0,0,0,0,0,0,0,10060,10068,10069,10069,10061,10061,10061,10061,10061,10069,10069,10069,10069,10069,10070,10059,
0,0,0,0,0,0,1325,0,0,282,275,275,275,275,275,284,0,0,0,274,276,0,0,0,0,0,0,0,0,0,0,0,0,0,10065,10066,10066,10066,10043,10066,10066,10066,10066,10066,10066,10066,10066,10066,10066,10059,
0,0,0,0,0,0,1325,0,0,0,282,271,269,283,284,0,0,0,0,274,276,0,0,0,0,0,0,0,0,0,0,0,0,0,0,0,0,0,0,0,0,0,0,0,0,0,0,0,0,0,
0,0,0,0,0,0,1325,0,0,0,984,274,276,983,0,0,0,0,0,274,276,0,0,0,0,0,0,0,0,0,0,0,0,0,0,0,0,0,0,0,0,0,0,0,0,0,0,0,0,0,
0,0,0,0,0,0,1325,0,0,0,984,274,276,983,0,0,0,0,0,274,276,0,0,0,0,0,0,0,0,0,0,0,0,0,0,0,0,0,0,0,0,0,0,0,0,0,0,0,0,0,
0,0,0,0,0,0,1325,0,0,0,984,274,276,983,0,0,0,0,0,274,276,0,0,0,0,0,0,0,0,0,0,0,0,0,0,0,0,0,0,0,0,0,0,0,0,0,0,0,0,0,
0,0,0,0,0,0,1325,0,0,0,984,274,276,983,0,0,0,0,0,274,276,0,0,0,0,0,0,0,0,0,0,0,0,0,0,0,0,0,0,0,0,955,0,0,0,0,0,0,0,0,
0,0,0,0,0,0,1333,0,0,0,984,274,276,983,0,0,0,0,0,274,276,0,0,0,0,0,0,0,10219,0,0,0,0,0,0,0,0,0,0,0,0,0,0,0,0,0,0,0,0,0,
0,0,0,0,0,0,0,0,267,267,267,287,285,267,267,267,267,267,267,287,285,267,267,267,267,267,267,267,267,267,267,267,267,267,267,267,267,267,267,267,267,267,267,267,267,267,267,267,267,267,
0,0,0,0,0,0,0,0,283,283,283,271,269,283,283,283,283,283,283,283,283,283,283,283,283,271,269,283,283,283,283,283,283,283,283,283,283,283,283,283,283,283,283,283,283,283,283,283,283,271,
0,0,0,0,0,0,0,0,0,0,955,274,276,0,0,0,0,0,0,0,0,0,0,0,0,274,276,0,0,0,0,0,0,0,0,955,0,0,0,955,0,0,0,0,0,0,0,0,0,282,
10598,10598,10598,10598,10598,10598,0,0,0,0,0,274,276,0,0,0,0,0,0,0,0,0,0,0,0,274,276,0,0,0,0,0,0,0,0,0,0,0,0,0,0,0,0,0,0,0,0,0,0,0,
0,0,0,0,0,0,10589,0,0,0,0,274,276,0,0,0,0,0,0,0,0,0,0,0,0,274,276,0,0,0,0,0,0,0,0,0,0,0,0,0,0,0,0,0,0,0,0,0,0,0,
0,0,0,0,0,0,10589,0,0,0,0,274,276,0,0,0,0,0,0,0,0,0,0,0,0,274,276,0,0,0,0,0,0,0,0,0,0,0,0,0,0,0,1077,1078,0,0,0,0,0,0,
0,0,0,0,0,0,10589,0,0,0,0,274,276,0,0,0,0,0,0,0,0,0,0,0,0,274,276,0,0,0,0,0,983,0,0,0,0,0,0,0,0,1084,1085,1086,0,0,0,0,0,0,
0,0,0,0,0,0,10589,0,0,0,0,274,276,0,0,0,0,0,0,0,0,0,0,0,0,274,276,0,0,0,0,0,983,0,0,0,0,0,0,0,0,1092,1093,1094,0,0,0,0,0,0,
0,0,0,0,0,0,10589,0,0,0,0,274,276,0,0,0,0,0,0,0,0,0,0,0,0,274,276,0,0,0,0,0,0,0,0,0,0,0,0,0,0,0,1077,1078,0,0,0,0,0,0,
0,0,0,0,0,0,10589,0,0,266,267,287,285,268,0,0,0,0,0,0,0,0,0,0,0,274,276,0,0,0,0,0,983,0,0,0,0,0,0,0,0,1084,1085,1086,0,0,0,0,0,0,
0,0,0,0,0,0,10589,0,266,275,275,275,275,275,267,267,267,267,267,268,0,0,0,0,0,274,276,0,0,0,0,0,983,0,0,0,0,0,0,0,0,1092,1093,1094,0,0,0,0,0,0,
0,0,0,0,0,0,10589,0,274,275,275,275,275,275,275,275,275,275,275,276,0,0,0,0,0,274,276,0,0,0,0,0,0,0,0,0,0,0,0,0,0,0,1077,1078,0,0,0,0,0,0,
0,0,0,0,0,0,10589,0,274,275,0,0,0,0,275,275,275,275,275,276,0,0,0,0,0,274,276,0,0,0,0,0,983,0,0,0,0,0,0,0,0,1084,1085,1086,0,0,0,0,0,0,
0,0,0,0,0,0,10589,0,274,0,0,0,0,0,275,275,275,275,275,276,0,0,0,0,0,274,276,0,0,0,0,0,983,0,0,0,0,0,0,0,0,1092,1093,1094,0,0,0,0,0,0,
0,0,0,0,0,0,10589,0,274,275,0,0,0,275,275,275,275,275,275,276,0,0,0,0,0,274,276,0,0,0,0,0,0,0,0,0,0,0,0,0,0,0,1077,1078,0,0,0,0,0,0,
0,0,0,0,0,0,10589,0,274,275,275,275,275,275,275,275,275,275,275,276,0,0,0,0,0,274,276,0,0,0,0,0,983,0,0,0,0,0,0,0,0,1084,1085,1086,0,0,0,0,0,0,
0,0,0,0,0,0,10589,0,282,283,283,283,283,283,283,283,283,283,283,284,0,0,0,0,0,282,284,0,0,0,0,0,983,0,0,0,0,0,0,0,0,1092,1093,1094,0,0,0,0,0,0,
0,0,0,0,0,0,10589,0,0,0,0,0,0,0,0,0,0,0,0,0,0,0,0,0,0,0,0,0,0,0,0,0,0,0,0,0,0,0,0,0,0,0,0,0,0,0,0,0,0,0,
0,0,0,0,0,0,10589,0,0,0,0,0,0,0,0,0,0,0,0,0,0,0,0,0,0,0,0,0,0,0,0,0,0,0,0,0,0,0,0,0,0,0,0,0,0,0,0,0,0,0,
0,0,0,0,0,0,10598,10598,10598,10598,10598,10598,10598,10598,10598,10598,10598,10598,10598,10598,10598,10598,10598,10598,10598,10598,10598,10598,10598,10598,10598,10598,10598,10598,10598,10598,10598,10598,10598,10598,10598,10598,10598,10598,10598,10598,10598,10598,10598,10598,
0,0,0,0,0,0,0,0,0,0,0,0,0,0,0,0,0,0,0,0,0,0,0,0,0,0,0,0,0,0,0,0,0,0,0,0,0,0,0,0,0,0,0,0,0,0,0,0,0,0,
0,0,0,0,0,0,0,0,0,0,0,0,0,0,0,0,0,0,0,0,0,0,0,0,0,0,0,0,0,0,0,0,0,0,0,0,0,0,0,0,0,0,0,0,0,0,0,0,0,0,
0,0,0,0,0,0,0,0,0,0,0,0,0,0,0,0,0,0,0,0,0,0,0,0,0,0,0,0,0,0,0,0,0,0,0,0,0,0,0,0,0,0,0,0,0,0,0,0,0,0,
0,0,0,0,0,0,0,0,0,0,0,0,0,0,0,0,0,0,0,0,0,0,0,0,0,0,0,0,0,0,0,0,0,0,0,0,0,0,0,0,0,0,0,0,0,0,0,0,0,0,
0,0,0,0,0,0,0,0,0,0,0,0,0,0,0,0,0,0,0,0,0,0,0,0,0,0,0,0,0,0,0,0,0,0,0,0,0,0,0,0,0,0,0,0,0,0,0,0,0,0
</data>
 </layer>
 <layer id="3" name="edifici" width="50" height="50">
  <data encoding="csv">
10841,10842,10843,10844,10845,0,0,0,0,0,10841,10842,10843,10844,10845,0,0,275,276,10841,10842,10843,10844,10845,0,0,0,10841,10842,10843,10844,10845,0,0,0,0,0,0,19525,19526,19527,19528,19529,19530,19531,19532,0,10062,0,0,
10849,10850,10851,10852,10853,0,0,0,0,0,10849,10850,10851,10852,10853,0,0,275,276,10849,10850,10851,10852,10853,0,0,0,10849,10850,10851,10852,10853,0,0,0,0,0,0,19533,19534,19535,19536,19537,19538,19539,19540,0,10062,0,0,
10857,10858,10859,10860,10861,9685,9686,9685,9686,0,10857,10858,10859,10860,10861,0,0,275,276,10857,10858,10859,10860,10861,9685,9686,0,10857,10858,10859,10860,10861,0,0,0,0,0,0,19541,19542,19543,19544,19545,19546,19547,19548,0,10062,0,0,
10865,10866,10867,10868,10869,9693,9694,9693,9694,0,10865,10866,10867,10868,10869,0,0,275,276,10865,10866,10867,10868,10869,9693,9694,0,10865,10866,10867,10868,10869,0,0,0,0,0,0,19549,19550,19551,19552,19553,19554,19555,19556,0,10062,0,0,
10873,10874,10875,10876,10877,9701,9702,9701,9702,9740,10873,10874,10875,10876,10877,0,0,275,276,10873,10874,10875,10876,10877,9701,9702,9740,10873,10874,10875,10876,10877,0,0,0,0,0,0,19557,19558,19559,19560,19561,19562,19563,19564,0,10062,0,0,
0,0,0,0,0,0,983,0,0,0,0,0,0,0,0,0,0,275,276,0,0,0,0,0,0,0,0,0,0,0,0,0,0,0,0,0,0,0,0,0,0,0,0,0,10414,10415,10416,10062,10062,0,
0,0,0,0,0,0,983,0,0,0,0,0,0,0,0,0,0,275,275,0,0,0,0,0,0,0,0,0,0,0,0,0,0,0,0,0,0,0,0,0,0,0,0,0,10422,10423,10424,0,0,0,
421,422,421,422,421,422,983,0,0,0,0,0,0,0,0,0,0,0,0,0,0,0,0,0,0,0,0,0,0,0,0,0,0,0,0,0,0,0,0,0,0,0,0,816,10430,10431,10432,0,0,0,
429,430,429,430,429,430,0,0,2649,2650,2651,2652,0,0,1789,1790,1791,1792,0,0,0,0,0,0,0,0,0,0,0,0,0,0,0,0,0,0,0,10414,10415,10416,0,816,0,0,10438,10439,10440,0,0,0,
437,438,437,438,437,438,0,0,2657,2658,2659,2660,0,0,1797,1798,1799,1800,0,0,0,0,0,0,0,2745,2746,2747,2748,2749,2750,2751,0,0,0,0,0,10422,10423,10424,816,0,0,0,0,0,0,0,0,0,
421,422,421,422,421,422,0,0,2665,2666,2667,2668,0,0,1805,1806,1807,1808,0,0,0,0,0,0,0,2753,2754,2755,2756,2757,2758,2759,0,0,0,0,0,10430,10431,10432,0,0,0,0,0,0,0,0,0,0,
429,430,429,430,429,430,0,0,2673,2674,2675,2676,0,1120,1813,1814,1815,1816,0,0,0,0,0,0,0,2761,2762,2763,2764,2765,2766,2767,0,0,0,0,0,10438,10439,10440,0,0,0,0,0,0,0,0,0,0,
437,438,437,438,437,438,0,0,0,0,0,0,0,0,0,0,0,0,0,0,0,0,0,0,0,2769,2770,2771,2772,2773,2774,2775,0,0,0,0,0,0,0,0,0,0,0,0,0,0,0,0,0,0,
421,422,421,422,421,422,0,0,0,0,0,0,0,0,0,0,0,0,0,0,0,0,0,0,0,2777,2778,2779,2780,2781,2782,2783,0,0,0,0,0,0,0,0,0,0,0,0,0,0,0,0,0,0,
429,430,429,430,429,430,0,0,0,0,0,0,1119,0,0,0,0,0,0,0,0,0,0,0,0,2785,2786,2787,2788,2789,2790,2791,0,0,0,0,0,0,0,0,0,0,0,0,0,0,0,0,0,0,
437,438,437,438,437,438,0,0,0,0,0,1126,1127,1128,0,0,0,0,0,0,0,0,0,0,0,0,0,0,0,0,0,0,0,0,0,0,0,0,0,0,0,0,0,0,0,0,0,0,0,0,
421,422,421,422,421,422,0,0,0,0,0,1134,1135,1136,0,0,0,0,0,0,0,0,0,0,0,9538,9540,0,0,0,0,0,0,0,0,0,0,0,0,0,0,0,0,0,0,0,0,0,0,0,
429,430,429,430,429,430,0,0,0,0,0,1142,1143,1144,0,0,0,0,0,0,0,0,0,0,0,9538,9540,0,0,0,0,0,0,0,0,0,0,0,0,0,0,0,0,0,0,0,0,0,0,0,
437,438,437,438,437,438,0,0,0,0,0,0,0,0,0,0,0,0,0,0,0,0,0,0,0,9538,9540,0,0,0,0,0,0,0,0,0,0,0,0,0,0,0,0,0,0,0,0,0,0,0,
421,422,421,422,421,422,0,0,0,0,0,0,0,0,0,0,0,0,0,0,0,0,0,0,0,9538,9540,0,0,0,0,0,0,0,0,0,0,0,0,0,0,0,0,0,0,0,0,0,0,0,
429,430,429,430,429,430,0,0,0,0,0,0,0,0,0,0,0,0,0,0,0,0,0,0,0,9538,9540,0,0,0,0,0,0,0,0,0,0,0,0,0,0,0,0,0,0,0,0,0,0,0,
437,438,437,438,437,438,0,0,0,0,0,0,0,0,0,0,0,0,0,0,0,0,0,0,0,9538,9540,0,0,0,0,0,0,0,0,0,0,0,0,0,0,0,0,0,0,0,0,0,0,0,
421,422,421,422,421,422,0,0,0,0,0,0,0,0,0,0,0,0,0,0,0,0,0,0,0,9538,9540,0,0,0,0,0,0,0,0,0,0,0,0,0,0,0,0,0,0,0,0,0,0,0,
429,430,429,430,429,430,0,0,0,0,0,0,0,0,0,0,0,0,0,0,0,0,0,0,0,9538,9540,0,0,0,0,0,0,0,0,0,0,0,0,0,0,0,0,0,0,0,0,0,0,0,
437,438,437,438,437,438,0,0,0,0,0,0,0,0,0,0,0,0,0,0,0,0,0,0,0,9538,9540,0,0,0,0,0,0,0,0,0,0,0,0,0,0,0,0,0,0,0,0,0,0,0,
0,0,0,0,0,0,0,0,0,0,0,0,0,0,0,0,0,0,0,0,0,0,0,0,0,9551,9549,0,0,0,0,0,0,0,0,0,0,0,0,0,0,0,0,0,0,0,0,0,0,0,
0,0,0,0,0,0,0,0,0,0,0,0,0,0,0,0,0,0,0,0,0,0,0,0,0,0,0,0,0,0,0,0,0,0,0,0,0,0,0,0,0,0,0,0,0,0,0,0,0,0,
0,0,0,0,0,0,0,0,0,0,0,0,0,0,0,0,0,0,0,0,0,0,0,0,0,0,0,0,0,0,0,0,0,0,0,0,0,0,0,0,0,0,0,0,10697,10698,10699,10700,10701,0,
0,0,0,0,0,0,0,0,0,0,0,0,0,0,0,0,0,0,0,0,0,0,0,0,0,0,0,0,0,0,0,0,0,0,0,1025,1026,0,1027,1028,0,0,0,0,10705,10706,10707,10708,10709,0,
9685,9686,9685,9686,9685,9686,0,0,0,0,0,0,0,0,0,0,0,0,0,0,0,0,0,0,0,0,0,0,0,0,0,0,0,0,0,1033,0,0,0,1036,0,0,0,0,10713,10714,10715,10716,10717,0,
9693,9694,9693,9694,9693,9694,0,0,0,0,0,0,0,0,0,0,0,0,0,0,0,0,0,0,0,0,0,0,0,0,0,0,1073,1074,0,1041,0,0,0,1044,0,0,0,0,10721,10722,10723,10724,10725,0,
9701,9702,9701,9702,9701,9702,0,0,0,0,0,0,0,0,0,0,0,0,0,0,0,0,0,0,0,0,0,0,0,0,0,984,1081,1082,1083,0,0,0,0,0,0,0,0,0,0,0,0,0,0,0,
9685,9686,9685,9686,9685,9686,0,0,0,0,0,0,0,0,0,0,0,0,0,0,0,0,0,0,0,0,0,0,0,0,0,984,1089,1090,1091,0,0,0,0,0,0,0,0,0,0,0,0,0,0,0,
9693,9694,9693,9694,9693,9694,0,0,0,0,0,0,0,0,0,0,0,0,0,0,0,0,0,0,0,0,0,0,0,0,0,984,1073,1074,0,0,0,0,0,0,0,0,0,0,0,0,0,0,0,0,
9701,9702,9701,9702,9701,9702,0,0,0,0,0,0,0,0,0,0,0,0,0,0,0,0,0,0,0,0,0,0,0,0,0,984,1081,1082,1083,944,0,1015,1016,0,944,0,0,0,0,0,0,0,0,0,
9685,9686,9685,9686,9685,9686,0,0,0,2609,2610,2611,2612,2613,0,0,0,0,0,0,0,0,0,0,0,0,0,0,0,0,0,984,1089,1090,1091,0,0,1023,1024,944,0,0,0,0,0,0,0,0,0,0,
9693,9694,9693,9694,9693,9694,0,0,0,2617,2618,2619,2620,2621,0,0,1829,1830,1831,1832,0,0,0,0,0,0,0,0,0,0,0,984,1073,1074,0,0,0,1031,1032,0,0,0,0,0,0,0,0,0,0,0,
9701,9702,9701,9702,9701,9702,0,0,0,2625,2626,2627,2628,2629,0,0,1837,1838,1839,1840,0,0,0,0,0,0,0,0,0,0,0,984,1081,1082,1083,0,0,1039,1040,0,0,0,0,0,0,0,0,0,0,0,
9685,9686,9685,9686,9685,9686,0,0,0,2633,2634,2635,2636,2637,0,0,1845,1846,1847,1848,0,0,0,0,0,0,0,0,0,0,0,984,1089,1090,1091,0,0,0,0,0,0,0,0,0,0,0,0,0,0,0,
9693,9694,9693,9694,9693,9694,0,0,0,2641,2642,2643,2644,2645,0,0,1853,1854,1855,1856,0,0,0,0,0,0,0,0,0,0,0,984,1073,1074,0,0,0,0,0,0,0,0,0,0,0,0,0,0,0,0,
9701,9702,9701,9702,9701,9702,0,0,0,0,0,0,0,0,0,0,0,0,0,0,0,0,0,0,0,0,0,0,0,0,0,984,1081,1082,1083,0,0,0,0,0,0,0,0,0,0,0,0,0,0,0,
9685,9686,9685,9686,9685,9686,0,0,0,0,0,0,0,0,0,0,0,0,0,0,0,0,0,0,0,0,0,0,0,0,0,984,1089,1090,1091,0,0,0,0,0,0,0,0,0,0,0,0,0,0,0,
9693,9694,9693,9694,9693,9694,0,0,0,0,0,0,0,0,0,0,0,0,0,0,0,0,0,0,0,0,0,0,0,0,0,0,10366,10367,10368,0,10366,10367,10368,0,10366,10367,10368,0,0,0,0,0,0,0,
9701,9702,9701,9702,9701,9702,0,0,0,0,0,0,0,0,0,0,0,0,0,0,0,0,0,0,0,0,0,0,0,0,0,0,10374,10375,10376,0,10374,10375,10376,0,10374,10375,10376,0,0,0,0,0,0,0,
9685,9686,9685,9686,9685,9686,9685,9686,9685,9686,9685,9686,9685,9686,9685,9686,9685,9686,9685,9686,9685,9686,9685,9686,9685,9686,9685,9686,9685,9686,9685,9686,9685,9686,9685,9686,9685,9686,9685,9686,9685,9686,9685,9686,9685,9686,9685,9686,9685,9686,
9693,9694,9693,9694,9693,9694,9693,9694,9693,9694,9693,9694,9693,9694,9693,9694,9693,9694,9693,9694,9693,9694,9693,9694,9693,9694,9693,9694,9693,9694,9693,9694,9693,9694,9693,9694,9693,9694,9693,9694,9693,9694,9693,9694,9693,9694,9693,9694,9693,9694,
9701,9702,9701,9702,9701,9702,9701,9702,9701,9702,9701,9702,9701,9702,9701,9702,9701,9702,9701,9702,9701,9702,9701,9702,9701,9702,9701,9702,9701,9702,9701,9702,9701,9702,9701,9702,9701,9702,9701,9702,9701,9702,9701,9702,9701,9702,9701,9702,9701,9702,
9685,9686,9685,9686,9685,9686,9685,9686,9685,9686,9685,9686,9685,9686,9685,9686,9685,9686,9685,9686,9685,9686,9685,9686,9685,9686,9685,9686,9685,9686,9685,9686,9685,9686,9685,9686,9685,9686,9685,9686,9685,9686,9685,9686,9685,9686,9685,9686,9685,9686,
9693,9694,9693,9694,9693,9694,9693,9694,9693,9694,9693,9694,9693,9694,9693,9694,9693,9694,9693,9694,9693,9694,9693,9694,9693,9694,9693,9694,9693,9694,9693,9694,9693,9694,9693,9694,9693,9694,9693,9694,9693,9694,9693,9694,9693,9694,9693,9694,9693,9694,
9701,9702,9701,9702,9701,9702,9701,9702,9701,9702,9701,9702,9701,9702,9701,9702,9701,9702,9701,9702,9701,9702,9701,9702,9701,9702,9701,9702,9701,9702,9701,9702,9701,9702,9701,9702,9701,9702,9701,9702,9701,9702,9701,9702,9701,9702,9701,9702,9701,9702
</data>
 </layer>
 <layer id="4" name="sopra_testa" width="50" height="50" visible="0">
  <data encoding="csv">
0,0,0,0,0,0,0,0,0,0,0,0,0,0,0,0,0,0,0,0,0,0,0,0,0,0,0,0,0,0,0,0,0,0,0,0,0,0,0,0,0,0,0,0,0,0,0,0,0,0,
0,0,0,0,0,0,0,0,0,0,0,0,0,0,0,0,0,0,0,0,0,0,0,0,0,0,0,0,0,0,0,0,0,0,0,0,0,0,0,0,0,0,0,0,0,0,0,0,0,0,
0,0,0,0,0,0,0,0,0,0,0,0,0,0,0,0,0,0,0,0,0,0,0,0,0,0,0,0,0,0,0,0,0,0,0,0,0,0,0,0,0,0,0,0,0,0,0,0,0,0,
0,0,0,0,0,0,0,0,0,0,0,0,0,0,0,0,0,0,0,0,0,0,0,0,0,0,0,0,0,0,0,0,0,0,0,0,0,0,0,0,0,0,0,0,0,0,0,0,0,0,
0,0,0,0,0,0,0,0,0,0,0,0,0,0,0,0,0,0,0,0,0,0,0,0,0,0,0,0,0,0,0,0,0,0,0,0,0,0,0,0,0,0,0,0,0,0,0,0,0,0,
0,0,0,0,0,0,0,0,0,0,0,0,0,0,0,0,0,0,0,0,0,0,0,0,0,0,0,0,0,0,0,0,0,0,0,0,0,0,0,0,0,0,0,0,0,0,0,0,0,0,
0,0,0,0,0,0,0,0,0,0,0,0,0,0,0,0,0,0,0,0,0,0,0,0,0,0,0,0,0,0,0,0,0,0,0,0,0,0,0,0,0,0,0,0,0,0,0,0,0,0,
0,0,0,0,0,0,0,0,0,0,0,0,0,0,0,0,0,0,0,0,0,0,0,0,0,0,0,0,0,0,0,0,0,0,0,0,0,0,0,0,0,0,0,0,0,0,0,0,0,0,
0,0,0,0,0,0,0,0,0,0,0,0,0,0,0,0,0,0,0,0,0,0,0,0,0,0,0,0,0,0,0,0,0,0,0,0,0,0,0,0,0,0,0,0,0,0,0,0,0,0,
0,0,0,0,0,0,0,0,0,0,0,0,0,0,0,0,0,0,0,0,0,0,0,0,0,0,0,0,0,0,0,0,0,0,0,0,0,0,0,0,0,0,0,0,0,0,0,0,0,0,
0,0,0,0,0,0,0,0,0,0,0,0,0,0,0,0,0,0,0,0,0,0,0,0,0,0,0,0,0,0,0,0,0,0,0,0,0,0,0,0,0,0,0,0,0,0,0,0,0,0,
0,0,0,0,0,0,0,0,0,0,0,0,0,0,0,0,0,0,0,0,0,0,0,0,0,0,0,0,0,0,0,0,0,0,0,0,0,0,0,0,0,0,0,0,0,0,0,0,0,0,
0,0,0,0,0,0,0,0,0,0,0,0,0,0,0,0,0,0,0,0,0,0,0,0,0,0,0,0,0,0,0,0,0,0,0,0,0,0,0,0,0,0,0,0,0,0,0,0,0,0,
0,0,0,0,0,0,0,0,0,0,0,0,0,0,0,0,0,0,0,0,0,0,0,0,0,0,0,0,0,0,0,0,0,0,0,0,0,0,0,0,0,0,0,0,0,0,0,0,0,0,
0,0,0,0,0,0,0,0,0,0,0,0,0,0,0,0,0,0,0,0,0,0,0,0,0,0,0,0,0,0,0,0,0,0,0,0,0,0,0,0,0,0,0,0,0,0,0,0,0,0,
0,0,0,0,0,0,0,0,0,0,0,0,0,0,0,0,0,0,0,0,0,0,0,0,0,0,0,0,0,0,0,0,0,0,0,0,0,0,0,0,0,0,0,0,0,0,0,0,0,0,
0,0,0,0,0,0,0,0,0,0,0,0,0,0,0,0,0,0,0,0,0,0,0,0,0,0,0,0,0,0,0,0,0,0,0,0,0,0,0,0,0,0,0,0,0,0,0,0,0,0,
0,0,0,0,0,0,0,0,0,0,0,0,0,0,0,0,0,0,0,0,0,0,0,0,0,0,0,0,0,0,0,0,0,0,0,0,0,0,0,0,0,0,0,0,0,0,0,0,0,0,
0,0,0,0,0,0,0,0,0,0,0,0,0,0,0,0,0,0,0,0,0,0,0,0,0,0,0,0,0,0,0,0,0,0,0,0,0,0,0,0,0,0,0,0,0,0,0,0,0,0,
0,0,0,0,0,0,0,0,0,0,0,0,0,0,0,0,0,0,0,0,0,0,0,0,0,0,0,0,0,0,0,0,0,0,0,0,0,0,0,0,0,0,0,0,0,0,0,0,0,0,
0,0,0,0,0,0,0,0,0,0,0,0,0,0,0,0,0,0,0,0,0,0,0,0,0,0,0,0,0,0,0,0,0,0,0,0,0,0,0,0,0,0,0,0,0,0,0,0,0,0,
0,0,0,0,0,0,0,0,0,0,0,0,0,0,0,0,0,0,0,0,0,0,0,0,0,0,0,0,0,0,0,0,0,0,0,0,0,0,0,0,0,0,0,0,0,0,0,0,0,0,
0,0,0,0,0,0,0,0,0,0,0,0,0,0,0,0,0,0,0,0,0,0,0,0,0,0,0,0,0,0,0,0,0,0,0,0,0,0,0,0,0,0,0,0,0,0,0,0,0,0,
0,0,0,0,0,0,0,0,0,0,0,0,0,0,0,0,0,0,0,0,0,0,0,0,0,0,0,0,0,0,0,0,0,0,0,0,0,0,0,0,0,0,0,0,0,0,0,0,0,0,
0,0,0,0,0,0,0,0,0,0,0,0,0,0,0,0,0,0,0,0,0,0,0,0,0,0,0,0,0,0,0,0,0,0,0,0,0,0,0,0,0,0,0,0,0,0,0,0,0,0,
0,0,0,0,0,0,0,0,0,0,0,0,0,0,0,0,0,0,0,0,0,0,0,0,0,0,0,0,0,0,0,0,0,0,0,0,0,0,0,0,0,0,0,0,0,0,0,0,0,0,
0,0,0,0,0,0,0,0,0,0,0,0,0,0,0,0,0,0,0,0,0,0,0,0,0,0,0,0,0,0,0,0,0,0,0,0,0,0,0,0,0,0,0,0,0,0,0,0,0,0,
0,0,0,0,0,0,0,0,0,0,0,0,0,0,0,0,0,0,0,0,0,0,0,0,0,0,0,0,0,0,0,0,0,0,0,0,0,0,0,0,0,0,0,0,0,0,0,0,0,0,
0,0,0,0,0,0,0,0,0,0,0,0,0,0,0,0,0,0,0,0,0,0,0,0,0,0,0,0,0,0,0,0,0,0,0,0,0,0,0,0,0,0,0,0,0,0,0,0,0,0,
0,0,0,0,0,0,0,0,0,0,0,0,0,0,0,0,0,0,0,0,0,0,0,0,0,0,0,0,0,0,0,0,0,0,0,0,0,0,0,0,0,0,0,0,0,0,0,0,0,0,
0,0,0,0,0,0,0,0,0,0,0,0,0,0,0,0,0,0,0,0,0,0,0,0,0,0,0,0,0,0,0,0,0,0,0,0,0,0,0,0,0,0,0,0,0,0,0,0,0,0,
0,0,0,0,0,0,0,0,0,0,0,0,0,0,0,0,0,0,0,0,0,0,0,0,0,0,0,0,0,0,0,0,0,0,0,0,0,0,0,0,0,0,0,0,0,0,0,0,0,0,
0,0,0,0,0,0,0,0,0,0,0,0,0,0,0,0,0,0,0,0,0,0,0,0,0,0,0,0,0,0,0,0,0,0,0,0,0,0,0,0,0,0,0,0,0,0,0,0,0,0,
0,0,0,0,0,0,0,0,0,0,0,0,0,0,0,0,0,0,0,0,0,0,0,0,0,0,0,0,0,0,0,0,0,0,0,0,0,0,0,0,0,0,0,0,0,0,0,0,0,0,
0,0,0,0,0,0,0,0,0,0,0,0,0,0,0,0,0,0,0,0,0,0,0,0,0,0,0,0,0,0,0,0,0,0,0,0,0,0,0,0,0,0,0,0,0,0,0,0,0,0,
0,0,0,0,0,0,0,0,0,0,0,0,0,0,0,0,0,0,0,0,0,0,0,0,0,0,0,0,0,0,0,0,0,0,0,0,0,0,0,0,0,0,0,0,0,0,0,0,0,0,
0,0,0,0,0,0,0,0,0,0,0,0,0,0,0,0,0,0,0,0,0,0,0,0,0,0,0,0,0,0,0,0,0,0,0,0,0,0,0,0,0,0,0,0,0,0,0,0,0,0,
0,0,0,0,0,0,0,0,0,0,0,0,0,0,0,0,0,0,0,0,0,0,0,0,0,0,0,0,0,0,0,0,0,0,0,0,0,0,0,0,0,0,0,0,0,0,0,0,0,0,
0,0,0,0,0,0,0,0,0,0,0,0,0,0,0,0,0,0,0,0,0,0,0,0,0,0,0,0,0,0,0,0,0,0,0,0,0,0,0,0,0,0,0,0,0,0,0,0,0,0,
0,0,0,0,0,0,0,0,0,0,0,0,0,0,0,0,0,0,0,0,0,0,0,0,0,0,0,0,0,0,0,0,0,0,0,0,0,0,0,0,0,0,0,0,0,0,0,0,0,0,
0,0,0,0,0,0,0,0,0,0,0,0,0,0,0,0,0,0,0,0,0,0,0,0,0,0,0,0,0,0,0,0,0,0,0,0,0,0,0,0,0,0,0,0,0,0,0,0,0,0,
0,0,0,0,0,0,0,0,0,0,0,0,0,0,0,0,0,0,0,0,0,0,0,0,0,0,0,0,0,0,0,0,0,0,0,0,0,0,0,0,0,0,0,0,0,0,0,0,0,0,
0,0,0,0,0,0,0,0,0,0,0,0,0,0,0,0,0,0,0,0,0,0,0,0,0,0,0,0,0,0,0,0,0,0,0,0,0,0,0,0,0,0,0,0,0,0,0,0,0,0,
0,0,0,0,0,0,0,0,0,0,0,0,0,0,0,0,0,0,0,0,0,0,0,0,0,0,0,0,0,0,0,0,0,0,0,0,0,0,0,0,0,0,0,0,0,0,0,0,0,0,
0,0,0,0,0,0,0,0,0,0,0,0,0,0,0,0,0,0,0,0,0,0,0,0,0,0,0,0,0,0,0,0,0,0,0,0,0,0,0,0,0,0,0,0,0,0,0,0,0,0,
0,0,0,0,0,0,0,0,0,0,0,0,0,0,0,0,0,0,0,0,0,0,0,0,0,0,0,0,0,0,0,0,0,0,0,0,0,0,0,0,0,0,0,0,0,0,0,0,0,0,
0,0,0,0,0,0,0,0,0,0,0,0,0,0,0,0,0,0,0,0,0,0,0,0,0,0,0,0,0,0,0,0,0,0,0,0,0,0,0,0,0,0,0,0,0,0,0,0,0,0,
0,0,0,0,0,0,0,0,0,0,0,0,0,0,0,0,0,0,0,0,0,0,0,0,0,0,0,0,0,0,0,0,0,0,0,0,0,0,0,0,0,0,0,0,0,0,0,0,0,0,
0,0,0,0,0,0,0,0,0,0,0,0,0,0,0,0,0,0,0,0,0,0,0,0,0,0,0,0,0,0,0,0,0,0,0,0,0,0,0,0,0,0,0,0,0,0,0,0,0,0,
0,0,0,0,0,0,0,0,0,0,0,0,0,0,0,0,0,0,0,0,0,0,0,0,0,0,0,0,0,0,0,0,0,0,0,0,0,0,0,0,0,0,0,0,0,0,0,0,0,0
</data>
 </layer>
 <objectgroup id="20" name="collisioni">
  <object id="54" x="258.667" y="258" width="51.3333" height="117.333"/>
  <object id="55" x="259.333" y="263.333" width="116" height="55.3333"/>
  <object id="56" x="360.667" y="309.333" width="14.6667" height="68"/>
  <object id="57" x="451.333" y="274" width="118" height="102.667"/>
  <object id="58" x="330.667" y="640" width="18.6667" height="154.667"/>
  <object id="59" x="416" y="641.333" width="11.3333" height="157.333"/>
  <object id="60" x="290" y="1146.67" width="58.6667" height="124.667"/>
  <object id="61" x="304" y="1143.33" width="136" height="70"/>
  <object id="62" x="387.333" y="1178.67" width="50.6667" height="96"/>
  <object id="63" x="516" y="1174.67" width="112" height="94.6667"/>
  <object id="64" x="1010.67" y="995.333" width="102" height="338.667"/>
  <object id="65" x="1318.67" y="994" width="96" height="256.589"/>
  <object id="66" x="1284.67" y="1092.67" width="18.6667" height="15.3333"/>
  <object id="67" x="1251.33" y="1126" width="20" height="12"/>
  <object id="68" x="1126" y="1097.33" width="14.6667" height="12"/>
  <object id="69" x="1136" y="916.667" width="10.6667" height="53.3333"/>
  <object id="70" x="1251.33" y="920" width="11.3333" height="48"/>
  <object id="83" x="806" y="312" width="82" height="160"/>
  <object id="84" x="810" y="310.667" width="208.667" height="104"/>
  <object id="85" x="930" y="397.333" width="84.6667" height="66.6667"/>
  <object id="86" x="888" y="406.667" width="4" height="2"/>
  <object id="87" x="887.333" y="408.667" width="46" height="26"/>
  <object id="89" x="1192" y="1130" width="50.6667" height="24"/>
  <object id="90" x="365.333" y="489.333" width="68" height="52"/>
  <object id="96" x="1099.33" y="3.33333" width="76" height="584"/>
  <object id="97" x="1175" y="518" width="26" height="86"/>
  <object id="98" x="1198" y="272" width="69" height="97"/>
  <object id="99" x="1289" y="287" width="17" height="22"/>
  <object id="100" x="1183.33" y="-30.3333" width="35" height="22"/>
  <object id="101" x="1273.33" y="72.6667" width="48.6667" height="81"/>
  <object id="102" x="1213.67" y="26.6667" width="81" height="129.667"/>
  <object id="103" x="1286" y="3" width="51" height="88"/>
  <object id="104" x="1314" y="19.3333" width="194.333" height="107.667"/>
  <object id="105" x="1412.33" y="62" width="117" height="129.667"/>
  <object id="106" x="1456" y="86" width="7" height="36"/>
  <object id="107" x="1511" y="-2" width="86" height="608"/>
  <object id="108" x="1381" y="516" width="142" height="83"/>
  <object id="109" x="1263" y="586" width="134" height="15"/>
  <object id="110" x="1191" y="520" width="113" height="17"/>
  <object id="111" x="1317" y="263" width="14" height="18"/>
  <object id="112" x="1386" y="230" width="15" height="19"/>
  <object id="113" x="1418" y="175" width="89" height="104"/>
  <object id="114" x="6" y="11" width="476" height="145"/>
  <object id="115" x="891" y="313" width="123" height="88"/>
  <object id="116" x="1413" y="890" width="149" height="94"/>
  <object id="117" x="1026" y="1345" width="345" height="62"/>
  <object id="118" x="1325" y="1207" width="76" height="129"/>
  <object id="120" x="5" y="911" width="185" height="36"/>
  <object id="121" x="195" y="928" width="7" height="526"/>
  <object id="123" x="201" y="1425" width="602" height="35"/>
  <object id="124" x="894" y="1423" width="705" height="30"/>
  <object id="128" x="614" y="8.5" width="476" height="145"/>
  <object id="129" x="777" y="1424" width="286" height="169"/>
  <object id="130" x="4" y="269" width="197" height="515"/>
  <object id="131" x="189" y="161" width="15" height="142"/>
  <object id="135" x="1370.83" y="64.3333" width="51" height="88"/>
 </objectgroup>
 <objectgroup color="#ff0000" id="6" name="eventi">
  <object id="2" name="gate_npc" type="npc" x="1342.96" y="221.901" width="26.5406" height="23.5076">
   <properties>
    <property name="condizione" value="medaglie&gt;=7"/>
    <property name="direzione" value="sud"/>
    <property name="gate" type="bool" value="true"/>
    <property name="id" value="gdf_porta_abbazia"/>
    <property name="sprite" value="GDF_GRUNT_SPRITE"/>
    <property name="type" value="npc"/>
   </properties>
  </object>
  <object id="3" name="trainer" type="trainer" x="455.471" y="523.789" width="32" height="32">
   <properties>
    <property name="direzione" value="est"/>
    <property name="id" value="gdf_grunt_abbazia_1"/>
    <property name="sprite" value="GDF_GRUNT_SPRITE"/>
    <property name="team_gdf" type="bool" value="true"/>
    <property name="trigger" value="avvicinamento"/>
    <property name="type" value="trainer"/>
    <property name="vista" type="int" value="3"/>
   </properties>
  </object>
  <object id="4" name="trainer" type="trainer" x="1343.67" y="609" width="32" height="32">
   <properties>
    <property name="direzione" value="ovest"/>
    <property name="id" value="gdf_grunt_abbazia_2"/>
    <property name="sprite" value="GDF_GRUNT_SPRITE"/>
    <property name="team_gdf" type="bool" value="true"/>
    <property name="trigger" value="avvicinamento"/>
    <property name="type" value="trainer"/>
    <property name="vista" type="int" value="3"/>
   </properties>
  </object>
  <object id="5" name="trainer" type="trainer" x="1441.17" y="479.076" width="32" height="32">
   <properties>
    <property name="direzione" value="ovest"/>
    <property name="id" value="gdf_grunt_abbazia_3"/>
    <property name="sprite" value="GDF_GRUNT_SPRITE"/>
    <property name="team_gdf" type="bool" value="true"/>
    <property name="trigger" value="avvicinamento"/>
    <property name="type" value="trainer"/>
    <property name="vista" type="int" value="7"/>
   </properties>
  </object>
  <object id="6" name="trigger_rivale" type="trigger_rivale" x="806.119" y="1215.73" width="32" height="32">
   <properties>
    <property name="orientamento" value="est"/>
    <property name="tappa" type="int" value="3"/>
    <property name="type" value="trigger_rivale"/>
   </properties>
  </object>
  <object id="11" name="cartello" type="cartello" x="1258.89" y="872.023" width="13.3333" height="18">
   <properties>
    <property name="testo" value="Parcheggione (Qui succede qualcosa di strano nelle notti senza luna...) "/>
    <property name="type" value="cartello"/>
   </properties>
  </object>
  <object id="12" name="deoxys_trigger" type="trigger_leggendario" x="1287.3" y="1323.7" width="19.868" height="19.868">
   <properties>
    <property name="condizione" value="post_lega_luna"/>
    <property name="id" value="deoxys_trigger"/>
    <property name="pokemon_id" type="int" value="386"/>
    <property name="type" value="trigger_leggendario"/>
   </properties>
  </object>
  <object id="14" name="npc" type="npc" x="514.937" y="388.621" width="32" height="32">
   <properties>
    <property name="dialogo" value="&quot;Ciao so Cesare, pizza o pangocciolo?&quot;"/>
    <property name="direzione" value="nord"/>
    <property name="id" value="grotta_npc1"/>
    <property name="sprite" value="NPC_50"/>
    <property name="type" value="npc"/>
   </properties>
  </object>
  <object id="15" name="npc" type="npc" x="442.93" y="1025.83" width="32" height="32">
   <properties>
    <property name="direzione" value="est"/>
    <property name="id" value="grotta_npc2"/>
    <property name="movimento" value="random"/>
    <property name="raggio" type="int" value="3"/>
    <property name="sprite" value="NPC_51"/>
    <property name="type" value="npc"/>
   </properties>
  </object>
  <object id="16" name="npc" type="npc" x="280.521" y="1080.75" width="32" height="32">
   <properties>
    <property name="direzione" value="est"/>
    <property name="id" value="grotta_npc3"/>
    <property name="sprite" value="NPC_52"/>
    <property name="type" value="npc"/>
   </properties>
  </object>
  <object id="17" name="npc" type="npc" x="545" y="712" width="32" height="32">
   <properties>
    <property name="direzione" value="sud"/>
    <property name="id" value="grotta_npc4"/>
    <property name="movimento" value="random"/>
    <property name="raggio" type="int" value="3"/>
    <property name="sprite" value="NPC_53"/>
    <property name="type" value="npc"/>
   </properties>
  </object>
  <object id="18" name="npc" type="npc" x="1258.22" y="1016.69" width="32" height="32">
   <properties>
    <property name="direzione" value="ovest"/>
    <property name="id" value="parcheggio_npc5"/>
    <property name="sprite" value="NPC_54"/>
    <property name="type" value="npc"/>
   </properties>
  </object>
  <object id="19" name="npc" type="npc" x="1118.84" y="670.409" width="32" height="32">
   <properties>
    <property name="direzione" value="sud"/>
    <property name="id" value="monaco_abbazia"/>
    <property name="sprite" value="NPC_MONACO"/>
    <property name="type" value="npc"/>
   </properties>
  </object>
  <object id="26" name="warp" type="warp" x="1325.17" y="132.076" width="44" height="26">
   <properties>
    <property name="destinazione" value="abbazia_interno"/>
    <property name="spawn_id" value="da_grottaferrata_entrata"/>
    <property name="type" value="warp"/>
    <property name="condizione" value="medaglie &gt;= 7"/>
    <property name="messaggio_gate" value="🔒 L'Abbazia è sorvegliata: nessuno entra senza aver dimostrato il proprio valore in tutte le palestre dei Castelli."/>
   </properties>
  </object>
  <object id="95" name="spawn" x="1325" y="175">
   <point/>
   <properties>
    <property name="id" value="da_abbazia_interno"/>
    <property name="type" value="spawn"/>
   </properties>
  </object>
  <object id="27" name="warp" type="warp" x="895.085" y="440" width="32" height="32">
   <properties>
    <property name="destinazione" value="palestra_grottaferrata_interno"/>
    <property name="spawn_id" value="entrata_principale"/>
    <property name="type" value="warp"/>
   </properties>
  </object>
  <object id="28" name="warp" type="warp" x="357.873" y="1242.86" width="22.1538" height="32">
   <properties>
    <property name="destinazione" value="pokecenter_grottaferrata"/>
    <property name="spawn_id" value="grottaferrata"/>
    <property name="type" value="warp"/>
   </properties>
  </object>
  <object id="29" name="warp" type="warp" x="319.352" y="343.104" width="28.7611" height="32">
   <properties>
    <property name="destinazione" value="mart_grottaferrata"/>
    <property name="spawn_id" value="grottaferrata"/>
    <property name="type" value="warp"/>
   </properties>
  </object>
  <object id="31" name="warp" type="warp" x="542.696" y="1237.06" width="32" height="32">
   <properties>
    <property name="destinazione" value="casa_grotta_2_interno"/>
    <property name="spawn_id" value="entrata"/>
    <property name="type" value="warp"/>
   </properties>
  </object>
  <object id="32" name="warp" type="warp" x="1201.22" y="1175.69" width="32" height="32">
   <properties>
    <property name="destinazione" value="grotta_meteora"/>
    <property name="spawn_id" value="entrata"/>
    <property name="type" value="warp"/>
   </properties>
  </object>
  <object id="36" name="spawn" type="spawn" x="319.503" y="358.742" width="29.3333" height="28">
   <properties>
    <property name="id" value="da pokemarket grottaferrata"/>
    <property name="type" value="spawn"/>
   </properties>
  </object>
  <object id="37" name="cartello" type="cartello" x="903.863" y="803.358" width="23.3333" height="18.6667" rotation="271.19">
   <properties>
    <property name="testo" value="← Percorso 3 — Marino"/>
    <property name="type" value="cartello"/>
   </properties>
  </object>
  <object id="38" name="cartello" type="cartello" x="323.239" y="869.074" width="23.3333" height="18.6667">
   <properties>
    <property name="testo" value="← Percorso 2 — Frascati"/>
    <property name="type" value="cartello"/>
   </properties>
  </object>
  <object id="39" name="cartello" type="cartello" x="1318.17" y="739.409" width="20.6667" height="24.6667">
   <properties>
    <property name="testo" value="↑ Abbazia di San Nilo — Fondata nel 1004 d.C."/>
    <property name="type" value="cartello"/>
   </properties>
  </object>
  <object id="40" name="cartello" type="cartello" x="933" y="486" width="20" height="17.3333">
   <properties>
    <property name="testo" value="→ Palestra di Grottaferrata — Tipo Psico"/>
    <property name="type" value="cartello"/>
   </properties>
  </object>
  <object id="52" name="cartello" type="cartello" x="1129" y="870.333" width="17.3333" height="19.3333">
   <properties>
    <property name="testo" value="Quella torre, non vi sembra un po' un'astronave....?"/>
    <property name="type" value="cartello"/>
   </properties>
  </object>
  <object id="53" name="gate_npc" type="npc" x="1151" y="1114" width="32" height="32">
   <properties>
    <property name="condizione" value="medaglie&gt;=7"/>
    <property name="direzione" value="sud"/>
    <property name="gate" type="bool" value="true"/>
    <property name="id" value="gdf_porta_abbazia"/>
    <property name="sprite" value="GDF_GRUNT_SPRITE"/>
    <property name="type" value="npc"/>
   </properties>
  </object>
  <object id="93" name="spawn" type="spawn" x="355.333" y="1257.33" width="29.3333" height="28">
   <properties>
    <property name="id" value="da pokecenter grottaferrata"/>
    <property name="type" value="spawn"/>
   </properties>
  </object>
  <object id="94" name="spawn" type="spawn" x="896" y="457.333" width="29.3333" height="28">
   <properties>
    <property name="id" value="da palestra grottaferrata"/>
    <property name="type" value="spawn"/>
   </properties>
  </object>
 </objectgroup>
</map>
