<?xml version="1.0" encoding="UTF-8"?>
<map version="1.10" tiledversion="1.12.2" orientation="orthogonal" renderorder="right-down" width="55" height="100" tilewidth="32" tileheight="32" infinite="0" nextlayerid="7" nextobjectid="700">
 <tileset firstgid="1" source="../Caves.tsj"/>
 <tileset firstgid="1593" source="../lava_animata_v2.tsj"/>
 <tileset firstgid="1785" source="../Waterfalllava.tsj"/>
 <tileset firstgid="1789" source="../Waterfall bottomLava.tsj"/>
 <tileset firstgid="1793" source="../Waterfall crestLava.tsj"/>
 <tileset firstgid="1797" source="../Game Boy Advance - Pokemon FireRed _ LeafGreen - Maps (Towns, Buildings, Etc.) - Rocket Hideout.tsj"/>
 <tileset firstgid="2769" source="../Interior_general_32.tsj"/>
 <tileset firstgid="4777" source="../Dungeon floor.tsj"/>
 <tileset firstgid="4781" source="../Dungeon wall.tsj"/>
 <tileset firstgid="4785" source="../Factory interior.tsj"/>
 <tileset firstgid="5009" source="../../outside.tsx"/>
 <layer id="1" name="ground" width="55" height="100">
  <data encoding="csv">
491,491,491,491,491,491,491,491,491,491,491,491,491,491,491,491,491,491,491,491,491,491,491,491,491,491,491,491,491,491,491,491,491,491,491,491,491,491,491,491,491,491,491,491,491,491,491,491,491,491,491,491,491,491,491,
491,491,491,491,491,491,491,491,491,491,491,491,491,491,491,491,491,491,491,491,491,491,491,491,491,491,491,491,491,491,491,491,491,491,491,491,491,491,491,491,491,491,491,491,491,491,491,491,491,491,491,491,491,491,491,
491,491,491,491,491,491,491,491,491,491,491,491,491,491,491,491,491,491,491,491,491,491,491,491,491,491,491,491,491,491,491,491,491,491,491,491,491,491,491,491,491,491,491,491,491,491,491,491,491,491,491,491,491,491,491,
491,491,491,491,491,491,491,491,491,491,491,491,491,491,491,491,491,491,491,491,491,491,491,491,491,491,491,491,491,491,491,491,491,491,491,491,491,491,491,491,491,491,491,491,491,491,491,491,491,491,491,491,491,491,491,
491,491,491,491,491,491,491,491,491,491,491,491,491,491,491,491,491,491,491,491,491,491,491,491,491,491,491,491,491,491,491,491,491,491,491,491,491,491,491,491,491,491,491,491,491,491,491,491,491,491,491,491,491,491,491,
491,491,491,491,491,491,491,491,491,491,491,491,491,491,491,491,491,491,491,491,491,491,491,491,491,491,491,491,491,491,491,491,491,491,491,491,491,491,491,491,491,491,491,491,491,491,491,491,491,491,491,491,491,491,491,
491,491,491,491,491,491,491,491,491,491,491,491,491,491,491,491,491,491,491,491,491,491,491,491,491,491,491,491,491,491,491,491,491,491,491,491,491,491,491,491,491,491,491,491,491,491,491,491,491,491,491,491,491,491,491,
491,491,491,491,491,491,491,491,491,491,491,491,491,491,491,491,491,491,491,491,491,491,491,491,491,491,491,491,491,491,491,491,491,491,491,491,491,491,491,491,491,491,491,491,491,491,491,491,491,491,491,491,491,491,491,
491,491,491,491,491,491,491,491,491,491,491,491,491,491,491,491,491,491,491,491,491,491,491,491,491,491,491,491,491,491,491,491,491,491,491,491,491,491,491,491,491,491,491,491,491,491,491,491,491,491,491,491,491,491,491,
491,491,491,491,491,491,491,491,491,491,491,491,491,491,491,491,491,491,491,491,491,491,491,491,491,491,491,491,491,491,491,491,491,491,491,491,491,491,491,491,491,491,491,491,491,491,491,491,491,491,491,491,491,491,491,
491,491,491,491,491,491,491,491,491,491,491,491,491,491,491,491,491,491,491,491,491,491,491,491,491,491,491,491,491,491,491,491,491,491,491,491,491,491,491,491,491,491,491,491,491,491,491,491,491,491,491,491,491,491,491,
491,491,491,491,491,491,491,491,491,491,491,491,491,491,491,491,491,491,491,491,491,491,491,491,491,491,491,491,491,491,491,491,491,491,491,491,491,491,491,491,491,491,491,491,491,491,491,491,491,491,491,491,491,491,491,
491,491,491,491,491,491,491,491,491,491,491,491,491,491,491,491,491,491,491,491,491,491,491,491,491,491,491,491,491,491,491,491,491,491,491,491,491,491,491,491,491,491,491,491,491,491,491,491,491,491,491,491,491,491,491,
491,491,491,491,491,491,491,491,491,491,491,491,491,491,491,491,491,491,491,491,491,491,491,491,491,491,491,491,491,491,491,491,491,491,491,491,491,491,491,491,491,491,491,491,491,491,491,491,491,491,491,491,491,491,491,
491,491,491,491,491,491,491,491,491,491,491,491,491,491,491,491,491,491,491,491,491,491,491,491,491,491,491,491,491,491,491,491,491,491,491,491,491,491,491,491,491,491,491,491,491,491,491,491,491,491,491,491,491,491,491,
491,491,491,491,491,491,491,491,491,491,491,491,491,491,491,491,491,491,491,491,491,491,491,491,491,491,491,491,491,491,491,491,491,491,491,491,491,491,491,491,491,491,491,491,491,491,491,491,491,491,491,491,491,491,491,
491,491,491,491,491,491,491,491,491,491,491,491,491,491,491,491,491,491,491,491,491,491,491,491,491,491,491,491,491,491,491,491,491,491,491,491,491,491,491,491,491,491,491,491,491,491,491,491,491,491,491,491,491,491,491,
491,491,491,491,491,491,491,491,491,491,491,491,491,491,491,491,491,491,491,491,491,491,491,491,491,491,491,491,491,491,491,491,491,491,491,491,491,491,491,491,491,491,491,491,491,491,491,491,491,491,491,491,491,491,491,
491,491,491,491,491,491,491,491,491,491,491,491,491,491,491,491,491,491,491,491,491,491,491,491,491,491,491,491,491,491,491,491,491,491,491,491,491,491,491,491,491,491,491,491,491,491,491,491,491,491,491,491,491,491,491,
491,491,491,491,491,491,491,491,491,491,491,491,491,491,491,491,491,491,491,491,491,491,491,491,491,491,491,491,491,491,491,491,491,491,491,491,491,491,491,491,491,491,491,491,491,491,491,491,491,491,491,491,491,491,491,
491,491,491,491,491,491,491,491,491,491,491,491,491,491,491,491,491,491,491,491,491,491,491,491,491,491,491,491,491,491,491,491,491,491,491,491,491,491,491,491,491,491,491,491,491,491,491,491,491,491,491,491,491,491,491,
491,491,491,491,491,491,491,491,491,491,491,491,491,491,491,491,491,491,491,491,491,491,491,491,491,491,491,491,491,491,491,491,491,491,491,491,491,491,491,491,491,491,491,491,491,491,491,491,491,491,491,491,491,491,491,
491,491,491,491,491,491,491,491,491,491,491,491,491,491,491,491,491,491,491,491,491,491,491,491,491,491,491,491,491,491,491,491,491,491,491,491,491,491,491,491,491,491,491,491,491,491,491,491,491,491,491,491,491,491,491,
491,491,491,491,491,491,491,491,491,491,491,491,491,491,491,491,491,491,491,491,491,491,491,491,491,491,491,491,491,491,491,491,491,491,491,491,491,491,491,491,491,491,491,491,491,491,491,491,491,491,491,491,491,491,491,
491,491,491,491,491,491,491,491,491,491,491,491,491,491,491,491,491,491,491,491,491,491,491,491,491,491,491,491,491,491,491,491,491,491,491,491,491,491,491,491,491,491,491,491,491,491,491,491,491,491,491,491,491,491,491,
491,491,491,491,491,491,491,491,491,491,491,491,491,491,491,491,491,491,491,491,491,491,491,491,491,491,491,491,491,491,491,491,491,491,491,491,491,491,491,491,491,491,491,491,491,491,491,491,491,491,491,491,491,491,491,
491,491,491,491,491,491,491,491,491,491,491,491,491,491,491,491,491,491,491,491,491,491,491,491,491,491,491,491,491,491,491,491,491,491,491,491,491,491,491,491,491,491,491,491,491,491,491,491,491,491,491,491,491,491,491,
491,491,491,491,491,491,491,491,491,491,491,491,491,491,491,491,491,491,491,491,491,491,491,491,491,491,491,491,491,491,491,491,491,491,491,491,491,491,491,491,491,491,491,491,491,491,491,491,491,491,491,491,491,491,491,
491,491,491,491,491,491,491,491,491,491,491,491,491,491,491,491,491,491,491,491,491,491,491,491,491,491,491,491,491,491,491,491,491,491,491,491,491,491,491,491,491,491,491,491,491,491,491,491,491,491,491,491,491,491,491,
491,491,491,491,491,491,491,491,491,491,491,491,491,491,491,491,491,491,491,491,491,491,491,491,491,491,491,491,491,491,491,491,491,491,491,491,491,491,491,491,491,491,491,491,491,491,491,491,491,491,491,491,491,491,491,
491,491,491,491,491,491,491,491,491,491,491,491,491,491,491,491,491,491,491,491,491,491,491,491,491,491,491,491,491,491,491,491,491,491,491,491,491,491,491,491,491,491,491,491,491,491,491,491,491,491,491,491,491,491,491,
491,491,491,491,491,491,491,491,491,491,491,491,491,491,491,491,491,491,491,491,491,491,491,491,491,491,491,491,491,491,491,491,491,491,491,491,491,491,491,491,491,491,491,491,491,491,491,491,491,491,491,491,491,491,491,
491,491,491,491,491,491,491,491,491,491,491,491,491,491,491,491,491,491,491,491,491,491,491,491,491,491,491,491,491,491,491,491,491,491,491,491,491,491,491,491,491,491,491,491,491,491,491,491,491,491,491,491,491,491,491,
491,491,491,491,491,491,491,491,491,491,491,491,491,491,491,491,491,491,491,491,491,491,491,491,491,491,491,491,491,491,491,491,491,491,491,491,491,491,491,491,491,491,491,491,491,491,491,491,491,491,491,491,491,491,491,
491,491,491,491,491,491,491,491,491,491,491,491,491,491,491,491,491,491,491,491,491,491,491,491,491,491,491,491,491,491,491,491,491,491,491,491,491,491,491,491,491,491,491,491,491,491,491,491,491,491,491,491,491,491,491,
491,491,491,491,491,491,491,491,491,491,491,491,491,491,491,491,491,491,491,491,491,491,491,491,491,491,491,491,491,491,491,491,491,491,491,491,491,491,491,491,491,491,491,491,491,491,491,491,491,491,491,491,491,491,491,
491,491,491,491,491,491,491,491,491,491,491,491,491,491,491,491,491,491,491,491,491,491,491,491,491,491,491,491,491,491,491,491,491,491,491,491,491,491,491,491,491,491,491,491,491,491,491,491,491,491,491,491,491,491,491,
491,491,491,491,491,491,491,491,491,491,491,491,491,491,491,491,491,491,491,491,491,491,491,491,491,491,491,491,491,491,491,491,491,491,491,491,491,491,491,491,491,491,491,491,491,491,491,491,491,491,491,491,491,491,491,
491,491,491,491,491,491,491,491,491,491,491,491,491,491,491,491,491,491,491,491,491,491,491,491,491,491,491,491,491,491,491,491,491,491,491,491,491,491,491,491,491,491,491,491,491,491,491,491,491,491,491,491,491,491,491,
491,491,491,491,491,491,491,491,491,491,491,491,491,491,491,491,491,491,491,491,491,491,491,491,491,491,491,491,491,491,491,491,491,491,491,491,491,491,491,491,491,491,491,491,491,491,491,491,491,491,491,491,491,491,491,
491,491,491,491,491,491,491,491,491,491,491,491,491,491,491,491,491,491,491,491,491,491,491,491,491,491,491,491,491,491,491,491,491,491,491,491,491,491,491,491,491,491,491,491,491,491,491,491,491,491,491,491,491,491,491,
491,491,491,491,491,491,491,491,491,491,491,491,491,491,491,491,491,491,491,491,491,491,491,491,491,491,491,491,491,491,491,491,491,491,491,491,491,491,491,491,491,491,491,491,491,491,491,491,491,491,491,491,491,491,491,
491,491,491,491,491,491,491,491,491,491,491,491,491,491,491,491,491,491,491,491,491,491,491,491,491,491,491,491,491,491,491,491,491,491,491,491,491,491,491,491,491,491,491,491,491,491,491,491,491,491,491,491,491,491,491,
491,491,491,491,491,491,491,491,491,491,491,491,491,491,491,491,491,491,491,491,491,491,491,491,491,491,491,491,491,491,491,491,491,491,491,491,491,491,491,491,491,491,491,491,491,491,491,491,491,491,491,491,491,491,491,
491,491,491,491,491,491,491,491,491,491,491,491,491,491,491,491,491,491,491,491,491,491,491,491,491,491,491,491,491,491,491,491,491,491,491,491,491,491,491,491,491,491,491,491,491,491,491,491,491,491,491,491,491,491,491,
491,491,491,491,491,491,491,491,491,491,491,491,491,491,491,491,491,491,491,491,491,491,491,491,491,491,491,491,491,491,491,491,491,491,491,491,491,491,491,491,491,491,491,491,491,491,491,491,491,491,491,491,491,491,491,
491,491,491,491,491,491,491,491,491,491,491,491,491,491,491,491,491,491,491,491,491,491,491,491,491,491,491,491,491,491,491,491,491,491,491,491,491,491,491,491,491,491,491,491,491,491,491,491,491,491,491,491,491,491,491,
491,491,491,491,491,491,491,491,491,491,491,491,491,491,491,491,491,491,491,491,491,491,491,491,491,491,491,491,491,491,491,491,491,491,491,491,491,491,491,491,491,491,491,491,491,491,491,491,491,491,491,491,491,491,491,
491,491,491,491,491,491,491,491,491,491,491,491,491,491,491,491,491,491,491,491,491,491,491,491,491,491,491,491,491,491,491,491,491,491,491,491,491,491,491,491,491,491,491,491,491,491,491,491,491,491,491,491,491,491,491,
491,491,491,491,491,491,491,491,491,491,491,491,491,491,491,491,491,491,491,491,491,491,491,491,491,491,491,491,491,491,491,491,491,491,491,491,491,491,491,491,491,491,491,491,491,491,491,491,491,491,491,491,491,491,491,
491,491,491,491,491,491,491,491,491,491,491,491,491,491,491,491,491,491,491,491,491,491,491,491,491,491,491,491,491,491,491,491,491,491,491,491,491,491,491,491,491,491,491,491,491,491,491,491,491,491,491,491,491,491,491,
491,491,491,491,491,491,491,491,491,491,491,491,491,491,491,491,491,491,491,491,491,491,491,491,491,491,491,491,491,491,491,491,491,491,491,491,491,491,491,491,491,491,491,491,491,491,491,491,491,491,491,491,491,491,491,
491,491,491,491,491,491,491,491,491,491,491,491,491,491,491,491,491,491,491,491,491,491,491,491,491,491,491,491,491,491,491,491,491,491,491,491,491,491,491,491,491,491,491,491,491,491,491,491,491,491,491,491,491,491,491,
491,491,491,491,491,491,491,491,491,491,491,491,491,491,491,491,491,491,491,491,491,491,491,491,491,491,491,491,491,491,491,491,491,491,491,491,491,491,491,491,491,491,491,491,491,491,491,491,491,491,491,491,491,491,491,
491,491,491,491,491,491,491,491,491,491,491,491,491,491,491,491,491,491,491,491,491,491,491,491,491,491,491,491,491,491,491,491,491,491,491,491,491,491,491,491,491,491,491,491,491,491,491,491,491,491,491,491,491,491,491,
491,491,491,491,491,491,491,491,491,491,491,491,491,491,491,491,491,491,491,491,491,491,491,491,491,491,491,491,491,491,491,491,491,491,491,491,491,491,491,491,491,491,491,491,491,491,491,491,491,491,491,491,491,491,491,
491,491,491,491,491,491,491,491,491,491,491,491,491,491,491,491,491,491,491,491,491,491,491,491,491,491,491,491,491,491,491,491,491,491,491,491,491,491,491,491,491,491,491,491,491,491,491,491,491,491,491,491,491,491,491,
491,491,491,491,491,491,491,491,491,491,491,491,491,491,491,491,491,491,491,491,491,491,491,491,491,491,491,491,491,491,491,491,491,491,491,491,491,491,491,491,491,491,491,491,491,491,491,491,491,491,491,491,491,491,491,
491,491,491,491,491,491,491,491,491,491,491,491,491,491,491,491,491,491,491,491,491,491,491,491,491,491,491,491,491,491,491,491,491,491,491,491,491,491,491,491,491,491,491,491,491,491,491,491,491,491,491,491,491,491,491,
491,491,491,491,491,491,491,491,491,491,491,491,491,491,491,491,491,491,491,491,491,491,491,491,491,491,491,491,491,491,491,491,491,491,491,491,491,491,491,491,491,491,491,491,491,491,491,491,491,491,491,491,491,491,491,
491,491,491,491,491,491,491,491,491,491,491,491,491,491,491,491,491,491,491,491,491,491,491,491,491,491,491,491,491,491,491,491,491,491,491,491,491,491,491,491,491,491,491,491,491,491,491,491,491,491,491,491,491,491,491,
491,491,491,491,491,491,491,491,491,491,491,491,491,491,491,491,491,491,491,491,491,491,491,491,491,491,491,491,491,491,491,491,491,491,491,491,491,491,491,491,491,491,491,491,491,491,491,491,491,491,491,491,491,491,491,
491,491,491,491,491,491,491,491,491,491,491,491,491,491,491,491,491,491,491,491,491,491,491,491,491,491,491,491,491,491,491,491,491,491,491,491,491,491,491,491,491,491,491,491,491,491,491,491,491,491,491,491,491,491,491,
491,491,491,491,491,491,491,491,491,491,491,491,491,491,491,491,491,491,491,491,491,491,491,491,491,491,491,491,491,491,491,491,491,491,491,491,491,491,491,491,491,491,491,491,491,491,491,491,491,491,491,491,491,491,491,
491,491,491,491,491,491,491,491,491,491,491,491,491,491,491,491,491,491,491,491,491,491,491,491,491,491,491,491,491,491,491,491,491,491,491,491,491,491,491,491,491,491,491,491,491,491,491,491,491,491,491,491,491,491,491,
491,491,491,491,491,491,491,491,491,491,491,491,491,491,491,491,491,491,491,491,491,491,491,491,491,491,491,491,491,491,491,491,491,491,491,491,491,491,491,491,491,491,491,491,491,491,491,491,491,491,491,491,491,491,491,
491,491,491,491,491,491,491,491,491,491,491,491,491,491,491,491,491,491,491,491,491,491,491,491,491,491,491,491,491,491,491,491,491,491,491,491,491,491,491,491,491,491,491,491,491,491,491,491,491,491,491,491,491,491,491,
491,491,491,491,491,491,491,491,491,491,491,491,491,491,491,491,491,491,491,491,491,491,491,491,491,491,491,491,491,491,491,491,491,491,491,491,491,491,491,491,491,491,491,491,491,491,491,491,491,491,491,491,491,491,491,
491,491,491,491,491,491,491,491,491,491,491,491,491,491,491,491,491,491,491,491,491,491,491,491,491,491,491,491,491,491,491,491,491,491,491,491,491,491,491,491,491,491,491,491,491,491,491,491,491,491,491,491,491,491,491,
491,491,491,491,491,491,491,491,491,491,491,491,491,491,491,491,491,491,491,491,491,491,491,491,491,491,491,491,491,491,491,491,491,491,491,491,491,491,491,491,491,491,491,491,491,491,491,491,491,491,491,491,491,491,491,
491,491,491,491,491,491,491,491,491,491,491,491,491,491,491,491,491,491,491,491,491,491,491,491,491,491,491,491,491,491,491,491,491,491,491,491,491,491,491,491,491,491,491,491,491,491,491,491,491,491,491,491,491,491,491,
491,491,491,491,491,491,491,491,491,491,491,491,491,491,491,491,491,491,491,491,491,491,491,491,491,491,491,491,491,491,491,491,491,491,491,491,491,491,491,491,491,491,491,491,491,491,491,491,491,491,491,491,491,491,491,
491,491,491,491,491,491,491,491,491,491,491,491,491,491,491,491,491,491,491,491,491,491,491,491,491,491,491,491,491,491,491,491,491,491,491,491,491,491,491,491,491,491,491,491,491,491,491,491,491,491,491,491,491,491,491,
491,491,491,491,491,491,491,491,491,491,491,491,491,491,491,491,491,491,491,491,491,491,491,491,491,491,491,491,491,491,491,491,491,491,491,491,491,491,491,491,491,491,491,491,491,491,491,491,491,491,491,491,491,491,491,
491,491,491,491,491,491,491,491,491,491,491,491,491,491,491,491,491,491,491,491,491,491,491,491,491,491,491,491,491,491,491,491,491,491,491,491,491,491,491,491,491,491,491,491,491,491,491,491,491,491,491,491,491,491,491,
491,491,491,491,491,491,491,491,491,491,491,491,491,491,491,491,491,491,491,491,491,491,491,491,491,491,491,491,491,491,491,491,491,491,491,491,491,491,491,491,491,491,491,491,491,491,491,491,491,491,491,491,491,491,491,
491,491,491,491,491,491,491,491,491,491,491,491,491,491,491,491,491,491,491,491,491,491,491,491,491,491,491,491,491,491,491,491,491,491,491,491,491,491,491,491,491,491,491,491,491,491,491,491,491,491,491,491,491,491,491,
491,491,491,491,491,491,491,491,491,491,491,491,491,491,491,491,491,491,491,491,491,491,491,491,491,491,491,491,491,491,491,491,491,491,491,491,491,491,491,491,491,491,491,491,491,491,491,491,491,491,491,491,491,491,491,
491,491,491,491,491,491,491,491,491,491,491,491,491,491,491,491,491,491,491,491,491,491,491,491,491,491,491,491,491,491,491,491,491,491,491,491,491,491,491,491,491,491,491,491,491,491,491,491,491,491,491,491,491,491,491,
491,491,491,491,491,491,491,491,491,491,491,491,491,491,491,491,491,491,491,491,491,491,491,491,491,491,491,491,491,491,491,491,491,491,491,491,491,491,491,491,491,491,491,491,491,491,491,491,491,491,491,491,491,491,491,
491,491,491,491,491,491,491,491,491,491,491,491,491,491,491,491,491,491,491,491,491,491,491,491,491,491,491,491,491,491,491,491,491,491,491,491,491,491,491,491,491,491,491,491,491,491,491,491,491,491,491,491,491,491,491,
491,491,491,491,491,491,491,491,491,491,491,491,491,491,491,491,491,491,491,491,491,491,491,491,491,491,491,491,491,491,491,491,491,491,491,491,491,491,491,491,491,491,491,491,491,491,491,491,491,491,491,491,491,491,491,
491,491,491,491,491,491,491,491,491,491,491,491,491,491,491,491,491,491,491,491,491,491,491,491,491,491,491,491,491,491,491,491,491,491,491,491,491,491,491,491,491,491,491,491,491,491,491,491,491,491,491,491,491,491,491,
491,491,491,491,491,491,491,491,491,491,491,491,491,491,491,491,491,491,491,491,491,491,491,491,491,491,491,491,491,491,491,491,491,491,491,491,491,491,491,491,491,491,491,491,491,491,491,491,491,491,491,491,491,491,491,
491,491,491,491,491,491,491,491,491,491,491,491,491,491,491,491,491,491,491,491,491,491,491,491,491,491,491,491,491,491,491,491,491,491,491,491,491,491,491,491,491,491,491,491,491,491,491,491,491,491,491,491,491,491,491,
491,491,491,491,491,491,491,491,491,491,491,491,491,491,491,491,491,491,491,491,491,491,491,491,491,491,491,491,491,491,491,491,491,491,491,491,491,491,491,491,491,491,491,491,491,491,491,491,491,491,491,491,491,491,491,
491,491,491,491,491,491,491,491,491,491,491,491,491,491,491,491,491,491,491,491,491,491,491,491,491,491,491,491,491,483,491,491,491,491,491,491,491,491,491,491,491,491,491,491,491,491,491,491,491,491,491,491,491,491,491,
491,491,491,491,491,491,491,491,491,491,491,491,491,491,491,491,491,491,491,491,491,491,491,491,491,491,491,491,491,491,491,491,491,491,491,491,491,491,491,491,491,491,491,491,491,491,491,491,491,491,491,491,491,491,491,
491,491,491,491,491,491,491,491,491,491,491,491,491,491,491,491,491,491,491,491,491,491,491,491,491,491,491,491,491,491,491,491,491,491,491,491,491,491,491,491,491,491,491,491,491,491,491,491,491,491,491,491,491,491,491,
491,491,491,491,491,491,491,491,491,491,491,491,491,491,491,491,491,491,491,491,491,491,491,491,491,491,491,491,491,491,491,491,491,491,491,491,491,491,491,491,491,491,491,491,491,491,491,491,491,491,491,491,491,491,491,
491,491,491,491,491,491,491,491,491,491,491,491,491,491,491,491,491,491,491,491,491,491,491,491,491,491,491,491,491,491,491,491,491,491,491,491,491,491,491,491,491,491,491,491,491,491,491,491,491,491,491,491,491,491,491,
491,491,491,491,491,491,491,491,491,491,491,491,491,491,491,491,491,491,491,491,491,491,491,491,491,491,491,491,491,491,491,491,491,491,491,491,491,491,491,491,491,491,491,491,491,491,491,491,491,491,491,491,491,491,491,
491,491,491,491,491,491,491,491,491,491,491,491,491,491,491,491,491,491,491,491,491,491,491,491,491,491,491,491,491,491,491,491,491,491,491,491,491,491,491,491,491,491,491,491,491,491,491,491,491,491,491,491,491,491,491,
491,491,491,491,491,491,491,491,491,491,491,491,491,491,491,491,491,491,491,491,491,491,491,491,491,491,491,491,491,491,491,491,491,491,491,491,491,491,491,491,491,491,491,491,491,491,491,491,491,491,491,491,491,491,491,
491,491,491,491,491,491,491,491,491,491,491,491,491,491,491,491,491,491,491,491,491,491,491,491,491,491,491,491,491,491,491,491,491,491,491,491,491,491,491,491,491,491,491,491,491,491,491,491,491,491,491,491,491,491,491,
491,491,491,491,491,491,491,491,491,491,491,491,491,491,491,491,491,491,491,491,491,491,491,491,491,491,491,491,491,491,491,491,491,491,491,491,491,491,491,491,491,491,491,491,491,491,491,491,491,491,491,491,491,491,491,
491,491,491,491,491,491,491,491,491,491,491,491,491,491,491,491,491,491,491,491,491,491,491,491,491,491,491,491,491,491,491,491,491,491,491,491,491,491,491,491,491,491,491,491,491,491,491,491,491,491,491,491,491,491,491,
491,491,491,491,491,491,491,491,491,491,491,491,491,491,491,491,491,491,491,491,491,491,491,491,491,491,491,491,491,491,491,491,491,491,491,491,491,491,491,491,491,491,491,491,491,491,491,491,491,491,491,491,491,491,491,
491,491,491,491,491,491,491,491,491,491,491,491,491,491,491,491,491,491,491,491,491,491,491,491,491,491,491,491,491,491,491,491,491,491,491,491,491,491,491,491,491,491,491,491,491,491,491,491,491,491,491,491,491,491,491,
491,491,491,491,491,491,491,491,491,491,491,491,491,491,491,491,491,491,491,491,491,491,491,491,491,491,491,491,491,491,491,491,491,491,491,491,491,491,491,491,491,491,491,491,491,491,491,491,491,491,491,491,491,491,491
</data>
 </layer>
 <layer id="2" name="deco_sotto" width="55" height="100">
  <data encoding="csv">
337,337,337,337,337,345,346,346,346,346,346,346,346,346,346,346,346,346,346,346,346,346,346,346,346,346,346,346,346,346,346,346,347,339,339,337,337,345,346,346,346,346,346,346,346,346,346,346,346,346,346,347,339,339,339,
337,337,337,337,345,346,346,346,346,346,346,346,346,346,346,346,346,346,346,346,346,346,346,346,346,346,346,346,346,346,346,346,346,347,339,337,345,346,346,346,346,346,346,346,346,346,346,346,346,346,346,346,347,339,339,
337,337,337,337,0,0,0,0,0,0,0,0,0,0,0,4139,4140,0,0,0,0,0,0,0,0,0,0,0,0,0,0,0,0,0,339,345,346,346,346,346,346,346,346,346,346,346,346,346,346,346,346,346,346,347,339,
337,337,337,337,0,0,0,0,0,0,0,0,0,0,0,4147,4148,0,4193,4194,0,4139,4140,0,0,0,0,0,0,0,1641,1642,1643,0,339,0,0,0,0,0,0,0,0,0,0,0,0,0,0,0,0,0,0,0,339,
337,337,337,337,0,0,0,0,0,0,367,368,0,0,0,0,0,0,4201,4202,4203,4147,4148,0,0,367,368,0,0,0,1689,1690,1691,0,339,0,0,0,0,4139,4140,0,0,0,0,0,491,0,0,0,0,0,0,0,339,
337,337,337,337,0,0,0,0,0,0,375,376,0,0,0,0,0,0,4209,4210,4211,0,0,0,0,375,376,0,0,0,1737,1738,1739,0,339,0,0,0,0,4147,4148,4193,4194,0,0,0,335,346,346,346,364,346,346,346,347,
337,337,337,337,0,0,0,0,0,0,0,0,0,0,0,0,0,0,0,0,0,4139,4140,0,0,0,0,0,0,0,0,0,0,0,339,0,0,0,0,0,0,4201,4202,4203,0,0,339,0,0,0,0,0,0,0,0,
337,337,337,337,0,0,0,0,0,0,0,0,0,0,0,0,0,0,0,0,0,4147,4148,0,0,0,0,0,0,0,0,0,0,0,339,0,0,0,0,0,0,4209,4210,4211,0,0,339,0,0,0,0,0,0,0,0,
337,337,337,337,0,0,0,0,0,0,0,0,0,0,0,0,0,0,0,0,0,0,0,0,0,0,0,0,0,0,0,0,0,0,339,0,0,367,368,0,0,4139,4140,0,0,0,339,0,0,0,0,0,0,0,0,
337,337,337,337,0,0,0,0,0,365,0,0,0,0,0,0,0,0,0,0,0,0,0,0,0,0,0,0,0,0,0,0,0,0,339,0,0,375,376,0,0,4147,4148,0,0,0,339,0,0,0,0,0,0,0,0,
337,337,337,337,0,0,382,0,0,373,382,382,0,0,0,0,0,0,0,0,0,0,0,0,0,0,0,0,0,0,0,0,0,0,339,0,0,0,0,0,0,0,0,0,0,0,339,0,0,0,0,0,0,0,0,
337,337,337,337,0,0,382,0,0,382,382,0,0,0,0,0,0,0,0,0,0,0,0,0,0,0,0,0,0,0,0,0,0,0,339,0,0,0,0,0,0,0,0,0,0,0,339,0,0,0,0,0,0,0,0,
337,337,337,337,0,0,0,382,382,0,0,0,0,0,0,0,0,0,0,0,0,0,0,0,0,0,0,0,0,0,0,0,0,0,339,0,0,0,0,0,0,0,0,0,0,0,339,0,0,0,0,0,0,0,0,
337,337,337,345,346,346,346,346,346,346,346,346,346,346,346,346,346,346,346,346,346,346,346,364,346,346,346,346,346,346,346,346,346,346,347,0,0,0,0,0,0,0,0,0,0,0,339,0,0,0,367,368,0,0,0,
337,337,345,346,346,346,346,346,346,346,346,346,346,346,346,346,346,347,382,0,0,0,0,0,0,0,0,0,0,0,0,0,0,0,0,0,0,0,0,0,0,0,0,0,0,0,339,491,491,491,375,376,0,0,0,
337,345,346,346,346,346,346,346,346,346,346,346,346,346,346,346,346,346,346,346,346,346,346,346,346,346,346,346,346,346,346,346,346,346,346,346,346,346,346,346,346,346,346,346,346,346,347,491,491,491,491,0,0,0,491,
345,346,346,346,346,346,346,346,346,346,346,346,346,346,346,346,346,346,346,346,346,346,346,346,346,346,346,346,346,346,346,346,346,346,346,346,346,346,346,346,346,346,346,346,346,346,346,336,491,491,491,491,491,491,491,
483,483,483,483,331,0,0,0,1689,1690,1691,0,0,0,0,0,0,0,0,0,0,0,0,0,0,0,0,0,0,0,0,0,0,0,0,0,0,0,0,0,0,0,0,0,0,0,0,337,0,0,0,0,0,0,491,
483,483,483,331,339,0,0,0,1689,1690,1691,0,0,0,0,0,0,0,0,4139,4140,0,0,0,0,0,0,0,0,0,0,382,0,0,0,0,0,0,0,0,0,0,0,0,0,0,0,337,0,0,0,0,0,0,491,
483,483,331,339,339,367,368,0,1689,1690,1691,0,0,0,0,0,0,0,0,4147,4148,0,0,0,0,0,0,0,0,0,0,0,0,0,0,0,0,382,0,0,0,0,0,0,0,382,0,337,0,0,0,0,0,0,491,
483,331,339,339,339,375,376,0,1689,1690,1691,0,0,382,0,0,0,0,0,0,0,0,0,0,0,0,0,0,0,0,0,0,0,0,0,0,0,0,0,0,0,0,0,0,0,0,0,337,0,0,0,0,0,0,491,
331,339,339,339,339,0,0,382,1689,1690,1691,0,0,0,367,368,0,0,0,0,0,0,0,0,0,0,0,0,0,0,0,0,0,0,0,0,0,0,0,0,0,0,0,0,0,0,0,337,0,0,0,0,0,0,491,
339,339,339,339,339,0,0,0,1689,1690,1691,0,0,0,375,376,0,0,0,0,0,329,483,483,483,483,483,483,483,483,483,483,483,483,483,483,483,483,483,483,483,483,483,483,483,483,483,483,0,0,0,0,0,0,491,
339,339,339,339,339,382,0,0,1689,1690,1691,0,0,0,0,0,0,0,0,0,329,0,0,0,0,0,0,0,0,0,0,0,0,0,0,0,0,0,0,0,0,0,0,0,0,0,0,491,0,0,0,0,0,0,491,
339,339,339,339,339,0,0,0,1689,1690,1691,0,0,0,0,0,0,0,0,329,0,0,0,0,0,0,0,0,0,0,0,0,367,368,0,0,0,0,0,0,0,0,0,0,0,0,0,491,0,0,0,0,367,368,491,
339,339,339,339,339,0,0,0,1689,1690,1691,0,0,0,0,0,0,0,329,0,0,0,0,0,0,0,0,0,0,0,0,0,375,376,0,0,0,0,0,0,0,0,0,0,0,0,0,491,0,0,0,0,375,376,491,
339,339,339,339,339,0,0,0,1689,1690,1691,0,0,0,329,483,483,483,483,0,0,0,0,0,0,0,0,0,0,0,0,0,0,0,0,0,0,0,0,0,0,0,0,0,0,0,0,491,0,0,0,0,0,0,491,
339,339,339,339,339,0,0,382,1689,1690,1691,0,0,0,337,0,0,0,0,0,0,0,0,0,0,0,0,0,0,0,0,0,0,0,0,0,0,0,0,0,0,0,0,0,0,0,0,491,0,0,0,0,0,0,491,
339,339,339,339,339,0,0,0,1689,1690,1691,0,0,0,345,346,364,346,346,346,346,346,346,346,346,346,346,346,346,346,346,346,346,346,346,346,346,346,346,346,346,346,346,346,346,346,346,346,346,346,346,346,346,346,346,
339,339,339,339,339,0,0,0,1689,1690,1691,0,0,0,0,0,0,0,0,0,0,0,0,0,0,0,0,0,0,0,0,0,0,0,0,0,0,0,0,0,0,0,0,0,0,0,0,0,0,0,329,483,483,483,483,
339,339,339,339,339,382,0,0,1689,1690,1691,0,0,0,0,0,0,0,0,0,0,0,0,0,0,0,0,0,0,0,0,0,0,0,0,0,0,0,329,483,483,483,483,483,483,483,483,483,483,331,337,329,483,483,483,
339,339,339,339,339,0,0,0,1689,1690,1691,0,0,0,0,0,0,0,0,0,0,0,0,0,0,0,0,0,0,0,0,0,0,0,0,0,0,0,337,329,483,483,483,483,483,483,483,483,331,339,337,337,329,483,483,
339,339,339,339,339,0,0,0,1689,1690,1691,0,0,0,0,0,0,0,0,0,0,0,0,0,0,0,0,0,0,0,0,0,0,0,0,0,0,0,337,337,329,483,483,483,483,483,483,331,339,339,337,337,337,329,483,
339,339,339,339,339,0,0,0,1689,1690,1691,0,0,0,0,0,0,0,0,0,0,0,0,0,0,0,0,0,0,0,0,0,4139,4140,0,0,0,0,337,337,337,0,0,0,0,0,0,339,339,339,337,337,337,337,329,
339,339,339,339,339,0,0,0,1689,1690,1691,0,0,0,0,0,0,0,0,0,0,0,0,0,0,0,0,0,0,0,0,0,4147,4148,0,0,0,0,337,337,345,346,346,346,346,346,346,347,339,339,337,337,337,337,337,
339,339,339,339,339,0,382,0,1689,1690,1691,0,0,0,0,0,0,0,0,0,0,0,0,0,0,0,0,0,0,0,0,0,0,0,0,0,0,0,337,345,346,346,346,346,346,346,346,346,347,339,337,337,337,337,337,
339,339,339,339,339,0,0,0,1689,1690,1691,0,0,0,0,0,329,483,483,483,483,483,483,483,483,483,331,0,0,0,0,0,0,0,0,0,0,0,345,346,346,346,346,346,346,346,346,346,346,347,337,337,337,337,337,
339,339,339,339,339,0,0,0,1689,1690,1691,0,0,0,0,0,337,329,483,483,483,483,483,483,483,331,339,0,0,0,0,0,0,0,0,0,0,0,0,0,0,0,0,0,0,0,0,0,0,0,337,337,337,337,337,
339,339,339,339,339,0,0,0,1689,1690,1691,0,0,0,0,0,337,337,329,483,483,483,483,483,331,339,339,0,0,0,0,0,0,0,0,0,0,0,0,0,0,0,0,0,0,0,0,4137,4138,0,337,337,337,337,337,
339,339,339,339,339,0,0,0,1689,1690,1691,0,0,0,0,0,337,337,337,4193,4194,0,0,0,339,339,339,0,0,0,0,0,0,0,0,0,0,0,0,0,0,0,0,0,0,0,0,4145,4146,0,337,337,337,337,337,
339,339,339,339,339,0,0,382,1689,1690,1691,0,0,0,0,0,337,337,337,4201,4202,4203,0,0,339,339,339,0,0,0,0,0,0,0,0,0,0,0,0,0,0,0,0,0,4169,4170,0,0,0,0,337,337,337,337,337,
339,339,339,339,339,0,0,0,1689,1690,1691,0,0,0,0,0,337,337,337,4209,4210,4211,0,0,339,339,339,0,4137,4138,0,0,0,0,0,4169,4170,0,0,0,0,0,0,0,4177,4178,0,0,0,0,337,337,337,337,337,
339,339,339,339,339,0,0,0,1689,1690,1691,0,0,0,0,0,337,337,337,0,0,0,0,0,339,339,339,0,4145,4146,0,0,0,0,0,4177,4178,0,0,0,0,0,0,0,4185,4186,0,0,0,0,337,337,337,337,337,
339,339,339,339,339,382,0,0,1689,1690,1691,0,0,0,0,0,337,337,345,346,346,346,346,346,347,339,339,0,0,0,0,0,0,0,0,4185,4186,0,0,0,0,4137,4138,0,0,0,0,0,0,0,337,337,337,337,337,
339,339,339,339,339,0,0,0,1689,1690,1691,0,0,0,0,0,337,345,346,346,346,346,346,346,346,347,339,0,0,0,0,0,0,0,0,0,0,0,0,0,0,4145,4146,0,0,0,0,0,0,0,337,337,337,337,337,
339,339,339,339,339,0,0,0,1689,1690,1691,0,0,0,0,0,345,346,346,346,346,346,346,346,346,346,347,0,0,0,0,0,0,0,0,0,0,0,0,0,0,0,0,0,0,0,0,0,0,0,337,337,337,337,337,
339,339,339,339,339,0,0,0,1689,1690,1691,0,0,0,0,0,0,0,0,0,0,0,0,0,0,0,0,0,0,0,0,0,0,0,0,0,0,0,0,0,0,0,0,0,0,0,0,0,0,0,337,337,337,337,337,
339,339,339,339,339,0,0,0,1689,1690,1690,1642,1642,1642,1642,1642,1642,1642,1642,1642,1642,1642,1642,1642,1642,1642,1642,1642,1642,1642,1642,1642,1642,1642,1642,1642,1642,1642,1642,1642,1642,1642,1642,1642,1642,1642,1642,1642,1642,1642,337,337,337,337,337,
339,339,339,339,339,0,0,0,1689,1690,1690,1690,1690,1690,1690,1690,1690,1690,1690,1690,1690,1690,1690,1690,1690,1690,1690,1690,1690,1690,1690,1690,1690,1690,1690,1690,1690,1690,1690,1690,1690,1690,1690,1690,1690,1690,1690,1690,1690,1690,337,337,337,337,337,
339,339,339,339,339,0,0,0,1689,1690,1690,1738,1738,1738,1738,1738,1738,1738,1738,1738,1738,1738,1738,1738,1738,1738,1738,1738,1738,1738,1738,1738,1738,1738,1738,1738,1738,1738,1738,1738,1738,1738,1738,1738,1738,1738,1738,1738,1738,1738,337,337,337,337,337,
339,339,339,339,339,0,0,0,0,0,0,0,0,0,0,0,0,0,0,0,0,0,0,0,1689,1690,1691,0,0,0,382,382,0,0,0,0,0,0,0,0,0,0,0,0,0,0,0,0,0,0,337,337,337,337,337,
339,339,339,339,339,0,0,0,0,0,0,0,0,0,0,0,0,0,0,0,0,0,0,0,1689,1690,1691,0,382,382,382,0,329,483,483,0,0,0,0,0,0,0,0,0,0,0,0,0,0,0,337,337,337,337,337,
339,339,339,339,339,0,0,0,0,0,0,0,0,0,0,0,0,0,4193,4194,0,0,0,0,1689,1690,1691,0,382,0,0,0,337,329,483,0,0,0,0,0,0,0,0,0,0,0,0,0,0,0,337,337,337,337,337,
339,339,339,339,339,0,0,0,0,0,0,0,0,0,0,0,0,0,4201,4202,4203,4139,4140,0,1689,1690,1691,382,382,0,0,0,337,337,0,0,0,0,0,0,0,0,0,0,0,0,0,0,0,0,337,337,337,337,337,
339,339,339,339,339,0,0,0,0,0,0,0,0,0,0,0,0,0,4209,4210,4211,4147,4148,0,1689,1690,1691,382,0,0,0,0,337,337,0,0,0,0,0,0,0,0,0,0,0,0,0,0,0,0,337,337,337,337,337,
339,339,339,339,339,0,0,0,0,0,0,0,0,0,0,0,0,0,0,0,0,0,0,0,1689,1690,1691,382,0,0,0,0,337,337,0,0,0,0,0,0,0,0,0,0,0,0,0,0,0,0,337,337,337,337,337,
339,339,339,339,339,0,0,0,0,0,0,0,0,0,0,0,0,0,0,0,0,0,0,0,1689,1690,1691,382,0,0,0,0,337,337,0,0,0,0,0,0,0,0,0,0,0,0,0,0,0,0,337,337,337,337,337,
339,339,339,339,339,0,0,0,0,0,0,0,0,0,0,0,0,0,0,0,0,0,0,0,1689,1690,1691,382,0,0,0,0,337,337,0,0,0,0,0,0,0,0,0,0,0,0,0,0,0,0,337,337,337,337,337,
339,339,339,339,339,0,0,0,0,0,0,0,0,0,0,0,0,0,0,0,0,0,0,0,1689,1690,1691,382,382,0,0,0,337,337,0,0,0,0,0,0,0,0,0,0,0,0,0,0,0,0,337,337,337,337,337,
339,339,339,339,339,0,0,0,0,0,0,0,0,0,0,0,0,0,0,0,0,0,0,0,1689,1690,1691,0,382,382,0,0,337,337,0,0,0,0,0,0,0,0,0,0,0,0,0,0,0,0,337,337,337,337,337,
339,339,339,339,339,0,0,0,0,0,0,0,0,0,0,0,0,0,0,0,0,0,0,0,1689,1690,1691,0,0,382,0,0,337,337,0,0,0,0,0,0,0,0,0,0,0,0,0,0,0,0,337,337,337,337,337,
339,339,339,339,339,0,0,0,0,0,0,0,0,0,0,0,0,0,0,0,0,0,0,0,1689,1690,1691,0,0,382,0,0,337,337,0,0,0,0,0,0,0,0,0,0,0,0,0,0,0,0,337,337,337,337,337,
339,339,339,339,339,0,0,0,0,0,0,0,0,0,0,0,0,0,0,0,0,0,0,0,1689,1690,1691,0,382,382,0,0,337,337,0,0,0,0,0,0,0,0,0,0,0,0,0,0,0,0,337,337,337,337,337,
339,339,339,339,339,0,0,0,0,0,0,0,0,0,0,0,0,0,0,0,0,0,0,0,1689,1690,1691,0,382,0,0,0,337,337,0,0,0,0,0,0,0,0,0,0,0,0,0,0,0,0,337,337,337,337,337,
339,339,339,339,339,0,0,0,0,0,0,0,0,0,0,0,0,0,0,0,0,0,0,0,1689,1690,1691,0,382,0,0,0,337,337,0,0,0,0,0,0,0,0,0,0,0,0,0,0,0,0,337,337,337,337,337,
339,339,339,339,339,0,0,0,0,0,0,0,0,0,0,0,0,0,0,0,0,0,0,0,1689,1690,1691,0,382,0,0,0,337,337,0,0,0,0,0,0,0,0,0,0,0,0,0,0,0,0,337,337,337,337,337,
339,339,339,339,339,0,0,0,0,0,0,0,0,0,0,0,0,0,0,0,0,0,0,0,1689,1690,1691,0,0,0,0,0,337,337,0,0,0,0,0,0,0,0,0,0,0,0,0,0,0,0,337,337,337,337,337,
339,339,339,339,339,0,0,0,0,0,0,0,0,0,0,0,0,0,0,0,0,0,0,0,1689,1690,1691,0,0,0,0,0,337,337,0,0,0,0,0,0,0,0,0,0,0,0,0,0,0,0,337,337,337,337,337,
339,339,339,339,339,0,0,0,0,0,0,0,0,0,0,0,0,0,0,0,0,0,0,0,1689,1690,1691,0,0,0,0,0,337,337,0,0,0,0,0,0,0,0,0,0,0,0,0,0,0,0,337,337,337,337,337,
339,339,339,339,330,330,330,330,330,330,330,330,330,331,0,0,0,0,0,0,0,0,0,0,1689,1690,1691,0,0,0,0,0,337,337,0,0,0,0,0,0,0,0,0,0,0,0,0,0,0,0,337,337,337,337,337,
339,339,339,330,330,330,330,330,330,330,330,330,331,339,0,0,0,0,0,0,0,0,0,0,1689,1690,1691,0,0,0,0,0,337,337,0,0,0,0,0,0,0,0,0,0,0,0,0,0,0,0,337,337,337,337,337,
339,339,330,330,330,330,330,330,330,330,330,331,339,339,0,0,0,0,0,0,0,0,0,0,1689,1690,1691,0,0,0,0,0,337,337,0,0,0,0,0,0,0,0,0,0,0,0,0,0,0,0,337,337,337,337,337,
339,330,330,330,330,330,330,330,330,330,331,339,339,339,0,0,0,0,0,0,0,0,0,0,1689,1690,1691,0,0,0,0,0,337,337,0,0,0,0,0,0,0,0,0,0,0,0,0,0,0,0,337,337,337,337,337,
330,330,330,330,330,330,330,330,330,331,339,339,339,339,0,0,0,0,0,0,0,0,0,0,1689,1690,1691,0,0,0,0,0,337,337,0,0,0,0,0,0,0,0,0,0,0,0,0,0,0,0,337,337,337,337,337,
346,346,346,346,346,346,346,346,346,347,339,339,339,339,0,0,0,0,0,0,0,0,0,0,1689,1690,1691,0,0,0,0,0,337,337,0,337,0,0,0,0,0,0,0,0,0,0,0,0,0,0,337,337,337,337,337,
346,346,346,346,346,346,346,346,346,346,347,339,339,339,0,0,0,0,0,0,0,0,0,0,1689,1690,1691,0,0,0,0,0,337,337,0,337,337,329,483,483,483,483,483,483,483,0,0,0,0,0,337,337,337,337,337,
346,346,346,346,346,346,346,346,346,346,346,347,339,339,0,0,0,0,0,0,0,0,0,0,1689,1690,1691,0,0,0,0,0,337,337,0,337,337,337,0,0,0,0,0,0,0,0,0,0,0,0,337,337,337,337,337,
346,346,346,346,346,346,346,346,346,346,346,346,347,339,0,0,0,0,0,0,0,0,0,0,1689,1690,1691,0,0,0,0,0,337,337,0,337,337,337,0,0,0,0,0,0,0,0,0,0,0,0,337,337,337,337,337,
346,346,346,346,346,346,346,346,346,346,346,346,346,347,0,0,0,0,0,0,1641,1642,1642,1642,1690,1690,1691,0,0,0,0,0,337,337,0,337,337,337,0,0,0,0,0,0,0,0,0,0,0,0,337,337,337,337,337,
483,483,483,483,331,0,0,0,0,0,382,0,0,491,0,0,0,0,0,0,1689,1690,1690,1690,1690,1690,1691,0,0,0,0,0,337,337,0,337,337,337,0,0,0,0,0,0,0,0,0,0,0,0,337,337,337,337,337,
483,483,483,331,339,0,0,0,0,0,0,0,382,382,0,0,0,0,0,0,1689,1690,1690,1690,1690,1690,1691,0,0,0,0,0,337,337,0,337,337,337,0,0,0,0,0,329,483,483,483,483,483,483,337,337,337,337,337,
483,483,331,339,339,0,0,0,174,0,0,0,0,382,382,0,0,0,0,0,1689,1690,1691,0,0,0,0,0,0,0,0,0,337,337,0,337,337,337,0,0,0,0,0,337,0,0,0,0,0,0,337,337,337,337,337,
483,331,339,339,339,0,0,174,365,174,0,0,0,0,382,382,0,0,0,0,1689,1690,1691,0,0,0,0,0,0,0,0,0,337,337,0,337,337,337,0,0,0,0,0,337,0,0,0,0,0,0,337,337,337,337,337,
331,339,339,339,339,0,0,174,373,174,0,0,0,0,0,382,382,0,0,0,1689,1690,1691,0,0,0,0,0,0,0,0,0,337,337,0,337,337,337,0,0,0,0,0,337,0,0,0,0,0,0,337,337,337,337,337,
339,339,339,339,339,0,0,174,0,0,0,0,0,0,0,0,0,0,382,382,1689,1690,1691,0,0,0,0,0,0,0,0,0,337,337,0,337,337,337,0,0,329,483,483,483,0,0,0,0,0,0,337,337,337,337,337,
339,339,339,339,339,0,0,174,0,0,0,0,0,0,0,0,0,0,0,382,1689,1690,1691,0,0,0,0,0,0,0,0,0,337,337,0,337,337,337,0,0,337,0,0,0,0,0,0,0,0,0,337,337,337,337,337,
339,339,339,339,339,0,0,0,0,0,0,0,0,0,0,0,0,0,0,382,1689,1690,1691,0,0,0,0,0,329,329,330,330,330,330,0,337,337,337,0,0,345,364,346,336,0,382,382,0,0,0,337,337,337,337,337,
339,339,339,339,339,0,0,0,0,0,0,0,0,0,0,0,0,0,0,382,1689,1690,1691,0,0,0,0,0,337,337,338,338,338,338,0,337,337,337,0,0,0,0,0,337,382,382,0,382,382,0,337,337,337,337,337,
339,339,339,339,339,0,0,0,0,0,0,0,0,0,0,0,0,0,0,382,1689,1690,1691,0,0,0,0,0,337,345,364,346,346,336,383,337,337,337,0,0,0,0,0,337,382,0,0,0,382,0,337,337,337,337,337,
339,339,339,339,339,0,0,0,0,0,0,0,0,0,0,0,0,0,0,382,1689,1690,1691,0,0,0,0,0,345,346,364,346,336,337,391,337,337,337,0,0,0,0,0,337,382,0,366,0,382,0,337,337,337,337,337,
339,339,339,339,339,0,0,0,0,0,0,0,0,0,0,0,0,0,0,382,1689,1690,1691,0,0,0,0,0,0,0,0,0,337,337,0,337,337,337,0,0,0,0,0,337,382,0,0,0,382,0,337,337,337,337,337,
339,339,339,339,339,0,0,0,0,0,0,0,0,0,0,0,0,382,382,382,1689,1690,1691,0,0,0,0,0,0,0,0,0,337,337,382,337,337,337,0,0,0,0,0,337,0,0,0,382,382,0,337,337,337,337,337,
339,339,339,339,339,0,0,0,0,0,0,0,0,0,0,0,382,382,0,0,1689,1690,1691,0,0,0,0,0,0,0,0,0,337,337,0,337,337,337,0,0,0,0,0,337,0,0,0,382,0,0,337,337,337,337,337,
339,339,339,339,339,0,0,0,0,0,0,0,0,382,382,382,382,0,0,0,1689,1690,1691,0,0,0,0,0,0,0,0,0,337,337,382,337,337,337,0,0,0,0,0,337,0,0,0,0,0,0,337,337,337,337,337,
339,339,339,339,339,0,0,0,0,0,0,0,0,0,0,0,0,0,0,0,1689,1690,1691,0,0,0,0,0,0,0,0,0,337,337,382,337,337,337,0,0,0,0,0,337,0,0,0,0,0,0,337,337,337,337,337,
339,339,339,339,330,330,330,330,330,330,330,330,330,330,330,330,330,330,330,330,330,330,330,330,330,330,330,330,330,330,330,330,330,330,330,330,330,330,330,330,330,330,330,330,330,330,330,330,330,330,330,337,337,337,337,
339,339,339,330,330,330,330,330,330,330,330,330,330,330,330,330,330,330,330,330,330,330,330,330,330,330,330,330,330,330,330,330,330,330,330,330,330,330,330,330,330,330,330,330,330,330,330,330,330,330,330,330,337,337,337,
339,339,330,330,330,330,330,330,330,330,330,330,330,330,330,330,330,330,330,330,330,330,330,330,330,330,330,330,330,330,330,330,330,330,330,330,330,330,330,330,330,330,330,330,330,330,330,330,330,330,330,330,330,337,337,
339,330,330,330,330,330,330,330,330,330,330,330,330,330,330,330,330,330,330,330,330,330,330,330,330,330,330,330,330,330,330,330,330,330,330,330,330,330,330,330,330,330,330,330,330,330,330,330,330,330,330,330,330,330,337,
330,330,330,330,330,330,330,330,330,330,330,330,330,330,330,330,330,330,330,330,330,330,330,330,330,330,330,330,330,330,330,330,330,330,330,330,330,330,330,330,330,330,330,330,330,330,330,330,330,330,330,330,330,330,330
</data>
 </layer>
 <layer id="3" name="edifici" width="55" height="100">
  <data encoding="csv">
0,0,0,0,0,0,0,0,0,0,0,0,0,0,0,0,0,0,0,0,0,0,0,0,0,0,0,0,0,0,0,0,0,0,0,0,0,0,0,0,0,0,0,0,0,0,0,0,0,0,0,0,0,0,0,
0,0,0,0,0,0,0,0,0,0,0,0,0,0,0,0,0,0,0,0,0,0,0,0,0,0,0,0,0,0,0,0,0,0,0,0,0,0,0,0,0,0,0,0,0,0,0,0,0,0,0,0,0,0,0,
0,0,0,0,0,0,0,0,0,0,0,0,0,0,0,0,0,0,0,0,0,0,0,0,0,0,0,0,0,0,0,0,0,0,0,0,0,0,0,0,0,0,0,0,0,0,0,0,0,0,0,0,0,0,0,
0,0,0,0,0,0,0,0,0,0,0,0,0,0,0,0,0,0,0,0,0,0,0,0,0,0,0,0,0,0,0,0,0,0,0,0,0,0,0,0,0,0,0,0,0,0,0,0,0,0,0,0,0,0,0,
0,0,0,0,0,0,0,0,0,0,0,0,0,0,0,0,0,0,0,0,0,0,0,0,0,0,0,0,0,0,0,0,0,0,0,0,0,0,0,0,0,0,0,0,0,0,0,0,0,0,0,0,0,0,0,
0,0,0,0,0,0,0,0,0,0,0,0,0,0,0,0,0,0,0,0,0,0,0,0,0,0,0,0,0,0,0,0,0,0,0,0,0,0,0,0,0,0,0,0,0,0,0,0,0,0,0,0,0,0,0,
0,0,0,0,0,0,0,0,0,0,0,0,0,0,0,0,0,0,0,0,0,0,0,0,0,0,0,0,0,0,0,0,0,0,0,0,0,0,0,0,0,0,0,0,0,0,0,0,0,0,0,0,0,0,0,
0,0,0,0,0,0,0,0,0,0,0,0,0,0,0,0,0,0,0,0,0,0,0,0,0,0,0,0,0,0,0,0,0,0,0,0,0,0,0,0,0,0,0,0,0,0,0,0,0,0,0,0,0,0,0,
0,0,0,0,0,0,0,0,0,0,0,0,0,0,0,0,0,0,0,0,0,0,0,0,0,0,0,0,0,0,0,0,0,0,0,0,0,0,0,0,0,0,0,0,0,0,0,0,0,0,0,0,0,0,0,
0,0,0,0,0,0,0,0,0,0,0,0,0,0,0,0,0,0,0,0,0,0,0,0,0,0,0,0,0,0,0,0,0,0,0,0,0,0,0,0,0,0,0,0,0,0,0,0,0,0,0,0,0,0,0,
0,0,0,0,0,0,0,0,0,0,0,0,0,0,0,0,0,0,0,0,0,0,0,0,0,0,0,0,0,0,0,0,0,0,0,0,0,0,0,0,0,0,0,0,0,0,0,0,0,0,0,0,0,0,0,
0,0,0,0,0,0,0,0,0,0,0,0,0,0,0,0,0,0,0,0,0,0,0,0,0,0,0,0,0,0,0,0,0,0,0,0,0,0,0,0,0,0,0,0,0,0,0,0,0,0,0,0,0,0,0,
0,0,0,0,0,0,0,0,0,0,0,0,0,0,0,0,0,0,0,0,0,0,0,0,0,0,0,0,0,0,0,0,0,0,0,0,0,0,0,0,0,0,0,0,0,0,0,0,0,0,0,0,0,0,0,
0,0,0,0,0,0,0,0,0,0,0,0,0,0,0,0,0,0,0,0,0,0,0,0,0,0,0,0,0,0,0,0,0,0,0,0,0,0,0,0,0,0,0,0,0,0,0,0,0,0,0,0,0,0,0,
0,0,0,0,0,0,0,0,0,0,0,0,0,0,0,0,0,0,0,0,0,0,0,0,0,0,0,0,0,0,0,0,0,0,0,0,0,0,0,0,0,0,0,0,0,0,0,0,0,0,0,0,0,0,0,
0,0,0,0,0,0,0,0,0,0,0,0,0,0,0,0,0,0,0,0,0,0,0,0,0,0,0,0,0,0,0,0,0,0,0,0,0,0,0,0,0,0,0,0,0,0,0,0,0,0,0,0,0,0,0,
0,0,0,0,0,0,0,0,0,0,0,0,0,0,0,0,0,0,0,0,0,0,0,0,0,0,0,0,0,0,0,0,0,0,0,0,0,0,0,0,0,0,0,0,0,0,0,0,0,0,0,0,0,0,0,
0,0,0,0,0,5957,0,0,0,0,0,0,0,0,0,0,0,0,0,0,0,0,0,0,0,0,0,0,0,0,0,0,0,0,0,0,0,0,0,0,0,0,0,0,0,0,0,0,0,0,0,0,0,0,0,
0,0,0,0,0,0,0,0,0,0,0,0,0,0,0,0,0,0,0,0,0,0,0,0,0,0,0,0,0,0,0,0,0,0,0,0,0,0,0,0,0,0,0,0,0,0,0,0,0,0,0,0,0,0,0,
0,0,0,0,0,0,0,0,0,0,0,0,0,0,0,0,0,0,0,0,0,0,0,0,0,0,0,0,0,0,0,0,0,0,0,0,0,0,0,0,0,0,5957,0,0,0,0,0,0,0,0,0,0,0,0,
0,0,0,0,0,0,0,0,0,0,0,0,0,0,0,0,0,0,0,0,0,0,0,0,0,0,0,0,0,0,0,0,0,0,0,0,0,0,0,0,0,0,0,0,0,0,0,0,0,0,0,0,0,0,0,
0,0,0,0,0,0,0,0,0,0,0,0,0,0,0,0,0,0,0,0,0,0,0,0,0,0,0,0,0,0,0,0,0,0,0,0,0,0,0,0,0,0,0,0,0,0,0,0,0,0,0,0,0,0,0,
0,0,0,0,0,0,0,0,0,0,0,0,0,0,0,0,0,0,0,0,0,0,0,0,0,0,0,0,0,0,0,0,0,0,0,0,0,0,0,0,0,0,0,0,0,0,0,0,0,0,0,0,0,0,0,
0,0,0,0,0,0,0,0,0,0,0,0,0,0,0,0,0,0,0,0,0,0,0,0,0,0,0,0,0,0,0,0,0,0,0,0,0,0,0,0,0,0,0,0,0,0,0,0,0,0,0,0,0,0,0,
0,0,0,0,0,0,0,0,0,0,0,0,0,0,0,0,0,0,0,0,0,0,0,0,0,0,0,0,0,0,0,0,0,0,0,0,0,0,0,0,0,0,0,0,0,0,0,0,0,0,0,0,0,0,0,
0,0,0,0,0,0,0,0,0,0,0,0,0,0,0,0,0,0,0,0,0,0,0,0,0,0,0,0,0,0,0,0,0,0,0,0,0,0,0,0,0,0,0,0,0,0,0,0,0,0,0,0,0,0,0,
0,0,0,0,0,0,0,0,0,0,0,0,0,0,0,0,0,0,0,0,0,0,0,0,0,0,0,0,0,0,0,0,0,0,0,0,0,0,0,0,0,0,0,0,0,0,0,0,0,0,0,0,0,0,0,
0,0,0,0,0,0,0,0,0,0,0,0,0,0,0,0,0,0,0,0,0,0,0,0,0,0,0,0,0,0,0,0,0,0,0,0,0,0,0,0,0,0,0,0,0,0,0,0,0,0,0,0,0,0,0,
0,0,0,0,0,0,0,0,0,0,0,0,0,0,0,0,0,0,0,0,0,0,0,0,0,0,0,0,0,0,0,0,0,0,0,0,0,0,0,0,0,0,0,0,0,0,0,0,0,0,0,0,0,0,0,
0,0,0,0,0,0,0,0,0,0,0,0,0,0,0,0,0,0,0,0,0,0,0,0,0,0,0,0,0,0,0,0,0,0,0,0,0,0,0,0,0,0,0,0,0,0,0,0,0,0,0,0,0,0,0,
0,0,0,0,0,0,0,0,0,0,0,0,0,0,0,0,0,0,0,0,0,0,0,0,0,0,0,0,0,0,0,0,0,0,0,0,0,0,0,0,0,0,0,0,0,0,0,0,0,0,0,0,0,0,0,
0,0,0,0,0,0,0,0,0,0,0,0,0,0,0,0,0,0,0,0,0,0,0,0,0,0,0,0,0,0,0,0,0,0,0,0,0,0,0,0,0,0,0,0,0,0,0,0,0,0,0,0,0,0,0,
0,0,0,0,0,0,0,0,0,0,0,0,0,0,0,0,0,0,0,0,0,0,0,0,0,0,0,0,0,0,0,0,0,0,0,0,0,0,0,0,0,0,0,0,0,0,0,0,0,0,0,0,0,0,0,
0,0,0,0,0,0,0,0,0,0,0,0,0,0,0,0,0,0,0,0,0,0,0,0,0,0,0,0,0,0,0,0,0,0,0,0,0,0,0,0,0,0,0,0,0,0,0,0,0,0,0,0,0,0,0,
0,0,0,0,0,0,0,0,0,0,0,0,0,0,0,0,0,0,0,0,0,0,0,0,0,0,0,0,0,0,0,0,0,0,0,0,0,0,0,0,0,0,0,0,0,0,0,0,0,0,0,0,0,0,0,
0,0,0,0,0,0,0,0,0,0,0,0,0,0,0,0,0,0,0,0,0,0,0,0,0,0,0,0,0,0,0,0,0,0,0,0,0,4073,0,0,0,0,0,0,0,0,0,0,0,0,0,0,0,0,0,
0,0,0,0,0,0,0,0,0,0,0,0,0,0,0,0,0,0,0,0,0,0,0,0,0,0,0,0,0,0,0,0,0,0,0,0,0,4081,0,0,0,0,0,0,0,0,0,0,0,0,0,0,0,0,0,
0,0,0,0,0,0,0,0,0,0,0,0,0,0,0,0,0,0,0,0,0,0,0,0,0,0,0,0,0,0,0,0,0,0,0,0,0,4089,4305,4306,4307,0,0,0,0,0,0,5957,5957,5957,0,0,0,0,0,
0,0,0,0,0,0,0,0,0,0,0,0,0,0,0,0,0,0,0,0,0,0,0,0,0,0,0,0,0,0,0,0,0,0,0,0,0,4047,4313,4314,4315,4047,0,0,0,0,0,0,0,5957,0,0,0,0,0,
0,0,0,0,0,0,0,0,0,0,0,0,0,0,0,0,0,0,0,0,0,0,0,0,0,0,0,0,0,0,0,0,0,0,0,0,0,4047,4313,4314,4315,4047,0,0,5957,0,0,0,0,5952,0,0,0,0,0,
0,0,0,0,0,0,0,0,0,0,0,0,0,0,0,0,0,0,0,0,0,0,0,0,0,0,0,0,0,0,0,0,0,0,0,0,0,0,4321,4322,4323,0,0,0,0,0,0,0,0,0,0,0,0,0,0,
0,0,0,0,0,0,0,0,0,0,0,0,0,0,0,0,0,0,0,0,0,0,0,0,0,0,0,0,0,0,0,0,0,0,0,0,0,0,0,0,0,0,0,0,0,0,0,0,0,0,0,0,0,0,0,
0,0,0,0,0,0,0,0,0,0,0,0,0,0,0,0,0,0,0,0,0,0,0,0,0,0,0,0,0,0,0,0,0,0,0,0,0,0,0,0,0,0,0,0,0,0,0,0,0,0,0,0,0,0,0,
0,0,0,0,0,0,0,0,0,0,0,0,0,0,0,0,0,0,0,0,0,0,0,0,0,0,0,0,0,0,0,0,0,0,0,0,0,0,0,0,0,0,0,0,0,0,0,0,0,0,0,0,0,0,0,
0,0,0,0,0,0,0,0,0,0,0,0,0,0,0,0,0,0,0,0,0,0,0,0,0,0,0,0,0,0,0,0,0,0,0,0,0,0,0,0,0,0,0,0,0,0,0,0,0,0,0,0,0,0,0,
0,0,0,0,0,0,0,0,0,0,0,0,0,0,0,0,0,0,0,0,0,0,0,0,0,0,0,0,0,0,0,0,0,0,0,0,0,0,0,0,0,0,0,0,0,0,0,0,0,0,0,0,0,0,0,
0,0,0,0,0,0,0,0,0,0,0,0,0,0,0,0,0,0,0,0,0,0,0,0,0,0,0,0,0,0,0,0,0,0,0,0,0,0,0,0,0,0,0,0,0,0,0,0,0,0,0,0,0,0,0,
0,0,0,0,0,0,0,0,0,0,0,0,0,0,0,0,0,0,0,0,0,0,0,0,0,0,0,0,0,0,0,0,0,0,0,0,0,0,0,0,0,0,0,0,0,0,0,0,0,0,0,0,0,0,0,
0,0,0,0,0,0,0,0,0,0,0,0,0,0,0,0,0,0,0,0,0,0,0,0,0,0,0,0,0,0,0,0,0,0,0,0,0,0,0,0,0,0,0,0,0,0,0,0,0,0,0,0,0,0,0,
0,0,0,0,0,0,0,0,0,0,0,0,0,0,0,0,0,0,0,0,0,0,0,0,0,0,0,0,0,0,0,0,0,0,0,0,0,0,0,0,0,0,0,0,0,0,0,0,0,0,0,0,0,0,0,
0,0,0,0,0,0,0,0,0,0,0,0,0,0,0,0,0,0,0,0,0,0,0,0,0,0,0,0,0,0,0,0,0,0,0,0,0,0,0,0,0,0,0,0,0,0,0,0,0,0,0,0,0,0,0,
0,0,0,0,0,0,0,0,0,0,0,0,0,0,0,0,0,0,0,0,0,0,0,0,0,0,0,0,0,0,0,0,0,0,0,483,483,483,483,483,483,483,483,483,483,483,483,483,483,483,0,0,0,0,0,
0,0,0,0,0,0,0,0,0,0,0,0,0,0,0,0,0,0,0,0,0,0,0,0,0,0,0,0,0,0,5957,0,0,0,0,483,483,483,483,483,483,483,483,483,483,483,483,483,483,483,0,0,0,0,0,
0,0,0,0,0,0,0,0,0,0,0,0,0,0,0,0,0,0,0,0,0,0,0,0,0,0,0,0,0,0,0,0,0,0,0,329,483,483,483,483,483,483,483,483,483,483,483,483,483,483,0,0,0,0,0,
0,0,0,0,0,0,0,0,0,0,0,0,0,0,0,0,0,0,0,0,0,0,0,0,0,0,0,0,0,0,0,0,0,0,0,337,0,0,0,0,0,0,0,329,483,483,483,483,331,0,0,0,0,0,0,
0,0,0,0,0,0,0,0,0,0,0,0,0,0,0,0,0,0,0,0,0,0,0,0,0,0,0,0,0,0,0,0,0,0,0,337,0,0,0,0,0,0,0,337,0,0,0,0,339,0,0,0,0,0,0,
0,0,0,0,0,0,0,0,0,0,0,0,0,0,0,0,0,0,0,0,0,0,0,0,0,0,0,0,0,0,0,0,0,0,0,337,0,0,0,0,0,0,0,345,364,346,336,491,339,0,0,0,0,0,0,
0,0,0,0,0,0,0,0,0,0,329,330,330,330,330,330,330,330,330,331,0,0,0,0,0,0,0,0,0,0,0,0,0,0,0,337,0,0,0,0,0,0,0,0,0,0,337,491,339,0,0,0,0,0,0,
0,0,0,0,0,0,0,0,0,0,337,338,338,338,338,338,338,338,338,339,0,0,0,0,0,0,0,0,0,0,0,0,0,0,0,337,0,0,0,0,0,0,0,329,483,483,0,0,483,483,0,0,0,0,0,
0,0,0,0,0,0,0,0,0,0,345,346,364,346,346,346,346,336,338,339,0,0,0,0,0,0,0,0,0,0,0,0,0,0,0,337,0,0,0,0,0,0,0,337,0,0,0,0,0,0,0,0,0,0,0,
0,0,0,0,0,0,0,0,0,0,0,0,0,0,0,0,0,337,338,339,0,0,0,0,0,0,0,0,0,0,0,0,0,0,0,337,0,0,0,0,0,0,0,337,0,0,0,0,0,0,0,0,0,0,0,
0,0,0,0,0,0,0,0,0,0,0,0,0,0,0,0,0,337,338,339,0,0,0,0,0,0,0,0,0,0,0,0,0,0,0,345,346,346,346,364,346,346,346,337,0,0,0,0,0,0,0,0,0,0,0,
0,0,0,0,0,0,0,0,0,0,0,0,0,0,0,0,0,337,338,339,0,0,0,0,0,0,0,0,0,0,0,0,0,0,0,491,0,0,0,0,0,0,0,337,0,329,483,483,483,483,0,0,0,0,0,
0,0,0,0,0,0,0,0,0,0,0,0,0,0,0,0,0,337,338,339,0,0,0,0,0,0,0,0,0,0,0,0,0,0,0,491,0,0,0,0,0,0,0,337,0,337,0,0,0,0,0,0,0,0,0,
0,0,0,0,0,0,0,0,329,330,331,0,0,0,0,0,0,337,338,339,0,0,0,0,0,0,0,0,0,0,0,0,0,0,0,491,0,0,0,0,0,0,0,337,0,345,364,336,0,0,0,0,0,0,0,
0,0,0,0,0,0,0,0,337,338,339,0,0,0,0,0,0,337,338,339,0,0,0,0,0,0,0,0,0,0,0,0,0,0,0,491,0,0,0,0,0,0,0,337,0,0,0,337,0,0,0,0,0,0,0,
0,0,0,0,0,0,0,0,345,346,347,0,0,0,0,0,0,337,338,339,0,0,0,0,0,0,0,0,0,0,0,0,0,0,0,491,491,491,491,491,491,329,483,337,0,0,0,337,0,0,0,0,0,0,0,
0,0,0,0,0,0,0,0,0,0,0,0,0,0,0,0,0,337,338,339,0,0,0,0,0,0,0,0,0,0,0,0,0,0,0,491,0,0,0,0,0,337,0,337,0,0,0,337,0,0,0,0,0,0,0,
0,0,0,0,0,0,0,0,0,0,0,0,0,0,0,0,0,337,338,330,330,330,330,330,330,330,330,330,330,331,0,0,0,0,0,491,0,0,0,0,0,337,0,337,0,0,0,337,0,0,0,0,0,0,0,
0,0,0,0,0,0,0,0,0,0,0,0,0,0,0,0,0,337,338,338,338,338,338,338,338,338,338,338,338,339,0,0,0,0,0,491,0,0,0,0,0,337,0,337,0,0,0,337,0,0,0,0,0,0,0,
0,0,0,0,0,0,0,0,0,0,0,0,0,0,0,0,0,345,346,346,346,346,346,346,346,346,346,346,364,347,0,0,0,0,0,491,0,0,0,0,0,337,0,337,0,0,0,337,0,0,0,0,0,0,0,
0,0,0,0,0,0,0,0,0,0,0,0,0,0,0,0,0,0,0,0,0,0,0,0,0,0,0,0,0,0,0,0,0,0,0,329,483,483,483,483,483,483,0,337,0,0,0,337,0,0,0,0,0,0,0,
0,0,0,0,0,0,0,0,0,0,0,0,0,0,0,0,0,0,0,0,0,0,0,0,0,0,0,0,0,0,0,0,0,0,0,337,329,483,483,483,483,483,483,483,0,0,0,337,0,0,0,0,0,0,0,
0,0,0,0,0,0,0,0,0,0,0,0,0,0,0,0,0,0,0,0,0,0,0,0,0,0,0,0,0,0,0,0,0,0,0,337,337,0,0,0,0,0,0,0,0,0,0,337,0,0,0,0,0,0,0,
0,0,0,0,0,0,0,0,0,0,0,0,0,0,0,0,0,0,0,0,0,0,0,0,0,0,0,0,0,0,0,0,0,0,0,0,337,0,0,0,0,0,0,0,0,0,0,337,0,0,0,0,0,0,0,
0,0,0,0,0,0,0,0,0,0,0,0,0,0,0,0,0,0,0,0,0,0,0,0,0,0,0,0,0,0,0,0,0,0,0,0,0,0,0,0,0,0,0,0,0,483,483,483,0,0,0,0,0,0,0,
0,0,0,0,0,0,0,0,0,0,0,0,0,0,0,0,0,0,0,0,0,0,0,0,0,0,0,0,0,0,0,0,0,0,0,0,0,0,0,0,0,0,0,0,0,0,0,0,0,0,0,0,0,0,0,
0,0,0,0,0,0,0,0,0,0,0,0,0,0,0,0,0,0,0,0,0,0,0,0,0,0,0,0,0,0,0,0,0,0,0,0,0,0,0,0,0,0,0,0,0,0,0,0,0,0,0,0,0,0,0,
0,0,0,0,0,0,0,0,0,0,0,0,0,0,0,0,0,0,0,0,0,0,0,0,0,0,0,0,0,0,0,0,0,0,0,0,0,0,0,0,0,0,0,0,0,0,0,0,0,0,0,0,0,0,0,
0,0,0,0,0,0,0,0,0,0,0,0,0,0,0,0,0,0,0,0,0,0,0,0,0,0,0,0,0,0,0,0,0,0,0,0,0,0,0,0,0,0,0,0,0,0,0,0,0,0,0,0,0,0,0,
0,0,0,0,0,0,0,0,0,0,0,0,0,0,0,0,0,0,0,0,0,0,0,0,0,0,0,0,0,0,0,0,0,0,0,0,0,0,0,0,0,0,0,0,0,0,0,0,0,0,0,0,0,0,0,
0,0,0,0,0,0,0,0,0,0,0,0,0,0,0,0,0,0,0,0,0,0,0,0,0,0,0,0,0,0,0,0,0,0,0,0,0,0,0,0,0,0,0,0,0,0,0,0,0,0,0,0,0,0,0,
0,0,0,0,0,0,0,0,0,0,0,0,0,0,0,0,0,0,0,0,0,0,0,0,0,0,0,0,0,0,0,0,0,0,0,0,0,0,0,0,0,0,0,0,0,0,0,0,0,0,0,0,0,0,0,
0,0,0,0,0,0,0,0,0,0,0,0,0,0,0,0,0,0,0,0,0,0,0,0,0,0,0,0,0,0,0,0,0,0,0,0,0,0,0,0,0,0,0,0,0,0,0,0,0,0,0,0,0,0,0,
0,0,0,0,0,0,0,0,0,0,0,0,0,0,0,0,0,0,0,0,0,0,0,0,0,0,0,0,0,0,0,0,0,0,0,0,0,0,0,0,0,0,0,0,0,0,0,0,0,0,0,0,0,0,0,
0,0,0,0,0,0,0,0,0,0,0,0,0,0,0,0,0,0,0,0,0,0,0,0,0,0,0,0,0,0,0,0,0,0,0,0,0,0,0,0,0,0,0,0,0,0,0,0,0,0,0,0,0,0,0,
0,0,0,0,0,0,0,0,0,0,0,0,0,0,0,0,0,0,0,0,0,0,0,0,0,0,0,0,0,0,0,0,0,0,0,0,0,0,0,0,0,0,0,0,0,0,0,0,0,0,0,0,0,0,0,
0,0,0,0,0,0,0,0,0,0,0,0,0,0,0,0,0,0,0,0,0,0,0,0,0,0,0,0,0,0,0,0,0,0,0,0,0,0,0,0,0,0,0,0,0,0,0,0,0,0,0,0,0,0,0,
0,0,0,0,0,0,0,0,0,0,0,0,0,0,329,330,331,0,0,0,0,0,0,0,0,0,0,0,0,0,0,0,0,0,0,0,0,0,0,0,0,0,0,0,0,0,0,0,0,0,0,0,0,0,0,
0,0,0,0,0,0,329,330,331,0,0,0,0,0,337,338,339,0,0,0,0,0,0,0,0,0,0,0,0,0,0,0,0,0,0,0,0,0,0,0,0,0,0,0,0,0,0,0,0,0,0,0,0,0,0,
0,0,0,0,0,0,337,338,339,0,0,0,0,0,345,346,347,0,0,0,0,0,0,0,0,0,0,0,0,0,0,0,0,0,0,0,0,0,0,0,0,0,0,0,0,0,0,0,0,0,0,0,0,0,0,
0,0,0,0,0,0,345,346,347,0,0,0,0,0,0,0,0,0,0,0,0,0,0,0,0,0,0,0,0,0,0,0,0,0,0,0,0,0,0,0,0,0,0,0,0,0,0,0,0,0,0,0,0,0,0,
0,0,0,0,0,0,0,0,0,0,0,0,0,0,0,0,0,0,0,0,0,0,0,0,0,0,0,0,0,0,0,0,0,0,0,0,0,0,0,0,0,0,0,0,0,0,0,0,0,0,0,0,0,0,0,
0,0,0,0,0,0,0,0,0,0,0,0,0,0,0,0,0,0,0,0,0,0,0,0,0,0,0,0,0,0,0,0,0,0,0,0,0,0,0,0,0,0,0,0,0,0,0,0,0,0,0,0,0,0,0,
0,0,0,0,0,0,0,0,0,0,0,0,0,0,0,0,0,0,0,0,0,0,0,0,0,0,0,0,0,0,0,0,0,0,0,0,0,0,0,0,0,0,0,0,0,0,0,0,0,0,0,0,0,0,0,
0,0,0,0,0,0,0,0,0,0,0,0,0,0,0,0,0,0,0,0,0,0,0,0,0,0,0,0,0,0,0,0,0,0,0,0,0,0,0,0,0,0,0,0,0,0,0,0,0,0,0,0,0,0,0,
0,0,0,0,0,0,0,0,0,0,0,0,0,0,0,0,0,0,0,0,0,0,0,0,0,0,0,0,0,0,0,0,0,0,0,0,0,0,0,0,0,0,0,0,0,0,0,0,0,0,0,0,0,0,0,
0,0,0,0,0,0,0,0,0,0,0,0,0,0,0,0,0,0,0,0,0,0,0,0,0,0,0,0,0,0,0,0,0,0,0,0,0,0,0,0,0,0,0,0,0,0,0,0,0,0,0,0,0,0,0,
0,0,0,0,0,0,0,0,0,0,0,0,0,0,0,0,0,0,0,0,0,0,0,0,0,0,0,0,0,0,0,0,0,0,0,0,0,0,0,0,0,0,0,0,0,0,0,0,0,0,0,0,0,0,0,
0,0,0,0,0,0,0,0,0,0,0,0,0,0,0,0,0,0,0,0,0,0,0,0,0,0,0,0,0,0,0,0,0,0,0,0,0,0,0,0,0,0,0,0,0,0,0,0,0,0,0,0,0,0,0
</data>
 </layer>
 <layer id="6" name="sopra_testa" width="55" height="100">
  <data encoding="csv">
0,0,0,0,0,0,0,0,0,0,0,0,0,0,0,0,0,0,0,0,0,0,0,0,0,0,0,0,0,0,0,0,0,0,0,0,0,0,0,0,0,0,0,0,0,0,0,0,0,0,0,0,0,0,0,
0,0,0,0,0,0,0,0,0,0,0,0,0,0,0,0,0,0,0,0,0,0,0,0,0,0,0,0,0,0,0,0,0,0,0,0,0,0,0,0,0,0,0,0,0,0,0,0,0,0,0,0,0,0,0,
0,0,0,0,0,0,0,0,0,0,0,0,0,0,0,0,0,0,0,0,0,0,0,0,0,0,0,0,0,0,0,0,0,0,0,0,0,0,0,0,0,0,0,0,0,0,0,0,0,0,0,0,0,0,0,
0,0,0,0,0,0,0,0,0,0,0,0,0,0,0,0,0,0,0,0,0,0,0,0,0,0,0,0,0,0,0,0,0,0,0,0,0,0,0,0,0,0,0,0,0,0,0,0,0,0,0,0,0,0,0,
0,0,0,0,0,0,0,0,0,0,0,0,0,0,0,0,0,0,0,0,0,0,0,0,0,0,0,0,0,0,0,0,0,0,0,0,0,0,0,0,0,0,0,0,0,0,0,0,0,0,0,0,0,0,0,
0,0,0,0,0,0,0,0,0,0,0,0,0,0,0,0,0,0,0,0,0,0,0,0,0,0,0,0,0,0,0,0,0,0,0,0,0,0,0,0,0,0,0,0,0,0,0,0,0,0,0,0,0,0,0,
0,0,0,0,0,0,0,0,0,0,0,0,0,0,0,0,0,0,0,0,0,0,0,0,0,0,0,0,0,0,0,0,0,0,0,0,0,0,0,0,0,0,0,0,0,0,0,0,0,0,0,0,0,0,0,
0,0,0,0,0,0,0,0,0,0,0,0,0,0,0,0,0,0,0,0,0,0,0,0,0,0,0,0,0,0,0,0,0,0,0,0,0,0,0,0,0,0,0,0,0,0,0,0,0,0,0,0,0,0,0,
0,0,0,0,0,0,0,0,0,0,0,0,0,0,0,0,0,0,0,0,0,0,0,0,0,0,0,0,0,0,0,0,0,0,0,0,0,0,0,0,0,0,0,0,0,0,0,0,0,0,0,0,0,0,0,
0,0,0,0,0,0,0,0,0,0,0,0,0,0,0,0,0,0,0,0,0,0,0,0,0,0,0,0,0,0,0,0,0,0,0,0,0,0,0,0,0,0,0,0,0,0,0,0,0,0,0,0,0,0,0,
0,0,0,0,0,0,0,0,0,0,0,0,0,0,0,0,0,0,0,0,0,0,0,0,0,0,0,0,0,0,0,0,0,0,0,0,0,0,0,0,0,0,0,0,0,0,0,0,0,0,0,0,0,0,0,
0,0,0,0,0,0,0,0,0,0,0,0,0,0,0,0,0,0,0,0,0,0,0,0,0,0,0,0,0,0,0,0,0,0,0,0,0,0,0,0,0,0,0,0,0,0,0,0,0,0,0,0,0,0,0,
0,0,0,0,0,0,0,0,0,0,0,0,0,0,0,0,0,0,0,0,0,0,0,0,0,0,0,0,0,0,0,0,0,0,0,0,0,0,0,0,0,0,0,0,0,0,0,0,0,0,0,0,0,0,0,
0,0,0,0,0,0,0,0,0,0,0,0,0,0,0,0,0,0,0,0,0,0,0,0,0,0,0,0,0,0,0,0,0,0,0,0,0,0,0,0,0,0,0,0,0,0,0,0,0,0,0,0,0,0,0,
0,0,0,0,0,0,0,0,0,0,0,0,0,0,0,0,0,0,0,0,0,0,0,0,0,0,0,0,0,0,0,0,0,0,0,0,0,0,0,0,0,0,0,0,0,0,0,0,0,0,0,0,0,0,0,
0,0,0,0,0,0,0,0,0,0,0,0,0,0,0,0,0,0,0,0,0,0,0,0,0,0,0,0,0,0,0,0,0,0,0,0,0,0,0,0,0,0,0,0,0,0,0,0,0,0,0,0,0,0,0,
0,0,0,0,0,0,0,0,0,0,0,0,0,0,0,0,0,0,0,0,0,0,0,0,0,0,0,0,0,0,0,0,0,0,0,0,0,0,0,0,0,0,0,0,0,0,0,0,0,0,0,0,0,0,0,
0,0,0,0,0,0,0,0,0,0,0,0,0,0,0,0,0,0,0,0,0,0,0,0,0,0,0,0,0,0,0,0,0,0,0,0,0,0,0,0,0,0,0,0,0,0,0,0,0,0,0,0,0,0,0,
0,0,0,0,0,0,0,0,0,0,0,0,0,0,0,0,0,0,0,0,0,0,0,0,0,0,0,0,0,0,0,0,0,0,0,0,0,0,0,0,0,0,0,0,0,0,0,0,0,0,0,0,0,0,0,
0,0,0,0,0,0,0,0,0,0,0,0,0,0,0,0,0,0,0,0,0,0,0,0,0,0,0,0,0,0,0,0,0,0,0,0,0,0,0,0,0,0,0,0,0,0,0,0,0,0,0,0,0,0,0,
0,0,0,0,0,0,0,0,0,0,0,0,0,0,0,0,0,0,0,0,0,0,0,0,0,0,0,0,0,0,0,0,0,0,0,0,0,0,0,0,0,0,0,0,0,0,0,0,0,0,0,0,0,0,0,
0,0,0,0,0,0,0,0,0,0,0,0,0,0,0,0,0,0,0,0,0,0,0,0,0,0,0,0,0,0,0,0,0,0,0,0,0,0,0,0,0,0,0,0,0,0,0,0,0,0,0,0,0,0,0,
0,0,0,0,0,0,0,0,0,0,0,0,0,0,0,0,0,0,0,0,0,0,0,0,0,0,0,0,0,0,0,0,0,0,0,0,0,0,0,0,0,0,0,0,0,0,0,0,0,0,0,0,0,0,0,
0,0,0,0,0,0,0,0,0,0,0,0,0,0,0,0,0,0,0,0,0,0,0,0,0,0,0,0,0,0,0,0,0,0,0,0,0,0,0,0,0,0,0,0,0,0,0,0,0,0,0,0,0,0,0,
0,0,0,0,0,0,0,0,0,0,0,0,0,0,0,0,0,0,0,0,0,0,0,0,0,0,0,0,0,0,0,0,0,0,0,0,0,0,0,0,0,0,0,0,0,0,0,0,0,0,0,0,0,0,0,
0,0,0,0,0,0,0,0,0,0,0,0,0,0,0,0,0,0,0,0,0,0,0,0,0,0,0,0,0,0,0,0,0,0,0,0,0,0,0,0,0,0,0,0,0,0,0,0,0,0,0,0,0,0,0,
0,0,0,0,0,0,0,0,0,0,0,0,0,0,0,0,0,0,0,0,0,0,0,0,0,0,0,0,0,0,0,0,0,0,0,0,0,0,0,0,0,0,0,0,0,0,0,0,0,0,0,0,0,0,0,
0,0,0,0,0,0,0,0,0,0,0,0,0,0,0,0,0,0,0,0,0,0,0,0,0,0,0,0,0,0,0,0,0,0,0,0,0,0,0,0,0,0,0,0,0,0,0,0,0,0,0,0,0,0,0,
0,0,0,0,0,0,0,0,0,0,0,0,0,0,0,0,0,0,0,0,0,0,0,0,0,0,0,0,0,0,0,0,0,0,0,0,0,0,0,0,0,0,0,0,0,0,0,0,0,0,0,0,0,0,0,
0,0,0,0,0,0,0,0,0,0,0,0,0,0,0,0,0,0,0,0,0,0,0,0,0,0,0,0,0,0,0,0,0,0,0,0,0,0,0,0,0,0,0,0,0,0,0,0,0,0,0,0,0,0,0,
0,0,0,0,0,0,0,0,0,0,0,0,0,0,0,0,0,0,0,0,0,0,0,0,0,0,0,0,0,0,0,0,0,0,0,0,0,0,0,0,0,0,0,0,0,0,0,0,0,0,0,0,0,0,0,
0,0,0,0,0,0,0,0,0,0,0,0,0,0,0,0,0,0,0,0,0,0,0,0,0,0,0,0,0,0,0,0,0,0,0,0,0,0,0,0,0,0,0,0,0,0,0,0,0,0,0,0,0,0,0,
0,0,0,0,0,0,0,0,0,0,0,0,0,0,0,0,0,0,0,0,0,0,0,0,0,0,0,0,0,0,0,0,0,0,0,0,0,0,0,0,0,0,0,0,0,0,0,0,0,0,0,0,0,0,0,
0,0,0,0,0,0,0,0,0,0,0,0,0,0,0,0,0,0,0,0,0,0,0,0,0,0,0,0,0,0,0,0,0,0,0,0,0,0,0,0,0,0,0,0,0,0,0,0,0,0,0,0,0,0,0,
0,0,0,0,0,0,0,0,0,0,0,0,0,0,0,0,0,0,0,0,0,0,0,0,0,0,0,0,0,0,0,0,0,0,0,0,0,0,0,0,0,0,0,0,0,0,0,0,0,0,0,0,0,0,0,
0,0,0,0,0,0,0,0,0,0,0,0,0,0,0,0,0,0,0,0,0,0,0,0,0,0,0,0,0,0,0,0,0,0,0,0,0,0,0,0,0,0,0,0,0,0,0,0,0,0,0,0,0,0,0,
0,0,0,0,0,0,0,0,0,0,0,0,0,0,0,0,0,0,0,0,0,0,0,0,0,0,0,0,0,0,0,0,0,0,0,0,0,0,0,0,0,0,0,0,0,0,0,0,0,0,0,0,0,0,0,
0,0,0,0,0,0,0,0,0,0,0,0,0,0,0,0,0,0,0,0,0,0,0,0,0,0,0,0,0,0,0,0,0,0,0,0,0,0,0,0,0,0,0,0,0,0,0,0,0,0,0,0,0,0,0,
0,0,0,0,0,0,0,0,0,0,0,0,0,0,0,0,0,0,0,0,0,0,0,0,0,0,0,0,0,0,0,0,0,0,0,0,0,0,0,0,0,0,0,0,0,0,0,0,0,0,0,0,0,0,0,
0,0,0,0,0,0,0,0,0,0,0,0,0,0,0,0,0,0,0,0,0,0,0,0,0,0,0,0,0,0,0,0,0,0,0,0,0,0,0,0,4282,0,0,0,0,0,0,0,0,0,0,0,0,0,0,
0,0,0,0,0,0,0,0,0,0,0,0,0,0,0,0,0,0,0,0,0,0,0,0,0,0,0,0,0,0,0,0,0,0,0,0,0,0,0,0,0,0,0,0,0,0,0,0,0,0,0,0,0,0,0,
0,0,0,0,0,0,0,0,0,0,0,0,0,0,0,0,0,0,0,0,0,0,0,0,0,0,0,0,0,0,0,0,0,0,0,0,0,0,0,0,0,0,0,0,0,0,0,0,0,0,0,0,0,0,0,
0,0,0,0,0,0,0,0,0,0,0,0,0,0,0,0,0,0,0,0,0,0,0,0,0,0,0,0,0,0,0,0,0,0,0,0,0,0,0,0,0,0,0,0,0,0,0,0,0,0,0,0,0,0,0,
0,0,0,0,0,0,0,0,0,0,0,0,0,0,0,0,0,0,0,0,0,0,0,0,0,0,0,0,0,0,0,0,0,0,0,0,0,0,0,0,0,0,0,0,0,0,0,0,0,0,0,0,0,0,0,
0,0,0,0,0,0,0,0,0,0,0,0,0,0,0,0,0,0,0,0,0,0,0,0,0,0,0,0,0,0,0,0,0,0,0,0,0,0,0,0,0,0,0,0,0,0,0,0,0,0,0,0,0,0,0,
0,0,0,0,0,0,0,0,0,0,0,0,0,0,0,0,0,0,0,0,0,0,0,0,0,0,0,0,0,0,0,0,0,0,0,0,0,0,0,0,0,0,0,0,0,0,0,0,0,0,0,0,0,0,0,
0,0,0,0,0,0,0,0,0,0,0,0,0,0,0,0,0,0,0,0,0,0,0,0,0,0,0,0,0,0,0,0,0,0,0,0,0,0,0,0,0,0,0,0,0,0,0,0,0,0,0,0,0,0,0,
0,0,0,0,0,0,0,0,0,0,0,0,0,0,0,0,0,0,0,0,0,0,0,0,0,0,0,0,0,0,0,0,0,0,0,0,0,0,0,0,0,0,0,0,0,0,0,0,0,0,0,0,0,0,0,
0,0,0,0,0,0,0,0,0,0,0,0,0,0,0,0,0,0,0,0,0,0,0,0,0,0,0,0,0,0,0,0,0,0,0,0,0,0,0,0,0,0,0,0,0,0,0,0,0,0,0,0,0,0,0,
0,0,0,0,0,0,0,0,0,0,0,0,0,0,0,0,0,0,0,0,0,0,0,0,0,0,0,0,0,0,0,0,0,0,0,0,0,0,0,0,0,0,0,0,0,0,0,0,0,0,0,0,0,0,0,
0,0,0,0,0,0,0,0,0,0,0,0,0,0,0,0,0,0,0,0,0,0,0,0,0,0,0,0,0,0,0,0,0,0,0,0,0,0,0,0,0,0,0,0,0,0,0,0,0,0,0,0,0,0,0,
0,0,0,0,0,0,0,0,0,0,0,0,0,0,0,0,0,0,0,0,0,0,0,0,0,0,0,0,0,0,0,0,0,0,0,0,0,0,0,0,0,0,0,0,0,0,0,0,0,0,0,0,0,0,0,
0,0,0,0,0,0,0,0,0,0,0,0,0,0,0,0,0,0,0,0,0,0,0,0,0,0,0,0,0,0,0,0,0,0,0,0,0,0,0,0,0,0,0,0,0,0,0,0,0,0,0,0,0,0,0,
0,0,0,0,0,0,0,0,0,0,0,0,0,0,0,0,0,0,0,0,0,0,0,0,0,0,0,0,0,0,0,0,0,0,0,0,0,0,0,0,0,0,0,0,0,0,0,0,0,0,0,0,0,0,0,
0,0,0,0,0,0,0,0,0,0,0,0,0,0,0,0,0,0,0,0,0,0,0,0,0,0,0,0,0,0,0,0,0,0,0,0,0,0,0,0,0,0,0,0,0,0,0,0,0,0,0,0,0,0,0,
0,0,0,0,0,0,0,0,0,0,0,0,0,0,0,0,0,0,0,0,0,0,0,0,0,0,0,0,0,0,0,0,0,0,0,0,0,0,0,0,0,0,0,0,0,0,0,0,0,0,0,0,0,0,0,
0,0,0,0,0,0,0,0,0,0,0,0,0,0,0,0,0,0,0,0,0,0,0,0,0,0,0,0,0,0,0,0,0,0,0,0,0,0,0,0,0,0,0,0,0,0,0,0,0,0,0,0,0,0,0,
0,0,0,0,0,0,0,0,0,0,0,0,0,0,0,0,0,0,0,0,0,0,0,0,0,0,0,0,0,0,0,0,0,0,0,0,0,0,0,0,0,0,0,0,0,0,0,0,0,0,0,0,0,0,0,
0,0,0,0,0,0,0,0,0,0,0,0,0,0,0,0,0,0,0,0,0,0,0,0,0,0,0,0,0,0,0,0,0,0,0,0,0,0,0,0,0,0,0,0,0,0,0,0,0,0,0,0,0,0,0,
0,0,0,0,0,0,0,0,0,0,0,0,0,0,0,0,0,0,0,0,0,0,0,0,0,0,0,0,0,0,0,0,0,0,0,0,0,0,0,0,0,0,0,0,0,0,0,0,0,0,0,0,0,0,0,
0,0,0,0,0,0,0,0,0,0,0,0,0,0,0,0,0,0,0,0,0,0,0,0,0,0,0,0,0,0,0,0,0,0,0,0,0,0,0,0,0,0,0,0,0,0,0,0,0,0,0,0,0,0,0,
0,0,0,0,0,0,0,0,0,0,0,0,0,0,0,0,0,0,0,0,0,0,0,0,0,0,0,0,0,0,0,0,0,0,0,0,0,0,0,0,0,0,0,0,0,0,0,0,0,0,0,0,0,0,0,
0,0,0,0,0,0,0,0,0,0,0,0,0,0,0,0,0,0,0,0,0,0,0,0,0,0,0,0,0,0,0,0,0,0,0,0,0,0,0,0,0,0,0,0,0,0,0,0,0,0,0,0,0,0,0,
0,0,0,0,0,0,0,0,0,0,0,0,0,0,0,0,0,0,0,0,0,0,0,0,0,0,0,0,0,0,0,0,0,0,0,0,0,0,0,0,0,0,0,0,0,0,0,0,0,0,0,0,0,0,0,
0,0,0,0,0,0,0,0,0,0,0,0,0,0,0,0,0,0,0,0,0,0,0,0,0,0,0,0,0,0,0,0,0,0,0,0,0,0,0,0,0,0,0,0,0,0,0,0,0,0,0,0,0,0,0,
0,0,0,0,0,0,0,0,0,0,0,0,0,0,0,0,0,0,0,0,0,0,0,0,0,0,0,0,0,0,0,0,0,0,0,0,0,0,0,0,0,0,0,0,0,0,0,0,0,0,0,0,0,0,0,
0,0,0,0,0,0,0,0,0,0,0,0,0,0,0,0,0,0,0,0,0,0,0,0,0,0,0,0,0,0,0,0,0,0,0,0,0,0,0,0,0,0,0,0,0,0,0,0,0,0,0,0,0,0,0,
0,0,0,0,0,0,0,0,0,0,0,0,0,0,0,0,0,0,0,0,0,0,0,0,0,0,0,0,0,0,0,0,0,0,0,0,0,0,0,0,0,0,0,0,0,0,0,0,0,0,0,0,0,0,0,
0,0,0,0,0,0,0,0,0,0,0,0,0,0,0,0,0,0,0,0,0,0,0,0,0,0,0,0,0,0,0,0,0,0,0,0,0,0,0,0,0,0,0,0,0,0,0,0,0,0,0,0,0,0,0,
0,0,0,0,0,0,0,0,0,0,0,0,0,0,0,0,0,0,0,0,0,0,0,0,0,0,0,0,0,0,0,0,0,0,0,0,0,0,0,0,0,0,0,0,0,0,0,0,0,0,0,0,0,0,0,
0,0,0,0,0,0,0,0,0,0,0,0,0,0,0,0,0,0,0,0,0,0,0,0,0,0,0,0,0,0,0,0,0,0,0,0,0,0,0,0,0,0,0,0,0,0,0,0,0,0,0,0,0,0,0,
0,0,0,0,0,0,0,0,0,0,0,0,0,0,0,0,0,0,0,0,0,0,0,0,0,0,0,0,0,0,0,0,0,0,0,0,0,0,0,0,0,0,0,0,0,0,0,0,0,0,0,0,0,0,0,
0,0,0,0,0,0,0,0,0,0,0,0,0,0,0,0,0,0,0,0,0,0,0,0,0,0,0,0,0,0,0,0,0,0,0,0,0,0,0,0,0,0,0,0,0,0,0,0,0,0,0,0,0,0,0,
0,0,0,0,0,0,0,0,0,0,0,0,0,0,0,0,0,0,0,0,0,0,0,0,0,0,0,0,0,0,0,0,0,0,0,0,0,0,0,0,0,0,0,0,0,0,0,0,0,0,0,0,0,0,0,
0,0,0,0,0,0,0,0,0,0,0,0,0,0,0,0,0,0,0,0,0,0,0,0,0,0,0,0,0,0,0,0,0,0,0,0,0,0,0,0,0,0,0,0,0,0,0,0,0,0,0,0,0,0,0,
0,0,0,0,0,0,0,0,0,0,0,0,0,0,0,0,0,0,0,0,0,0,0,0,0,0,0,0,0,0,0,0,0,0,0,0,0,0,0,0,0,0,0,0,0,0,0,0,0,0,0,0,0,0,0,
0,0,0,0,0,0,0,0,0,0,0,0,0,0,0,0,0,0,0,0,0,0,0,0,0,0,0,0,0,0,0,0,0,0,0,0,0,0,0,0,0,0,0,0,0,0,0,0,0,0,0,0,0,0,0,
0,0,0,0,0,0,0,0,0,0,0,0,0,0,0,0,0,0,0,0,0,0,0,0,0,0,0,0,0,0,0,0,0,0,0,0,0,0,0,0,0,0,0,0,0,0,0,0,0,0,0,0,0,0,0,
0,0,0,0,0,0,0,0,0,0,0,0,0,0,0,0,0,0,0,0,0,0,0,0,0,0,0,0,0,0,0,0,0,0,0,0,0,0,0,0,0,0,0,0,0,0,0,0,0,0,0,0,0,0,0,
0,0,0,0,0,0,0,0,0,0,0,0,0,0,0,0,0,0,0,0,0,0,0,0,0,0,0,0,0,0,0,0,0,0,0,0,0,0,0,0,0,0,0,0,0,0,0,0,0,0,0,0,0,0,0,
0,0,0,0,0,0,0,0,0,0,0,0,0,0,0,0,0,0,0,0,0,0,0,0,0,0,0,0,0,0,0,0,0,0,0,0,0,0,0,0,0,0,0,0,0,0,0,0,0,0,0,0,0,0,0,
0,0,0,0,0,0,0,0,0,0,0,0,0,0,0,0,0,0,0,0,0,0,0,0,0,0,0,0,0,0,0,0,0,0,0,0,0,0,0,0,0,0,0,0,0,0,0,0,0,0,0,0,0,0,0,
0,0,0,0,0,0,0,0,0,0,0,0,0,0,0,0,0,0,0,0,0,0,0,0,0,0,0,0,0,0,0,0,0,0,0,0,0,0,0,0,0,0,0,0,0,0,0,0,0,0,0,0,0,0,0,
0,0,0,0,0,0,0,0,0,0,0,0,0,0,0,0,0,0,0,0,0,0,0,0,0,0,0,0,0,0,0,0,0,0,0,0,0,0,0,0,0,0,0,0,0,0,0,0,0,0,0,0,0,0,0,
0,0,0,0,0,0,0,0,0,0,0,0,0,0,0,0,0,0,0,0,0,0,0,0,0,0,0,0,0,0,0,0,0,0,0,0,0,0,0,0,0,0,0,0,0,0,0,0,0,0,0,0,0,0,0,
0,0,0,0,0,0,0,0,0,0,0,0,0,0,0,0,0,0,0,0,0,0,0,0,0,0,0,0,0,0,0,0,0,0,0,0,0,0,0,0,0,0,0,0,0,0,0,0,0,0,0,0,0,0,0,
0,0,0,0,0,0,0,0,0,0,0,0,0,0,0,0,0,0,0,0,0,0,0,0,0,0,0,0,0,0,0,0,0,0,0,0,0,0,0,0,0,0,0,0,0,0,0,0,0,0,0,0,0,0,0,
0,0,0,0,0,0,0,0,0,0,0,0,0,0,0,0,0,0,0,0,0,0,0,0,0,0,0,0,0,0,0,0,0,0,0,0,0,0,0,0,0,0,0,0,0,0,0,0,0,0,0,0,0,0,0,
0,0,0,0,0,0,0,0,0,0,0,0,0,0,0,0,0,0,0,0,0,0,0,0,0,0,0,0,0,0,0,0,0,0,0,0,0,0,0,0,0,0,0,0,0,0,0,0,0,0,0,0,0,0,0,
0,0,0,0,0,0,0,0,0,0,0,0,0,0,0,0,0,0,0,0,0,0,0,0,0,0,0,0,0,0,0,0,0,0,0,0,0,0,0,0,0,0,0,0,0,0,0,0,0,0,0,0,0,0,0,
0,0,0,0,0,0,0,0,0,0,0,0,0,0,0,0,0,0,0,0,0,0,0,0,0,0,0,0,0,0,0,0,0,0,0,0,0,0,0,0,0,0,0,0,0,0,0,0,0,0,0,0,0,0,0,
0,0,0,0,0,0,0,0,0,0,0,0,0,0,0,0,0,0,0,0,0,0,0,0,0,0,0,0,0,0,0,0,0,0,0,0,0,0,0,0,0,0,0,0,0,0,0,0,0,0,0,0,0,0,0,
0,0,0,0,0,0,0,0,0,0,0,0,0,0,0,0,0,0,0,0,0,0,0,0,0,0,0,0,0,0,0,0,0,0,0,0,0,0,0,0,0,0,0,0,0,0,0,0,0,0,0,0,0,0,0,
0,0,0,0,0,0,0,0,0,0,0,0,0,0,0,0,0,0,0,0,0,0,0,0,0,0,0,0,0,0,0,0,0,0,0,0,0,0,0,0,0,0,0,0,0,0,0,0,0,0,0,0,0,0,0,
0,0,0,0,0,0,0,0,0,0,0,0,0,0,0,0,0,0,0,0,0,0,0,0,0,0,0,0,0,0,0,0,0,0,0,0,0,0,0,0,0,0,0,0,0,0,0,0,0,0,0,0,0,0,0,
0,0,0,0,0,0,0,0,0,0,0,0,0,0,0,0,0,0,0,0,0,0,0,0,0,0,0,0,0,0,0,0,0,0,0,0,0,0,0,0,0,0,0,0,0,0,0,0,0,0,0,0,0,0,0,
0,0,0,0,0,0,0,0,0,0,0,0,0,0,0,0,0,0,0,0,0,0,0,0,0,0,0,0,0,0,0,0,0,0,0,0,0,0,0,0,0,0,0,0,0,0,0,0,0,0,0,0,0,0,0,
0,0,0,0,0,0,0,0,0,0,0,0,0,0,0,0,0,0,0,0,0,0,0,0,0,0,0,0,0,0,0,0,0,0,0,0,0,0,0,0,0,0,0,0,0,0,0,0,0,0,0,0,0,0,0,
0,0,0,0,0,0,0,0,0,0,0,0,0,0,0,0,0,0,0,0,0,0,0,0,0,0,0,0,0,0,0,0,0,0,0,0,0,0,0,0,0,0,0,0,0,0,0,0,0,0,0,0,0,0,0,
0,0,0,0,0,0,0,0,0,0,0,0,0,0,0,0,0,0,0,0,0,0,0,0,0,0,0,0,0,0,0,0,0,0,0,0,0,0,0,0,0,0,0,0,0,0,0,0,0,0,0,0,0,0,0
</data>
 </layer>
 <objectgroup id="4" name="collisioni">
  <object id="521" x="1" y="3038" width="1754" height="158"/>
  <object id="522" x="1606" y="904" width="146" height="2132"/>
  <object id="523" x="-2" y="427.333" width="148" height="2666.67"/>
  <object id="524" x="136" y="2218" width="306" height="300"/>
  <object id="525" x="4" y="1.33333" width="114.667" height="428"/>
  <object id="526" x="140" y="5.33333" width="1609.33" height="49.3333"/>
  <object id="527" x="1118.67" y="45.3333" width="633.333" height="33.3333"/>
  <object id="528" x="1093.33" y="38.6667" width="16" height="396"/>
  <object id="529" x="776" y="425.333" width="328" height="6.66667"/>
  <object id="530" x="137.333" y="428" width="425.333" height="102.667"/>
  <object id="531" x="570.667" y="493.333" width="929.333" height="45.3333"/>
  <object id="532" x="1485.33" y="169.333" width="12" height="329.333"/>
  <object id="533" x="1490.67" y="170.667" width="93.3333" height="12"/>
  <object id="534" x="1648" y="178.667" width="101.333" height="10.6667"/>
  <object id="535" x="1740" y="66.6667" width="9.33333" height="113.333"/>
  <object id="536" x="1508" y="522.667" width="14.6667" height="169.333"/>
  <object id="537" x="464" y="902.667" width="41.3333" height="17.3333"/>
  <object id="538" x="462.667" y="838.667" width="5.33333" height="74.6667"/>
  <object id="539" x="557.333" y="904" width="1193.33" height="18.6667"/>
  <object id="540" x="1230.67" y="969.333" width="10.6667" height="204"/>
  <object id="541" x="1261.33" y="1000" width="6.66667" height="177.333"/>
  <object id="542" x="1273.33" y="1125.33" width="382.667" height="49.3333"/>
  <object id="543" x="1234.67" y="964" width="356" height="209.333"/>
  <object id="544" x="518.667" y="1160" width="330.667" height="301.333"/>
  <object id="545" x="905.333" y="1322.67" width="44" height="41.3333"/>
  <object id="546" x="1033.33" y="1066.67" width="42.6667" height="45.3333"/>
  <object id="547" x="613.333" y="581.333" width="50.6667" height="60"/>
  <object id="548" x="676" y="102.667" width="54.6667" height="48"/>
  <object id="549" x="488" y="74.6667" width="48" height="48"/>
  <object id="550" x="584" y="128" width="50.6667" height="53.3333"/>
  <object id="551" x="680" y="194.667" width="49.3333" height="54.6667"/>
  <object id="552" x="974.667" y="104" width="69.3333" height="77.3333"/>
  <object id="553" x="1252" y="132" width="48" height="49.3333"/>
  <object id="554" x="1320" y="193.333" width="53.3333" height="54.6667"/>
  <object id="555" x="1320" y="256" width="48" height="58.6667"/>
  <object id="556" x="1510.67" y="1226.67" width="52" height="52"/>
  <object id="557" x="1577.33" y="1260" width="20" height="13.3333"/>
  <object id="558" x="1417.33" y="1310.67" width="53.3333" height="52"/>
  <object id="559" x="1320" y="1388" width="50.6667" height="46.6667"/>
  <object id="560" x="1190.67" y="1150.67" width="22.6667" height="126.667"/>
  <object id="561" x="1213.33" y="1210.67" width="120" height="65.3333"/>
  <object id="562" x="1125.33" y="1340" width="52" height="58.6667"/>
  <object id="563" x="225.333" y="680" width="17.3333" height="18.6667"/>
  <object id="564" x="420" y="649.333" width="20" height="18.6667"/>
  <object id="565" x="173.333" y="741.333" width="8" height="25.3333"/>
  <object id="566" x="230.667" y="877.333" width="14.6667" height="13.3333"/>
  <object id="567" x="162.667" y="957.333" width="17.3333" height="22.6667"/>
  <object id="568" x="194.667" y="1132" width="17.3333" height="14.6667"/>
  <object id="569" x="233.333" y="1290.67" width="17.3333" height="13.3333"/>
  <object id="570" x="169.333" y="1388" width="17.3333" height="14.6667"/>
  <object id="571" x="582.667" y="456" width="16" height="14.6667"/>
  <object id="572" x="201.333" y="328" width="14.6667" height="49.3333"/>
  <object id="573" x="233.333" y="393.333" width="38.6667" height="17.3333"/>
  <object id="574" x="296" y="365.333" width="45.3333" height="8"/>
  <object id="575" x="326.667" y="324" width="8" height="41.3333"/>
  <object id="576" x="336" y="329.333" width="34.6667" height="12"/>
  <object id="577" x="560" y="422.667" width="166.667" height="20"/>
  <object id="578" x="998.667" y="581.333" width="8" height="12"/>
  <object id="579" x="1194.67" y="617.333" width="14.6667" height="13.3333"/>
  <object id="580" x="1452" y="621.333" width="12" height="16"/>
  <object id="581" x="269.333" y="554.667" width="72" height="1034.67"/>
  <object id="582" x="350.667" y="1520" width="1277.33" height="70.6667"/>
  <object id="583" x="774.667" y="1594.67" width="69.3333" height="576"/>
  <object id="584" x="872" y="1705.33" width="13.3333" height="168"/>
  <object id="585" x="905.333" y="1642.67" width="13.3333" height="81.3333"/>
  <object id="586" x="928" y="1638.67" width="56" height="14.6667"/>
  <object id="587" x="970.667" y="1610.67" width="48" height="16"/>
  <object id="588" x="904" y="1869.33" width="16" height="40"/>
  <object id="589" x="936" y="1898.67" width="14.6667" height="105.333"/>
  <object id="590" x="906.667" y="1998.67" width="8" height="100"/>
  <object id="591" x="786.667" y="2280" width="54.6667" height="306.667"/>
  <object id="592" x="658.667" y="2506.67" width="53.3333" height="518.667"/>
  <object id="593" x="710.667" y="2514.67" width="74.6667" height="60"/>
  <object id="594" x="334.667" y="2534.67" width="5.33333" height="16"/>
  <object id="595" x="396" y="2572" width="40" height="13.3333"/>
  <object id="596" x="433.333" y="2573.33" width="2.66667" height="48"/>
  <object id="597" x="440" y="2601.33" width="30.6667" height="14.6667"/>
  <object id="598" x="461.333" y="2608" width="9.33333" height="41.3333"/>
  <object id="599" x="481.333" y="2640" width="21.3333" height="13.3333"/>
  <object id="600" x="485.333" y="2661.33" width="57.3333" height="18.6667"/>
  <object id="601" x="586.667" y="2701.33" width="49.3333" height="4"/>
  <object id="602" x="622.667" y="2700" width="10.6667" height="233.333"/>
  <object id="603" x="553.333" y="2917.33" width="70.6667" height="16"/>
  <object id="604" x="424" y="2989.33" width="106.667" height="9.33333"/>
  <object id="605" x="525.333" y="2957.33" width="44" height="8"/>
  <object id="606" x="1006.67" y="2828" width="70.6667" height="50.6667"/>
  <object id="607" x="1034.67" y="2858.67" width="169.333" height="168"/>
  <object id="608" x="909.333" y="2762.67" width="37.3333" height="109.333"/>
  <object id="609" x="1034.67" y="1646.67" width="41.3333" height="1094.67"/>
  <object id="610" x="1054.67" y="1637.33" width="584" height="32"/>
  <object id="612" x="1150.67" y="1662.67" width="476" height="32"/>
  <object id="613" x="1542.67" y="1742.67" width="18.6667" height="108"/>
  <object id="614" x="1552" y="1858.67" width="40" height="2.66667"/>
  <object id="615" x="1408" y="1857.17" width="50.6667" height="5.33333"/>
  <object id="616" x="1517.33" y="2920" width="10.6667" height="45.3333"/>
  <object id="617" x="1545.33" y="2789.33" width="16" height="138.667"/>
  <object id="618" x="1414.67" y="2792" width="16" height="110.667"/>
  <object id="619" x="1452" y="2766.67" width="6.66667" height="41.3333"/>
  <object id="620" x="1480" y="2762.67" width="16" height="8"/>
  <object id="621" x="1517.33" y="2796" width="17.3333" height="17.3333"/>
  <object id="622" x="1356" y="2758.67" width="38.6667" height="21.3333"/>
  <object id="623" x="1392" y="2764" width="6.66667" height="273.333"/>
  <object id="624" x="1289.33" y="2700" width="18.6667" height="72"/>
  <object id="625" x="1133.33" y="2428" width="68" height="417.333"/>
  <object id="626" x="1132" y="2278.67" width="42.6667" height="129.333"/>
  <object id="627" x="1129.33" y="1705.33" width="17.3333" height="270.667"/>
  <object id="628" x="1149.33" y="1961.33" width="90.6667" height="16"/>
  <object id="629" x="1290.67" y="1966.67" width="77.3333" height="17.3333"/>
  <object id="630" x="1378.67" y="1868" width="22.6667" height="429.333"/>
  <object id="631" x="1325.33" y="2118.67" width="52" height="186.667"/>
  <object id="632" x="1170.67" y="2280" width="169.333" height="25.3333"/>
  <object id="633" x="1452" y="2000" width="12" height="69.3333"/>
  <object id="634" x="1386.67" y="1737.33" width="13.3333" height="70.6667"/>
  <object id="635" x="1462.67" y="1800" width="32" height="20"/>
  <object id="636" x="1482.67" y="1801.33" width="6.66667" height="49.6667"/>
  <object id="637" x="1464" y="1980" width="142.667" height="10.6667"/>
  <object id="638" x="1513.33" y="2057.33" width="8" height="342.667"/>
  <object id="639" x="1209.33" y="2404" width="320" height="6.66667"/>
  <object id="640" x="1381.33" y="2568" width="18.6667" height="120"/>
  <object id="641" x="1300" y="2689.33" width="100" height="8"/>
  <object id="642" x="1401.33" y="2562.67" width="204" height="6.66667"/>
  <object id="643" x="325.333" y="1828" width="16" height="85.3333"/>
  <object id="644" x="348" y="1890.67" width="29.3333" height="16"/>
  <object id="645" x="437.333" y="1904" width="124" height="8"/>
  <object id="646" x="553.333" y="1901.33" width="9.33333" height="368"/>
  <object id="647" x="568" y="2250.67" width="314.667" height="13.3333"/>
  <object id="648" x="941.333" y="2186.67" width="10.6667" height="73.3333"/>
  <object id="649" x="852" y="2165.33" width="76" height="14.6667"/>
  <object id="650" x="616" y="1838.67" width="18.6667" height="333.333"/>
  <object id="651" x="625.333" y="2165.33" width="162.667" height="10.6667"/>
  <object id="652" x="341.333" y="1824" width="281.333" height="8"/>
  <object id="653" x="480" y="824" width="116" height="9.33333"/>
  <object id="654" x="596" y="806.667" height="22.6667"/>
  <object id="655" x="612" y="773.333" width="14.6667" height="25.3333"/>
  <object id="656" x="650.667" y="746.667" width="10.6667" height="12"/>
  <object id="657" x="682" y="714.5" width="14.5" height="20.5"/>
  <object id="658" x="697" y="702" width="832" height="5"/>
  <object id="659" x="926" y="2743" width="152" height="11"/>
  <object id="660" x="260" y="2053.33" width="78.6667" height="78.6667"/>
  <object id="661" x="205.333" y="2857.33" width="69.3333" height="77.3333"/>
  <object id="662" x="454.667" y="2829.33" width="76" height="72"/>
  <object id="697" x="227.75" y="2627.75" width="21" height="117.75"/>
  <object id="698" x="263.75" y="2596.75" width="15.5" height="16.5"/>
  <object id="699" x="293" y="2629.5" width="17.5" height="54.25"/>
 </objectgroup>
 <objectgroup id="5" name="eventi">
  <object id="675" name="gdf_grotta_vulcano_2f_1" x="1408" y="800">
   <properties>
    <property name="condizione" value="gdf_boss_grotta_vulcano_sconfitto"/>
    <property name="direzione" value="sud"/>
    <property name="gate" type="bool" value="true"/>
    <property name="id" value="gdf_grotta_vulcano_2f_1"/>
    <property name="noTestBypass" type="bool" value="true"/>
    <property name="sprite" value="GDF_GRUNT_SPRITE"/>
    <property name="type" value="trainer"/>
    <property name="vista" type="int" value="5"/>
   </properties>
   <point/>
  </object>
  <object id="676" name="gdf_grotta_vulcano_2f_2" x="1162" y="1184">
   <properties>
    <property name="condizione" value="gdf_boss_grotta_vulcano_sconfitto"/>
    <property name="direzione" value="sud"/>
    <property name="gate" type="bool" value="true"/>
    <property name="id" value="gdf_grotta_vulcano_2f_2"/>
    <property name="noTestBypass" type="bool" value="true"/>
    <property name="sprite" value="GDF_GRUNT_SPRITE"/>
    <property name="type" value="trainer"/>
    <property name="vista" type="int" value="5"/>
   </properties>
   <point/>
  </object>
  <object id="677" name="gdf_grotta_vulcano_2f_3" x="1268" y="569">
   <properties>
    <property name="condizione" value="gdf_boss_grotta_vulcano_sconfitto"/>
    <property name="direzione" value="sud"/>
    <property name="gate" type="bool" value="true"/>
    <property name="id" value="gdf_grotta_vulcano_2f_3"/>
    <property name="noTestBypass" type="bool" value="true"/>
    <property name="sprite" value="GDF_GRUNT_SPRITE"/>
    <property name="type" value="trainer"/>
    <property name="vista" type="int" value="5"/>
   </properties>
   <point/>
  </object>
  <object id="678" name="gdf_grotta_vulcano_2f_4" x="879" y="2623">
   <properties>
    <property name="condizione" value="gdf_boss_grotta_vulcano_sconfitto"/>
    <property name="direzione" value="sud"/>
    <property name="gate" type="bool" value="true"/>
    <property name="id" value="gdf_grotta_vulcano_2f_4"/>
    <property name="noTestBypass" type="bool" value="true"/>
    <property name="sprite" value="GDF_GRUNT_SPRITE"/>
    <property name="type" value="trainer"/>
    <property name="vista" type="int" value="5"/>
   </properties>
   <point/>
  </object>
  <object id="679" name="gdf_grotta_vulcano_2f_5" x="494.75" y="1947.25">
   <properties>
    <property name="condizione" value="gdf_boss_grotta_vulcano_sconfitto"/>
    <property name="direzione" value="sud"/>
    <property name="gate" type="bool" value="true"/>
    <property name="id" value="gdf_grotta_vulcano_2f_5"/>
    <property name="noTestBypass" type="bool" value="true"/>
    <property name="sprite" value="GDF_GRUNT_SPRITE"/>
    <property name="type" value="trainer"/>
    <property name="vista" type="int" value="5"/>
   </properties>
   <point/>
  </object>
  <object id="680" name="gdf_grotta_vulcano_2f_6" x="374" y="2199">
   <properties>
    <property name="condizione" value="gdf_boss_grotta_vulcano_sconfitto"/>
    <property name="direzione" value="est"/>
    <property name="gate" type="bool" value="true"/>
    <property name="id" value="gdf_grotta_vulcano_2f_6"/>
    <property name="noTestBypass" type="bool" value="true"/>
    <property name="sprite" value="GDF_GRUNT_SPRITE"/>
    <property name="type" value="trainer"/>
    <property name="vista" type="int" value="5"/>
   </properties>
   <point/>
  </object>
  <object id="681" name="oggetto_gv2f_masterball" x="1584" y="1206">
   <properties>
    <property name="contenuto" value="masterball"/>
    <property name="id" value="oggetto_gv2f_masterball"/>
    <property name="quantita" type="int" value="1"/>
    <property name="type" value="oggetto"/>
   </properties>
   <point/>
  </object>
  <object id="682" name="oggetto_gv2f_mt_fireblast" x="174" y="568">
   <properties>
    <property name="contenuto" value="mt_fire_blast"/>
    <property name="id" value="oggetto_gv2f_mt_fireblast"/>
    <property name="quantita" type="int" value="1"/>
    <property name="type" value="oggetto"/>
   </properties>
   <point/>
  </object>
  <object id="683" name="oggetto_gv2f_iperpozione" x="1362" y="635">
   <properties>
    <property name="contenuto" value="iperpozione"/>
    <property name="id" value="oggetto_gv2f_iperpozione"/>
    <property name="quantita" type="int" value="1"/>
    <property name="type" value="oggetto"/>
   </properties>
   <point/>
  </object>
  <object id="684" name="oggetto_gv2f_revitalizzante" x="1551" y="1207">
   <properties>
    <property name="contenuto" value="revitalizzante"/>
    <property name="id" value="oggetto_gv2f_revitalizzante"/>
    <property name="quantita" type="int" value="1"/>
    <property name="type" value="oggetto"/>
   </properties>
   <point/>
  </object>
  <object id="687" name="oggetto_gv2f_rarecandy" x="1519" y="1201">
   <properties>
    <property name="contenuto" value="rarecandy"/>
    <property name="id" value="oggetto_gv2f_rarecandy"/>
    <property name="quantita" type="int" value="1"/>
    <property name="type" value="oggetto"/>
   </properties>
   <point/>
  </object>
  <object id="688" name="spawn_da_1f_a" x="319.333" y="2719.33">
   <properties>
    <property name="id" value="spawn_2f_a"/>
    <property name="type" value="spawn"/>
   </properties>
   <point/>
  </object>
  <object id="689" name="warp_grotta_vulcano_1f_a" x="268.667" y="2678.67">
   <properties>
    <property name="destinazione" value="grotta_vulcano"/>
    <property name="spawn_id" value="da_grotta_vulcano_2f_a"/>
    <property name="type" value="warp"/>
   </properties>
   <point/>
  </object>
  <object id="690" name="spawn_da_1f_b" x="302" y="312">
   <properties>
    <property name="id" value="spawn_2f_b"/>
    <property name="type" value="spawn"/>
   </properties>
   <point/>
  </object>
  <object id="691" name="warp_grotta_vulcano_1f_b" x="304" y="348">
   <properties>
    <property name="destinazione" value="grotta_vulcano"/>
    <property name="spawn_id" value="da_grotta_vulcano_2f_b"/>
    <property name="type" value="warp"/>
   </properties>
   <point/>
  </object>
  <object id="692" name="spawn_da_1f_c" x="1460" y="2873">
   <properties>
    <property name="id" value="spawn_2f_c"/>
    <property name="type" value="spawn"/>
   </properties>
   <point/>
  </object>
  <object id="693" name="warp_grotta_vulcano_1f_c" x="1490" y="2866">
   <properties>
    <property name="destinazione" value="grotta_vulcano"/>
    <property name="spawn_id" value="da_grotta_vulcano_2f_c"/>
    <property name="type" value="warp"/>
   </properties>
   <point/>
  </object>
  <object id="696" name="oggetto_gv2f_antiparalisi" x="1585.33" y="1236">
   <properties>
    <property name="contenuto" value="antiparalisi"/>
    <property name="id" value="oggetto_gv2f_antiparalisi"/>
    <property name="quantita" type="int" value="1"/>
    <property name="type" value="oggetto"/>
   </properties>
   <point/>
  </object>
 </objectgroup>
</map>
