<?xml version="1.0" encoding="UTF-8"?>
<map version="1.10" tiledversion="1.12.2" orientation="orthogonal" renderorder="right-down" width="55" height="100" tilewidth="32" tileheight="32" infinite="0" nextlayerid="6" nextobjectid="524">
 <tileset firstgid="1" source="../Caves.tsj"/>
 <tileset firstgid="1593" source="../lava_animata_v2.tsj"/>
 <tileset firstgid="1785" source="../Waterfalllava.tsj"/>
 <tileset firstgid="1789" source="../Waterfall bottomLava.tsj"/>
 <tileset firstgid="1793" source="../Waterfall crestLava.tsj"/>
 <tileset firstgid="1797" source="../Game Boy Advance - Pokemon FireRed _ LeafGreen - Maps (Towns, Buildings, Etc.) - Rocket Hideout.tsj"/>
 <tileset firstgid="2769" source="../Interior_general_32.tsj"/>
 <tileset firstgid="4777" source="../Dungeon floor.tsj"/>
 <tileset firstgid="4781" source="../Dungeon wall.tsj"/>
 <tileset firstgid="4785" source="../Factory interior.tsj"/>
 <tileset firstgid="5009" source="../../outside.tsx"/>
 <layer id="1" name="ground" width="55" height="100">
  <data encoding="csv">
491,491,491,491,491,491,491,491,491,491,491,491,491,491,491,491,491,491,491,491,491,491,491,491,491,491,491,491,491,491,491,491,491,491,491,491,491,491,491,491,491,491,491,491,491,491,491,491,491,491,491,491,491,491,491,
491,491,491,491,491,491,491,491,491,491,491,491,491,491,491,491,491,491,491,491,491,491,491,491,491,491,491,491,491,491,491,491,491,491,491,491,491,491,491,491,491,491,491,491,491,491,491,491,491,491,491,491,491,491,491,
491,491,491,491,491,491,491,491,491,491,491,491,491,491,491,491,491,491,491,491,491,491,491,491,491,491,491,491,491,491,491,491,491,491,491,491,491,491,491,491,491,491,491,491,491,491,491,491,491,491,491,491,491,491,491,
491,491,491,491,491,491,491,491,491,491,491,491,491,491,491,491,491,491,491,491,491,491,491,491,491,491,491,491,491,491,491,491,491,491,491,491,491,491,491,491,491,491,491,491,491,491,491,491,491,491,491,491,491,491,491,
491,491,491,491,491,491,491,491,491,491,491,491,491,491,491,491,491,491,491,491,491,491,491,491,491,491,491,491,491,491,491,491,491,491,491,491,491,491,491,491,491,491,491,491,491,491,491,491,491,491,491,491,491,491,491,
491,491,491,491,491,491,491,491,491,491,491,491,491,491,491,491,491,491,491,491,491,491,491,491,491,491,491,491,491,491,491,491,491,491,491,491,491,491,491,491,491,491,491,491,491,491,491,491,491,491,491,491,491,491,491,
491,491,491,491,491,491,491,491,491,491,491,491,491,491,491,491,491,491,491,491,491,491,491,491,491,491,491,491,491,491,491,491,491,491,491,491,491,491,491,491,491,491,491,491,491,491,491,491,491,491,491,491,491,491,491,
491,491,491,491,491,491,491,491,491,491,491,491,491,491,491,491,491,491,491,491,491,491,491,491,491,491,491,491,491,491,491,491,491,491,491,491,491,491,491,491,491,491,491,491,491,491,491,491,491,491,491,491,491,491,491,
491,491,491,491,491,491,491,491,491,491,491,491,491,491,491,491,491,491,491,491,491,491,491,491,491,491,491,491,491,491,491,491,491,491,491,491,491,491,491,491,491,491,491,491,491,491,491,491,491,491,491,491,491,491,491,
491,491,491,491,491,491,491,491,491,491,491,491,491,491,491,491,491,491,491,491,491,491,491,491,491,491,491,491,491,491,491,491,491,491,491,491,491,491,491,491,491,491,491,491,491,491,491,491,491,491,491,491,491,491,491,
491,491,491,491,491,491,491,491,491,491,491,491,491,491,491,491,491,491,491,491,491,491,491,491,491,491,491,491,491,491,491,491,491,491,491,491,491,491,491,491,491,491,491,491,491,491,491,491,491,491,491,491,491,491,491,
491,491,491,491,491,491,491,491,491,491,491,491,491,491,491,491,491,491,491,491,491,491,491,491,491,491,491,491,491,491,491,491,491,491,491,491,491,491,491,491,491,491,491,491,491,491,491,491,491,491,491,491,491,491,491,
491,491,491,491,491,491,491,491,491,491,491,491,491,491,491,491,491,491,491,491,491,491,491,491,491,491,491,491,491,491,491,491,491,491,491,491,491,491,491,491,491,491,491,491,491,491,491,491,491,491,491,491,491,491,491,
491,491,491,491,491,491,491,491,491,491,491,491,491,491,491,491,491,491,491,491,491,491,491,491,491,491,491,491,491,491,491,491,491,491,491,491,491,491,491,491,491,491,491,491,491,491,491,491,491,491,491,491,491,491,491,
491,491,491,491,491,491,491,491,491,491,491,491,491,491,491,491,491,491,491,491,491,491,491,491,491,491,491,491,491,491,491,491,491,491,491,491,491,491,491,491,491,491,491,491,491,491,491,491,491,491,491,491,491,491,491,
491,491,491,491,491,491,491,491,491,491,491,491,491,491,491,491,491,491,491,491,491,491,491,491,491,491,491,491,491,491,491,491,491,491,491,491,491,491,491,491,491,491,491,491,491,491,491,491,491,491,491,491,491,491,491,
491,491,491,491,491,491,491,491,491,491,491,491,491,491,491,491,491,491,491,491,491,491,491,491,491,491,491,491,491,491,491,491,491,491,491,491,491,491,491,491,491,491,491,491,491,491,491,491,491,491,491,491,491,491,491,
491,491,491,491,491,491,491,491,491,491,491,491,491,491,491,491,491,491,491,491,491,491,491,491,491,491,491,491,491,491,491,491,491,491,491,491,491,491,491,491,491,491,491,491,491,491,491,491,491,491,491,491,491,491,491,
491,491,491,491,491,491,491,491,491,491,491,491,491,491,491,491,491,491,491,491,491,491,491,491,491,491,491,491,491,491,491,491,491,491,491,491,491,491,491,491,491,491,491,491,491,491,491,491,491,491,491,491,491,491,491,
491,491,491,491,491,491,491,491,491,491,491,491,491,491,491,491,491,491,491,491,491,491,491,491,491,491,491,491,491,491,491,491,491,491,491,491,491,491,491,491,491,491,491,491,491,491,491,491,491,491,491,491,491,491,491,
491,491,491,491,491,491,491,491,491,491,491,491,491,491,491,491,491,491,491,491,491,491,491,491,491,491,491,491,491,491,491,491,491,491,491,491,491,491,491,491,491,491,491,491,491,491,491,491,491,491,491,491,491,491,491,
491,491,491,491,491,491,491,491,491,491,491,491,491,491,491,491,491,491,491,491,491,491,491,491,491,491,491,491,491,491,491,491,491,491,491,491,491,491,491,491,491,491,491,491,491,491,491,491,491,491,491,491,491,491,491,
491,491,491,491,491,491,491,491,491,491,491,491,491,491,491,491,491,491,491,491,491,491,491,491,491,491,491,491,491,491,491,491,491,491,491,491,491,491,491,491,491,491,491,491,491,491,491,491,491,491,491,491,491,491,491,
491,491,491,491,491,491,491,491,491,491,491,491,491,491,491,491,491,491,491,491,491,491,491,491,491,491,491,491,491,491,491,491,491,491,491,491,491,491,491,491,491,491,491,491,491,491,491,491,491,491,491,491,491,491,491,
491,491,491,491,491,491,491,491,491,491,491,491,491,491,491,491,491,491,491,491,491,491,491,491,491,491,491,491,491,491,491,491,491,491,491,491,491,491,491,491,491,491,491,491,491,491,491,491,491,491,491,491,491,491,491,
491,491,491,491,491,491,491,491,491,491,491,491,491,491,491,491,491,491,491,491,491,491,491,491,491,491,491,491,491,491,491,491,491,491,491,491,491,491,491,491,491,491,491,491,491,491,491,491,491,491,491,491,491,491,491,
491,491,491,491,491,491,491,491,491,491,491,491,491,491,491,491,491,491,491,491,491,491,491,491,491,491,491,491,491,491,491,491,491,491,491,491,491,491,491,491,491,491,491,491,491,491,491,491,491,491,491,491,491,491,491,
491,491,491,491,491,491,491,491,491,491,491,491,491,491,491,491,491,491,491,491,491,491,491,491,491,491,491,491,491,491,491,491,491,491,491,491,491,491,491,491,491,491,491,491,491,491,491,491,491,491,491,491,491,491,491,
491,491,491,491,491,491,491,491,491,491,491,491,491,491,491,491,491,491,491,491,491,491,491,491,491,491,491,491,491,491,491,491,491,491,491,491,491,491,491,491,491,491,491,491,491,491,491,491,491,491,491,491,491,491,491,
491,491,491,491,491,491,491,491,491,491,491,491,491,491,491,491,491,491,491,491,491,491,491,491,491,491,491,491,491,491,491,491,491,491,491,491,491,491,491,491,491,491,491,491,491,491,491,491,491,491,491,491,491,491,491,
491,491,491,491,491,491,491,491,491,491,491,491,491,491,491,491,491,491,491,491,491,491,491,491,491,491,491,491,491,491,491,491,491,491,491,491,491,491,491,491,491,491,491,491,491,491,491,491,491,491,491,491,491,491,491,
491,491,491,491,491,491,491,491,491,491,491,491,491,491,491,491,491,491,491,491,491,491,491,491,491,491,491,491,491,491,491,491,491,491,491,491,491,491,491,491,491,491,491,491,491,491,491,491,491,491,491,491,491,491,491,
491,491,491,491,491,491,491,491,491,491,491,491,491,491,491,491,491,491,491,491,491,491,491,491,491,491,491,491,491,491,491,491,491,491,491,491,491,491,491,491,491,491,491,491,491,491,491,491,491,491,491,491,491,491,491,
491,491,491,491,491,491,491,491,491,491,491,491,491,491,491,491,491,491,491,491,491,491,491,491,491,491,491,491,491,491,491,491,491,491,491,491,491,491,491,491,491,491,491,491,491,491,491,491,491,491,491,491,491,491,491,
491,491,491,491,491,491,491,491,491,491,491,491,491,491,491,491,491,491,491,491,491,491,491,491,491,491,491,491,491,491,491,491,491,491,491,491,491,491,491,491,491,491,491,491,491,491,491,491,491,491,491,491,491,491,491,
491,491,491,491,491,491,491,491,491,491,491,491,491,491,491,491,491,491,491,491,491,491,491,491,491,491,491,491,491,491,491,491,491,491,491,491,491,491,491,491,491,491,491,491,491,491,491,491,491,491,491,491,491,491,491,
491,491,491,491,491,491,491,491,491,491,491,491,491,491,491,491,491,491,491,491,491,491,491,491,491,491,491,491,491,491,491,491,491,491,491,491,491,491,491,491,491,491,491,491,491,491,491,491,491,491,491,491,491,491,491,
491,491,491,491,491,491,491,491,491,491,491,491,491,491,491,491,491,491,491,491,491,491,491,491,491,491,491,491,491,491,491,491,491,491,491,491,491,491,491,491,491,491,491,491,491,491,491,491,491,491,491,491,491,491,491,
491,491,491,491,491,491,491,491,491,491,491,491,491,491,491,491,491,491,491,491,491,491,491,491,491,491,491,491,491,491,491,491,491,491,491,491,491,491,491,491,491,491,491,491,491,491,491,491,491,491,491,491,491,491,491,
491,491,491,491,491,491,491,491,491,491,491,491,491,491,491,491,491,491,491,491,491,491,491,491,491,491,491,491,491,491,491,491,491,491,491,491,491,491,491,491,491,491,491,491,491,491,491,491,491,491,491,491,491,491,491,
491,491,491,491,491,491,491,491,491,491,491,491,491,491,491,491,491,491,491,491,491,491,491,491,491,491,491,491,491,491,491,491,491,491,491,491,491,491,491,491,491,491,491,491,491,491,491,491,491,491,491,491,491,491,491,
491,491,491,491,491,491,491,491,491,491,491,491,491,491,491,491,491,491,491,491,491,491,491,491,491,491,491,491,491,491,491,491,491,491,491,491,491,491,491,491,491,491,491,491,491,491,491,491,491,491,491,491,491,491,491,
491,491,491,491,491,491,491,491,491,491,491,491,491,491,491,491,491,491,491,491,491,491,491,491,491,491,491,491,491,491,491,491,491,491,491,491,491,491,491,491,491,491,491,491,491,491,491,491,491,491,491,491,491,491,491,
491,491,491,491,491,491,491,491,491,491,491,491,491,491,491,491,491,491,491,491,491,491,491,491,491,491,491,491,491,491,491,491,491,491,491,491,491,491,491,491,491,491,491,491,491,491,491,491,491,491,491,491,491,491,491,
491,491,491,491,491,491,491,491,491,491,491,491,491,491,491,491,491,491,491,491,491,491,491,491,491,491,491,491,491,491,491,491,491,491,491,491,491,491,491,491,491,491,491,491,491,491,491,491,491,491,491,491,491,491,491,
491,491,491,491,491,491,491,491,491,491,491,491,491,491,491,491,491,491,491,491,491,491,491,491,491,491,491,491,491,491,491,491,491,491,491,491,491,491,491,491,491,491,491,491,491,491,491,491,491,491,491,491,491,491,491,
491,491,491,491,491,491,491,491,491,491,491,491,491,491,491,491,491,491,491,491,491,491,491,491,491,491,491,491,491,491,491,491,491,491,491,491,491,491,491,491,491,491,491,491,491,491,491,491,491,491,491,491,491,491,491,
491,491,491,491,491,491,491,491,491,491,491,491,491,491,491,491,491,491,491,491,491,491,491,491,491,491,491,491,491,491,491,491,491,491,491,491,491,491,0,491,491,491,491,491,491,491,491,491,491,491,491,491,491,491,491,
491,491,491,491,491,491,491,491,491,491,491,491,491,491,491,491,491,491,491,491,491,491,491,491,491,491,491,491,491,491,491,491,491,491,491,491,491,491,0,491,491,491,491,491,491,491,491,491,491,491,491,491,491,491,491,
491,491,491,491,491,491,491,491,491,491,491,491,491,491,491,491,491,491,491,491,491,491,491,491,491,491,491,491,491,491,491,491,491,491,491,491,491,491,491,491,491,491,491,491,491,491,491,491,491,491,491,491,491,491,491,
491,491,491,491,491,491,491,491,491,491,491,491,491,491,491,491,491,491,491,491,491,491,491,491,491,491,491,491,491,491,491,491,491,491,491,491,491,491,491,491,491,491,491,491,491,491,491,491,491,491,491,491,491,491,491,
491,491,491,491,491,491,491,491,491,491,491,491,491,491,491,491,491,491,491,491,491,491,491,491,491,491,491,491,491,491,491,491,491,491,491,491,491,491,491,491,491,491,491,491,491,491,491,491,491,491,491,491,491,491,491,
491,491,491,491,491,491,491,491,491,491,491,491,491,491,491,491,491,491,491,491,491,491,491,491,491,491,491,491,491,491,491,491,491,491,491,491,491,491,491,491,491,491,491,491,491,491,491,491,491,491,491,491,491,491,491,
491,491,491,491,491,491,491,491,491,491,491,491,491,491,491,491,491,491,491,491,491,491,491,491,491,491,491,491,491,491,491,491,491,491,491,491,491,491,491,491,491,491,491,491,491,491,491,491,491,491,491,491,491,491,491,
491,491,491,491,491,491,491,491,491,491,491,491,491,491,491,491,491,491,491,491,491,491,491,491,491,491,491,491,491,491,491,491,491,491,491,491,491,491,491,491,491,491,491,491,491,491,491,491,491,491,491,491,491,491,491,
491,491,491,491,491,491,491,491,491,491,491,491,491,491,491,491,491,491,491,491,491,491,491,491,491,491,491,491,491,491,491,491,491,491,491,491,491,491,491,491,491,491,491,491,491,491,491,491,491,491,491,491,491,491,491,
491,491,491,491,491,491,491,491,491,491,491,491,491,491,491,491,491,491,491,491,491,491,491,491,491,491,491,491,491,491,491,491,491,491,491,491,491,491,491,491,491,491,491,491,491,491,491,491,491,491,491,491,491,491,491,
491,491,491,491,491,491,491,491,491,491,491,491,491,491,491,491,491,491,491,491,491,491,491,491,491,491,491,491,491,491,491,491,491,491,491,491,491,491,491,491,491,491,491,491,491,491,491,491,491,491,491,491,491,491,491,
491,491,491,491,491,491,491,491,491,491,491,491,491,491,491,491,491,491,491,491,491,491,491,491,491,491,491,491,491,491,491,491,491,491,491,491,491,491,491,491,491,491,491,491,491,491,491,491,491,491,491,491,491,491,491,
491,491,491,491,491,491,491,491,491,491,491,491,491,491,491,491,491,491,491,491,491,491,491,491,491,491,491,491,491,491,491,491,491,491,491,491,491,491,491,491,491,491,491,491,491,491,491,491,491,491,491,491,491,491,491,
491,491,491,491,491,491,491,491,491,491,491,491,491,491,491,491,491,491,491,491,491,491,491,491,491,491,491,491,491,491,491,491,491,491,491,491,491,491,491,491,491,491,491,491,491,491,491,491,491,491,491,491,491,491,491,
491,491,491,491,491,491,491,491,491,491,491,491,491,491,491,491,491,491,491,491,491,491,491,491,491,491,491,491,491,491,491,491,491,491,491,491,491,491,491,491,491,491,491,491,491,491,491,491,491,491,491,491,491,491,491,
491,491,491,491,491,491,491,491,491,491,491,491,491,491,491,491,491,491,491,491,491,491,491,491,491,491,491,491,491,491,491,491,491,491,491,491,491,491,491,491,491,491,491,491,491,491,491,491,491,491,491,491,491,491,491,
491,491,491,491,491,491,491,491,491,491,491,491,491,491,491,491,491,491,491,491,491,491,491,491,491,491,491,491,491,491,491,491,491,491,491,491,491,491,491,491,491,491,491,491,491,491,491,491,491,491,491,491,491,491,491,
491,491,491,491,491,491,491,491,491,491,491,491,491,491,491,491,491,491,491,491,491,491,491,491,491,491,491,491,491,491,491,491,491,491,491,491,491,491,491,491,491,491,491,491,491,491,491,491,491,491,491,491,491,491,491,
491,491,491,491,491,491,491,491,491,491,491,491,491,491,491,491,491,491,491,491,491,491,491,491,491,491,491,491,491,491,491,491,491,491,491,491,491,491,491,491,491,491,491,491,491,491,491,491,491,491,491,491,491,491,491,
491,491,491,491,491,491,491,491,491,491,491,491,491,491,491,491,491,491,491,491,491,491,491,491,491,491,491,491,491,491,491,491,491,491,491,491,491,491,491,491,491,491,491,491,491,491,491,491,491,491,491,491,491,491,491,
491,491,491,491,491,491,491,491,491,491,491,491,491,491,491,491,491,491,491,491,491,491,491,491,491,491,491,491,491,491,491,491,491,491,491,491,491,491,491,491,491,491,491,491,491,491,491,491,491,491,491,491,491,491,491,
491,491,491,491,491,491,491,491,491,491,491,491,491,491,491,491,491,491,491,491,491,491,491,491,491,491,491,491,491,491,491,491,491,491,491,491,491,491,491,491,491,491,491,491,491,491,491,491,491,491,491,491,491,491,491,
491,491,491,491,491,491,491,491,491,491,491,491,491,491,491,491,491,491,491,491,491,491,491,491,491,491,491,491,491,491,491,491,491,491,491,491,491,491,491,491,491,491,491,491,491,491,491,491,491,491,491,491,491,491,491,
491,491,491,491,491,491,491,491,491,491,491,491,491,491,491,491,491,491,491,491,491,491,491,491,491,491,491,491,491,491,491,491,491,491,491,491,491,491,491,491,491,491,491,491,491,491,491,491,491,491,491,491,491,491,491,
491,491,491,491,491,491,491,491,491,491,491,491,491,491,491,491,491,491,491,491,491,491,491,491,491,491,491,491,491,491,491,491,491,491,491,491,491,491,491,491,491,491,491,491,491,491,491,491,491,491,491,491,491,491,491,
491,491,491,491,491,491,491,491,491,491,491,491,491,491,491,491,491,491,491,491,491,491,491,491,491,491,491,491,491,491,491,491,491,491,491,491,491,491,491,491,491,491,491,491,491,491,491,491,491,491,491,491,491,491,491,
491,491,491,491,491,491,491,491,491,491,491,491,491,491,491,491,491,491,491,491,491,491,491,491,491,491,491,491,491,491,491,491,491,491,491,491,491,491,491,491,491,491,491,491,491,491,491,491,491,491,491,491,491,491,491,
491,491,491,491,491,491,491,491,491,491,491,491,491,491,491,491,491,491,491,491,491,491,491,491,491,491,491,491,491,491,491,491,491,491,491,491,491,491,491,491,491,491,491,491,491,491,491,491,491,491,491,491,491,491,491,
491,491,491,491,491,491,491,491,491,491,491,491,491,491,491,491,491,491,491,491,491,491,491,491,491,491,491,491,491,491,491,491,491,491,491,491,491,491,491,491,491,491,491,491,491,491,491,491,491,491,491,491,491,491,491,
491,491,491,491,491,491,491,491,491,491,491,491,491,491,491,491,491,491,491,491,491,491,491,491,491,491,491,491,491,491,491,491,491,491,491,491,491,491,491,491,491,491,491,491,491,491,491,491,491,491,491,491,491,491,491,
491,491,491,491,491,491,491,491,491,491,491,491,491,491,491,491,491,491,491,491,491,491,491,491,491,491,491,491,491,491,491,491,491,491,491,491,491,491,491,491,491,491,491,491,491,491,491,491,491,491,491,491,491,491,491,
491,491,491,491,491,491,491,491,491,491,491,491,491,491,491,491,491,491,491,491,491,491,491,491,491,491,491,491,491,491,491,491,491,491,491,491,491,491,491,491,491,491,491,491,491,491,491,491,491,491,491,491,491,491,491,
491,491,491,491,491,491,491,491,491,491,491,491,491,491,491,491,491,491,491,491,491,491,491,491,491,491,491,491,491,491,491,491,491,491,491,491,491,491,491,491,491,491,491,491,491,491,491,491,491,491,491,491,491,491,491,
491,491,491,491,491,491,491,491,491,491,491,491,491,491,491,491,491,491,491,491,491,491,491,491,491,491,491,491,491,491,491,491,491,491,491,491,491,491,491,491,491,491,491,491,491,491,491,491,491,491,491,491,491,491,491,
491,491,491,491,491,491,491,491,491,491,491,491,491,491,491,491,491,491,491,491,491,491,491,491,491,491,491,491,491,491,491,491,491,491,491,491,491,491,491,491,491,491,491,491,491,491,491,491,491,491,491,491,491,491,491,
491,491,491,491,491,491,491,491,491,491,491,491,491,491,491,491,491,491,491,491,491,491,491,491,491,491,491,491,491,491,491,491,491,491,491,491,491,491,491,491,491,491,491,491,491,491,491,491,491,491,491,491,491,491,491,
491,491,491,491,491,491,491,491,491,491,491,491,491,491,491,491,491,491,491,491,491,491,491,491,491,491,491,491,491,491,491,491,491,491,491,491,491,491,491,491,491,491,491,491,491,491,491,491,491,491,491,491,491,491,491,
491,491,491,491,491,491,491,491,491,491,491,491,491,491,491,491,491,491,491,491,491,491,491,491,491,491,491,491,491,491,491,491,491,491,491,491,491,491,491,491,491,491,491,491,491,491,491,491,491,491,491,491,491,491,491,
491,491,491,491,491,491,491,491,491,491,491,491,491,491,491,491,491,491,491,491,491,491,491,491,491,491,491,491,491,491,491,491,491,491,491,491,491,491,491,491,491,491,491,491,491,491,491,491,491,491,491,491,491,491,491,
491,491,491,491,491,491,491,491,491,491,491,491,491,491,491,491,491,491,491,491,491,491,491,491,491,491,491,491,491,491,491,491,491,491,491,491,491,491,491,491,491,491,491,491,491,491,491,491,491,491,491,491,491,491,491,
491,491,491,491,491,491,491,491,491,491,491,491,491,491,491,491,491,491,491,491,491,491,491,491,491,491,491,491,491,491,491,491,491,491,491,491,491,491,491,491,491,491,491,491,491,491,491,491,491,491,491,491,491,491,491,
491,491,491,491,491,491,491,491,491,491,491,491,491,491,491,491,491,491,491,491,491,491,491,491,491,491,491,491,491,491,491,491,491,491,491,491,491,491,491,491,491,491,491,491,491,491,491,491,491,491,491,491,491,491,491,
491,491,491,491,491,491,491,491,491,491,491,491,491,491,491,491,491,491,491,491,491,491,491,491,491,491,491,491,491,491,491,491,491,491,491,491,491,491,491,491,491,491,491,491,491,491,491,491,491,491,491,491,491,491,491,
491,491,491,491,491,491,491,491,491,491,491,491,491,491,491,491,491,491,491,491,491,491,491,491,491,491,491,491,491,491,491,491,491,491,491,491,491,491,491,491,491,491,491,491,491,491,491,491,491,491,491,491,491,491,491,
491,491,491,491,491,491,491,491,491,491,491,491,491,491,491,491,491,491,491,491,491,491,491,491,491,491,491,491,491,491,491,491,491,491,491,491,491,491,491,491,491,491,491,491,491,491,491,491,491,491,491,491,491,491,491,
491,491,491,491,491,491,491,491,491,491,491,491,491,491,491,491,491,491,491,491,491,491,491,491,491,491,491,491,491,491,491,491,491,491,491,491,491,491,491,491,491,491,491,491,491,491,491,491,491,491,491,491,491,491,491,
491,491,491,491,491,491,491,491,491,491,491,491,491,491,491,491,491,491,491,491,491,491,491,491,491,491,491,491,491,491,491,491,491,491,491,491,491,491,491,491,491,491,491,491,491,491,491,491,491,491,491,491,491,491,491,
491,491,491,491,491,491,491,491,491,491,491,491,491,491,491,491,491,491,491,491,491,491,491,491,491,491,491,491,491,491,491,491,491,491,491,491,491,491,491,491,491,491,491,491,491,491,491,491,491,491,491,491,491,491,491,
491,491,491,491,491,491,491,491,491,491,491,491,491,491,491,491,491,491,491,491,491,491,491,491,491,491,491,491,491,491,491,491,491,491,491,491,491,491,491,491,491,491,491,491,491,491,491,491,491,491,491,491,491,491,491,
491,491,491,491,491,491,491,491,491,491,491,491,491,491,491,491,491,491,491,491,491,491,491,491,491,491,491,491,491,491,491,491,491,491,491,491,491,491,491,491,491,491,491,491,491,491,491,491,491,491,491,491,491,491,491,
491,491,491,491,491,491,491,491,491,491,491,491,491,491,491,491,491,491,491,491,491,491,491,491,491,491,491,491,491,491,491,491,491,491,491,491,491,491,491,491,491,491,491,491,491,491,491,491,491,491,491,491,491,491,491,
491,491,491,491,491,491,491,491,491,491,491,491,491,491,491,491,491,491,491,491,491,491,491,491,491,491,491,491,491,491,491,491,491,491,491,491,491,491,491,491,491,491,491,491,491,491,491,491,491,491,491,491,491,491,491,
491,491,491,491,491,491,491,491,491,491,491,491,491,491,491,491,491,491,491,491,491,491,491,491,491,491,491,491,491,491,491,491,491,491,491,491,491,491,491,491,491,491,491,491,491,491,491,491,491,491,491,491,491,491,491
</data>
 </layer>
 <layer id="2" name="deco_sotto" width="55" height="100">
  <data encoding="csv">
335,346,346,346,346,346,346,346,346,346,346,346,346,346,346,346,346,346,346,346,346,346,346,346,346,346,346,346,346,346,336,1689,1690,1691,335,346,346,346,346,346,346,346,346,346,346,346,346,346,346,346,346,346,346,346,336,
339,335,346,346,346,346,346,346,346,346,346,346,346,346,346,346,346,346,346,346,346,346,346,346,346,346,346,346,346,336,337,1689,1690,1691,339,335,346,346,346,346,346,346,346,346,346,346,346,346,346,346,346,346,346,336,337,
339,339,335,346,346,346,346,346,346,346,346,346,346,346,346,346,346,346,346,346,346,346,346,346,346,346,346,346,336,337,337,1689,1690,1691,339,339,335,346,346,346,346,346,346,346,346,346,346,346,346,346,346,346,336,337,337,
339,339,339,335,346,346,346,346,346,346,346,346,346,346,346,346,346,346,346,346,346,346,346,346,346,346,346,336,337,337,337,1689,1690,1691,339,339,339,335,346,346,346,346,346,346,346,346,346,346,346,346,346,336,337,337,337,
339,339,339,339,335,346,346,346,346,346,346,346,346,346,346,346,346,346,346,346,346,346,346,346,346,346,346,337,337,337,337,1689,1690,1691,339,339,339,339,345,346,346,346,346,346,346,346,346,346,346,346,336,337,337,337,337,
339,339,339,339,339,0,0,0,0,0,0,0,0,0,0,0,0,0,0,0,0,0,0,0,0,0,339,337,337,337,337,1689,1690,1691,339,339,339,339,0,0,0,0,0,0,0,0,0,0,0,0,337,337,337,337,337,
339,339,339,339,339,0,0,0,0,0,0,0,0,0,0,0,0,0,0,0,0,0,0,0,0,0,339,337,337,337,337,1689,1690,1691,339,339,339,339,329,483,483,483,483,483,483,483,483,483,483,331,337,337,337,337,337,
339,339,339,339,339,0,0,0,0,0,0,0,0,0,0,0,0,0,0,0,0,0,0,0,0,0,339,337,337,337,337,1689,1690,1691,339,339,339,339,337,0,0,399,0,0,0,0,0,0,0,339,337,337,337,337,337,
339,339,339,339,342,0,0,0,0,0,0,0,0,0,0,0,0,0,0,0,0,0,0,0,0,0,339,337,337,337,337,1689,1690,1691,339,339,339,339,337,0,367,368,0,0,0,0,367,368,0,339,337,337,337,337,337,
339,339,339,339,339,346,346,346,346,346,346,346,346,346,346,346,346,346,346,346,346,346,364,346,346,346,347,337,337,337,337,1689,1690,1691,339,339,339,339,337,0,375,376,0,0,0,0,375,376,0,339,337,337,337,337,337,
339,339,339,339,339,0,0,0,0,0,0,0,0,0,0,0,0,0,0,0,0,0,0,0,0,0,0,337,337,337,337,1689,1690,1691,339,339,339,339,337,0,335,346,346,346,364,346,346,346,346,347,337,337,337,337,337,
339,339,339,339,339,0,0,0,0,0,0,0,0,0,0,0,0,0,0,0,0,0,0,0,0,0,0,337,337,337,337,1689,1690,1691,339,339,339,339,337,491,339,0,0,0,0,0,0,0,0,0,337,337,337,337,337,
339,339,339,339,339,0,329,483,483,483,483,483,483,483,483,483,483,483,483,483,483,483,483,483,483,483,331,337,337,337,337,1689,1690,1691,339,339,339,339,337,491,339,0,0,0,0,0,0,0,0,0,337,337,337,337,337,
339,339,339,339,339,0,337,0,0,0,0,0,0,0,0,0,0,0,0,0,0,0,0,0,0,0,339,337,337,337,337,1689,1690,1691,339,339,339,339,337,491,339,0,0,0,0,0,0,0,0,0,337,337,337,337,337,
339,339,339,339,339,0,345,346,346,364,346,346,346,346,346,346,346,346,346,346,346,346,346,346,346,346,347,337,337,337,345,1793,1793,1793,347,339,339,339,337,491,339,0,0,0,0,0,0,0,0,0,337,337,337,337,337,
339,339,339,339,339,0,0,0,0,0,0,0,0,0,0,0,0,0,0,0,0,0,0,0,0,0,0,337,337,345,346,1785,1785,1785,346,347,339,339,337,491,339,0,0,0,0,0,0,0,0,0,337,337,337,337,337,
339,339,339,339,339,0,329,483,483,483,483,483,483,483,483,483,483,483,483,483,483,483,483,483,483,483,331,337,345,346,346,1785,1785,1785,346,346,347,339,337,491,339,0,0,0,0,0,0,0,0,0,337,337,337,337,337,
339,339,339,339,339,0,345,346,346,364,346,346,346,346,346,346,346,346,346,346,346,346,346,346,336,491,339,345,346,346,346,1789,1789,1789,346,346,346,347,337,491,339,0,0,0,0,0,0,0,0,0,337,337,337,337,337,
339,339,339,339,339,0,0,0,0,0,0,0,0,0,0,0,0,0,0,0,0,0,0,0,337,491,339,1641,1642,1642,1642,1690,1690,1690,1642,1642,1642,1643,337,491,339,0,0,0,0,0,0,0,0,0,337,337,337,337,337,
339,339,339,339,339,0,329,483,483,483,483,483,483,483,483,483,483,483,483,483,483,483,483,483,483,491,339,1689,1690,1690,1690,1690,1690,1690,1690,1690,1690,1691,337,491,339,0,0,0,0,0,0,0,0,0,337,337,337,337,337,
339,339,339,339,339,382,337,0,0,0,0,0,0,0,0,0,0,0,0,0,0,0,0,0,0,0,339,1689,1690,1690,1690,1690,1690,1690,1690,1690,1690,1691,337,491,339,0,0,0,0,0,0,0,0,0,337,337,337,337,337,
339,339,339,339,339,0,345,346,346,346,346,346,346,346,346,346,346,346,346,346,346,346,346,364,346,346,347,1689,1690,1690,1690,1690,1690,1690,1690,1690,1690,1691,337,491,339,0,0,0,0,0,0,0,0,0,337,337,337,337,337,
339,339,339,339,339,0,0,0,0,0,0,0,0,0,0,0,0,0,0,0,0,0,0,0,0,382,0,1689,1690,1690,1690,1690,1690,1690,1690,1690,1690,1691,337,491,339,0,0,0,0,0,0,0,0,0,337,337,337,337,337,
339,339,339,339,339,0,0,329,483,483,483,483,483,483,483,483,483,483,483,483,483,483,483,483,483,483,483,483,483,483,483,483,483,483,483,483,483,483,483,491,339,0,0,0,0,0,0,0,0,0,337,337,337,337,337,
339,339,339,339,339,0,0,345,364,346,346,346,346,346,346,346,346,346,346,346,346,346,346,346,346,346,346,346,346,346,346,346,346,346,346,346,346,346,346,346,347,0,0,0,0,0,0,0,0,0,337,337,337,337,337,
339,339,339,339,339,0,0,0,0,0,0,0,0,0,0,0,0,0,0,0,0,0,0,0,0,0,339,1689,1690,1690,1690,1690,1690,1690,1691,337,0,0,0,0,0,0,0,0,0,0,0,0,0,0,337,337,337,337,337,
339,339,339,339,339,0,0,0,0,0,0,367,368,0,0,0,0,0,0,0,0,0,0,0,0,0,339,1689,1690,1690,1690,1690,1690,1690,1691,337,0,0,0,0,0,0,0,0,0,0,0,0,0,0,337,337,337,337,337,
339,339,339,339,339,0,0,0,0,0,0,375,376,0,0,0,0,0,0,0,0,0,0,399,0,0,339,1689,1690,1691,329,483,483,483,483,483,0,0,0,0,0,0,0,0,0,0,0,0,0,0,337,337,337,337,337,
339,339,339,339,339,0,0,0,0,0,0,0,0,0,0,0,0,0,0,0,0,0,0,0,0,0,339,1689,1690,1691,337,5957,0,0,0,0,0,0,0,0,0,0,0,0,0,0,0,0,0,0,337,337,337,337,337,
339,339,339,339,345,346,346,346,346,346,346,346,346,346,346,346,346,346,346,346,346,346,346,346,346,346,347,1793,1793,1793,345,346,346,346,346,346,346,346,346,346,346,346,346,346,364,346,346,346,346,346,337,337,337,337,337,
339,339,339,345,346,346,346,346,346,346,346,346,346,346,346,346,346,346,346,346,346,346,346,346,346,346,347,1785,1785,1785,345,346,347,491,491,491,491,491,491,491,491,491,491,491,491,345,346,346,346,346,337,337,337,337,337,
339,339,345,346,346,346,346,346,346,346,346,346,346,346,346,346,346,346,346,346,346,346,346,346,346,346,347,1785,1785,1785,345,346,346,364,364,346,346,346,346,346,346,346,346,346,346,346,346,346,346,346,337,337,337,337,337,
339,345,346,346,346,346,346,346,346,346,346,346,346,346,346,346,346,346,346,346,346,346,346,346,346,346,347,1789,1789,1789,345,346,346,364,364,346,346,346,346,346,346,346,346,346,346,346,346,346,346,346,337,337,337,337,337,
339,330,330,330,331,329,483,483,483,483,483,483,483,483,483,483,483,483,483,483,483,483,483,483,483,483,331,1689,1690,1691,0,0,0,0,0,0,0,0,0,0,0,0,0,0,0,0,0,0,0,0,337,337,337,337,337,
339,330,330,331,339,337,0,0,0,0,0,0,0,0,0,365,0,0,0,0,0,0,0,0,0,0,339,1689,1690,1691,0,0,0,0,0,0,0,0,0,0,0,0,0,0,0,0,0,0,0,0,337,337,337,337,337,
339,330,331,339,339,337,0,0,0,0,0,0,0,0,0,373,0,0,0,0,0,0,0,0,0,0,339,1689,1690,1691,0,0,0,0,0,0,0,0,0,0,0,0,0,0,0,0,0,0,382,0,337,337,337,337,337,
339,331,339,339,339,337,0,0,0,0,0,0,0,0,0,0,0,0,0,0,0,0,0,0,0,0,339,1689,1690,1691,0,0,0,0,0,0,0,0,0,0,0,0,0,0,0,0,0,0,0,0,337,337,337,337,337,
339,339,339,339,339,337,0,329,483,483,483,483,483,483,483,483,483,483,483,331,0,0,0,0,0,0,339,1689,1690,1691,329,483,483,483,483,483,483,483,483,483,483,483,483,483,483,483,331,0,0,0,337,337,337,337,337,
339,339,339,339,339,337,0,337,0,0,0,0,0,0,0,0,366,0,0,339,0,0,0,0,0,0,339,1689,1690,1691,337,329,483,483,483,483,483,483,483,483,483,483,483,483,483,331,339,0,0,0,337,337,337,337,337,
339,339,339,339,339,337,0,337,0,0,0,0,0,0,0,0,0,0,0,483,483,483,483,483,483,331,339,1689,1690,1691,337,337,329,483,483,483,483,483,483,483,483,483,483,483,331,339,339,0,0,0,337,337,337,337,337,
339,339,339,339,339,337,0,337,0,0,0,0,0,0,0,0,0,0,0,0,0,0,0,0,0,339,339,1689,1690,1691,337,337,337,329,483,483,483,483,483,483,483,483,483,331,339,339,339,0,0,0,337,337,337,337,337,
339,339,339,339,339,337,0,337,0,0,0,0,0,0,0,0,0,0,0,0,0,0,0,0,0,339,339,1689,1690,1691,337,337,337,337,0,5957,0,0,0,0,367,368,0,339,339,339,339,0,0,0,337,337,337,337,337,
339,339,339,339,339,337,0,337,0,0,0,0,0,0,0,0,0,0,0,0,0,0,0,0,0,339,339,1689,1690,1691,337,337,337,337,0,0,0,0,0,0,375,376,0,339,339,339,339,0,0,0,337,337,337,337,337,
339,339,339,339,339,337,0,337,3969,3970,3971,3969,3970,3971,0,0,0,0,0,0,0,0,4047,0,0,339,339,1689,1690,1691,337,337,337,337,0,329,483,483,483,483,483,331,0,339,339,339,339,0,0,0,337,337,337,337,337,
339,339,339,339,339,337,0,337,3977,3978,3979,3977,3978,3979,0,0,0,0,0,0,0,0,0,0,0,339,339,1689,1690,1691,337,337,337,337,0,337,329,483,483,483,331,339,0,339,339,339,339,0,0,0,337,337,337,337,337,
339,339,339,339,339,337,0,337,3985,3986,3987,3985,3986,3987,0,0,0,0,0,0,0,0,0,0,0,339,339,1689,1690,1691,337,337,337,337,0,337,337,337,338,339,339,339,0,339,339,339,339,0,0,0,337,337,337,337,337,
339,339,339,339,339,337,0,337,0,0,0,0,0,0,0,0,0,0,0,0,0,0,0,0,0,339,339,1689,1690,1691,337,337,337,337,0,337,337,345,346,347,339,339,0,339,339,339,339,0,0,382,337,337,337,337,337,
339,339,339,339,339,337,0,337,0,0,0,0,0,0,0,0,0,0,0,0,0,0,0,0,0,339,339,1689,1690,1691,337,337,337,337,0,337,345,348,349,350,347,339,0,339,339,339,339,0,0,0,337,337,337,337,337,
339,339,339,339,339,337,0,337,0,0,0,0,0,0,0,0,0,0,0,0,0,0,0,0,0,339,339,1689,1690,1691,337,337,337,337,0,345,346,356,357,358,346,347,0,339,339,339,339,0,0,0,337,337,337,337,337,
339,339,339,339,339,337,0,337,0,0,0,0,0,0,0,0,0,0,0,0,0,0,0,0,0,339,339,1689,1690,1691,337,337,337,337,0,0,0,0,0,0,0,0,0,339,339,339,339,0,0,0,337,337,337,337,337,
339,339,339,339,339,337,0,337,0,0,0,0,0,0,0,0,0,0,0,0,0,0,0,0,0,339,339,1689,1690,1691,337,337,337,337,0,0,0,0,0,0,0,0,0,339,339,339,339,0,382,0,337,337,337,337,337,
339,339,339,339,339,337,0,337,0,0,0,0,0,0,0,0,0,0,0,0,0,0,0,0,0,339,339,1689,1690,1691,337,337,337,337,0,0,0,0,0,0,0,0,0,339,339,339,339,0,0,0,337,337,337,337,337,
339,339,339,339,339,337,0,337,367,368,0,0,0,0,0,0,0,0,0,0,0,0,0,0,0,339,339,1689,1690,1691,337,337,337,337,0,0,0,0,0,0,0,0,0,339,339,339,339,0,0,0,337,337,337,337,337,
339,339,339,339,339,337,0,345,346,346,346,364,346,346,346,346,346,346,346,346,346,346,346,346,346,347,339,1689,1690,1691,337,337,337,337,0,0,0,0,0,0,0,0,0,339,339,339,339,0,0,0,337,337,337,337,337,
339,339,339,339,339,337,0,0,0,0,0,0,0,0,0,0,0,0,0,0,0,0,0,0,0,0,339,1689,1690,1691,337,337,337,337,0,0,0,0,0,0,0,0,0,339,339,339,339,382,0,0,337,337,337,337,337,
339,339,339,339,339,345,346,364,346,346,346,346,346,346,346,346,346,346,346,346,346,346,346,364,346,346,347,1689,1690,1691,337,337,337,337,0,0,0,0,0,0,0,0,0,339,339,339,339,0,0,0,337,337,337,337,337,
339,339,339,339,339,0,0,0,0,0,0,0,0,0,1641,1642,1643,0,382,5957,0,0,0,0,0,0,0,1689,1690,1691,337,337,337,337,0,0,0,0,0,0,0,0,0,339,339,339,339,0,0,0,337,337,337,337,337,
339,339,339,339,339,0,0,0,0,0,0,0,0,0,1689,1690,1691,0,382,0,0,0,0,0,0,0,0,1689,1690,1691,337,337,337,337,0,0,0,0,0,0,0,0,0,339,339,339,339,0,367,368,337,337,337,337,337,
339,339,339,339,339,0,0,0,0,0,0,0,0,0,1689,1690,1691,0,382,0,0,0,0,0,0,0,0,1689,1690,1691,337,337,337,337,0,0,0,0,0,0,0,0,0,339,339,339,339,0,375,376,337,337,337,337,337,
339,339,339,339,339,0,0,0,0,0,329,330,331,0,1689,1690,1691,0,382,0,0,0,0,0,0,0,0,1689,1690,1691,337,337,337,337,0,0,0,0,0,0,0,0,0,339,339,339,339,0,0,0,337,337,337,337,337,
339,339,339,339,339,0,0,0,0,0,337,338,339,0,1689,1690,1691,0,382,0,0,0,0,0,0,0,0,1689,1690,1691,337,337,337,337,0,0,0,0,0,0,0,0,0,339,339,339,339,0,0,0,337,337,337,337,337,
339,339,339,339,339,0,0,0,0,0,345,346,347,0,1689,1690,1691,0,382,0,0,0,0,0,0,0,0,1689,1690,1691,337,337,337,337,0,0,0,0,0,0,0,0,0,339,339,339,339,0,0,0,337,337,337,337,337,
339,339,339,339,339,0,0,0,0,0,0,0,0,0,1689,1690,1691,0,382,0,0,0,0,382,382,382,0,1689,1690,1691,337,337,337,337,0,0,0,0,0,0,0,0,0,339,339,339,339,0,0,0,337,337,337,337,337,
339,339,339,339,339,0,0,0,0,0,0,0,0,0,1689,1690,1691,0,382,382,0,382,382,382,0,382,0,1689,1690,1691,337,337,337,337,0,0,367,368,0,0,0,0,0,339,339,339,339,0,0,0,337,337,337,337,337,
339,339,339,339,339,0,0,0,0,0,0,0,0,0,1689,1690,1691,367,368,0,382,382,0,0,0,382,0,1689,1690,1691,337,337,337,337,0,0,375,376,0,0,0,0,0,339,339,339,339,0,0,382,337,337,337,337,337,
339,339,339,339,339,0,0,0,0,0,0,0,0,0,1689,1690,1691,375,376,382,382,0,0,0,0,382,0,1689,1690,1691,337,337,337,337,0,0,0,0,0,0,0,0,0,339,339,339,339,0,0,0,337,337,337,337,337,
339,339,339,339,339,0,0,0,0,0,0,0,0,0,1689,1690,1691,0,0,0,0,0,0,0,0,382,0,1689,1690,1691,337,337,337,337,0,0,0,0,0,0,0,0,0,339,339,339,339,0,0,0,337,337,337,337,337,
339,339,339,339,339,0,0,0,0,0,0,0,0,0,1689,1690,1691,0,0,0,0,0,0,0,0,382,0,1689,1690,1691,337,337,337,337,0,0,0,0,0,0,0,0,0,339,339,339,339,0,0,0,337,337,337,337,337,
339,339,339,339,339,0,0,0,0,0,0,0,0,0,1689,1690,1691,0,0,0,0,0,0,0,0,382,0,1689,1690,1691,337,337,337,337,0,0,0,0,0,0,0,0,0,339,339,339,339,0,0,0,337,337,337,337,337,
339,339,339,339,339,0,0,0,0,0,367,368,0,0,1689,1690,1691,0,0,0,0,0,0,0,0,382,0,1689,1690,1691,337,337,337,345,346,346,346,346,346,346,346,364,346,347,339,339,339,0,382,0,337,337,337,337,337,
339,339,339,339,339,0,0,0,0,0,375,376,0,0,1689,1690,1691,0,0,0,0,0,0,0,0,382,0,1689,1690,1691,337,337,337,0,0,0,0,0,0,0,0,0,0,0,339,339,339,0,0,0,337,337,337,337,337,
339,339,339,339,339,0,0,0,0,0,0,329,330,331,1689,1690,1691,0,0,382,382,382,382,0,0,382,0,1689,1690,1691,337,337,337,367,368,0,0,0,0,0,0,0,0,0,339,339,339,0,0,0,337,337,337,337,337,
339,339,339,339,339,0,0,0,0,0,0,337,338,339,1689,1690,1691,0,382,0,0,0,382,0,0,382,0,1689,1690,1691,337,337,337,375,376,0,0,0,0,0,0,0,0,0,339,339,339,382,0,0,337,337,337,337,337,
339,339,339,339,339,0,0,0,0,0,0,337,338,339,1689,1690,1691,0,382,0,0,0,0,0,0,382,0,1689,1690,1691,337,337,337,0,0,0,0,0,0,0,0,0,0,0,339,339,339,0,0,0,337,337,337,337,337,
339,339,339,339,339,0,0,0,0,0,0,337,338,339,1689,1690,1691,0,382,0,0,0,0,0,0,382,0,1689,1690,1691,337,337,337,0,0,0,0,0,0,0,0,0,0,0,339,339,339,0,0,0,337,337,337,337,337,
339,339,339,339,339,0,0,0,0,0,0,337,338,339,1689,1690,1691,0,382,0,0,366,0,0,0,382,0,1689,1690,1691,337,337,345,346,346,364,346,346,346,346,346,346,346,346,347,339,339,0,0,0,337,337,337,337,337,
339,339,339,339,339,0,0,0,0,0,0,337,338,339,1689,1690,1691,0,382,0,0,0,0,0,0,382,0,1689,1690,1691,337,337,0,0,0,0,0,0,0,0,0,0,0,0,0,339,339,0,0,382,337,337,337,337,337,
339,339,339,339,339,0,0,0,0,0,0,337,338,339,1689,1690,1691,0,382,0,0,0,0,0,0,382,0,1689,1690,1691,337,337,0,0,0,0,0,0,0,0,0,0,0,0,0,339,339,0,0,0,337,337,337,337,337,
339,339,339,339,339,0,0,0,0,0,0,337,338,339,1689,1690,1691,0,0,382,0,0,0,0,0,382,0,1689,1690,1691,337,337,0,0,0,0,0,0,0,0,0,0,0,0,0,339,339,0,0,0,337,337,337,337,337,
339,339,339,339,339,0,0,0,0,0,0,337,338,339,1689,1690,1691,0,0,382,382,0,0,0,382,382,0,1689,1690,1691,337,337,0,0,0,0,0,0,0,0,0,0,0,0,0,339,339,0,0,0,337,337,337,337,337,
339,339,339,339,339,0,329,330,331,0,0,337,338,339,1689,1690,1691,0,0,0,382,382,382,382,382,0,0,1689,1690,1691,337,337,0,0,0,0,0,0,0,0,0,0,0,0,0,339,339,0,0,0,337,337,337,337,337,
339,339,339,339,339,0,337,338,339,0,5957,337,338,339,1689,1690,1691,0,0,0,0,0,0,0,0,0,0,1689,1690,1691,337,345,346,346,346,346,346,346,346,346,346,346,364,346,346,347,339,0,0,0,337,337,337,337,337,
339,339,339,339,339,0,345,346,347,0,0,337,338,339,1689,1690,1691,0,0,0,0,0,0,0,0,0,0,1689,1690,1691,337,0,0,0,0,0,0,0,0,0,0,0,0,0,0,0,339,0,0,0,337,337,337,337,337,
339,339,339,339,339,0,0,0,0,0,0,337,338,339,1689,1690,1691,0,0,0,0,0,0,0,0,0,0,1689,1690,1691,337,0,0,0,0,0,0,0,0,0,0,0,0,0,0,0,339,0,0,0,337,337,337,337,337,
339,339,339,339,339,0,0,0,0,0,0,337,338,339,1689,1690,1690,1642,1642,1642,1642,1642,1642,1642,1642,1642,1642,1690,1690,1691,337,0,0,0,0,0,0,0,0,0,0,0,0,0,0,0,339,0,382,0,337,337,337,337,337,
339,339,339,339,339,0,0,0,0,0,0,337,338,339,1689,1690,1690,1690,1690,1690,1690,1690,1690,1690,1690,1690,1690,1690,1690,1691,337,0,0,0,0,0,0,0,0,0,0,0,0,0,0,0,339,0,0,0,337,337,337,337,337,
339,339,339,339,339,0,0,0,0,0,0,337,338,339,1689,1690,1690,1690,1690,1690,1690,1690,1690,1690,1690,1690,1690,1690,1690,1691,337,0,0,0,0,0,0,0,0,0,0,0,367,368,0,0,339,0,0,0,337,337,337,337,337,
339,339,339,339,339,0,0,0,0,0,0,337,338,339,1689,1690,1690,1690,1690,1690,1690,1690,1690,1690,1690,1690,1690,1690,1690,1691,337,0,0,0,0,0,0,0,0,0,0,0,375,376,0,0,339,0,367,368,337,337,337,337,337,
339,339,339,339,339,0,0,0,0,0,0,337,338,339,1689,1690,1690,1690,1690,1690,1690,1690,1690,1690,1690,1690,1690,1690,1690,1691,337,0,0,0,0,0,0,0,0,0,0,0,0,0,0,0,339,0,375,376,337,337,337,337,337,
339,339,339,339,339,0,0,0,0,0,0,337,338,339,1689,1690,1690,1690,1690,1690,1690,1690,1690,1690,1690,1690,1690,1690,1690,1691,337,0,0,0,0,0,0,0,0,0,0,0,0,0,0,0,339,0,0,0,337,337,337,337,337,
339,339,339,339,339,0,0,0,0,0,0,337,338,339,1689,1690,1690,1690,1690,1690,1690,1690,1690,1690,1690,1690,1690,1690,1690,1691,337,0,0,0,0,0,0,0,0,0,0,0,0,0,0,0,339,0,0,0,337,337,337,337,337,
339,339,339,339,339,0,0,0,0,0,0,337,338,339,1689,1690,1690,1690,1690,1690,1690,1690,1690,1690,1690,1690,1690,1690,1690,1691,337,0,0,0,0,0,0,0,0,0,0,0,0,0,0,0,339,0,0,0,337,337,337,337,337,
339,339,339,339,339,0,0,0,0,0,0,337,338,339,1689,1690,1690,1690,1690,1690,1690,1690,1690,1690,1690,1690,1690,1690,1690,1691,345,346,364,346,346,346,346,346,346,346,346,346,346,346,346,346,347,491,0,0,337,337,337,337,337,
339,339,339,339,339,0,0,0,0,0,0,337,338,339,1689,1690,1690,1690,1690,1690,1690,1690,1690,1690,1690,1690,1690,1690,1690,1691,382,0,0,0,0,0,0,0,0,0,0,0,0,0,0,0,0,0,382,0,337,337,337,337,337,
339,339,339,339,339,0,0,0,0,0,0,345,346,347,1689,1690,1690,1690,1690,1690,1690,1690,1690,1690,1690,1690,1690,1690,1690,1691,0,382,0,0,0,0,0,0,0,0,0,0,0,0,0,0,0,0,0,0,337,337,337,337,337,
339,339,339,339,330,330,332,333,334,330,330,330,330,330,330,330,330,330,330,330,330,330,330,330,330,330,330,330,330,330,330,330,330,330,330,330,330,330,330,330,330,330,330,330,330,330,330,330,330,330,330,337,337,337,337,
339,339,339,330,330,330,330,330,330,330,330,330,330,330,330,330,330,330,330,330,330,330,330,330,330,330,330,330,330,330,330,330,330,330,330,330,330,330,330,330,330,330,330,330,330,330,330,330,330,330,330,330,337,337,337,
339,339,330,330,330,330,330,330,330,330,330,330,330,330,330,330,330,330,330,330,330,330,330,330,330,330,330,330,330,330,330,330,330,330,330,330,330,330,330,330,330,330,330,330,330,330,330,330,330,330,330,330,330,337,337,
339,330,330,330,330,330,330,330,330,330,330,330,330,330,330,330,330,330,330,330,330,330,330,330,330,330,330,330,330,330,330,330,330,330,330,330,330,330,330,330,330,330,330,330,330,330,330,330,330,330,330,330,330,330,337,
330,330,330,330,330,330,330,330,330,330,330,330,330,330,330,330,330,330,330,330,330,330,330,330,330,330,330,330,330,330,330,330,330,330,330,330,330,330,330,330,330,330,330,330,330,330,330,330,330,330,330,330,330,330,330
</data>
 </layer>
 <layer id="3" name="edifici" width="55" height="100">
  <data encoding="csv">
0,0,0,0,0,0,0,0,0,0,0,0,0,0,0,0,0,0,0,0,0,0,0,0,0,0,0,0,0,0,0,0,0,0,0,0,0,0,0,0,0,0,0,0,0,0,0,0,0,0,0,0,0,0,0,
0,0,0,0,0,0,0,0,0,0,0,0,0,0,0,0,0,0,0,0,0,0,0,0,0,0,0,0,0,0,0,0,0,0,0,0,0,0,0,0,0,0,0,0,0,0,0,0,0,0,0,0,0,0,0,
0,0,0,0,0,0,0,0,0,0,0,0,0,0,0,0,0,0,0,0,0,0,0,0,0,0,0,0,0,0,0,0,0,0,0,0,0,0,0,0,0,0,0,0,0,0,0,0,0,0,0,0,0,0,0,
0,0,0,0,0,0,0,0,0,0,0,0,0,0,0,0,0,0,0,0,0,0,0,0,0,0,0,0,0,0,0,0,0,0,0,0,0,0,0,0,0,0,0,0,0,0,0,0,0,0,0,0,0,0,0,
0,0,0,0,0,0,0,0,0,0,0,0,0,0,0,0,0,0,0,0,0,0,0,0,0,0,0,0,0,0,0,0,0,0,0,0,0,0,0,0,0,0,0,0,0,0,0,0,0,0,0,0,0,0,0,
0,0,0,0,0,0,0,0,0,0,0,0,0,0,0,0,0,0,0,0,0,0,0,0,0,0,0,0,0,0,0,0,0,0,0,0,0,0,0,0,0,0,0,0,0,0,0,0,0,0,0,0,0,0,0,
0,0,0,0,0,0,0,0,0,0,0,0,0,0,0,0,0,0,0,0,0,0,0,0,0,0,0,0,0,0,0,0,0,0,0,0,0,0,0,0,0,0,0,0,0,0,0,0,0,0,0,0,0,0,0,
0,0,0,0,0,0,0,0,0,0,0,0,0,0,0,0,0,0,0,0,0,0,0,0,0,0,0,0,0,0,0,0,0,0,0,0,0,0,0,0,0,0,0,0,0,0,0,0,0,0,0,0,0,0,0,
0,0,0,0,0,0,0,0,0,0,0,0,0,0,0,0,0,0,0,0,0,0,0,0,0,0,0,0,0,0,0,0,0,0,0,0,0,0,0,0,0,0,0,0,0,0,0,0,0,0,0,0,0,0,0,
0,0,0,0,335,0,0,0,0,0,0,0,0,0,0,0,0,0,0,0,0,0,0,0,0,0,0,0,0,0,0,0,0,0,0,0,0,0,0,0,0,0,0,0,0,0,0,0,0,0,0,0,0,0,0,
0,0,0,0,0,0,0,0,0,0,0,0,0,0,0,0,0,0,0,0,0,0,0,0,0,0,0,0,0,0,0,0,0,0,0,0,0,0,0,0,0,0,0,0,0,0,0,0,0,0,0,0,0,0,0,
0,0,0,0,0,0,0,0,0,0,0,0,0,0,0,0,0,0,0,0,0,0,0,0,0,0,0,0,0,0,0,0,0,0,0,0,0,0,0,0,0,0,0,0,0,0,0,0,0,0,0,0,0,0,0,
0,0,0,0,0,0,0,0,0,0,0,0,0,0,0,0,0,0,0,0,0,0,0,0,5957,0,0,0,0,0,0,0,0,0,0,0,0,0,0,0,0,0,0,0,0,0,0,0,0,0,0,0,0,0,0,
0,0,0,0,0,0,0,0,0,0,0,0,0,0,0,0,0,0,0,0,0,0,0,0,0,0,0,0,0,0,0,0,0,0,0,0,0,0,0,0,0,0,0,0,0,0,0,0,0,0,0,0,0,0,0,
0,0,0,0,0,0,0,0,0,0,0,0,0,0,0,0,0,0,0,0,0,0,0,0,0,0,0,0,0,0,0,0,0,0,0,0,0,0,0,0,0,0,0,0,0,0,0,0,0,0,0,0,0,0,0,
0,0,0,0,0,0,0,0,0,0,0,0,0,0,0,0,0,0,0,0,0,0,0,0,0,0,0,0,0,0,0,0,0,0,0,0,0,0,0,0,0,0,0,0,0,0,0,0,0,0,0,0,0,0,0,
0,0,0,0,0,0,0,0,0,0,0,0,0,0,0,0,0,0,0,0,0,0,0,0,0,0,0,0,0,0,0,0,0,0,0,0,0,0,0,0,0,0,0,0,0,0,0,0,0,0,0,0,0,0,0,
0,0,0,0,0,0,0,0,0,0,0,0,0,0,0,0,0,0,0,0,0,0,0,0,0,0,0,0,0,0,0,0,0,0,0,0,0,0,0,0,0,0,0,0,0,0,0,0,0,0,0,0,0,0,0,
0,0,0,0,0,0,0,0,0,0,0,0,0,0,0,0,0,0,0,0,0,0,0,0,0,0,0,0,0,0,0,0,0,0,0,0,0,0,0,0,0,0,0,0,0,0,0,0,0,0,0,0,0,0,0,
0,0,0,0,0,0,0,0,0,0,0,0,0,0,0,0,0,0,0,0,0,0,0,0,0,0,0,0,0,0,0,0,0,0,0,0,0,0,0,0,0,0,0,0,0,0,0,0,0,0,0,0,0,0,0,
0,0,0,0,0,0,0,0,0,0,0,0,0,0,0,0,0,0,0,0,0,0,0,0,0,0,0,0,0,0,0,0,0,0,0,0,0,0,0,0,0,0,0,0,0,0,0,0,0,0,0,0,0,0,0,
0,0,0,0,0,0,0,0,0,0,0,0,0,0,0,0,0,0,0,0,0,0,0,0,0,0,0,0,0,0,0,0,0,0,0,0,0,0,0,0,0,0,0,0,0,0,0,0,0,0,0,0,0,0,0,
0,0,0,0,0,0,0,0,0,0,0,0,0,0,0,0,0,0,0,0,0,0,0,0,0,0,0,0,0,0,0,0,0,0,0,0,0,0,0,0,0,0,0,0,0,0,0,0,0,0,0,0,0,0,0,
0,0,0,0,0,0,0,0,0,0,0,0,0,0,0,0,0,0,0,0,0,0,0,0,0,0,0,0,0,0,0,0,0,0,0,0,0,0,0,0,0,0,0,0,0,0,0,0,0,0,0,0,0,0,0,
0,0,0,0,0,0,0,0,0,0,0,0,0,0,0,0,0,0,0,0,0,0,0,0,0,0,0,0,0,0,0,0,0,0,0,0,0,0,0,0,0,0,0,0,0,0,0,0,0,0,0,0,0,0,0,
0,0,0,0,0,0,0,0,0,0,0,0,0,0,0,0,0,0,0,0,0,0,0,0,0,0,0,0,0,0,0,0,0,0,0,0,0,0,0,0,0,0,0,0,0,0,0,0,0,0,0,0,0,0,0,
0,0,0,0,0,0,0,0,0,0,0,0,0,0,0,0,0,0,0,0,0,0,0,0,0,0,0,0,0,0,0,0,0,0,0,0,0,0,0,0,0,0,0,0,0,0,0,0,0,0,0,0,0,0,0,
0,0,0,0,0,0,0,0,0,0,0,0,0,0,0,0,0,0,0,0,0,0,0,0,0,0,0,0,0,0,0,0,0,0,0,0,0,0,0,0,0,0,0,0,0,0,0,0,0,0,0,0,0,0,0,
0,0,0,0,0,0,0,0,0,0,0,0,0,0,0,0,0,0,0,0,0,0,0,0,0,0,0,0,0,0,0,0,0,0,0,0,0,0,0,0,0,0,0,0,0,0,0,0,0,0,0,0,0,0,0,
0,0,0,0,0,0,0,0,0,0,0,0,0,0,0,0,0,0,0,0,0,0,0,0,0,0,0,0,0,0,0,0,0,0,0,0,0,0,0,0,0,0,0,0,0,0,0,0,0,0,0,0,0,0,0,
0,0,0,0,0,0,0,0,0,0,0,0,0,0,0,0,0,0,0,0,0,0,0,0,0,0,0,0,0,0,0,0,0,0,0,0,0,0,0,0,0,0,0,0,0,0,0,0,0,0,0,0,0,0,0,
0,0,0,0,0,0,0,0,0,0,0,0,0,0,0,0,0,0,0,0,0,0,0,0,0,0,0,0,0,0,0,0,0,0,0,0,0,0,0,0,0,0,0,0,0,0,0,0,0,0,0,0,0,0,0,
0,0,0,0,0,0,0,0,0,0,0,0,0,0,0,0,0,0,0,0,0,0,0,0,0,0,0,0,0,0,0,0,0,0,0,0,0,0,0,0,0,0,0,0,0,0,0,0,0,0,0,0,0,0,0,
0,0,0,0,0,0,4193,4194,0,0,0,0,0,0,0,0,0,0,0,0,0,0,0,0,0,0,0,0,0,0,0,0,0,0,0,0,0,0,0,0,0,0,0,0,0,0,0,0,0,0,0,0,0,0,0,
0,0,0,0,0,0,4201,4202,4203,4179,4180,4179,4180,0,0,0,0,4179,4180,4179,4180,0,0,0,0,0,0,0,0,0,0,0,0,0,0,0,0,0,0,0,0,0,0,0,0,0,0,0,0,0,0,0,0,0,0,
0,0,0,0,0,0,4209,4210,4211,4187,4188,4187,4188,0,0,0,0,4187,4188,4187,4188,4193,4194,0,0,0,0,0,0,0,0,0,0,0,0,0,0,0,0,0,0,0,0,0,0,0,0,0,0,0,0,0,0,0,0,
0,0,0,0,0,0,0,0,0,0,0,0,0,0,0,0,0,0,0,0,0,4201,4202,4203,0,0,0,0,0,0,0,0,0,0,0,0,0,0,0,0,0,0,0,0,0,0,0,0,0,0,0,0,0,0,0,
0,0,0,0,0,0,0,0,0,0,0,0,0,0,0,0,0,0,0,0,0,4209,4210,4211,0,0,0,0,0,0,0,0,0,0,0,0,0,0,0,0,0,0,0,0,0,0,0,0,0,0,0,0,0,0,0,
0,0,0,0,0,0,0,0,0,0,0,0,0,0,0,0,0,0,0,0,0,0,0,0,0,0,0,0,0,0,0,0,0,0,0,0,0,0,0,0,0,0,0,0,0,0,0,0,0,0,0,0,0,0,0,
0,0,0,0,0,0,0,0,4309,4310,4311,0,0,0,0,0,0,0,0,0,0,0,0,0,0,0,0,0,0,0,0,0,0,0,0,0,0,0,0,0,0,0,0,0,0,0,0,0,0,0,0,0,0,0,0,
0,0,0,0,0,0,0,0,4317,4318,4319,4047,0,0,0,0,0,0,0,0,0,0,0,4084,0,0,0,0,0,0,0,0,0,0,0,0,0,0,0,0,0,0,0,0,0,0,0,0,0,0,0,0,0,0,0,
0,0,0,0,0,0,0,0,4325,4326,4327,0,0,0,0,0,0,0,0,0,0,0,0,4092,0,0,0,0,0,0,0,0,0,0,0,0,0,0,0,0,0,0,0,0,0,0,0,0,0,0,0,0,0,0,0,
0,0,0,0,0,0,0,0,0,0,0,0,0,0,0,0,0,0,0,4309,4310,4311,0,0,0,0,0,0,0,0,0,0,0,0,0,0,0,0,0,0,0,0,0,0,0,0,0,0,0,0,0,0,0,0,0,
0,0,0,0,0,0,0,0,0,0,0,0,0,0,0,0,0,0,0,4317,4318,4319,0,0,0,0,0,0,0,0,0,0,0,0,0,0,0,0,0,0,0,0,0,0,0,0,0,0,0,0,0,0,0,0,0,
0,0,0,0,0,0,0,0,0,0,0,0,0,0,0,0,0,0,0,4325,4326,4327,0,0,0,0,0,0,0,0,0,0,0,0,0,0,0,329,330,331,0,0,0,0,0,0,0,0,0,0,0,0,0,0,0,
0,0,0,0,0,0,0,0,0,0,0,0,0,0,0,0,0,0,0,0,0,0,0,0,0,0,0,0,0,0,0,0,0,0,0,0,0,337,338,339,0,0,0,0,0,0,0,0,0,0,0,0,0,0,0,
0,0,0,0,0,0,0,0,0,0,0,0,0,0,0,0,0,0,0,0,0,0,0,0,0,0,0,0,0,0,0,0,0,0,0,0,0,345,346,347,0,0,0,0,0,0,0,0,0,0,0,0,0,0,0,
0,0,0,0,0,0,0,0,0,0,0,0,0,0,0,0,0,0,0,0,0,0,0,0,0,0,0,0,0,0,0,0,0,0,0,0,0,0,0,0,0,0,0,0,0,0,0,0,0,0,0,0,0,0,0,
0,0,0,0,0,0,0,0,0,0,0,0,0,0,0,0,0,0,0,0,0,0,0,0,0,0,0,0,0,0,0,0,0,0,0,0,0,0,0,0,0,0,0,0,0,0,0,0,0,0,0,0,0,0,0,
0,0,0,0,0,0,0,0,0,0,0,0,0,0,0,0,0,0,0,0,0,0,0,0,0,0,0,0,0,0,0,0,0,0,0,0,0,0,0,0,0,0,0,0,0,0,0,0,0,0,0,0,0,0,0,
0,0,0,0,0,0,0,0,0,0,0,0,0,0,0,0,0,0,0,0,0,0,0,0,0,0,0,0,0,0,0,0,0,0,0,0,0,0,0,0,0,0,0,0,0,0,0,0,0,0,0,0,0,0,0,
0,0,0,0,0,0,0,0,0,0,0,0,0,0,0,0,0,0,0,0,0,0,0,0,0,0,0,0,0,0,0,0,0,0,0,0,0,0,0,0,0,0,0,0,0,0,0,0,0,0,0,0,0,0,0,
0,0,0,0,0,0,0,0,0,0,0,0,0,0,0,0,0,0,0,0,0,0,0,0,0,0,0,0,0,0,0,0,0,0,0,0,0,0,0,0,0,0,0,0,0,0,0,0,0,0,0,0,0,0,0,
0,0,0,0,0,0,0,0,0,0,0,0,0,0,0,0,0,0,0,0,0,0,0,0,0,0,0,0,0,0,0,0,0,0,0,0,0,0,0,0,0,0,0,0,0,0,0,0,0,0,0,0,0,0,0,
0,0,0,0,0,0,0,0,0,0,0,0,0,0,0,0,0,0,0,0,0,0,0,0,0,0,0,0,0,0,0,0,0,0,0,0,0,0,0,0,0,0,0,0,0,0,0,0,0,0,0,0,0,0,0,
0,0,0,0,0,0,0,0,0,0,0,0,0,0,0,0,0,0,0,0,0,0,0,0,0,0,0,0,0,0,0,0,0,0,0,0,0,0,0,0,0,0,0,0,0,0,0,0,0,0,0,0,0,0,0,
0,0,0,0,0,0,0,0,0,0,0,0,0,0,0,0,0,0,0,0,0,0,0,0,0,0,0,0,0,0,0,0,0,0,0,0,0,0,0,0,0,0,0,0,0,0,0,0,0,0,0,0,0,0,0,
0,0,0,0,0,0,0,0,0,0,0,0,0,0,0,0,0,0,0,0,0,0,0,0,0,0,0,0,0,0,0,0,0,0,0,0,0,0,0,0,0,0,0,0,0,0,0,0,0,0,0,0,0,0,0,
0,0,0,0,0,0,0,0,0,0,0,0,0,0,0,0,0,0,0,0,0,0,0,0,0,0,0,0,0,0,0,0,0,0,0,0,0,0,0,0,0,0,0,0,0,0,0,0,0,0,0,0,0,0,0,
0,0,0,0,0,0,0,0,0,0,0,0,0,0,0,0,0,0,0,0,0,0,0,0,0,0,0,0,0,0,0,0,0,0,0,0,0,0,0,0,0,0,0,0,0,0,0,0,0,0,0,0,0,0,0,
0,0,0,0,0,0,0,0,0,0,0,0,0,0,0,0,0,0,0,0,0,0,0,0,0,0,0,0,0,0,0,0,0,0,0,0,0,0,0,0,0,0,0,0,0,0,0,0,0,0,0,0,0,0,0,
0,0,0,0,0,0,0,0,0,0,0,0,0,0,0,0,0,0,0,0,0,0,0,0,0,0,0,0,0,0,0,0,0,0,0,0,0,0,0,0,0,0,0,0,0,0,0,0,0,0,0,0,0,0,0,
0,0,0,0,0,0,0,0,0,0,0,0,0,0,0,0,0,0,0,0,0,0,0,0,0,0,0,0,0,0,0,0,0,0,0,0,0,0,0,0,0,0,0,0,0,0,0,0,0,0,0,0,0,0,0,
0,0,0,0,0,0,0,0,0,0,0,0,0,0,0,0,0,0,0,0,0,0,0,0,0,0,0,0,0,0,0,0,0,0,0,0,0,0,0,0,0,0,0,0,0,0,0,0,0,0,0,0,0,0,0,
0,0,0,0,0,0,0,0,0,0,0,0,0,0,0,0,0,0,0,0,0,0,0,0,0,0,0,0,0,0,0,0,0,0,0,0,0,0,0,0,0,0,0,0,0,0,0,0,0,0,0,0,0,0,0,
0,0,0,0,0,0,0,0,0,0,0,0,0,0,0,0,0,0,0,0,0,0,0,0,0,0,0,0,0,0,0,0,0,0,0,0,0,0,0,0,0,0,0,0,0,0,0,0,0,0,0,0,0,0,0,
0,0,0,0,0,0,0,0,0,0,0,0,0,0,0,0,0,0,0,0,0,0,0,0,0,0,0,0,0,0,0,0,0,0,0,0,0,0,0,0,0,0,0,0,0,0,0,0,0,0,0,0,0,0,0,
0,0,0,0,0,0,0,0,0,0,0,0,0,0,0,0,0,0,0,0,0,0,0,0,0,0,0,0,0,0,0,0,0,0,0,0,0,0,0,0,0,0,0,0,0,0,0,0,0,0,0,0,0,0,0,
0,0,0,0,0,0,0,0,0,0,0,0,0,0,0,0,0,0,0,0,0,0,0,0,0,0,0,0,0,0,0,0,0,0,0,0,0,0,0,0,0,0,0,0,0,0,0,0,0,0,0,0,0,0,0,
0,0,0,0,0,0,0,0,0,0,0,0,0,0,0,0,0,0,0,0,0,0,0,0,0,0,0,0,0,0,0,0,0,0,0,0,0,0,0,0,0,0,0,0,0,0,0,0,0,0,0,0,0,0,0,
0,0,0,0,0,0,0,0,0,0,0,0,0,0,0,0,0,0,0,0,0,0,0,0,0,0,0,0,0,0,0,0,0,0,0,0,0,0,0,0,0,0,0,0,0,0,0,0,0,0,0,0,0,0,0,
0,0,0,0,0,0,0,0,0,0,0,0,0,0,0,0,0,0,0,0,0,0,0,0,0,0,0,0,0,0,0,0,0,0,0,0,0,0,0,0,0,0,0,0,0,0,0,0,0,0,0,0,0,0,0,
0,0,0,0,0,0,0,0,0,0,0,0,0,0,0,0,0,0,0,0,0,0,0,0,0,0,0,0,0,0,0,0,0,0,0,0,0,0,0,0,0,0,0,0,0,0,0,0,0,0,0,0,0,0,0,
0,0,0,0,0,0,0,0,0,0,0,0,0,0,0,0,0,0,0,0,0,0,0,0,0,0,0,0,0,0,0,0,0,0,0,0,0,0,0,0,0,0,0,0,0,0,0,0,0,0,0,0,0,0,0,
0,0,0,0,0,0,0,0,0,0,0,0,0,0,0,0,0,0,0,0,0,0,0,0,0,0,0,0,0,0,0,0,0,0,0,0,0,0,0,0,0,0,0,0,0,0,0,0,0,0,0,0,0,0,0,
0,0,0,0,0,0,0,0,0,0,0,0,0,0,0,0,0,0,0,0,0,0,0,0,0,0,0,0,0,0,0,0,0,0,0,0,0,0,0,0,0,0,0,0,0,0,0,0,0,0,0,0,0,0,0,
0,0,0,0,0,0,0,0,0,0,0,0,0,0,0,0,0,0,0,0,0,0,0,0,0,0,0,0,0,0,0,0,0,0,0,0,0,0,0,0,0,0,0,0,0,0,0,0,0,0,0,0,0,0,0,
0,0,0,0,0,0,0,0,0,0,0,0,0,0,0,0,0,0,0,0,0,0,0,0,0,0,0,0,0,0,0,0,0,0,0,0,0,0,0,0,0,0,0,0,0,0,0,0,0,0,0,0,0,0,0,
0,0,0,0,0,0,0,0,0,0,0,0,0,0,0,0,0,0,0,0,0,0,0,0,0,0,0,0,0,0,0,0,0,0,0,0,0,0,0,0,0,0,0,0,0,0,0,0,0,0,0,0,0,0,0,
0,0,0,0,0,0,0,0,0,0,0,0,0,0,0,0,0,0,0,0,0,0,0,0,0,0,0,0,0,0,0,0,0,0,0,0,0,0,0,0,0,0,0,0,0,0,0,0,0,0,0,0,0,0,0,
0,0,0,0,0,0,0,0,0,0,382,0,0,0,0,0,0,0,0,0,0,0,0,0,0,0,0,0,0,0,0,0,0,0,0,0,0,0,0,0,0,0,0,0,0,0,0,0,0,0,0,0,0,0,0,
0,0,0,0,0,0,0,0,0,382,0,0,0,0,0,0,0,0,0,0,0,0,0,0,0,0,0,0,0,0,0,0,0,0,0,0,0,0,0,0,0,0,0,0,0,0,0,0,0,0,0,0,0,0,0,
0,0,0,0,0,0,0,0,0,0,0,0,0,0,0,0,0,0,0,0,0,0,0,0,0,0,0,0,0,0,0,0,0,0,0,0,0,0,0,0,0,0,0,0,0,0,0,0,0,0,0,0,0,0,0,
0,0,0,0,0,0,0,0,0,0,0,0,0,0,0,0,0,0,0,0,0,0,0,0,0,0,0,0,0,0,0,0,0,0,0,0,0,0,0,0,0,0,0,0,0,0,0,0,0,0,0,0,0,0,0,
0,0,0,0,0,0,0,0,0,0,0,0,0,0,0,0,0,0,0,0,0,0,0,0,0,0,0,0,0,0,0,0,0,0,0,0,0,0,0,0,0,0,0,0,0,0,0,0,0,0,0,0,0,0,0,
0,0,0,0,0,0,0,0,0,0,0,0,0,0,0,0,0,0,0,0,0,0,0,0,0,0,0,0,0,0,0,0,0,0,0,0,0,0,0,0,0,0,0,0,0,0,0,0,0,0,0,0,0,0,0,
0,0,0,0,0,0,0,0,0,0,0,0,0,0,0,0,0,0,0,0,0,0,0,0,0,0,0,0,0,0,0,0,0,0,0,0,0,0,0,0,0,0,0,0,0,0,0,0,0,0,0,0,0,0,0,
0,0,0,0,0,0,0,0,0,0,0,0,0,0,0,0,0,0,0,0,0,0,0,0,0,0,0,0,0,0,0,0,0,0,0,0,0,0,0,0,0,0,0,0,0,0,0,0,0,0,0,0,0,0,0,
0,0,0,0,0,0,0,0,0,0,0,0,0,0,0,0,0,0,0,0,0,0,0,0,0,0,0,0,0,0,0,0,0,0,0,0,0,0,0,0,0,0,0,0,0,0,0,0,0,0,0,0,0,0,0,
0,0,0,0,0,0,0,0,0,0,0,0,0,0,0,0,0,0,0,0,0,0,0,0,0,0,0,0,0,0,0,0,0,0,0,0,0,0,0,0,0,0,0,0,0,0,0,0,0,0,0,0,0,0,0,
0,0,0,0,0,0,0,0,0,0,0,0,0,0,0,0,0,0,0,0,0,0,0,0,0,0,0,0,0,0,0,0,0,0,0,0,0,0,0,0,0,0,0,0,0,0,0,0,0,0,0,0,0,0,0,
0,0,0,0,0,0,0,382,382,382,382,0,0,0,0,0,0,0,0,0,0,0,0,0,0,0,0,0,0,0,0,0,0,0,0,0,0,0,0,0,0,0,0,0,0,0,0,0,0,0,0,0,0,0,0,
0,0,0,0,0,382,382,382,0,0,0,0,0,0,0,0,0,0,0,0,0,0,0,0,0,0,0,0,0,0,0,0,0,0,0,0,0,0,0,0,0,0,0,0,0,0,0,0,0,0,0,0,0,0,0,
0,0,0,0,0,366,0,0,0,0,0,0,0,0,0,0,0,0,0,0,0,0,0,0,0,0,0,0,0,0,0,0,0,0,0,0,0,0,0,0,0,0,0,0,0,0,0,0,0,0,0,0,0,0,0,
0,0,0,0,0,0,0,0,0,0,0,0,0,0,0,0,0,0,0,0,0,0,0,0,0,0,0,0,0,0,0,0,0,0,0,0,0,0,0,0,0,0,0,0,0,0,0,0,0,0,0,0,0,0,0,
0,0,0,0,0,0,0,0,0,0,0,0,0,0,0,0,0,0,0,0,0,0,0,0,0,0,0,0,0,0,0,0,0,0,0,0,0,0,0,0,0,0,0,0,0,0,0,0,0,0,0,0,0,0,0,
0,0,0,0,0,0,0,0,0,0,0,0,0,0,0,0,0,0,0,0,0,0,0,0,0,0,0,0,0,0,0,0,0,0,0,0,0,0,0,0,0,0,0,0,0,0,0,0,0,0,0,0,0,0,0,
0,0,0,0,0,0,0,0,0,0,0,0,0,0,0,0,0,0,0,0,0,0,0,0,0,0,0,0,0,0,0,0,0,0,0,0,0,0,0,0,0,0,0,0,0,0,0,0,0,0,0,0,0,0,0,
0,0,0,0,0,0,0,0,0,0,0,0,0,0,0,0,0,0,0,0,0,0,0,0,0,0,0,0,0,0,0,0,0,0,0,0,0,0,0,0,0,0,0,0,0,0,0,0,0,0,0,0,0,0,0,
0,0,0,0,0,0,0,0,0,0,0,0,0,0,0,0,0,0,0,0,0,0,0,0,0,0,0,0,0,0,0,0,0,0,0,0,0,0,0,0,0,0,0,0,0,0,0,0,0,0,0,0,0,0,0
</data>
 </layer>
 <objectgroup id="4" name="collisioni">
  <object id="1" x="0" y="0" width="1760" height="32"/>
  <object id="2" x="0" y="32" width="1760" height="32"/>
  <object id="3" x="0" y="64" width="1760" height="32"/>
  <object id="4" x="0" y="96" width="1760" height="32"/>
  <object id="5" x="0" y="128" width="1760" height="32"/>
  <object id="6" x="0" y="160" width="160" height="32"/>
  <object id="7" x="832" y="160" width="384" height="32"/>
  <object id="8" x="1600" y="160" width="160" height="32"/>
  <object id="9" x="0" y="192" width="160" height="32"/>
  <object id="10" x="832" y="192" width="416" height="32"/>
  <object id="11" x="1568" y="192" width="192" height="32"/>
  <object id="12" x="0" y="224" width="160" height="32"/>
  <object id="13" x="832" y="224" width="416" height="32"/>
  <object id="15" x="1568" y="224" width="192" height="32"/>
  <object id="16" x="0" y="256" width="128" height="32"/>
  <object id="17" x="832" y="256" width="416" height="32"/>
  <object id="20" x="1568" y="256" width="192" height="32"/>
  <object id="21" x="0" y="288" width="704" height="32"/>
  <object id="22" x="736" y="288" width="512" height="32"/>
  <object id="25" x="1568" y="288" width="192" height="32"/>
  <object id="26" x="0" y="320" width="160" height="32"/>
  <object id="27" x="864" y="320" width="384" height="32"/>
  <object id="28" x="1280" y="320" width="128" height="32"/>
  <object id="29" x="1440" y="320" width="320" height="32"/>
  <object id="30" x="0" y="352" width="160" height="32"/>
  <object id="31" x="872.516" y="359.613" width="367.484" height="29.6774"/>
  <object id="32" x="1600" y="352" width="160" height="32"/>
  <object id="33" x="0" y="384" width="160" height="32"/>
  <object id="34" x="203.333" y="390" width="20.6667" height="26"/>
  <object id="35" x="837.339" y="392.657" width="404.661" height="26.9774"/>
  <object id="36" x="1600" y="384" width="160" height="32"/>
  <object id="37" x="0" y="416" width="160" height="32"/>
  <object id="38" x="192" y="416" width="32" height="32"/>
  <object id="39" x="835.339" y="422.968" width="404.661" height="26.9774"/>
  <object id="40" x="1600" y="416" width="160" height="32"/>
  <object id="41" x="0" y="448" width="160" height="32"/>
  <object id="42" x="192" y="448" width="96" height="32"/>
  <object id="43" x="322.667" y="453.312" width="920" height="19.1774"/>
  <object id="44" x="1600" y="448" width="160" height="32"/>
  <object id="45" x="0" y="480" width="160" height="32"/>
  <object id="46" x="871.016" y="474.323" width="368.984" height="37.6774"/>
  <object id="47" x="1600" y="480" width="160" height="32"/>
  <object id="48" x="0" y="512" width="160" height="32"/>
  <object id="49" x="192" y="512" width="32" height="32"/>
  <object id="50" x="842.172" y="512" width="397.828" height="29.6774"/>
  <object id="51" x="1600" y="512" width="160" height="32"/>
  <object id="52" x="0" y="544" width="160" height="32"/>
  <object id="53" x="192" y="544" width="96" height="32"/>
  <object id="54" x="320" y="550.344" width="468.667" height="21.0108"/>
  <object id="55" x="1600" y="544" width="160" height="32"/>
  <object id="56" x="0" y="576" width="160" height="32"/>
  <object id="57" x="850.151" y="571.355" width="389.849" height="29.6774"/>
  <object id="58" x="1600" y="576" width="160" height="32"/>
  <object id="59" x="0" y="608" width="160" height="32"/>
  <object id="60" x="202" y="618.667" width="22" height="21.3333"/>
  <object id="61" x="842.495" y="601.032" width="397.505" height="29.6774"/>
  <object id="62" x="1600" y="608" width="160" height="32"/>
  <object id="63" x="0" y="640" width="224" height="32"/>
  <object id="64" x="844.839" y="630.71" width="395.161" height="29.6774"/>
  <object id="65" x="1600" y="640" width="160" height="32"/>
  <object id="66" x="0" y="672" width="160" height="32"/>
  <object id="67" x="192.667" y="676.667" width="544" height="24.6667"/>
  <object id="68" x="768" y="672" width="474" height="32"/>
  <object id="69" x="1600" y="672" width="160" height="32"/>
  <object id="70" x="0" y="704" width="160" height="32"/>
  <object id="71" x="800" y="704" width="32" height="32"/>
  <object id="72" x="864" y="704" width="374" height="32"/>
  <object id="73" x="1600" y="704" width="160" height="32"/>
  <object id="74" x="0" y="736" width="160" height="32"/>
  <object id="75" x="235.5" y="745" width="20.5" height="23"/>
  <object id="76" x="1287.5" y="736" width="24.5" height="32"/>
  <object id="77" x="1600" y="736" width="160" height="32"/>
  <object id="78" x="0" y="768" width="160" height="32"/>
  <object id="79" x="224" y="768" width="32" height="32"/>
  <object id="80" x="288" y="776" width="1024" height="15"/>
  <object id="81" x="1600" y="768" width="160" height="32"/>
  <object id="82" x="0" y="800" width="160" height="32"/>
  <object id="83" x="832" y="800" width="320" height="32"/>
  <object id="84" x="1600" y="800" width="160" height="32"/>
  <object id="85" x="0" y="832" width="160" height="32"/>
  <object id="87" x="832" y="832" width="320" height="32"/>
  <object id="88" x="1600" y="832" width="160" height="32"/>
  <object id="89" x="0" y="864" width="160" height="32"/>
  <object id="92" x="832" y="864" width="160" height="32"/>
  <object id="93" x="1600" y="864" width="160" height="32"/>
  <object id="94" x="0" y="896" width="160" height="32"/>
  <object id="95" x="832" y="896" width="160" height="32"/>
  <object id="96" x="1600" y="896" width="160" height="32"/>
  <object id="97" x="0" y="928" width="1408" height="32"/>
  <object id="98" x="1440" y="928" width="320" height="32"/>
  <object id="99" x="1452" y="960" width="308" height="32"/>
  <object id="100" x="0" y="992" width="1056" height="32"/>
  <object id="101" x="1120" y="992" width="640" height="32"/>
  <object id="102" x="0" y="1024" width="1056" height="32"/>
  <object id="103" x="1120" y="1024" width="640" height="32"/>
  <object id="104" x="0" y="1056" width="256" height="32"/>
  <object id="105" x="832" y="1056" width="128" height="32"/>
  <object id="106" x="1600" y="1056" width="160" height="32"/>
  <object id="107" x="0" y="1088" width="416" height="32"/>
  <object id="108" x="544" y="1088" width="128" height="32"/>
  <object id="109" x="832" y="1088" width="128" height="32"/>
  <object id="110" x="1600" y="1088" width="160" height="32"/>
  <object id="111" x="0" y="1120" width="255.5" height="26"/>
  <object id="112" x="545.5" y="1100" width="122.5" height="32"/>
  <object id="113" x="832" y="1120" width="128" height="32"/>
  <object id="114" x="1536" y="1120" width="32" height="32"/>
  <object id="115" x="1600" y="1120" width="160" height="32"/>
  <object id="116" x="0" y="1152" width="192" height="32"/>
  <object id="117" x="672" y="1152" width="74.6667" height="32"/>
  <object id="118" x="832" y="1152" width="128" height="32"/>
  <object id="119" x="1600" y="1152" width="160" height="32"/>
  <object id="120" x="0" y="1184" width="192" height="32"/>
  <object id="121" x="236.667" y="1196" width="19.3333" height="20"/>
  <object id="122" x="608" y="1196.67" width="16.6667" height="19.3333"/>
  <object id="123" x="672" y="1184" width="74" height="32"/>
  <object id="124" x="832" y="1184" width="160" height="32"/>
  <object id="125" x="1472" y="1191.33" width="22" height="24.6667"/>
  <object id="126" x="1600" y="1184" width="160" height="32"/>
  <object id="127" x="0" y="1216" width="192" height="32"/>
  <object id="128" x="224" y="1216" width="32" height="32"/>
  <object id="129" x="608" y="1216" width="32" height="32"/>
  <object id="130" x="832" y="1216" width="192" height="32"/>
  <object id="131" x="1440" y="1216" width="64" height="32"/>
  <object id="132" x="1600" y="1216" width="160" height="32"/>
  <object id="133" x="0" y="1248" width="192" height="32"/>
  <object id="134" x="224" y="1248" width="27.5" height="32"/>
  <object id="135" x="800" y="1248" width="256" height="32"/>
  <object id="136" x="1408" y="1248" width="96" height="32"/>
  <object id="137" x="1600" y="1248" width="160" height="32"/>
  <object id="138" x="0" y="1280" width="192" height="32"/>
  <object id="139" x="224" y="1280" width="160" height="32"/>
  <object id="140" x="736" y="1280" width="32" height="32"/>
  <object id="141" x="800" y="1280" width="288" height="32"/>
  <object id="142" x="1376" y="1280" width="128" height="32"/>
  <object id="143" x="1600" y="1280" width="160" height="32"/>
  <object id="144" x="0" y="1312" width="192" height="32"/>
  <object id="145" x="224" y="1312" width="31.5" height="32"/>
  <object id="146" x="736" y="1312" width="32" height="32"/>
  <object id="147" x="800" y="1312" width="288" height="32"/>
  <object id="149" x="1376" y="1312" width="128" height="32"/>
  <object id="150" x="1600" y="1312" width="160" height="32"/>
  <object id="151" x="0" y="1344" width="192" height="32"/>
  <object id="152" x="224" y="1344" width="32" height="32"/>
  <object id="153" x="607.5" y="1369" width="96" height="8"/>
  <object id="154" x="800" y="1344" width="288" height="32"/>
  <object id="156" x="1376" y="1344" width="128" height="32"/>
  <object id="157" x="1600" y="1344" width="160" height="32"/>
  <object id="158" x="0" y="1376" width="192" height="32"/>
  <object id="159" x="224" y="1376" width="31.5" height="32"/>
  <object id="160" x="608" y="1376" width="120" height="28"/>
  <object id="161" x="800" y="1376" width="288" height="32"/>
  <object id="162" x="1130.67" y="1388.67" width="21.3333" height="19.3333"/>
  <object id="163" x="1312" y="1384.67" width="22" height="23.3333"/>
  <object id="164" x="1376" y="1376" width="128" height="32"/>
  <object id="165" x="1600" y="1376" width="160" height="32"/>
  <object id="166" x="0" y="1408" width="192" height="32"/>
  <object id="167" x="224" y="1408" width="30.5" height="32"/>
  <object id="168" x="608" y="1408" width="96" height="15.5"/>
  <object id="169" x="800" y="1408" width="288" height="32"/>
  <object id="170" x="1120" y="1408" width="224" height="32"/>
  <object id="171" x="1376" y="1408" width="128" height="32"/>
  <object id="172" x="1600" y="1408" width="160" height="32"/>
  <object id="173" x="0" y="1440" width="192" height="32"/>
  <object id="174" x="224" y="1440" width="29.5" height="32"/>
  <object id="175" x="800" y="1440" width="288" height="32"/>
  <object id="176" x="1120" y="1440" width="224" height="32"/>
  <object id="177" x="1376" y="1440" width="128" height="32"/>
  <object id="178" x="1600" y="1440" width="160" height="32"/>
  <object id="179" x="0" y="1472" width="192" height="32"/>
  <object id="180" x="224" y="1472" width="32" height="32"/>
  <object id="181" x="800" y="1472" width="288" height="32"/>
  <object id="182" x="1120" y="1472" width="224" height="32"/>
  <object id="183" x="1376" y="1472" width="128" height="32"/>
  <object id="184" x="1568" y="1472" width="192" height="32"/>
  <object id="185" x="0" y="1504" width="192" height="32"/>
  <object id="186" x="224" y="1504" width="32" height="32"/>
  <object id="187" x="800" y="1504" width="288" height="32"/>
  <object id="188" x="1120" y="1504" width="96" height="32"/>
  <object id="189" x="1248" y="1504" width="96" height="32"/>
  <object id="190" x="1376" y="1504" width="128" height="32"/>
  <object id="191" x="1600" y="1504" width="160" height="32"/>
  <object id="192" x="0" y="1536" width="192" height="32"/>
  <object id="193" x="224" y="1536" width="32" height="32"/>
  <object id="194" x="800" y="1536" width="288" height="32"/>
  <object id="195" x="1120" y="1536" width="96" height="32"/>
  <object id="196" x="1248" y="1536" width="96" height="32"/>
  <object id="197" x="1376" y="1536" width="128" height="32"/>
  <object id="198" x="1600" y="1536" width="160" height="32"/>
  <object id="199" x="0" y="1568" width="192" height="32"/>
  <object id="200" x="224" y="1568" width="32" height="32"/>
  <object id="201" x="800" y="1568" width="288" height="32"/>
  <object id="202" x="1376" y="1568" width="128" height="32"/>
  <object id="203" x="1600" y="1568" width="160" height="32"/>
  <object id="204" x="0" y="1600" width="192" height="32"/>
  <object id="205" x="224" y="1600" width="32" height="32"/>
  <object id="206" x="800" y="1600" width="288" height="32"/>
  <object id="207" x="1376" y="1600" width="128" height="32"/>
  <object id="208" x="1536" y="1600" width="32" height="32"/>
  <object id="209" x="1600" y="1600" width="160" height="32"/>
  <object id="210" x="0" y="1632" width="192" height="32"/>
  <object id="211" x="224" y="1632" width="32" height="32"/>
  <object id="212" x="800" y="1632" width="288" height="32"/>
  <object id="213" x="1376" y="1632" width="128" height="32"/>
  <object id="214" x="1600" y="1632" width="160" height="32"/>
  <object id="215" x="0" y="1664" width="192" height="32"/>
  <object id="216" x="224" y="1664" width="30" height="32"/>
  <object id="217" x="800" y="1664" width="288" height="32"/>
  <object id="218" x="1376" y="1664" width="128" height="32"/>
  <object id="219" x="1600" y="1664" width="160" height="32"/>
  <object id="220" x="0" y="1696" width="192" height="32"/>
  <object id="221" x="224" y="1696" width="128" height="32"/>
  <object id="222" x="384" y="1696" width="704" height="32"/>
  <object id="223" x="1376" y="1696" width="128" height="32"/>
  <object id="224" x="1600" y="1696" width="160" height="32"/>
  <object id="225" x="0" y="1728" width="192" height="32"/>
  <object id="226" x="832" y="1728" width="256" height="32"/>
  <object id="227" x="1376" y="1728" width="160" height="32"/>
  <object id="228" x="1600" y="1728" width="160" height="32"/>
  <object id="229" x="0" y="1760" width="224" height="32"/>
  <object id="230" x="256" y="1760" width="480" height="32"/>
  <object id="231" x="768" y="1760" width="320" height="32"/>
  <object id="232" x="1376" y="1760" width="128" height="32"/>
  <object id="233" x="1600" y="1760" width="160" height="32"/>
  <object id="234" x="0" y="1792" width="160" height="32"/>
  <object id="235" x="448" y="1792" width="96" height="32"/>
  <object id="236" x="576" y="1792" width="32" height="32"/>
  <object id="237" x="864" y="1792" width="224" height="32"/>
  <object id="238" x="1376" y="1792" width="128" height="32"/>
  <object id="239" x="1600" y="1792" width="160" height="32"/>
  <object id="240" x="0" y="1824" width="160" height="32"/>
  <object id="241" x="448" y="1824" width="96" height="32"/>
  <object id="242" x="576" y="1824" width="32" height="32"/>
  <object id="243" x="864" y="1824" width="224" height="32"/>
  <object id="244" x="1376" y="1824" width="128" height="32"/>
  <object id="245" x="1605" y="1833.86" width="155" height="22.1429"/>
  <object id="246" x="0" y="1856" width="160" height="32"/>
  <object id="247" x="448" y="1856" width="96" height="32"/>
  <object id="248" x="576" y="1856" width="32" height="32"/>
  <object id="249" x="864" y="1856" width="224" height="32"/>
  <object id="250" x="1376" y="1856" width="128" height="32"/>
  <object id="251" x="1605" y="1856" width="155" height="22.1429"/>
  <object id="252" x="0" y="1888" width="160" height="32"/>
  <object id="253" x="320" y="1888" width="96" height="32"/>
  <object id="254" x="448" y="1888" width="96" height="32"/>
  <object id="255" x="576" y="1888" width="32" height="32"/>
  <object id="256" x="864" y="1888" width="224" height="32"/>
  <object id="257" x="1376" y="1888" width="128" height="32"/>
  <object id="258" x="1600" y="1888" width="160" height="32"/>
  <object id="259" x="0" y="1920" width="160" height="32"/>
  <object id="260" x="320" y="1920" width="96" height="32"/>
  <object id="261" x="448" y="1920" width="96" height="32"/>
  <object id="262" x="576" y="1920" width="32" height="32"/>
  <object id="263" x="864" y="1920" width="224" height="32"/>
  <object id="264" x="1376" y="1920" width="128" height="32"/>
  <object id="265" x="1600" y="1920" width="160" height="32"/>
  <object id="266" x="0" y="1952" width="160" height="32"/>
  <object id="267" x="320" y="1952" width="96" height="32"/>
  <object id="268" x="448" y="1952" width="96" height="32"/>
  <object id="269" x="576" y="1952" width="32" height="32"/>
  <object id="270" x="864" y="1952" width="224" height="32"/>
  <object id="271" x="1376" y="1952" width="128" height="32"/>
  <object id="272" x="1600" y="1952" width="160" height="32"/>
  <object id="273" x="0" y="1984" width="160" height="32"/>
  <object id="274" x="448" y="1984" width="96" height="32"/>
  <object id="275" x="576" y="1984" width="32" height="32"/>
  <object id="276" x="736" y="1984" width="96" height="32"/>
  <object id="277" x="864" y="1984" width="224" height="32"/>
  <object id="278" x="1376" y="1984" width="128" height="32"/>
  <object id="279" x="1600" y="1984" width="160" height="32"/>
  <object id="280" x="0" y="2016" width="160" height="32"/>
  <object id="281" x="448" y="2016" width="96" height="32"/>
  <object id="282" x="576" y="2016" width="64" height="32"/>
  <object id="283" x="672" y="2016" width="96" height="32"/>
  <object id="284" x="800" y="2016" width="32" height="32"/>
  <object id="285" x="864" y="2016" width="224" height="32"/>
  <object id="287" x="1376" y="2016" width="128" height="32"/>
  <object id="288" x="1600" y="2016" width="160" height="32"/>
  <object id="289" x="0" y="2048" width="160" height="32"/>
  <object id="290" x="448" y="2048" width="91" height="32"/>
  <object id="291" x="640" y="2048" width="64" height="32"/>
  <object id="292" x="800" y="2048" width="32" height="32"/>
  <object id="293" x="864" y="2048" width="224" height="32"/>
  <object id="295" x="1376" y="2048" width="128" height="32"/>
  <object id="296" x="1568" y="2048" width="192" height="32"/>
  <object id="297" x="0" y="2080" width="160" height="32"/>
  <object id="298" x="448" y="2080" width="92" height="32"/>
  <object id="299" x="800" y="2080" width="32" height="32"/>
  <object id="300" x="864" y="2080" width="224" height="32"/>
  <object id="301" x="1376" y="2080" width="128" height="32"/>
  <object id="302" x="1600" y="2080" width="160" height="32"/>
  <object id="303" x="0" y="2112" width="160" height="32"/>
  <object id="304" x="448" y="2112" width="96" height="32"/>
  <object id="305" x="800" y="2112" width="32" height="32"/>
  <object id="306" x="864" y="2112" width="224" height="32"/>
  <object id="307" x="1376" y="2112" width="128" height="32"/>
  <object id="308" x="1600" y="2112" width="160" height="32"/>
  <object id="309" x="0" y="2144" width="160" height="32"/>
  <object id="310" x="448" y="2144" width="96" height="32"/>
  <object id="311" x="800" y="2144" width="32" height="32"/>
  <object id="312" x="864" y="2144" width="224" height="32"/>
  <object id="313" x="1376" y="2144" width="128" height="32"/>
  <object id="314" x="1600" y="2144" width="160" height="32"/>
  <object id="315" x="0" y="2176" width="160" height="32"/>
  <object id="316" x="448" y="2176" width="96" height="32"/>
  <object id="317" x="800" y="2176" width="32" height="32"/>
  <object id="318" x="864" y="2176" width="224" height="32"/>
  <object id="319" x="1376" y="2176" width="128" height="32"/>
  <object id="320" x="1600" y="2176" width="160" height="32"/>
  <object id="321" x="0" y="2208" width="160" height="32"/>
  <object id="323" x="448" y="2208" width="96" height="32"/>
  <object id="324" x="800" y="2208" width="32" height="32"/>
  <object id="325" x="864" y="2208" width="448" height="32"/>
  <object id="326" x="1344" y="2208" width="160" height="32"/>
  <object id="327" x="1536" y="2208" width="32" height="32"/>
  <object id="328" x="1600" y="2208" width="160" height="32"/>
  <object id="329" x="0" y="2240" width="160" height="32"/>
  <object id="331" x="448" y="2240" width="96" height="32"/>
  <object id="332" x="800" y="2240" width="32" height="32"/>
  <object id="333" x="864" y="2240" width="192" height="32"/>
  <object id="334" x="1408" y="2240" width="96" height="32"/>
  <object id="335" x="1600" y="2240" width="160" height="32"/>
  <object id="336" x="0" y="2272" width="160" height="32"/>
  <object id="337" x="352" y="2272" width="192" height="32"/>
  <object id="338" x="608" y="2272" width="128" height="32"/>
  <object id="339" x="800" y="2272" width="32" height="32"/>
  <object id="340" x="864" y="2272" width="184" height="32"/>
  <object id="341" x="1408" y="2272" width="96" height="32"/>
  <object id="342" x="1600" y="2272" width="160" height="32"/>
  <object id="343" x="0" y="2304" width="160" height="32"/>
  <object id="344" x="352" y="2304" width="192" height="32"/>
  <object id="345" x="576" y="2304" width="32" height="32"/>
  <object id="346" x="704" y="2304" width="32" height="32"/>
  <object id="347" x="800" y="2304" width="32" height="32"/>
  <object id="348" x="864" y="2304" width="186" height="32"/>
  <object id="349" x="1408" y="2304" width="128" height="32"/>
  <object id="350" x="1600" y="2304" width="160" height="32"/>
  <object id="351" x="0" y="2336" width="160" height="32"/>
  <object id="352" x="352" y="2336" width="192" height="32"/>
  <object id="353" x="576" y="2336" width="32" height="32"/>
  <object id="354" x="800" y="2336" width="32" height="32"/>
  <object id="355" x="864" y="2336" width="192" height="32"/>
  <object id="356" x="1408" y="2336" width="96" height="32"/>
  <object id="357" x="1600" y="2336" width="160" height="32"/>
  <object id="358" x="0" y="2368" width="160" height="32"/>
  <object id="359" x="352" y="2368" width="192" height="32"/>
  <object id="360" x="576" y="2368" width="32" height="32"/>
  <object id="361" x="800" y="2368" width="32" height="32"/>
  <object id="362" x="864" y="2368" width="192" height="32"/>
  <object id="363" x="1408" y="2368" width="96" height="32"/>
  <object id="364" x="1600" y="2368" width="160" height="32"/>
  <object id="365" x="0" y="2400" width="160" height="32"/>
  <object id="366" x="352" y="2400" width="192" height="32"/>
  <object id="367" x="576" y="2400" width="32" height="32"/>
  <object id="368" x="800" y="2400" width="32" height="32"/>
  <object id="369" x="864" y="2400" width="256" height="32"/>
  <object id="370" x="1152" y="2400" width="352" height="32"/>
  <object id="371" x="1600" y="2400" width="160" height="32"/>
  <object id="372" x="0" y="2432" width="160" height="32"/>
  <object id="373" x="352" y="2432" width="192" height="32"/>
  <object id="374" x="576" y="2432" width="32" height="32"/>
  <object id="375" x="800" y="2432" width="32" height="32"/>
  <object id="376" x="864" y="2432" width="160" height="32"/>
  <object id="377" x="1440" y="2432" width="64" height="32"/>
  <object id="378" x="1568" y="2432" width="192" height="32"/>
  <object id="379" x="0" y="2464" width="160" height="32"/>
  <object id="380" x="352" y="2464" width="192" height="32"/>
  <object id="381" x="576" y="2464" width="32" height="32"/>
  <object id="382" x="800" y="2464" width="32" height="32"/>
  <object id="383" x="864" y="2464" width="160" height="32"/>
  <object id="384" x="1440" y="2464" width="64" height="32"/>
  <object id="385" x="1600" y="2464" width="160" height="32"/>
  <object id="386" x="0" y="2496" width="160" height="32"/>
  <object id="387" x="352" y="2496" width="192" height="32"/>
  <object id="388" x="608" y="2496" width="32" height="32"/>
  <object id="389" x="800" y="2496" width="32" height="32"/>
  <object id="390" x="864" y="2496" width="160" height="32"/>
  <object id="391" x="1440" y="2496" width="64" height="32"/>
  <object id="392" x="1600" y="2496" width="160" height="32"/>
  <object id="393" x="0" y="2528" width="160" height="32"/>
  <object id="394" x="352" y="2528" width="192" height="32"/>
  <object id="395" x="608" y="2528" width="64" height="32"/>
  <object id="396" x="768" y="2528" width="64" height="32"/>
  <object id="397" x="864" y="2528" width="160" height="32"/>
  <object id="398" x="1440" y="2528" width="64" height="32"/>
  <object id="399" x="1600" y="2528" width="160" height="32"/>
  <object id="400" x="0" y="2560" width="160" height="32"/>
  <object id="401" x="192" y="2560" width="96" height="32"/>
  <object id="402" x="320" y="2560" width="224" height="32"/>
  <object id="403" x="640" y="2560" width="160" height="32"/>
  <object id="404" x="864" y="2560" width="160" height="32"/>
  <object id="405" x="1440" y="2560" width="64" height="32"/>
  <object id="406" x="1600" y="2560" width="160" height="32"/>
  <object id="407" x="0" y="2592" width="160" height="32"/>
  <object id="408" x="192" y="2592" width="128" height="32"/>
  <object id="409" x="352" y="2592" width="192" height="32"/>
  <object id="410" x="864" y="2592" width="480" height="32"/>
  <object id="411" x="1376" y="2592" width="128" height="32"/>
  <object id="412" x="1600" y="2592" width="160" height="32"/>
  <object id="413" x="0" y="2624" width="160" height="32"/>
  <object id="414" x="192" y="2624" width="96" height="32"/>
  <object id="415" x="352" y="2624" width="192" height="32"/>
  <object id="416" x="864" y="2624" width="128" height="32"/>
  <object id="417" x="1472" y="2624" width="32" height="32"/>
  <object id="418" x="1600" y="2624" width="160" height="32"/>
  <object id="419" x="0" y="2656" width="160" height="32"/>
  <object id="420" x="352" y="2656" width="192" height="32"/>
  <object id="421" x="864" y="2656" width="128" height="32"/>
  <object id="422" x="1472" y="2656" width="32" height="32"/>
  <object id="423" x="1600" y="2656" width="160" height="32"/>
  <object id="424" x="0" y="2688" width="160" height="32"/>
  <object id="425" x="352" y="2688" width="640" height="32"/>
  <object id="426" x="1472" y="2688" width="32" height="32"/>
  <object id="427" x="1536" y="2688" width="32" height="32"/>
  <object id="428" x="1600" y="2688" width="160" height="32"/>
  <object id="429" x="0" y="2720" width="160" height="32"/>
  <object id="430" x="352" y="2720" width="640" height="32"/>
  <object id="431" x="1472" y="2720" width="32" height="32"/>
  <object id="432" x="1600" y="2720" width="160" height="32"/>
  <object id="433" x="0" y="2752" width="160" height="32"/>
  <object id="434" x="352" y="2752" width="640" height="32"/>
  <object id="436" x="1472" y="2752" width="32" height="32"/>
  <object id="437" x="1600" y="2752" width="160" height="32"/>
  <object id="438" x="0" y="2784" width="160" height="32"/>
  <object id="439" x="352" y="2784" width="640" height="32"/>
  <object id="441" x="1472" y="2784" width="32" height="32"/>
  <object id="442" x="1604" y="2793.71" width="156" height="22.2857"/>
  <object id="443" x="0" y="2816" width="160" height="32"/>
  <object id="444" x="352" y="2816" width="640" height="32"/>
  <object id="445" x="1472" y="2816" width="32" height="32"/>
  <object id="446" x="1604" y="2816" width="156" height="22.2857"/>
  <object id="447" x="0" y="2848" width="160" height="32"/>
  <object id="448" x="352" y="2848" width="640" height="32"/>
  <object id="449" x="1472" y="2848" width="32" height="32"/>
  <object id="450" x="1600" y="2848" width="160" height="32"/>
  <object id="451" x="0" y="2880" width="160" height="32"/>
  <object id="452" x="352" y="2880" width="640" height="32"/>
  <object id="453" x="1472" y="2880" width="32" height="32"/>
  <object id="454" x="1600" y="2880" width="160" height="32"/>
  <object id="455" x="0" y="2912" width="160" height="32"/>
  <object id="456" x="224" y="2912" width="768" height="32"/>
  <object id="457" x="1472" y="2912" width="32" height="32"/>
  <object id="458" x="1600" y="2912" width="160" height="32"/>
  <object id="459" x="0" y="2944" width="256" height="32"/>
  <object id="460" x="352" y="2944" width="672" height="32"/>
  <object id="461" x="1056" y="2944" width="444" height="32"/>
  <object id="462" x="1600" y="2944" width="160" height="32"/>
  <object id="463" x="0" y="2976" width="160" height="32"/>
  <object id="464" x="352" y="2976" width="640" height="32"/>
  <object id="465" x="1536" y="2976" width="32" height="32"/>
  <object id="466" x="1600" y="2976" width="160" height="32"/>
  <object id="467" x="0" y="3008" width="160" height="32"/>
  <object id="468" x="352" y="3008" width="608" height="32"/>
  <object id="469" x="992" y="3008" width="32" height="32"/>
  <object id="470" x="1600" y="3008" width="160" height="32"/>
  <object id="471" x="269.333" y="3040" width="1490.67" height="32"/>
  <object id="472" x="0" y="3072" width="1760" height="32"/>
  <object id="473" x="0" y="3104" width="1760" height="32"/>
  <object id="474" x="0" y="3136" width="1760" height="32"/>
  <object id="475" x="0" y="3168" width="1760" height="32"/>
  <object id="504" x="1285" y="352.5" width="21.5" height="380"/>
  <object id="505" x="-1" y="964" width="1052" height="26"/>
  <object id="506" x="610" y="2080" width="64" height="32"/>
  <object id="509" x="157.75" y="1106.5" width="255.5" height="26"/>
  <object id="510" x="287.75" y="1429.5" width="29.5" height="32"/>
  <object id="511" x="385.25" y="1428.5" width="29.5" height="32"/>
  <object id="512" x="383.25" y="1404.5" width="29.5" height="32"/>
  <object id="513" x="288.25" y="1408" width="29.5" height="32"/>
  <object id="514" x="261.25" y="1276" width="86.5" height="48"/>
  <object id="515" x="766.667" y="574.667" width="32" height="32"/>
  <object id="516" x="842.667" y="545.333" width="392.667" height="32"/>
  <object id="519" x="3.33333" y="3042" width="208" height="28"/>
 </objectgroup>
 <objectgroup id="5" name="eventi">
  <object id="478" name="gdf_grotta_vulcano_1f_1" x="274" y="2904">
   <properties>
    <property name="direzione" value="nord"/>
    <property name="id" value="gdf_grotta_vulcano_1f_1"/>
    <property name="sprite" value="GDF_GRUNT_SPRITE"/>
    <property name="type" value="trainer"/>
    <property name="vista" type="int" value="8"/>
    <property name="gate" type="bool" value="true"/>
    <property name="condizione" value="gdf_boss_grotta_vulcano_sconfitto"/>
    <property name="noTestBypass" type="bool" value="true"/>
   </properties>
   <point/>
  </object>
  <object id="479" name="gdf_grotta_vulcano_1f_2" x="1300.67" y="2265.33">
   <properties>
    <property name="direzione" value="sud"/>
    <property name="id" value="gdf_grotta_vulcano_1f_2"/>
    <property name="sprite" value="GDF_GRUNT_SPRITE"/>
    <property name="type" value="trainer"/>
    <property name="vista" type="int" value="5"/>
    <property name="gate" type="bool" value="true"/>
    <property name="condizione" value="gdf_boss_grotta_vulcano_sconfitto"/>
    <property name="noTestBypass" type="bool" value="true"/>
   </properties>
   <point/>
  </object>
  <object id="480" name="gdf_grotta_vulcano_1f_3" x="1427.33" y="2650">
   <properties>
    <property name="direzione" value="ovest"/>
    <property name="id" value="gdf_grotta_vulcano_1f_3"/>
    <property name="sprite" value="GDF_GRUNT_SPRITE"/>
    <property name="type" value="trainer"/>
    <property name="vista" type="int" value="5"/>
    <property name="gate" type="bool" value="true"/>
    <property name="condizione" value="gdf_boss_grotta_vulcano_sconfitto"/>
    <property name="noTestBypass" type="bool" value="true"/>
   </properties>
   <point/>
  </object>
  <object id="481" name="gdf_grotta_vulcano_1f_4" x="655.333" y="2261.33">
   <properties>
    <property name="direzione" value="est"/>
    <property name="id" value="gdf_grotta_vulcano_1f_4"/>
    <property name="sprite" value="GDF_GRUNT_SPRITE"/>
    <property name="type" value="trainer"/>
    <property name="vista" type="int" value="5"/>
    <property name="gate" type="bool" value="true"/>
    <property name="condizione" value="gdf_boss_grotta_vulcano_sconfitto"/>
    <property name="noTestBypass" type="bool" value="true"/>
   </properties>
   <point/>
  </object>
  <object id="482" name="gdf_grotta_vulcano_1f_5" x="1175.33" y="2459.33">
   <properties>
    <property name="direzione" value="sud"/>
    <property name="id" value="gdf_grotta_vulcano_1f_5"/>
    <property name="sprite" value="GDF_GRUNT_SPRITE"/>
    <property name="type" value="trainer"/>
    <property name="vista" type="int" value="5"/>
    <property name="gate" type="bool" value="true"/>
    <property name="condizione" value="gdf_boss_grotta_vulcano_sconfitto"/>
    <property name="noTestBypass" type="bool" value="true"/>
   </properties>
   <point/>
  </object>
  <object id="483" name="gdf_grotta_vulcano_1f_6" x="243.333" y="2676">
   <properties>
    <property name="direzione" value="sud"/>
    <property name="id" value="gdf_grotta_vulcano_1f_6"/>
    <property name="sprite" value="GDF_GRUNT_SPRITE"/>
    <property name="type" value="trainer"/>
    <property name="vista" type="int" value="8"/>
    <property name="gate" type="bool" value="true"/>
    <property name="condizione" value="gdf_boss_grotta_vulcano_sconfitto"/>
    <property name="noTestBypass" type="bool" value="true"/>
   </properties>
   <point/>
  </object>
  <object id="484" name="gdf_grotta_vulcano_1f_7" x="626.667" y="822.667">
   <properties>
    <property name="direzione" value="sud"/>
    <property name="id" value="gdf_grotta_vulcano_1f_7"/>
    <property name="sprite" value="GDF_GRUNT_SPRITE"/>
    <property name="type" value="trainer"/>
    <property name="vista" type="int" value="5"/>
    <property name="gate" type="bool" value="true"/>
    <property name="condizione" value="gdf_boss_grotta_vulcano_sconfitto"/>
    <property name="noTestBypass" type="bool" value="true"/>
   </properties>
   <point/>
  </object>
  <object id="485" name="gdf_grotta_vulcano_1f_8" x="756" y="273.333">
   <properties>
    <property name="direzione" value="ovest"/>
    <property name="id" value="gdf_grotta_vulcano_1f_8"/>
    <property name="sprite" value="GDF_GRUNT_SPRITE"/>
    <property name="type" value="trainer"/>
    <property name="vista" type="int" value="5"/>
    <property name="gate" type="bool" value="true"/>
    <property name="condizione" value="gdf_boss_grotta_vulcano_sconfitto"/>
    <property name="noTestBypass" type="bool" value="true"/>
   </properties>
   <point/>
  </object>
  <object id="486" name="gdf_grotta_vulcano_1f_9" x="784.667" y="730">
   <properties>
    <property name="direzione" value="ovest"/>
    <property name="id" value="gdf_grotta_vulcano_1f_9"/>
    <property name="sprite" value="GDF_GRUNT_SPRITE"/>
    <property name="type" value="trainer"/>
    <property name="vista" type="int" value="5"/>
    <property name="gate" type="bool" value="true"/>
    <property name="condizione" value="gdf_boss_grotta_vulcano_sconfitto"/>
    <property name="noTestBypass" type="bool" value="true"/>
   </properties>
   <point/>
  </object>
  <object id="487" name="gdf_grotta_vulcano_1f_10" x="1516.67" y="1078">
   <properties>
    <property name="direzione" value="sud"/>
    <property name="id" value="gdf_grotta_vulcano_1f_10"/>
    <property name="sprite" value="GDF_GRUNT_SPRITE"/>
    <property name="type" value="trainer"/>
    <property name="vista" type="int" value="5"/>
    <property name="gate" type="bool" value="true"/>
    <property name="condizione" value="gdf_boss_grotta_vulcano_sconfitto"/>
    <property name="noTestBypass" type="bool" value="true"/>
   </properties>
   <point/>
  </object>
  <object id="488" name="gdf_grotta_vulcano_1f_11" x="1364" y="312">
   <properties>
    <property name="direzione" value="est"/>
    <property name="id" value="gdf_grotta_vulcano_1f_11"/>
    <property name="sprite" value="GDF_GRUNT_SPRITE"/>
    <property name="type" value="trainer"/>
    <property name="vista" type="int" value="5"/>
    <property name="gate" type="bool" value="true"/>
    <property name="condizione" value="gdf_boss_grotta_vulcano_sconfitto"/>
    <property name="noTestBypass" type="bool" value="true"/>
   </properties>
   <point/>
  </object>
  <object id="489" name="gdf_grotta_vulcano_1f_12" x="660" y="411.333">
   <properties>
    <property name="direzione" value="sud"/>
    <property name="id" value="gdf_grotta_vulcano_1f_12"/>
    <property name="sprite" value="GDF_GRUNT_SPRITE"/>
    <property name="type" value="trainer"/>
    <property name="vista" type="int" value="6"/>
    <property name="gate" type="bool" value="true"/>
    <property name="condizione" value="gdf_boss_grotta_vulcano_sconfitto"/>
    <property name="noTestBypass" type="bool" value="true"/>
   </properties>
   <point/>
  </object>
  <object id="490" name="gdf_infiltrato_grotta_vulcano" x="339.333" y="1396.67">
   <properties>
    <property name="direzione" value="sud"/>
    <property name="id" value="gdf_infiltrato_grotta_vulcano"/>
    <property name="sprite" value="GDF_GRUNT_SPRITE"/>
    <property name="type" value="npc"/>
   </properties>
   <point/>
  </object>
  <object id="491" name="warp_grotta_vulcano_2f_a" x="182" y="3002">
   <properties>
    <property name="destinazione" value="grotta_vulcano_2f"/>
    <property name="spawn_id" value="spawn_2f_a"/>
    <property name="type" value="warp"/>
   
    <property name="condizione" value="pietra_zaffiro_ottenuta"/>
    <property name="messaggio_gate" value="🔒 Troppi GdF di guardia qui dentro: meglio non rischiare da solo, per ora."/>
   </properties>
   <point/>
  </object>
  <object id="492" name="spawn_da_grotta_vulcano_2f_a" x="211" y="2997.67">
   <properties>
    <property name="id" value="da_grotta_vulcano_2f_a"/>
    <property name="type" value="spawn"/>
   </properties>
   <point/>
  </object>
  <object id="493" name="warp_grotta_vulcano_2f_b" x="527.333" y="1240.33">
   <properties>
    <property name="destinazione" value="grotta_vulcano_2f_b"/>
    <property name="spawn_id" value="spawn_2f_b"/>
    <property name="type" value="warp"/>
   
    <property name="condizione" value="pietra_zaffiro_ottenuta"/>
    <property name="messaggio_gate" value="🔒 Troppi GdF di guardia qui dentro: meglio non rischiare da solo, per ora."/>
   </properties>
   <point/>
  </object>
  <object id="494" name="spawn_grotta_vulcano_1f_b" x="492.667" y="1239.33">
   <properties>
    <property name="id" value="da_grotta_vulcano_2f_b"/>
    <property name="type" value="spawn"/>
   </properties>
   <point/>
  </object>
  <object id="495" name="warp_grotta_vulcano_2f_c" x="496.333" y="1139.33">
   <properties>
    <property name="destinazione" value="grotta_vulcano_2f_c"/>
    <property name="spawn_id" value="spawn_2f_c"/>
    <property name="type" value="warp"/>
   
    <property name="condizione" value="pietra_zaffiro_ottenuta"/>
    <property name="messaggio_gate" value="🔒 Troppi GdF di guardia qui dentro: meglio non rischiare da solo, per ora."/>
   </properties>
   <point/>
  </object>
  <object id="496" name="spawn_da_grotta_vulcano_2f_c" x="466.667" y="1161">
   <properties>
    <property name="id" value="da_grotta_vulcano_2f_c"/>
    <property name="type" value="spawn"/>
   </properties>
   <point/>
  </object>
  <object id="497" name="warp_grotta_vulcano_3f_a" x="1233.67" y="1546.67">
   <properties>
    <property name="destinazione" value="grotta_vulcano_3f_a"/>
    <property name="spawn_id" value="da_grotta_vulcano_3f_a"/>
    <property name="type" value="warp"/>
   
    <property name="condizione" value="pietra_zaffiro_ottenuta"/>
    <property name="messaggio_gate" value="🔒 Troppi GdF di guardia qui dentro: meglio non rischiare da solo, per ora."/>
   </properties>
   <point/>
  </object>
  <object id="498" name="spawn_da_grotta_vulcano_3f_a" x="1233.17" y="1589.75">
   <properties>
    <property name="id" value="da_grotta_vulcano_1f_e"/>
    <property name="type" value="spawn"/>
   </properties>
   <point/>
  </object>
  <object id="499" name="oggetto_gv_iperpozione" x="1139" y="1331">
   <properties>
    <property name="contenuto" value="iperpozione"/>
    <property name="id" value="oggetto_gv_iperpozione"/>
    <property name="quantita" type="int" value="1"/>
    <property name="type" value="oggetto"/>
   </properties>
   <point/>
  </object>
  <object id="500" name="oggetto_gv_revitalizzante" x="622" y="1816">
   <properties>
    <property name="contenuto" value="revitalizzante"/>
    <property name="id" value="oggetto_gv_revitalizzante"/>
    <property name="quantita" type="int" value="1"/>
    <property name="type" value="oggetto"/>
   </properties>
   <point/>
  </object>
  <object id="501" name="oggetto_gv_elisir" x="780.333" y="412.667">
   <properties>
    <property name="contenuto" value="elisir"/>
    <property name="id" value="oggetto_gv_elisir"/>
    <property name="quantita" type="int" value="1"/>
    <property name="type" value="oggetto"/>
   </properties>
   <point/>
  </object>
  <object id="502" name="oggetto_gv_pietra_fuoco" x="335.667" y="2617.67">
   <properties>
    <property name="contenuto" value="pietra_fuoco"/>
    <property name="id" value="oggetto_gv_pietra_fuoco"/>
    <property name="quantita" type="int" value="1"/>
    <property name="type" value="oggetto"/>
   </properties>
   <point/>
  </object>
  <object id="503" name="oggetto_gv_mt_earthquake" x="1008" y="918">
   <properties>
    <property name="contenuto" value="mt_earthquake"/>
    <property name="id" value="oggetto_gv_mt_earthquake"/>
    <property name="quantita" type="int" value="1"/>
    <property name="type" value="oggetto"/>
   </properties>
   <point/>
  </object>
  <object id="507" name="warp_rocca_di_papa" x="144" y="277">
   <properties>
    <property name="destinazione" value="rocca_di_papa"/>
    <property name="spawn_id" value="da_grotta_vulcano"/>
    <property name="type" value="warp"/>
   </properties>
   <point/>
  </object>
  <object id="508" name="spawn_da_rocca_di_papa" x="182" y="281">
   <properties>
    <property name="id" value="da_rocca_di_papa_grotta"/>
    <property name="type" value="spawn"/>
   </properties>
   <point/>
  </object>
  <object id="520" name="warp_grotta_vulcano_3f_b" x="239.5" y="3064.92">
   <properties>
    <property name="destinazione" value="grotta_vulcano_3f_b"/>
    <property name="spawn_id" value="da_grotta_vulcano_3f_b"/>
    <property name="type" value="warp"/>
   
    <property name="condizione" value="pietra_zaffiro_ottenuta"/>
    <property name="messaggio_gate" value="🔒 Troppi GdF di guardia qui dentro: meglio non rischiare da solo, per ora."/>
   </properties>
   <point/>
  </object>
  <object id="521" name="spawn_da_grotta_vulcano_3f_b" x="239" y="3036">
   <properties>
    <property name="id" value="da_grotta_vulcano_1f_f"/>
    <property name="type" value="spawn"/>
   </properties>
   <point/>
  </object>
  <object id="522" name="warp_grotta_vulcano_3f_c" x="694" y="2418.12">
   <properties>
    <property name="destinazione" value="grotta_vulcano_3f_c"/>
    <property name="spawn_id" value="da_grotta_vulcano_1f_g"/>
    <property name="type" value="warp"/>
   
    <property name="condizione" value="pietra_zaffiro_ottenuta"/>
    <property name="messaggio_gate" value="🔒 Troppi GdF di guardia qui dentro: meglio non rischiare da solo, per ora."/>
   </properties>
   <point/>
  </object>
  <object id="523" name="spawn_da_grotta_vulcano_1f_g" x="722.545" y="2422">
   <properties>
    <property name="id" value="da_grotta_vulcano_3f_c"/>
    <property name="type" value="spawn"/>
   </properties>
   <point/>
  </object>
 </objectgroup>
</map>
