<?xml version="1.0" encoding="UTF-8"?>
<map version="1.10" tiledversion="1.12.2" orientation="orthogonal" renderorder="right-down" width="66" height="109" tilewidth="32" tileheight="32" infinite="0" nextlayerid="7" nextobjectid="181">
 <properties>
  <property name="zone_id" value="lago_di_albano-spiaggia"/>
 </properties>
 <tileset firstgid="1" source="../Sea.tsj"/>
 <tileset firstgid="99" source="../../outside.tsx"/>
 <tileset firstgid="4115" source="../pokemon_emerald_exterior_32.tsj"/>
 <tileset firstgid="10187" source="../Outside_pallet.tsx"/>
 <tileset firstgid="14203" source="../outside.tsx"/>
 <tileset firstgid="18219" source=":/automap-tiles.tsx"/>
 <tileset firstgid="18224" source="../spiaggia_animata_onde.tsj"/>
 <layer id="1" name="ground" width="66" height="109">
  <data encoding="csv">
0,0,0,0,0,0,0,0,0,0,0,0,0,0,0,15079,15079,15079,15079,15079,15079,15079,15079,15079,15079,15079,15079,15079,15079,15079,15079,15079,15079,15079,15079,15079,15079,15079,15079,15079,15079,15079,15079,15079,15079,15079,15079,15079,15079,15079,15079,15079,15079,15079,15079,15079,15079,0,0,0,0,0,0,0,0,0,
0,0,0,0,0,0,0,0,0,0,0,0,0,0,0,15079,15079,15079,15079,15079,15079,15079,15079,15079,15079,15079,15079,15079,15079,15079,15079,15079,15079,15079,15079,15079,15079,15079,15079,15079,15079,15079,15079,15079,15079,15079,15079,15079,15079,15079,15079,15079,15079,15079,15079,15079,15079,0,0,0,0,0,0,0,0,0,
0,0,0,0,0,0,0,0,0,0,0,0,0,0,0,15079,15079,15079,15079,15079,15079,15079,15079,15079,15079,15079,15079,15079,15079,15079,15079,15079,15079,15079,15079,15079,15079,15079,15079,15079,15079,15079,15079,15079,15079,15079,15079,15079,15079,15079,15079,15079,15079,15079,15079,15079,15079,0,0,0,0,0,0,0,0,0,
0,0,0,0,0,0,0,0,0,0,0,0,0,0,0,15079,15079,15079,15079,15079,15079,15079,15079,15079,15079,15079,15079,15079,15079,15079,15079,15079,15079,15079,15079,15079,15079,15079,15079,15079,15079,15079,15079,15079,15079,15079,15079,15079,15079,15079,15079,15079,15079,15079,15079,15079,15079,0,0,0,0,0,0,0,0,0,
0,0,0,0,0,0,0,0,0,0,0,0,0,0,0,15079,15079,15079,15079,15079,15079,15079,15079,15079,15079,15079,15079,15079,15079,15079,15079,15079,15079,15079,15079,15079,15079,15079,15079,15079,15079,15079,15079,15079,15079,15079,15079,15079,15079,15079,15079,15079,15079,15079,15079,15079,15079,0,0,0,0,0,0,0,0,0,
0,0,0,0,0,0,0,0,0,0,0,0,0,0,0,15079,15079,15079,15079,15079,15079,15079,15079,15079,15079,15079,15079,15079,15079,15079,15079,15079,15079,15079,15079,15079,15079,15079,15079,15079,15079,15079,15079,15079,15079,15079,15079,15079,15079,15079,15079,15079,15079,15079,15079,15079,15079,0,0,0,0,0,0,0,0,0,
0,0,0,0,0,0,0,0,0,0,0,0,0,0,0,15079,15079,15079,15079,15079,15079,15079,15079,15079,15079,15079,15079,15079,15079,15079,15079,15079,15079,15079,15079,15079,15079,15079,15079,15079,15079,15079,15079,15079,15079,15079,15079,15079,15079,15079,15079,15079,15079,15079,15079,15079,15079,0,0,0,0,0,0,0,0,0,
0,0,0,0,0,0,0,0,0,0,0,0,0,0,0,15079,15079,15079,15079,15079,15079,15079,15079,15079,15079,15079,15079,15079,15079,15079,15079,15079,15079,15079,15079,15079,15079,15079,15079,15079,15079,15079,15079,15079,15079,15079,15079,15079,15079,15079,15079,15079,15079,15079,15079,15079,15079,0,0,0,0,0,0,0,0,0,
14204,14204,14204,14204,14204,14204,14204,14204,14204,14204,14204,14204,14204,14204,14204,15079,15079,15079,15079,15079,15079,15079,15079,15079,15079,15079,15079,15079,15079,15079,15079,15079,15079,15079,15079,15079,15079,15079,15079,15079,15079,15079,15079,15079,15079,15079,15079,15079,15079,15079,15079,15079,15079,15079,15079,15079,15079,101,101,101,101,101,101,101,101,101,
14204,14204,14204,14204,14204,14204,14204,14204,14204,14204,14204,14204,14204,14204,14204,14204,14204,14204,14204,14204,14204,14204,14204,14204,14204,14204,14204,14204,14204,14204,14204,14204,14204,14204,14204,14204,14204,14204,14204,14204,14204,14204,14204,14204,14204,14204,14204,14204,14204,14204,14204,14204,14204,14204,14204,101,15098,101,101,101,101,101,101,101,101,101,
14204,14204,14204,14204,14204,14204,14204,14204,14204,14204,14204,14204,14204,14204,14204,14204,14204,14204,14204,14204,14204,14204,14204,14204,14204,14204,14204,14204,14204,14204,14204,14204,14204,14204,14204,14204,14204,14204,14204,14204,14204,14204,14204,14204,14204,14204,14204,14204,14204,14204,14204,14204,14204,14204,14204,101,101,101,101,101,101,101,101,101,101,101,
14204,14204,14204,14204,14204,14204,14204,14204,14204,14204,14204,14204,14204,14204,14204,14204,14204,14204,14204,14204,14204,14204,14204,14204,14204,14204,14204,14204,14204,14204,14204,14204,14204,14204,14204,14204,14204,14204,14204,14204,14204,14204,14204,14204,14204,14204,14204,14204,14204,14204,14204,14204,14204,14204,14204,101,101,101,101,101,101,101,101,101,101,101,
14204,14204,14204,14204,14204,14204,14204,14204,14204,14204,14204,14204,14204,14204,14204,14204,14204,14204,14204,14204,14204,14204,14204,14204,14204,14204,14204,14204,14204,14204,14204,14204,14204,14204,14204,14204,14204,14204,14204,14204,14204,14204,14204,14204,14204,14204,14204,14204,14204,14204,14204,14204,14204,14204,14204,101,101,101,101,101,101,101,101,101,101,101,
14204,14204,14204,14204,14204,972,972,972,972,972,972,972,972,972,972,972,972,972,972,972,972,972,972,972,972,972,972,972,972,972,972,972,972,972,972,972,972,972,972,972,972,972,972,972,972,972,972,972,972,972,14204,14204,14204,14204,14204,101,101,101,101,101,101,101,101,101,101,101,
14204,14204,14204,14204,14204,972,972,972,972,972,972,972,972,972,972,972,972,972,972,972,972,972,972,972,972,972,972,972,972,972,972,972,972,972,972,972,972,972,972,972,972,972,972,972,972,972,972,972,972,972,14204,14204,14204,14204,14204,101,101,101,101,101,101,101,101,101,101,101,
14204,14204,14204,14204,14204,972,972,972,972,972,972,972,972,972,972,972,972,972,972,972,972,972,972,972,972,972,972,972,972,972,972,972,972,972,972,972,972,972,972,972,972,972,972,972,972,972,972,972,972,972,14204,14204,14204,14204,14204,101,101,101,101,101,101,101,101,101,101,101,
14204,14204,14204,14204,14204,0,0,0,0,0,0,0,0,0,0,0,0,0,0,0,0,0,0,0,0,0,0,0,0,0,0,0,0,0,0,0,0,0,0,0,0,0,0,0,0,0,0,0,0,0,14204,14204,14204,14204,14204,101,101,101,101,101,101,101,101,101,101,101,
14204,14204,14204,14204,14204,0,0,0,0,0,0,0,0,0,0,0,0,0,0,0,0,0,0,0,0,0,0,0,0,0,0,0,0,0,0,0,0,0,0,0,0,0,0,0,0,0,0,0,0,0,14204,14204,14204,14204,14204,101,101,101,101,101,101,101,101,101,101,101,
14204,14204,14204,14204,14204,0,0,0,0,0,0,0,0,0,0,0,0,0,0,0,0,0,0,0,0,0,0,0,0,0,0,0,0,0,0,0,0,0,0,0,0,0,0,0,0,0,0,0,0,0,14204,14204,14204,14204,14204,101,101,101,101,101,101,101,101,101,101,101,
14204,14204,14204,14204,14204,971,971,971,971,971,971,971,972,972,972,972,972,972,972,972,972,972,972,972,972,972,972,972,972,972,972,972,972,972,972,972,972,972,972,972,972,972,972,972,972,972,972,972,972,0,14204,14204,14204,14204,14204,101,101,101,101,101,101,101,101,101,101,101,
14204,14204,14204,14204,14204,971,971,971,971,971,971,971,972,972,972,972,972,972,972,972,972,972,972,972,972,972,972,972,972,972,972,972,972,972,972,972,972,972,972,972,972,972,972,972,972,972,972,972,972,0,14204,14204,14204,14204,14204,101,101,101,101,101,101,101,101,101,101,101,
14204,14204,14204,14204,14204,971,971,971,971,971,971,971,972,972,972,972,972,972,972,972,972,972,972,972,972,972,972,972,972,972,972,972,972,972,972,972,972,972,972,972,972,972,972,972,972,972,972,972,972,0,14204,14204,14204,14204,14204,101,101,101,101,101,101,101,101,101,101,101,
14204,14204,14204,14204,14204,971,971,971,971,971,971,971,972,972,972,972,972,972,972,972,972,972,972,972,972,972,972,972,972,972,972,972,972,972,972,972,972,972,972,972,972,972,972,972,972,972,972,972,972,0,14204,14204,14204,14204,14204,101,101,101,101,101,101,101,101,101,101,101,
14204,14204,14204,14204,14204,971,971,971,971,971,971,971,972,972,972,972,972,972,972,972,972,972,972,972,972,972,972,972,972,972,972,972,972,972,972,972,972,972,972,972,972,972,972,972,972,972,972,972,972,0,14204,14204,14204,14204,14204,101,101,101,101,101,101,101,101,101,101,101,
14204,14204,14204,14204,14204,971,971,971,971,971,971,971,972,972,972,972,972,972,972,972,972,972,972,972,972,972,972,972,972,972,972,972,972,972,972,972,972,972,972,972,972,972,972,972,972,972,972,972,972,0,14204,14204,14204,14204,14204,101,101,101,101,101,101,101,101,101,101,101,
14204,14204,14204,14204,14204,971,971,971,971,971,971,971,972,972,972,972,972,972,972,972,972,972,972,972,972,972,972,972,972,972,972,972,972,972,972,972,972,972,972,972,972,972,972,972,972,972,972,972,972,0,14204,14204,14204,14204,14204,101,101,101,101,101,101,101,101,101,101,101,
14204,14204,14204,14204,14204,971,971,971,971,971,971,971,972,972,972,972,972,972,972,972,972,972,972,972,972,972,972,972,972,972,972,972,972,972,972,972,972,972,972,972,972,972,972,972,972,972,972,972,972,0,14204,14204,14204,14204,14204,101,101,101,101,101,101,101,101,101,101,101,
14204,14204,14204,14204,14204,971,971,971,971,971,971,971,972,972,972,972,972,972,972,972,972,972,972,972,972,972,972,972,972,972,972,972,972,972,972,972,972,972,972,972,972,972,972,972,972,972,972,972,972,0,14204,14204,14204,14204,14204,101,101,101,101,101,101,101,101,101,101,101,
14204,14204,14204,14204,14204,971,971,971,971,971,971,971,972,972,972,972,972,972,972,972,972,972,972,972,972,972,972,972,972,972,972,972,972,972,972,972,972,972,972,972,972,972,972,972,972,972,972,972,972,0,14204,14204,14204,14204,14204,101,101,101,101,101,101,101,101,101,101,101,
14204,14204,14204,14204,14204,971,971,971,971,971,971,971,972,972,972,972,972,972,972,972,972,972,972,972,972,972,972,972,972,972,972,972,972,972,972,972,972,972,972,972,972,972,972,972,972,972,972,972,972,0,14204,14204,14204,14204,14204,101,101,101,101,101,101,101,101,101,101,101,
14204,14204,14204,14204,14204,971,971,971,971,971,971,980,980,980,980,980,980,980,980,980,980,980,980,980,980,980,980,980,980,980,980,980,980,980,980,980,980,980,980,980,980,980,980,980,980,980,980,980,980,988,14204,14204,14204,14204,14204,101,101,101,101,101,101,101,101,101,101,101,
14204,14204,14204,14204,14204,971,971,971,971,971,971,980,980,980,980,980,980,980,980,980,980,980,980,980,980,980,980,980,980,980,980,980,980,980,980,980,980,980,980,980,980,980,980,980,980,980,980,980,988,971,14204,14204,14204,14204,14204,101,101,101,101,101,101,101,101,101,101,101,
14204,14204,14204,14204,14204,971,971,971,971,971,971,980,980,980,980,980,980,980,980,980,980,980,980,980,980,980,980,980,980,980,980,980,980,980,980,980,980,980,980,980,980,980,980,980,980,980,980,988,971,971,14204,14204,14204,14204,14204,101,101,101,101,101,101,101,101,101,101,101,
14204,14204,14204,14204,14204,971,971,971,971,971,971,980,980,980,980,980,980,980,980,980,980,980,980,980,980,980,980,980,980,980,980,980,980,980,980,980,980,980,980,980,980,980,980,980,980,980,988,971,971,971,14204,14204,14204,14204,14204,101,101,101,101,101,101,101,101,101,101,101,
14204,14204,14204,14204,14204,971,971,971,971,971,971,980,980,980,980,980,980,980,980,980,980,980,980,980,980,980,980,980,980,980,980,980,980,980,980,980,980,980,980,980,980,980,980,980,980,988,971,971,971,971,14204,14204,14204,14204,14204,101,101,101,101,101,101,101,101,101,101,101,
15087,15087,15087,15087,15087,15092,971,971,971,971,971,980,980,980,980,980,980,980,980,980,980,980,980,980,980,980,980,980,980,980,980,980,980,980,980,980,980,980,980,980,980,980,980,980,988,971,971,971,971,971,14204,14204,14204,14204,14204,101,101,101,101,101,101,101,101,101,101,101,
53,53,53,53,53,971,971,971,971,971,971,987,980,980,980,980,980,980,980,980,980,980,980,980,980,980,980,980,980,980,980,980,980,980,980,980,980,980,980,980,980,980,980,988,974,974,974,974,971,971,14204,14204,14204,14204,14204,101,101,101,101,101,101,101,101,101,101,101,
53,53,53,53,53,53,53,53,53,53,53,973,972,972,972,972,972,972,972,972,972,972,972,972,972,972,972,972,972,972,972,972,972,972,972,972,972,972,972,972,972,972,988,974,974,974,974,974,971,971,14204,14204,14204,14204,14204,101,101,101,101,101,101,101,101,101,101,101,
53,53,53,53,53,53,53,53,53,53,53,973,15076,15076,15076,15076,15076,15076,15076,15076,15076,15076,15076,15076,15076,15076,15076,15076,15076,15076,15076,15076,15076,15076,15076,15076,15076,15076,15076,15076,15076,15076,974,974,974,974,974,974,971,971,14204,14204,14204,14204,14204,101,101,101,101,101,101,101,101,101,101,101,
53,53,53,53,53,53,53,53,53,53,53,973,15076,15076,15076,15076,15076,15076,15076,15076,15076,15076,15076,15076,15076,15076,15076,15076,15076,15076,15076,15076,15076,15076,15076,15076,15076,15076,15076,15076,15076,15076,974,974,974,974,974,974,971,971,14204,14204,14204,14204,14204,101,101,101,101,101,101,101,101,101,101,101,
53,53,53,53,53,53,53,53,53,53,53,973,15076,15076,15076,15076,15076,15076,15076,15076,15076,15076,15076,15076,15076,15076,15076,15076,15076,15076,15076,15076,15076,15076,15076,15076,15076,15076,15076,15076,15076,15076,974,974,974,974,974,974,971,971,14204,14204,14204,14204,14204,101,101,101,101,101,101,101,101,101,101,101,
53,53,53,53,53,53,53,53,53,53,53,973,15076,15076,15076,15076,15076,15076,15076,15076,15076,15076,15076,15076,15076,15076,15076,15076,15076,15076,15076,15076,15076,15076,15076,15076,15076,15076,15076,15076,15076,15076,974,974,974,974,974,974,971,971,14204,14204,14204,14204,14204,101,101,101,101,101,101,101,101,101,101,101,
53,53,53,53,53,53,53,53,53,53,53,973,15076,15076,15076,15076,15076,15076,15076,15076,15076,15076,15076,15076,15076,15076,15076,15076,15076,15076,15076,15076,15076,15076,15076,15076,15076,15076,15076,15076,15076,15076,974,974,974,974,974,974,971,971,14204,14204,14204,14204,14204,101,101,101,101,101,101,101,101,101,101,101,
53,53,53,53,53,53,53,53,53,53,53,973,15076,15076,15076,15076,53,53,53,53,53,53,53,53,53,53,53,53,53,53,53,53,53,53,53,53,53,53,15076,15076,15076,15076,974,974,974,974,974,974,971,971,14204,14204,14204,14204,14204,101,101,101,101,101,101,101,101,101,101,101,
53,53,53,53,53,53,53,53,53,53,53,973,15076,15076,15076,15076,53,53,53,53,53,53,53,53,53,53,53,53,53,53,53,53,53,53,53,53,53,53,15076,15076,15076,15076,974,974,974,974,974,974,971,971,14204,14204,14204,14204,14204,101,101,101,101,101,101,101,101,101,101,101,
53,53,53,53,53,53,53,53,53,53,53,973,15076,15076,15076,15076,53,53,53,53,53,53,53,53,53,53,53,53,53,53,53,53,53,53,53,53,53,53,15076,15076,15076,15076,974,974,974,974,974,974,971,971,14204,14204,14204,14204,14204,101,101,101,101,101,101,101,101,101,101,101,
53,53,53,53,53,53,53,53,53,53,53,973,15076,15076,15076,15076,53,53,53,53,53,53,53,53,53,53,53,53,53,53,53,53,53,53,53,53,53,53,15076,15076,15076,15076,974,974,974,974,974,974,971,971,14204,14204,14204,14204,14204,101,101,101,101,101,101,101,101,101,101,101,
53,53,53,53,53,53,53,53,53,53,53,53,53,53,53,53,53,53,53,53,53,53,53,53,53,53,53,53,53,53,53,53,53,53,53,53,53,53,15076,15076,15076,15076,974,974,974,974,974,974,971,971,14204,14204,14204,14204,14204,101,101,101,101,101,101,101,101,101,101,101,
53,53,53,53,53,53,53,53,53,53,53,53,53,53,53,53,53,53,53,53,53,53,53,53,53,53,8812,53,53,53,53,53,53,53,53,53,53,53,15076,15076,15076,15076,974,974,974,974,974,974,971,971,14204,14204,14204,14204,14204,101,101,101,101,101,101,101,101,101,101,101,
53,53,53,53,53,53,53,53,53,53,53,53,53,53,53,53,53,53,53,53,53,53,53,53,53,8812,8812,8812,53,53,53,53,53,53,53,53,53,53,15076,15076,15076,15076,974,974,974,974,974,974,971,971,14204,14204,14204,14204,14204,101,101,101,101,101,101,101,101,101,101,101,
53,53,53,53,53,53,53,53,53,53,53,53,53,53,53,53,53,53,53,53,53,53,53,53,8812,8812,8812,8812,8812,53,53,53,53,53,53,53,53,53,15076,15076,15076,15076,974,974,974,974,974,974,971,971,14204,14204,14204,14204,14204,101,101,101,101,101,101,101,101,101,101,101,
53,53,53,53,53,53,53,53,53,53,53,53,53,53,53,53,53,53,53,53,53,53,53,8812,8812,8812,8812,8812,8812,8812,53,53,53,53,53,53,53,53,15076,15076,15076,15076,974,974,974,974,974,974,971,971,14204,14204,14204,14204,14204,101,101,101,101,101,101,101,101,101,101,101,
53,53,53,53,53,53,53,53,53,53,53,53,53,53,53,53,53,53,53,53,53,53,8812,8812,8812,8812,8812,8812,8812,8812,8812,53,53,53,53,53,53,53,15076,15076,15076,15076,974,974,974,974,974,974,971,971,14204,14204,14204,14204,14204,101,101,101,101,101,101,101,101,101,101,101,
53,53,53,53,53,53,53,53,53,53,53,53,53,53,53,53,53,53,53,53,53,8812,8812,8812,8812,8812,8812,8812,8812,8812,8812,8812,53,53,53,53,53,53,15076,15076,15076,15076,974,974,974,974,974,974,971,971,14204,14204,14204,14204,14204,101,101,101,101,101,101,101,101,101,101,101,
53,53,53,53,53,53,53,53,53,53,53,53,53,53,53,53,53,53,53,53,8812,8812,8812,8812,8812,8812,8812,8812,8812,8812,8812,8812,8812,53,53,53,53,53,15076,15076,15076,15076,974,974,974,974,974,974,971,971,14204,14204,14204,14204,14204,101,101,101,101,101,101,101,101,101,101,101,
53,53,53,53,53,53,53,53,53,53,53,53,53,53,53,53,53,53,53,53,53,8812,8812,8812,8812,8812,8812,8812,8812,8812,8812,8812,53,53,53,53,53,53,15076,15076,15076,15076,974,974,974,974,974,974,971,971,14204,14204,14204,14204,14204,101,101,101,101,101,101,101,101,101,101,101,
53,53,53,53,53,53,53,53,53,53,53,53,53,53,53,53,53,53,53,53,53,53,8812,8812,8812,8812,8812,8812,8812,8812,8812,53,53,53,53,53,53,53,15076,15076,15076,15076,974,974,974,974,974,974,971,971,14204,14204,14204,14204,14204,101,101,101,101,101,101,101,101,101,101,101,
53,53,53,53,53,53,53,53,53,53,53,53,53,53,53,53,53,53,53,53,53,53,53,8812,8812,8812,8812,8812,8812,8812,53,53,53,53,53,53,53,53,15076,15076,15076,15076,974,974,974,974,974,974,971,971,14204,14204,14204,14204,14204,101,101,101,101,101,101,101,101,101,101,101,
53,53,53,53,53,53,53,53,53,53,53,53,53,53,53,53,53,53,53,53,53,53,53,53,8812,8812,8812,8812,8812,53,53,53,53,53,53,53,53,53,15076,15076,15076,15076,974,974,974,974,974,974,971,971,14204,14204,14204,14204,14204,101,101,101,101,101,101,101,101,101,101,101,
53,53,53,53,53,53,53,53,53,53,53,53,53,53,53,53,53,53,53,53,53,53,53,53,53,8812,8812,8812,53,53,53,53,53,53,53,53,53,53,15076,15076,15076,15076,974,974,974,974,974,974,971,971,14204,14204,14204,14204,14204,101,101,101,101,101,101,101,101,101,101,101,
53,53,53,53,53,53,53,53,53,53,53,53,53,53,53,53,53,53,53,53,53,53,53,53,53,53,8812,53,53,53,53,53,53,53,53,53,53,53,15076,15076,15076,15076,974,974,974,974,974,974,971,971,14204,14204,14204,14204,14204,101,101,101,101,101,101,101,101,101,101,101,
50,50,50,50,50,50,50,50,50,50,50,50,50,50,50,50,50,50,50,53,53,53,53,53,53,53,53,53,53,53,53,53,53,53,53,53,53,53,15076,15076,15076,15076,974,974,974,974,974,974,971,971,14204,14204,14204,14204,14204,101,101,101,101,101,101,101,101,101,101,101,
50,50,50,50,50,50,50,50,50,50,50,50,50,50,50,50,50,50,50,53,53,53,53,53,53,53,53,53,53,53,53,53,53,53,53,53,53,53,15076,15076,15076,15076,974,974,974,974,974,974,971,971,14204,14204,14204,14204,14204,101,101,101,101,101,101,101,101,101,101,101,
50,50,50,50,50,50,50,50,50,50,50,50,50,50,50,50,50,50,50,53,53,53,53,53,53,53,53,53,53,53,53,53,53,53,53,53,53,53,15076,15076,15076,15076,974,974,974,974,974,974,971,971,14204,14204,14204,14204,14204,101,101,101,101,101,101,101,101,101,101,101,
50,50,50,50,50,50,50,50,50,50,50,50,50,50,50,50,50,50,50,53,53,53,53,53,53,53,53,53,53,53,53,53,53,53,53,53,53,53,15076,15076,15076,15076,974,974,974,974,974,974,971,971,14204,14204,14204,14204,14204,101,101,101,101,101,101,101,101,101,101,101,
50,50,50,50,50,50,50,50,50,50,50,50,50,50,50,50,50,50,50,53,53,53,53,53,53,53,53,53,53,53,53,53,53,53,53,53,53,53,15076,15076,15076,15076,974,974,974,974,974,974,971,971,14204,14204,14204,14204,14204,101,101,101,101,101,101,101,101,101,101,101,
50,50,50,50,50,50,50,50,50,50,50,50,50,50,50,50,50,50,50,53,53,53,53,53,53,53,53,53,53,53,53,53,53,53,53,53,53,53,15076,15076,15076,15076,974,974,974,974,974,974,971,971,14204,14204,14204,14204,14204,101,101,101,101,101,101,101,101,101,101,101,
14204,14204,14204,14204,14204,976,973,973,973,973,973,973,15076,15076,15076,15076,53,53,53,53,53,53,53,53,53,53,53,53,53,53,53,53,53,53,53,53,53,53,15076,15076,15076,15076,974,974,974,974,974,974,971,971,14204,14204,14204,14204,14204,101,101,101,101,101,101,101,101,101,101,101,
14204,14204,14204,14204,14204,976,973,973,973,973,973,973,15076,15076,15076,15076,53,53,53,53,53,53,53,53,53,53,53,53,53,53,53,53,53,53,53,53,53,53,15076,15076,15076,15076,974,974,974,974,974,974,971,971,14204,14204,14204,14204,14204,101,101,101,101,101,101,101,101,101,101,101,
14204,14204,14204,14204,14204,976,973,973,973,973,973,973,15076,15076,15076,15076,15076,15076,15076,15076,15076,15076,15076,15076,15076,15076,15076,15076,15076,15076,15076,15076,15076,15076,15076,15076,15076,15076,15076,15076,15076,15076,974,974,974,974,974,974,971,971,14204,14204,14204,14204,14204,101,101,101,101,101,101,101,101,101,101,101,
14204,14204,14204,14204,14204,976,973,973,973,973,973,973,15076,15076,15076,15076,15076,15076,15076,15076,15076,15076,15076,15076,15076,15076,15076,15076,15076,15076,15076,15076,15076,15076,15076,15076,15076,15076,15076,15076,15076,15076,974,974,974,974,974,974,971,971,14204,14204,14204,14204,14204,101,101,101,101,101,101,101,101,101,101,101,
14204,14204,14204,14204,14204,976,973,973,973,973,973,973,15076,15076,15076,15076,15076,15076,15076,15076,15076,15076,15076,15076,15076,15076,15076,15076,15076,15076,15076,15076,15076,15076,15076,15076,15076,15076,15076,15076,15076,15076,974,974,974,974,974,974,971,971,14204,14204,14204,14204,14204,101,101,101,101,101,101,101,101,101,101,101,
14204,14204,14204,14204,14204,976,973,973,973,973,973,973,15076,15076,15076,15076,15076,15076,15076,15076,15076,15076,15076,15076,15076,15076,15076,15076,15076,15076,15076,15076,15076,15076,15076,15076,15076,15076,15076,15076,15076,15076,974,974,974,974,974,974,971,971,14204,14204,14204,14204,14204,101,101,101,101,101,101,101,101,101,101,101,
14204,14204,14204,14204,14204,976,973,973,973,973,973,973,972,972,972,972,972,972,972,972,972,972,972,972,972,972,972,972,972,972,972,972,972,972,972,972,972,972,972,972,972,972,974,974,974,974,974,974,971,971,14204,14204,14204,14204,14204,101,101,101,101,101,101,101,101,101,101,101,
14204,14204,14204,14204,14204,995,964,964,964,964,964,964,964,964,964,964,964,964,964,964,964,964,964,964,964,964,964,964,964,964,964,964,964,964,964,964,964,964,964,964,964,964,964,964,964,964,964,964,964,964,14204,14204,14204,14204,14204,101,101,101,101,101,101,101,101,101,101,101,
14204,14204,14204,14204,14204,103,103,103,103,103,103,103,103,103,103,103,103,103,103,103,103,103,103,103,103,103,103,103,103,103,103,103,103,103,103,103,103,103,103,103,103,103,103,103,103,103,103,103,103,103,14204,14204,14204,14204,14204,101,101,101,101,101,101,101,101,101,101,101,
14204,14204,14204,14204,14204,103,103,103,103,197,103,103,103,103,103,103,103,103,103,103,103,103,103,103,103,103,103,103,103,103,103,103,103,103,103,103,103,103,103,103,103,103,103,103,103,103,103,103,103,103,14204,14204,14204,14204,14204,101,101,101,101,101,101,101,101,101,101,101,
14204,14204,14204,14204,14204,103,103,103,103,103,213,103,103,103,103,103,103,103,103,103,103,103,103,103,103,103,103,103,103,103,103,103,103,103,103,103,103,103,103,103,103,103,103,103,103,103,103,103,103,103,14204,14204,14204,14204,14204,101,101,101,101,101,101,101,101,101,101,101,
14204,14204,14204,14204,14204,103,103,103,103,103,103,103,103,103,103,103,103,103,103,103,103,103,103,103,103,103,103,103,103,103,103,103,103,103,103,103,103,103,103,103,103,103,103,103,103,103,103,103,103,103,14204,14204,14204,14204,14204,101,101,101,101,101,101,101,101,101,101,101,
14204,14204,14204,14204,14204,103,103,103,103,103,103,103,103,103,103,103,103,103,103,103,103,103,103,103,103,103,103,103,103,103,103,103,103,103,103,103,103,103,103,103,103,103,103,103,103,103,103,103,103,103,14204,14204,14204,14204,14204,101,101,101,101,101,101,101,101,101,101,101,
14204,14204,14204,14204,14204,103,103,103,103,103,103,103,103,103,103,103,103,103,103,103,103,103,103,103,103,103,103,103,103,103,103,103,103,103,103,103,103,103,103,103,103,103,103,103,103,103,103,103,103,103,14204,14204,14204,14204,14204,101,101,101,101,101,101,101,101,101,101,101,
14204,14204,14204,14204,14204,103,103,103,103,103,103,103,103,103,103,103,103,103,103,103,103,103,103,103,103,103,103,103,103,103,103,103,103,103,103,103,103,103,103,103,103,103,103,103,103,103,103,103,103,103,14204,14204,14204,14204,14204,101,101,101,101,101,101,101,101,101,101,101,
14204,14204,14204,14204,14204,103,103,103,103,103,103,103,103,103,103,103,103,103,103,103,103,103,103,103,103,103,103,103,103,103,103,103,103,103,103,103,103,103,103,103,103,103,103,103,103,103,103,103,103,103,14204,14204,14204,14204,14204,101,101,101,101,101,101,101,101,101,101,101,
14204,14204,14204,14204,14204,14204,14204,14204,14204,14204,14204,14204,14204,14204,14204,14204,14204,14204,14204,14204,14204,14204,14204,14204,14204,14204,14204,14204,14204,14204,14204,14204,14204,14204,14204,14204,14204,14204,14204,14204,14204,14204,14204,14204,14204,14204,14204,14204,14204,14204,14204,14204,14204,14204,14204,101,101,101,101,101,101,101,101,101,101,101,
14204,14204,14204,14204,14204,14204,14204,14204,14204,14204,14204,14204,14204,14204,14204,14204,14204,14204,14204,14204,14204,14204,14204,14204,14204,14204,14204,14204,14204,14204,14204,14204,14204,14204,14204,14204,14204,14204,14204,14204,14204,14204,14204,14204,14204,14204,14204,14204,14204,14204,14204,14204,14204,14204,14204,101,101,101,101,101,101,101,101,101,101,101,
14204,14204,14204,14204,14204,14204,14204,14204,14204,14204,14204,14204,14204,14204,14204,14204,14204,14204,14204,14204,14204,14204,14204,14204,14204,14204,14204,14204,14204,14204,14204,14204,14204,14204,14204,14204,14204,14204,14204,14204,14204,14204,14204,14204,14204,14204,14204,14204,14204,14204,14204,14204,14204,14204,14204,101,101,101,101,101,101,101,101,101,101,101,
14204,14204,14204,14204,14204,14204,14204,14204,14204,14204,14204,14204,14204,14204,14204,14204,14204,14204,14204,14204,14204,14204,14204,14204,14204,14204,14204,14204,14204,14204,14204,14204,14204,14204,14204,14204,14204,14204,14204,14204,14204,14204,14204,14204,14204,14204,14204,14204,14204,14204,14204,14204,14204,14204,14204,101,101,101,101,101,101,101,101,101,101,101,
14204,14204,14204,14204,14204,14204,14204,14204,14204,14204,14204,14204,14204,14204,14204,14204,14204,14204,14204,14204,14204,14204,14204,14204,14204,14204,14204,14204,14204,14204,14204,14204,14204,14204,14204,14204,14204,14204,14204,14204,14204,14204,14204,14204,14204,14204,14204,14204,14204,14204,14204,14204,14204,14204,14204,101,101,101,101,101,101,101,101,101,101,101,
14204,14204,14204,14204,14204,14204,14204,14204,14204,14204,14204,14204,14204,14204,14204,14204,14204,14204,14204,14204,14204,14204,14204,14204,14204,14204,14204,14204,14204,14204,14204,14204,14204,14204,14204,14204,14204,14204,14204,14204,14204,14204,14204,14204,14204,14204,14204,14204,14204,14204,14204,14204,14204,14204,14204,101,101,101,101,101,101,101,101,101,101,101,
14204,14204,14204,14204,14204,14204,14204,14204,14204,14204,14204,14204,14204,14204,14204,14204,14204,14204,14204,14204,14204,14204,14204,14204,14204,14204,14204,14204,14204,14204,14204,14204,14204,14204,14204,14204,14204,14204,14204,14204,14204,14204,14204,14204,14204,14204,14204,14204,14204,14204,14204,14204,14204,14204,14204,101,101,101,101,101,101,101,101,101,101,101,
14204,14204,14204,14204,14204,14204,14204,14204,14204,14204,14204,14204,14204,14204,14204,14204,14204,14204,14204,14204,14204,14204,14204,14204,14204,14204,14204,14204,14204,14204,14204,14204,14204,14204,14204,14204,14204,14204,14204,14204,14204,14204,14204,14204,14204,14204,14204,14204,14204,14204,14204,14204,14204,14204,14204,101,101,101,101,101,101,101,101,101,101,101,
14204,14204,14204,14204,14204,14204,14204,14204,14204,14204,14204,14204,14204,14204,14204,14204,14204,14204,14204,14204,14204,14204,14204,14204,14204,14204,14204,14204,14204,14204,14204,14204,14204,14204,14204,14204,14204,14204,14204,14204,14204,14204,14204,14204,14204,14204,14204,14204,14204,14204,14204,14204,14204,14204,14204,101,101,101,101,101,101,101,101,101,101,101,
14204,14204,14204,14204,14204,14204,14204,14204,14204,14204,14204,14204,14204,14204,14204,14204,14204,14204,14204,14204,14204,14204,14204,14204,14204,14204,14204,14204,14204,14204,14204,14204,14204,14204,14204,14204,14204,14204,14204,14204,14204,14204,14204,14204,14204,14204,14204,14204,14204,14204,14204,14204,14204,14204,14204,101,101,101,101,101,101,101,101,101,101,101,
101,101,101,101,101,101,101,101,101,101,101,101,101,101,101,101,101,101,101,101,101,101,101,101,101,101,101,101,101,101,101,101,101,101,101,101,101,101,101,101,101,101,101,101,101,101,101,101,101,101,101,101,101,101,101,101,101,101,101,101,101,101,101,101,101,101,
101,101,101,101,101,101,101,101,101,101,101,101,101,101,101,101,101,101,101,101,101,101,101,101,101,101,101,101,101,101,101,101,101,101,101,101,101,101,101,101,101,101,101,101,101,101,101,101,101,101,101,101,101,101,101,101,101,101,101,101,101,101,101,101,101,101,
101,101,101,101,101,101,101,101,101,101,101,101,101,101,101,101,101,101,101,101,101,101,101,101,101,101,101,101,101,101,101,101,101,101,101,101,101,101,101,101,101,101,101,101,101,101,101,101,101,101,101,101,101,101,101,101,101,101,101,101,101,101,101,101,101,101,
101,101,101,101,101,101,101,101,101,101,101,101,101,101,101,101,101,101,101,101,101,101,101,101,101,101,101,101,101,101,101,101,101,101,101,101,101,101,101,101,101,101,101,101,101,101,101,101,101,101,101,101,101,101,101,101,101,101,101,101,101,101,101,101,101,101,
101,101,101,101,101,101,101,101,101,101,101,101,101,101,101,101,101,101,101,101,101,101,101,101,101,101,101,101,101,101,101,101,101,101,101,101,101,101,101,101,101,101,101,101,101,101,101,101,101,101,101,101,101,101,101,101,101,101,101,101,101,101,101,101,101,101,
101,101,101,101,101,101,101,101,101,101,101,101,101,101,101,101,101,101,101,101,101,101,101,101,101,101,101,101,101,101,101,101,101,101,101,101,101,101,101,101,101,101,101,101,101,101,101,101,101,101,101,101,101,101,101,101,101,101,101,101,101,101,101,101,101,101,
101,101,101,101,101,101,101,101,101,101,101,101,101,101,101,101,101,101,101,101,101,101,101,101,101,101,101,101,101,101,101,101,101,101,101,101,101,101,101,101,101,101,101,101,101,101,101,101,101,101,101,101,101,101,101,101,101,101,101,101,101,101,101,101,101,101,
101,101,101,101,101,101,101,101,101,101,101,101,101,101,101,101,101,101,101,101,101,101,101,101,101,101,101,101,101,101,101,101,101,101,101,101,101,101,101,101,101,101,101,101,101,101,101,101,101,101,101,101,101,101,101,101,101,101,101,101,101,101,101,101,101,101,
101,101,101,101,101,101,101,101,101,101,101,101,101,101,101,101,101,101,101,101,101,101,101,101,101,101,101,101,101,101,101,101,101,101,101,101,101,101,101,101,101,101,101,101,101,101,101,101,101,101,101,101,101,101,101,101,101,101,101,101,101,101,101,101,101,101,
101,101,101,101,101,101,101,101,101,101,101,101,101,101,101,101,101,101,101,101,101,101,101,101,101,101,101,101,101,101,101,101,101,101,101,101,101,101,101,101,101,101,101,101,101,101,101,101,101,101,101,101,101,101,101,101,101,101,101,101,101,101,101,101,101,101,
101,101,101,101,101,101,101,101,101,101,101,101,101,101,101,101,101,101,101,101,101,101,101,101,101,101,101,101,101,101,101,101,101,101,101,101,101,101,101,101,101,101,101,101,101,101,101,101,101,101,101,101,101,101,101,101,101,101,101,101,101,101,101,101,101,101,
101,101,101,101,101,101,101,101,101,101,101,101,101,101,101,101,101,101,101,101,101,101,101,101,101,101,101,101,101,101,101,101,101,101,101,101,101,101,101,101,101,101,101,101,101,101,101,101,101,101,101,101,101,101,101,101,101,101,101,101,101,101,101,101,101,101,
101,101,101,101,101,101,101,101,101,101,101,101,101,101,101,101,101,101,101,101,101,101,101,101,101,101,101,101,101,101,101,101,101,101,101,101,101,101,101,101,101,101,101,101,101,101,101,101,101,101,101,101,101,101,101,101,101,101,101,101,101,101,101,101,101,101,
101,101,101,101,101,101,101,101,101,101,101,101,101,101,101,101,101,101,101,101,101,101,101,101,101,101,101,101,101,101,101,101,101,101,101,101,101,101,101,101,101,101,101,101,101,101,101,101,101,101,101,101,101,101,101,101,101,101,101,101,101,101,101,101,101,101,
101,101,101,101,101,101,101,101,101,101,101,101,101,101,101,101,101,101,101,101,101,101,101,101,101,101,101,101,101,101,101,101,101,101,101,101,101,101,101,101,101,101,101,101,101,101,101,101,101,101,101,101,101,101,101,101,101,101,101,101,101,101,101,101,101,101,
14205,14205,14205,14205,14205,14205,14205,14205,14205,14205,14205,14205,14205,14205,14205,14205,14205,14205,14205,14205,14205,14205,14205,14205,14205,14205,14205,14205,14205,14205,14205,14205,14205,14205,14205,14205,14205,14205,14205,14205,14205,14205,14205,14205,14205,14205,14205,14205,14205,14205,14205,14205,14205,14205,14205,14205,14205,14205,14205,14205,14205,14205,14205,14205,14205,14205
</data>
 </layer>
 <layer id="3" name="deco_sotto" width="66" height="109">
  <data encoding="csv">
0,0,0,0,0,0,0,0,0,0,0,0,0,0,0,0,0,0,0,0,0,0,0,0,0,0,0,0,0,0,0,0,0,0,0,0,0,0,0,0,0,0,0,0,0,0,0,0,0,0,0,0,0,0,0,0,0,0,0,0,0,0,0,0,0,0,
0,0,0,0,0,0,0,0,0,0,0,0,0,0,0,0,0,0,0,0,0,0,0,0,0,0,0,0,0,0,0,0,0,0,0,0,0,0,0,0,0,0,0,0,0,0,0,0,0,0,0,0,0,0,0,0,0,0,0,0,0,0,0,0,0,0,
0,0,0,0,0,0,0,0,0,0,0,0,0,0,0,0,0,0,0,0,0,0,0,0,0,0,0,0,0,0,0,0,0,0,0,0,0,0,0,0,0,0,0,0,0,0,0,0,0,0,0,0,0,0,0,0,0,0,0,0,0,0,0,0,0,0,
0,0,0,0,0,0,0,0,0,0,0,0,0,0,0,0,0,0,0,0,0,0,0,0,0,0,0,0,0,0,0,0,0,0,0,0,0,0,0,0,0,0,0,0,0,0,0,0,0,0,0,0,0,0,0,0,0,0,0,0,0,0,0,0,0,0,
0,0,0,0,0,0,0,0,0,0,0,0,0,0,0,0,0,0,0,0,0,0,0,0,0,0,0,0,0,0,0,0,0,0,0,0,0,0,0,0,0,0,0,0,0,0,0,0,0,0,0,0,0,0,0,0,0,0,0,0,0,0,0,0,0,0,
0,0,0,0,0,0,0,0,0,0,0,0,0,0,0,0,0,0,0,0,0,0,0,0,0,0,0,0,0,0,0,0,0,0,0,0,0,0,0,0,0,0,0,0,0,0,0,0,0,0,0,0,0,0,0,0,0,0,0,0,0,0,0,0,0,0,
0,0,0,0,0,0,0,0,0,0,0,0,0,0,0,0,0,0,0,0,0,0,0,0,0,0,0,0,0,0,0,0,0,0,0,0,0,0,0,0,0,0,0,0,0,0,0,0,0,0,0,0,0,0,0,0,0,0,0,0,0,0,0,0,0,0,
0,0,0,0,0,0,0,0,0,0,0,0,0,0,0,0,0,0,0,0,0,0,0,0,0,0,0,0,0,0,0,0,0,0,0,0,0,0,0,0,0,0,0,0,0,0,0,0,0,0,0,0,0,0,0,0,0,0,0,0,0,0,0,0,0,0,
0,0,0,0,0,15078,15078,15078,15078,15078,15078,15078,15078,15078,15078,15079,15079,15079,15079,15079,15079,15079,15079,15079,15079,15079,15079,15079,15079,15079,15079,15079,15079,15079,15079,15079,15079,15079,15079,15079,15079,15079,15079,15079,15079,15079,15079,15079,15079,15079,15079,15079,15079,15079,15079,975,975,975,0,0,0,0,0,0,0,0,
0,0,0,0,0,15078,15078,15078,15078,15078,15078,15078,15078,15078,15078,15079,15079,15079,15079,15079,15079,15079,15079,15079,15079,15079,15079,15079,15079,15079,15079,15079,15079,15079,15079,15079,15079,15079,15079,15079,15079,15079,15079,15079,15079,15079,15079,15079,15079,15079,15079,15079,15079,15079,15079,975,975,975,0,0,0,0,0,0,0,0,
0,0,0,0,0,15078,15078,15078,15078,15078,15078,15078,15078,15078,15078,15079,15151,15079,15079,15079,15079,15079,15079,15079,15079,15079,15079,15079,15079,15079,15079,15079,15079,15079,15079,15079,15079,15079,15079,15079,15079,15079,15079,15079,15079,15079,15079,15079,15079,15079,15079,15079,15079,15079,15079,975,975,975,0,0,0,0,0,0,0,0,
0,0,0,0,0,15078,15078,15078,15078,15078,15078,15078,15078,15078,15078,15079,15079,15079,15079,15079,15079,15079,15079,15079,15079,15079,15079,15079,15079,15079,15079,15079,15079,15079,15079,15079,15079,15079,15079,15079,15079,15079,15079,15079,15079,15079,15079,15079,15079,15079,15079,15079,15079,15079,15079,975,975,975,0,0,0,0,0,0,0,0,
0,0,0,0,0,15078,15078,15078,15078,15078,15078,15078,15078,15078,15078,15079,15079,15079,15079,15079,15079,15079,15079,15079,15079,15079,15079,15079,15079,15079,15079,15079,15079,15079,15079,15079,15079,15079,15079,15079,15079,15079,15079,15079,15079,15079,15079,15079,15079,15079,15079,15079,15079,15079,15079,975,975,975,0,0,0,0,0,0,0,0,
0,0,0,0,0,0,0,0,0,0,0,0,0,0,0,0,0,0,0,0,0,0,0,0,0,0,0,0,0,0,0,0,0,0,0,0,0,0,0,0,0,0,0,0,0,0,0,0,0,0,15079,15079,15079,15079,15079,975,975,975,0,0,0,0,0,0,0,0,
0,0,0,0,0,0,0,0,0,0,0,0,0,0,0,0,0,0,0,0,0,0,0,0,0,0,0,0,0,0,0,0,0,0,0,0,0,0,0,0,0,0,0,0,0,0,0,0,0,0,15079,15079,15079,15079,15079,975,975,975,0,0,0,0,0,0,0,0,
0,0,0,0,0,0,0,0,0,0,0,0,0,0,0,0,0,0,0,0,0,0,0,0,0,0,0,0,0,0,0,0,0,0,0,0,0,0,0,0,0,0,0,0,0,0,0,0,0,0,15079,15079,15079,15079,15079,975,975,975,0,0,0,0,0,0,0,0,
0,0,0,0,0,0,0,0,0,0,0,0,0,0,0,0,0,0,0,0,0,0,0,0,0,0,0,0,0,0,0,0,0,0,0,0,0,0,0,0,0,0,0,0,0,0,0,0,0,0,15087,15092,15079,15079,15079,975,975,975,0,0,0,0,0,0,0,0,
0,0,0,0,0,0,0,0,0,0,0,0,0,0,0,0,0,0,0,0,0,0,0,0,0,0,0,0,0,0,0,0,0,0,0,0,0,0,0,0,0,0,0,0,0,0,0,0,0,0,15092,15078,15079,15079,15079,975,975,975,0,0,0,0,0,0,0,0,
0,0,0,0,0,0,0,0,0,0,0,0,0,0,0,0,0,0,0,0,0,0,0,0,0,0,0,0,0,0,0,0,0,0,0,0,0,0,0,0,0,0,0,0,0,0,0,0,0,0,15078,15078,15079,15079,15079,975,975,975,0,0,0,0,0,0,0,0,
0,0,0,0,0,0,0,0,0,0,0,0,0,1415,0,0,0,0,0,0,0,0,0,0,0,0,0,0,0,0,0,0,0,0,0,0,1414,0,0,0,0,0,0,0,0,0,0,0,0,0,15078,15078,15079,15079,15079,975,975,975,0,0,0,0,0,0,0,0,
0,0,0,0,0,0,0,0,0,0,0,0,0,1423,0,0,0,0,0,0,0,0,0,0,0,0,0,0,0,0,0,0,0,0,0,0,1422,0,0,0,0,0,0,0,0,0,0,0,0,0,15078,15078,15079,15079,15079,975,975,975,0,0,0,0,0,0,0,0,
0,0,0,0,0,0,0,0,0,0,0,0,0,1423,0,0,0,0,0,0,0,0,0,0,0,0,0,0,0,0,0,0,0,0,0,0,1422,0,0,0,0,0,0,0,0,0,0,0,0,0,15078,15078,15079,15079,15079,975,975,975,0,0,0,0,0,0,0,0,
0,0,0,0,0,0,0,0,0,0,0,0,0,1423,0,0,0,0,0,0,0,0,0,0,0,0,0,0,0,0,0,0,0,0,0,0,1422,0,0,0,0,0,0,0,0,0,0,0,0,0,15078,15078,15079,15079,15079,975,975,975,0,0,0,0,0,0,0,0,
0,0,0,0,0,0,0,0,0,0,0,0,0,1423,0,0,0,0,0,0,0,0,0,0,0,0,0,0,0,0,0,0,0,0,0,0,1422,0,0,1042,0,0,0,1042,0,0,0,0,0,0,15078,15078,15079,15079,15079,975,975,975,0,0,0,0,0,0,0,0,
0,0,0,0,0,0,0,0,0,0,0,0,0,1424,0,0,0,0,0,0,1432,1432,1432,1432,1432,1432,1432,1432,1432,1432,1432,1432,1432,1432,1432,1432,1425,1042,1042,1056,0,0,0,1056,1042,0,0,0,0,0,15078,15078,15079,15079,15079,975,975,975,0,0,0,0,0,0,0,0,
0,0,0,0,0,0,0,0,0,0,0,0,0,0,0,0,0,0,0,0,0,0,0,0,0,0,0,0,0,0,0,0,0,0,0,1042,1042,0,1056,1042,0,0,0,1042,0,0,0,0,0,0,15078,15078,15079,15079,15079,975,975,975,0,0,0,0,0,0,0,0,
0,0,0,0,0,0,0,0,0,0,0,0,0,0,0,0,0,0,0,0,0,0,0,0,0,0,0,0,0,0,0,0,0,0,0,0,0,0,0,0,0,0,0,1042,0,0,0,0,0,0,15078,15078,15079,15079,15079,975,975,975,0,0,0,0,0,0,0,0,
0,0,0,0,0,0,0,0,0,0,0,0,0,0,0,0,0,0,0,0,0,0,0,0,0,0,0,0,0,0,0,0,0,0,0,0,0,0,0,0,0,0,0,1042,0,0,0,0,0,0,15078,15078,15079,15079,15079,975,975,975,0,0,0,0,0,0,0,0,
0,0,0,0,0,0,0,0,0,0,0,0,0,0,0,0,0,0,0,0,0,0,0,0,0,0,0,0,0,0,0,0,0,0,0,0,0,0,1042,0,1056,1042,1042,1042,0,0,0,0,0,0,15078,15078,15079,15079,15079,975,975,975,0,0,0,0,0,0,0,0,
0,0,0,0,0,971,971,971,971,971,971,0,0,0,0,0,0,0,0,0,0,0,0,0,0,0,0,0,0,0,0,0,0,0,0,0,0,0,1056,1056,1042,0,0,0,0,0,0,0,0,0,15078,15078,15079,15079,15079,975,975,975,0,0,0,0,0,0,0,0,
0,0,0,0,0,971,971,971,971,971,971,0,0,0,0,0,0,0,0,0,0,0,0,0,0,0,0,0,0,0,0,0,0,0,0,0,0,0,0,0,0,0,0,0,0,0,0,0,0,0,15078,15078,15079,15079,15079,975,975,975,0,0,0,0,0,0,0,0,
0,0,0,0,0,971,971,971,971,971,979,980,980,0,0,15085,15076,15076,15076,15076,15076,15076,15076,15076,15076,15076,15076,15076,15076,15076,15076,15076,15076,15076,15076,15076,15076,15076,15076,15076,15076,15076,15076,15076,15076,15076,15076,15076,15076,0,15078,15078,15079,15079,15079,975,975,975,0,0,0,0,0,0,0,0,
0,0,0,0,0,971,971,971,971,979,980,980,980,0,0,0,14981,14981,0,0,0,0,0,0,0,0,0,0,0,0,0,0,0,0,0,0,0,0,0,0,0,0,0,0,0,0,0,0,15076,0,15078,15078,15079,15079,15079,975,975,975,0,0,0,0,0,0,0,0,
0,0,0,0,0,971,971,971,979,980,980,980,980,0,0,0,15079,15079,15079,15079,15079,15079,15079,15079,15079,15079,15079,15079,15079,15079,15079,15079,15079,15079,15079,15079,15067,0,0,0,0,0,0,0,0,0,0,0,15076,0,15078,15078,15079,15079,15079,975,975,975,0,0,0,0,0,0,0,0,
0,0,0,0,0,971,971,979,980,980,980,980,980,0,0,0,15087,15087,15087,15087,15087,15087,15087,15087,15087,15087,15087,15087,15087,15087,15087,15087,15087,15087,14980,14980,0,0,0,0,0,0,0,0,0,0,0,0,15076,0,15078,15078,15079,15079,15079,975,975,975,0,0,0,0,0,0,0,0,
0,0,0,0,0,971,979,980,980,980,980,980,980,0,0,0,0,0,0,0,0,0,0,0,0,0,0,0,0,0,0,0,0,0,14980,14980,0,0,0,0,0,0,0,0,0,0,0,0,15076,0,15078,15078,15079,15079,15079,975,975,975,0,0,0,0,0,0,0,0,
0,0,0,0,0,15083,980,980,980,980,980,980,980,0,0,0,0,0,0,0,0,0,0,0,0,0,0,0,0,0,0,0,0,0,14980,14980,0,0,0,0,0,0,0,0,0,15076,15076,0,15076,0,15078,15078,15079,15079,15079,975,975,975,0,0,0,0,0,0,0,0,
0,0,0,0,0,50,50,50,50,50,50,0,0,0,0,0,0,0,0,0,0,0,0,0,0,0,0,0,0,0,0,0,0,0,0,0,0,0,0,0,0,0,0,0,15075,15076,15076,0,15076,0,15078,15078,15079,15079,15079,975,975,975,0,0,0,0,0,0,0,0,
0,0,0,0,0,50,50,50,50,50,50,0,0,0,0,0,0,0,0,0,0,0,0,0,0,0,0,0,0,0,0,0,0,0,0,0,0,0,0,0,0,0,0,0,15075,15076,15076,0,15076,0,15078,15078,15079,15079,15079,975,975,975,0,0,0,0,0,0,0,0,
0,0,0,0,0,50,50,50,50,50,50,0,0,0,0,0,0,0,0,0,0,0,0,0,0,0,0,0,0,0,0,0,0,0,0,0,0,0,0,0,0,0,0,0,15075,15076,15076,0,15076,0,15078,15078,15079,15079,15079,975,975,975,0,0,0,0,0,0,0,0,
0,0,0,0,0,50,50,50,50,50,50,0,0,0,0,0,0,0,0,0,0,0,0,0,0,0,0,0,0,0,0,0,0,0,0,0,0,0,0,0,0,0,0,0,15075,15076,15076,0,15076,0,15078,15078,15079,15079,15079,975,975,975,0,0,0,0,0,0,0,0,
0,0,0,0,0,50,50,50,50,50,50,0,0,0,0,0,0,0,0,0,0,0,0,0,0,0,0,0,0,0,0,0,0,0,0,0,0,0,0,0,0,0,0,0,15075,15076,15076,0,15076,0,15078,15078,15079,15079,15079,975,975,975,0,0,0,0,0,0,0,0,
0,0,0,0,0,50,50,50,50,50,50,0,0,0,0,0,0,0,0,0,0,0,0,0,0,0,0,0,0,0,0,0,0,0,0,0,0,0,0,0,0,0,0,0,15075,15076,15076,0,15076,0,15078,15078,15079,15079,15079,975,975,975,0,0,0,0,0,0,0,0,
0,0,0,0,0,50,50,50,50,50,50,50,50,50,50,50,50,0,0,0,0,0,0,0,0,0,0,0,0,0,0,0,0,0,0,0,0,0,0,0,0,0,0,0,15075,15076,15076,0,15076,0,15078,15078,15079,15079,15079,975,975,975,0,0,0,0,0,0,0,0,
0,0,0,0,0,50,50,50,50,50,50,50,50,50,50,50,50,0,0,0,0,0,0,0,0,0,0,0,0,0,0,0,0,0,0,0,0,0,0,0,0,0,0,0,15075,15076,15076,0,15076,0,15078,15078,15079,15079,15079,975,975,975,0,0,0,0,0,0,0,0,
0,0,0,0,0,50,50,50,50,50,50,50,50,50,50,50,50,0,0,0,0,0,0,0,0,0,0,0,0,0,0,0,0,0,0,0,0,0,0,0,0,0,0,0,15075,15076,15076,0,15076,0,15078,15078,15079,15079,15079,975,975,975,0,0,0,0,0,0,0,0,
0,0,0,0,0,50,50,50,50,50,50,50,50,50,50,50,50,0,0,0,0,0,0,0,0,0,0,0,0,0,0,0,0,0,0,0,0,0,0,0,0,0,0,0,15075,15076,15076,0,15076,0,15078,15078,15079,15079,15079,975,975,975,0,0,0,0,0,0,0,0,
0,0,0,0,0,50,50,50,50,50,50,50,50,50,50,50,50,0,0,0,0,0,0,0,0,0,0,0,0,0,0,0,0,0,0,0,0,0,0,0,0,0,0,0,15075,15076,15076,0,15076,0,15078,15078,15079,15079,15079,975,975,975,0,0,0,0,0,0,0,0,
0,0,0,0,0,0,0,0,0,0,0,0,0,0,0,0,0,0,0,0,0,0,0,0,0,0,0,0,0,0,0,0,0,0,0,0,0,0,0,0,0,0,0,0,15075,15076,15076,0,15076,0,15078,15078,15079,15079,15079,975,975,975,0,0,0,0,0,0,0,0,
0,0,0,0,0,0,0,0,0,0,0,0,0,0,0,0,0,0,0,0,0,0,0,0,0,0,0,0,0,0,0,0,0,0,0,0,0,0,0,0,0,0,0,0,15075,15076,15076,0,15076,0,15078,15078,15079,15079,15079,975,975,975,0,0,0,0,0,0,0,0,
0,0,0,0,0,0,0,0,0,0,0,0,0,0,0,0,0,0,0,0,0,0,0,0,0,0,0,0,0,0,0,0,0,0,0,0,0,0,0,0,0,0,0,0,15075,15076,15076,0,15076,0,15078,15078,15079,15079,15079,975,975,975,0,0,0,0,0,0,0,0,
0,0,0,0,0,0,0,0,0,0,0,0,0,0,0,0,0,0,0,0,0,0,0,0,0,0,0,0,0,0,0,0,0,0,0,0,0,0,0,0,0,0,0,0,15075,15076,15076,0,15076,0,15078,15078,15079,15079,15079,975,975,975,0,0,0,0,0,0,0,0,
0,0,0,0,0,0,0,0,0,0,0,0,0,0,0,0,0,0,0,0,0,0,0,0,0,0,0,0,0,0,0,0,0,0,0,0,0,0,0,0,0,0,0,0,15075,15076,15076,0,975,0,15078,15078,15079,15079,15079,975,975,975,0,0,0,0,0,0,0,0,
0,0,0,0,0,0,0,0,0,0,0,0,0,0,0,0,0,0,0,0,0,0,0,0,0,0,0,0,0,0,0,0,0,0,0,0,0,0,0,0,0,0,0,0,15075,15076,15076,0,975,0,15078,15078,15079,15079,15079,975,975,975,0,0,0,0,0,0,0,0,
0,0,0,0,0,0,0,0,0,0,0,0,0,0,0,0,0,0,0,0,0,0,0,0,0,0,0,0,0,0,0,0,0,0,0,0,0,0,0,0,0,0,0,0,15075,15076,15076,0,975,0,15078,15078,15079,15079,15079,975,975,975,0,0,0,0,0,0,0,0,
0,0,0,0,0,0,0,0,0,0,0,0,0,0,0,0,0,0,0,0,0,0,0,0,0,0,0,0,0,0,0,0,0,0,0,0,0,0,0,0,0,0,0,0,15075,15076,15076,0,975,0,15078,15078,15079,15079,15079,975,975,975,0,0,0,0,0,0,0,0,
0,0,0,0,0,0,0,0,0,0,0,0,0,0,0,0,0,0,0,0,0,0,0,0,0,0,0,0,0,0,0,0,0,0,0,0,0,0,0,0,0,0,0,0,15075,15076,15076,0,975,0,15078,15078,15079,15079,15079,975,975,975,0,0,0,0,0,0,0,0,
0,0,0,0,0,0,0,0,0,0,0,0,0,0,0,0,0,0,0,0,0,0,0,0,0,0,0,0,0,0,0,0,0,0,0,0,0,0,0,0,0,0,0,0,15075,15076,15076,0,975,0,15078,15078,15079,15079,15079,975,975,975,0,0,0,0,0,0,0,0,
0,0,0,0,0,0,0,0,0,0,0,0,0,0,0,0,0,0,0,0,0,0,0,0,0,0,0,0,0,0,0,0,0,0,0,0,0,0,0,0,0,0,0,0,15075,15076,15076,0,975,0,15078,15078,15079,15079,15079,975,975,975,0,0,0,0,0,0,0,0,
0,0,0,0,0,0,0,0,0,0,0,0,0,0,0,0,0,0,0,0,0,0,0,0,0,0,0,0,0,0,0,0,0,0,0,0,0,0,0,0,0,0,0,0,15075,15076,15076,0,975,0,15078,15078,15079,15079,15079,975,975,975,0,0,0,0,0,0,0,0,
0,0,0,0,0,0,0,0,0,0,0,0,0,0,0,0,0,0,0,0,0,0,0,0,0,0,0,0,0,0,0,0,0,0,0,0,0,0,0,0,0,0,0,0,15075,15076,15076,0,975,0,15078,15078,15079,15079,15079,975,975,975,0,0,0,0,0,0,0,0,
0,0,0,0,0,0,0,0,0,0,0,0,0,0,0,0,0,0,0,0,0,0,0,0,0,0,0,0,0,0,0,0,0,0,0,0,0,0,0,0,0,0,0,0,15075,15076,15076,0,975,0,15078,15078,15079,15079,15079,975,975,975,0,0,0,0,0,0,0,0,
0,0,0,0,0,0,0,0,0,0,0,0,0,0,0,0,0,0,0,0,0,0,0,0,0,0,0,0,0,0,0,0,0,0,0,0,0,0,0,0,0,0,0,0,15075,15076,15076,0,975,0,15078,15078,15079,15079,15079,975,975,975,0,0,0,0,0,0,0,0,
15067,15068,15068,15068,15068,15068,15068,15068,15068,15068,15068,15068,15068,15068,15068,15069,0,0,0,0,0,0,0,0,0,0,0,0,0,0,0,0,0,0,0,0,0,0,0,0,0,0,0,0,15075,15076,15076,0,975,0,15078,15078,15079,15079,15079,975,975,975,0,0,0,0,0,0,0,0,
15075,15076,15076,15076,15076,15076,15076,15076,15076,15076,15076,15076,15076,15076,15076,15077,0,0,0,0,0,0,0,0,0,0,0,0,0,0,0,0,0,0,0,0,0,0,0,0,0,0,0,0,15075,15076,15076,0,975,0,15078,15078,15079,15079,15079,975,975,975,0,0,0,0,0,0,0,0,
15076,15076,15076,15076,15076,15076,15076,15076,15076,15076,15076,15076,15076,15076,15076,15077,0,0,0,0,0,0,0,0,0,0,0,0,0,0,0,0,0,0,0,0,0,0,0,0,0,0,0,0,15075,15076,15076,0,975,0,15078,15078,15079,15079,15079,975,975,975,0,0,0,0,0,0,0,0,
15071,15071,15071,15071,15071,15071,15072,15076,15076,15076,15076,15076,15076,15076,15076,15077,0,0,0,0,0,0,0,0,0,0,0,0,0,0,0,0,0,0,0,0,0,0,0,0,0,0,0,0,15075,15076,15076,0,975,0,15078,15078,15079,15079,15079,975,975,975,0,0,0,0,0,0,0,0,
15071,15071,15071,15071,15071,15072,0,15076,15076,0,0,0,0,0,0,0,0,0,0,0,0,0,0,0,0,0,0,0,0,0,0,0,0,0,0,0,0,0,0,0,0,0,0,0,15075,15076,15076,0,975,0,15078,15078,15079,15079,15079,975,975,975,0,0,0,0,0,0,0,0,
0,0,0,0,0,0,0,15076,15076,0,0,0,0,0,0,0,0,0,0,0,0,0,0,0,0,0,0,0,0,0,0,0,0,0,0,0,0,0,0,0,0,0,0,0,15075,15076,15076,0,975,0,15078,15078,15079,15079,15079,975,975,975,0,0,0,0,0,0,0,0,
0,0,0,0,0,0,0,15076,15076,0,0,0,0,0,0,0,15116,0,0,0,0,0,0,0,0,0,0,0,0,0,0,0,0,0,0,0,0,0,0,0,0,0,0,0,15075,15076,15076,0,975,0,15078,15078,15079,15079,15079,975,975,975,0,0,0,0,0,0,0,0,
0,0,0,0,0,0,0,15076,15076,0,0,0,0,0,0,0,0,0,0,0,0,0,0,0,0,0,0,0,0,0,0,0,0,0,0,0,0,0,0,0,0,0,0,0,0,15076,15076,0,975,0,15078,15078,15079,15079,15079,975,975,975,0,0,0,0,0,0,0,0,
0,0,0,0,0,0,0,15076,15076,0,0,0,0,0,0,0,0,0,0,0,0,0,0,0,0,0,0,0,0,0,0,0,0,0,0,0,0,0,0,0,0,0,0,0,0,15076,15076,0,975,0,15078,15078,983,983,983,877,983,983,983,983,983,983,983,983,983,983,
0,0,0,0,0,0,0,15076,15076,0,0,0,0,0,0,0,0,0,0,0,0,0,0,0,0,0,0,0,0,0,0,0,0,0,0,0,0,0,0,0,0,0,0,0,0,15076,15076,0,975,0,15078,983,983,983,983,877,983,983,983,983,983,983,983,983,983,983,
0,0,0,0,0,964,964,964,964,964,964,964,964,964,964,964,964,964,964,964,964,964,964,964,964,964,964,964,964,964,964,964,964,964,964,964,964,964,964,964,964,964,964,964,964,964,964,964,877,975,983,983,983,983,983,877,983,983,983,983,983,983,983,983,983,983,
0,0,0,0,0,948,948,948,948,948,948,948,948,948,948,948,948,948,948,948,948,948,948,948,948,948,948,948,948,948,948,948,948,948,948,948,948,948,948,948,948,948,948,948,948,948,948,948,101,948,0,0,0,0,0,0,0,0,0,0,0,0,0,0,0,0,
0,0,0,0,0,0,0,0,0,0,0,0,0,0,0,0,0,0,0,0,0,0,0,0,0,0,0,0,0,0,0,0,0,0,0,0,0,0,0,0,0,0,0,0,0,0,0,0,0,102,0,0,0,0,0,0,0,0,0,0,0,0,0,0,0,0,
0,0,0,0,0,0,0,0,0,0,0,0,0,0,0,205,205,205,205,205,0,0,0,0,0,0,0,0,0,0,0,0,0,0,0,0,0,0,0,0,0,0,0,0,0,0,0,0,0,205,0,0,0,0,0,0,0,0,0,0,0,0,0,0,0,0,
0,0,0,0,0,213,213,213,213,213,994,213,213,213,213,213,213,213,213,213,213,213,213,213,213,213,213,213,213,213,213,213,213,213,213,213,213,213,213,213,213,213,213,213,213,213,213,213,213,213,0,0,0,0,0,0,0,0,0,0,0,0,0,0,0,0,
0,0,0,0,0,0,0,0,0,0,0,0,0,0,0,0,0,0,0,0,0,0,0,0,0,0,0,0,0,0,0,0,0,0,0,0,0,0,0,0,0,0,0,0,0,0,0,0,0,0,0,0,0,0,0,0,0,0,0,0,0,0,0,0,0,0,
0,0,0,0,0,0,0,0,0,0,0,0,0,0,0,0,0,0,0,0,0,0,0,0,0,0,0,0,0,0,0,0,0,0,0,0,0,0,0,0,0,0,0,0,0,0,0,0,0,0,0,0,0,0,0,0,0,0,0,0,0,0,0,0,0,0,
0,0,0,0,0,0,0,0,0,0,0,0,0,0,0,0,0,0,0,0,0,0,0,0,0,0,0,0,0,0,0,0,0,0,0,0,0,0,0,0,0,0,0,0,0,0,0,0,0,0,0,0,0,0,0,0,0,0,0,0,0,0,0,0,0,0,
0,0,0,0,0,0,0,0,0,0,0,0,0,0,0,0,0,0,0,0,0,0,0,0,0,0,0,0,0,0,0,0,0,0,0,0,0,0,0,0,0,0,0,0,0,0,0,0,0,0,0,0,0,0,0,0,0,0,0,0,0,0,0,0,0,0,
0,0,0,0,0,0,0,0,0,0,0,0,0,0,0,0,0,0,0,0,0,0,0,0,0,0,0,0,0,0,0,0,0,0,0,0,0,0,0,0,0,0,0,0,0,0,0,0,0,0,0,0,0,0,0,0,0,0,0,0,0,0,0,0,0,0,
0,0,0,0,0,0,0,0,0,0,0,0,0,0,0,0,0,0,0,0,0,0,0,0,0,0,0,0,0,0,0,0,0,0,0,0,0,0,0,0,0,0,0,0,0,0,0,0,0,0,0,0,0,0,0,0,0,0,0,0,0,0,0,0,0,0,
0,0,0,0,0,0,0,0,0,0,0,0,0,0,0,0,0,0,0,0,0,0,0,0,0,0,0,0,0,0,0,0,0,0,0,0,0,0,0,0,0,0,0,0,0,0,0,0,0,0,0,0,0,0,0,0,0,0,0,0,0,0,0,0,0,0,
0,0,0,0,0,0,0,0,0,0,0,0,0,0,0,0,0,0,0,0,0,0,0,0,0,0,0,0,0,0,0,0,0,0,0,0,0,0,0,0,0,0,0,0,0,0,0,0,0,0,0,0,0,0,0,0,0,0,0,0,0,0,0,0,0,0,
0,0,0,0,0,0,0,0,0,0,0,0,0,0,0,0,0,0,0,0,0,0,0,0,0,0,0,0,0,0,0,0,0,0,0,0,0,0,0,0,0,0,0,0,0,0,0,0,0,0,0,0,0,0,0,0,0,0,0,0,0,0,0,0,0,0,
0,0,0,0,0,0,0,0,0,0,0,0,0,0,0,0,0,0,0,0,0,0,0,0,0,0,0,0,0,0,0,0,0,0,0,0,0,0,0,0,0,0,0,0,0,0,0,0,0,0,0,0,0,0,0,0,0,0,0,0,0,0,0,0,0,0,
0,0,0,0,0,0,0,0,0,0,0,0,0,0,0,0,0,0,0,0,0,0,0,0,0,0,0,0,0,0,0,0,0,0,0,0,0,0,0,0,0,0,0,0,0,0,0,0,0,0,0,0,0,0,0,0,0,0,0,0,0,0,0,0,0,0,
0,0,0,0,0,0,0,0,0,0,0,0,0,0,0,0,0,0,0,0,0,0,0,0,0,0,0,0,0,0,0,0,0,0,0,0,0,0,0,0,0,0,0,0,0,0,0,0,0,0,0,0,0,0,0,0,0,0,0,0,0,0,0,0,0,0,
0,0,0,0,0,0,0,0,0,0,0,0,0,0,0,0,0,0,0,0,0,0,0,0,0,0,0,0,0,0,0,0,0,0,0,0,0,0,0,0,0,0,0,0,0,0,0,0,0,0,0,0,0,0,0,0,0,0,0,0,0,0,0,0,0,0,
0,0,0,0,0,0,0,0,0,0,0,0,0,0,0,0,0,0,0,0,0,0,0,0,0,0,0,0,0,0,0,0,0,0,0,0,0,0,0,0,0,0,0,0,0,0,0,0,0,0,0,0,0,0,0,0,0,0,0,0,0,0,0,0,0,0,
0,0,0,0,0,0,0,0,0,0,0,0,0,0,0,0,0,0,0,0,0,0,0,0,0,0,0,0,0,0,0,0,0,0,0,0,0,0,0,0,0,0,0,0,0,0,0,0,0,0,0,0,0,0,0,0,0,0,0,0,0,0,0,0,0,0,
0,0,0,0,0,0,0,0,0,0,0,0,0,0,0,0,0,0,0,0,0,0,0,0,0,0,0,0,0,0,0,0,0,0,0,0,0,0,0,0,0,0,0,0,0,0,0,0,0,0,0,0,0,0,0,0,0,0,0,0,0,0,0,0,0,0,
0,0,0,0,0,0,0,0,0,0,0,0,0,0,0,0,0,0,0,0,0,0,0,0,0,0,0,0,0,0,0,0,0,0,0,0,0,0,0,0,0,0,0,0,0,0,0,0,0,0,0,0,0,0,0,0,0,0,0,0,0,0,0,0,0,0,
0,0,0,0,0,0,0,0,0,0,0,0,0,0,0,0,0,0,0,0,0,0,0,0,0,0,0,0,0,0,0,0,0,0,0,0,0,0,0,0,0,0,0,0,0,0,0,0,0,0,0,0,0,0,0,0,0,0,0,0,0,0,0,0,0,0,
0,0,0,0,0,0,0,0,0,0,0,0,0,0,0,0,0,0,0,0,0,0,0,0,0,0,0,0,0,0,0,0,0,0,0,0,0,0,0,0,0,0,0,0,0,0,0,0,0,0,0,0,0,0,0,0,0,0,0,0,0,0,0,0,0,0,
0,0,0,0,0,0,0,0,0,0,0,0,0,0,0,0,0,0,0,0,0,0,0,0,0,0,0,0,0,0,0,0,0,0,0,0,0,0,0,0,0,0,0,0,0,0,0,0,0,0,0,0,0,0,0,0,0,0,0,0,0,0,0,0,0,0,
0,0,0,0,0,0,0,0,0,0,0,0,0,0,0,0,0,0,0,0,0,0,0,0,0,0,0,0,0,0,0,0,0,0,0,0,0,0,0,0,0,0,0,0,0,0,0,0,0,0,0,0,0,0,0,0,0,0,0,0,0,0,0,0,0,0,
0,0,0,0,0,0,0,0,0,0,0,0,0,0,0,0,0,0,0,0,0,0,0,0,0,0,0,0,0,0,0,0,0,0,0,0,0,0,0,0,0,0,0,0,0,0,0,0,0,0,0,0,0,0,0,0,0,0,0,0,0,0,0,0,0,0,
0,0,0,0,0,0,0,0,0,0,0,0,0,0,0,0,0,0,0,0,0,0,0,0,0,0,0,0,0,0,0,0,0,0,0,0,0,0,0,0,0,0,0,0,0,0,0,0,0,0,0,0,0,0,0,0,0,0,0,0,0,0,0,0,0,0,
0,0,0,0,0,0,0,0,0,0,0,0,0,0,0,0,0,0,0,0,0,0,0,0,0,0,0,0,0,0,0,0,0,0,0,0,0,0,0,0,0,0,0,0,0,0,0,0,0,0,0,0,0,0,0,0,0,0,0,0,0,0,0,0,0,0,
0,0,0,0,0,0,0,0,0,0,0,0,0,0,0,0,0,0,0,0,0,0,0,0,0,0,0,0,0,0,0,0,0,0,0,0,0,0,0,0,0,0,0,0,0,0,0,0,0,0,0,0,0,0,0,0,0,0,0,0,0,0,0,0,0,0,
0,0,0,0,0,0,0,0,0,0,0,0,0,0,0,0,0,0,0,0,0,0,0,0,0,0,0,0,0,0,0,0,0,0,0,0,0,0,0,0,0,0,0,0,0,0,0,0,0,0,0,0,0,0,0,0,0,0,0,0,0,0,0,0,0,0,
0,0,0,0,0,0,0,0,0,0,0,0,0,0,0,0,0,0,0,0,0,0,0,0,0,0,0,0,0,0,0,0,0,0,0,0,0,0,0,0,0,0,0,0,0,0,0,0,0,0,0,0,0,0,0,0,0,0,0,0,0,0,0,0,0,0,
0,0,0,0,0,0,0,0,0,0,0,0,0,0,0,0,0,0,0,0,0,0,0,0,0,0,0,0,0,0,0,0,0,0,0,0,0,0,0,0,0,0,0,0,0,0,0,0,0,0,0,0,0,0,0,0,0,0,0,0,0,0,0,0,0,0,
0,0,0,0,0,0,0,0,0,0,0,0,0,0,0,0,0,0,0,0,0,0,0,0,0,0,0,0,0,0,0,0,0,0,0,0,0,0,0,0,0,0,0,0,0,0,0,0,0,0,0,0,0,0,0,0,0,0,0,0,0,0,0,0,0,0,
0,0,0,0,0,0,0,0,0,0,0,0,0,0,0,0,0,0,0,0,0,0,0,0,0,0,0,0,0,0,0,0,0,0,0,0,0,0,0,0,0,0,0,0,0,0,0,0,0,0,0,0,0,0,0,0,0,0,0,0,0,0,0,0,0,0,
0,0,0,0,0,0,0,0,0,0,0,0,0,0,0,0,0,0,0,0,0,0,0,0,0,0,0,0,0,0,0,0,0,0,0,0,0,0,0,0,0,0,0,0,0,0,0,0,0,0,0,0,0,0,0,0,0,0,0,0,0,0,0,0,0,0
</data>
 </layer>
 <layer id="4" name="edifici" width="66" height="109">
  <data encoding="csv">
14205,14205,14205,14205,14205,15078,15078,15078,15078,15078,15078,15078,15078,15078,15078,14623,14624,14623,14624,14623,14624,14623,14624,14623,14624,14623,14624,14623,14624,14623,14624,14623,14624,14623,14624,14623,14624,14623,14624,14623,14624,14623,14624,14623,14624,14623,14624,14623,14624,14623,14624,14623,14624,14623,14624,14623,14624,15079,15079,15079,15079,15079,15079,15079,15079,15079,
14205,14205,14205,14205,14205,15078,15078,15078,15078,15078,15078,15078,15078,15078,15078,14631,14632,14631,14632,14631,14632,14631,14632,14631,14632,14631,14632,14631,14632,14631,14632,14631,14632,14631,14632,14631,14632,14631,14632,14631,14632,14631,14632,14631,14632,14631,14632,14631,14632,14631,14632,14631,14632,14631,14632,14631,14632,15079,15079,15079,15079,15079,15079,15079,15079,15079,
14205,14205,14205,14205,14205,15078,15078,15078,15078,15078,15078,15078,15078,15078,15078,14639,14640,14639,14640,14639,14640,14639,14640,14639,14640,14639,14640,14639,14640,14639,14640,14639,14640,14639,14640,14639,14640,14639,14640,14639,14640,14639,14640,14639,14640,14639,14640,14639,14640,14639,14640,14639,14640,14639,14640,14639,14640,15079,15079,15079,15079,15079,15079,15079,15079,15079,
14205,14205,14205,14205,14205,15078,15078,15078,15078,15078,15078,15078,15078,15078,15078,14623,14624,14623,14624,14623,14624,14623,14624,14623,14624,14623,14624,14623,14624,14623,14624,14623,14624,14623,14624,14623,14624,14623,14624,14623,14624,14623,14624,14623,14624,14623,14624,14623,14624,14623,14624,14623,14624,14623,14624,14623,14624,15079,15079,15079,15079,15079,15079,15079,15079,15079,
14205,14205,14205,14205,14205,15078,15078,15078,15078,15078,15078,15078,15078,15078,15078,14631,14632,14631,14632,14631,14632,14631,14632,14631,14632,14631,14632,14631,14632,14631,14632,14631,14632,14631,14632,14631,14632,14631,14632,14631,14632,14631,14632,14631,14632,14631,14632,14631,14632,14631,14632,14631,14632,14631,14632,14631,14632,15079,15079,15079,15079,15079,15079,15079,15079,15079,
14205,14205,14205,14205,14205,15078,15078,15078,15078,15078,15078,15078,15078,15078,15078,14639,14640,14639,14640,14639,14640,14639,14640,14639,14640,14639,14640,14639,14640,14639,14640,14639,14640,14639,14640,14639,14640,14639,14640,14639,14640,14639,14640,14639,14640,14639,14640,14639,14640,14639,14640,14639,14640,14639,14640,14639,14640,15079,15079,15079,15079,15079,15079,15079,15079,15079,
14205,14205,14205,14205,14205,15078,15078,15078,15078,15078,15078,15078,15078,15078,15078,14623,14624,14623,14624,14623,14624,14623,14624,14623,14624,14623,14624,14623,14624,14623,14624,14623,14624,14623,14624,14623,14624,14623,14624,14623,14624,14623,14624,14623,14624,14623,14624,14623,14624,14623,14624,14623,14624,14623,14624,14623,14624,15079,15079,15079,15079,15079,15079,15079,15079,15079,
14205,14205,14205,14205,14205,15078,15078,15078,15078,15078,15078,15078,15078,15078,15078,14631,14632,14631,14632,14631,14632,14631,14632,14631,14632,14631,14632,14631,14632,14631,14632,14631,14632,14631,14632,14631,14632,14631,14632,14631,14632,14631,14632,14631,14632,14631,14632,14631,14632,14631,14632,14631,14632,14631,14632,14631,14632,15079,15079,15079,15079,15079,15079,15079,15079,15079,
0,519,520,519,520,0,0,0,0,0,0,0,0,0,0,14639,14640,14639,14640,14639,14640,14639,14640,14639,14640,14639,14640,14639,14640,14639,14640,14639,14640,14639,14640,14639,14640,14639,14640,14639,14640,14639,14640,14639,14640,14639,14640,14639,14640,14639,14640,14639,14640,14639,14640,14639,14640,0,519,520,519,520,519,520,519,520,
0,527,528,527,528,0,0,0,0,0,0,0,0,0,0,0,0,0,0,0,0,0,0,0,0,0,0,0,0,0,0,0,0,0,0,0,0,0,0,0,0,0,0,0,0,0,0,0,0,0,0,0,0,0,0,0,15098,0,527,528,527,528,527,528,527,528,
0,535,536,535,536,0,0,0,0,0,0,0,0,0,0,0,0,0,0,0,0,0,0,0,0,0,0,0,0,0,0,0,0,0,0,0,0,0,0,0,0,0,0,0,0,0,0,0,0,0,0,0,0,0,0,0,15098,15098,535,536,535,536,535,536,535,536,
0,519,520,519,520,0,0,0,0,0,0,0,0,0,0,0,0,0,0,0,0,0,0,0,0,0,0,0,0,0,0,0,0,0,0,0,0,0,0,0,0,0,0,0,0,0,0,0,0,0,0,0,0,0,0,0,0,0,519,520,519,520,519,520,519,520,
0,527,528,527,528,0,0,0,0,0,0,0,0,0,0,0,0,0,0,0,0,0,0,0,0,0,0,0,0,0,0,0,0,0,0,0,0,0,0,0,0,0,0,0,0,0,0,0,0,0,0,0,0,0,0,0,0,0,527,528,527,528,527,528,527,528,
0,535,536,535,536,974,974,974,974,974,974,974,974,974,974,519,520,519,520,519,520,519,520,519,520,519,520,519,520,519,520,519,520,519,520,519,520,519,520,519,520,519,520,519,520,519,520,519,520,0,0,0,0,0,0,0,0,0,535,536,535,536,535,536,535,536,
0,519,520,519,520,974,974,974,974,974,974,974,974,974,974,527,528,527,528,527,528,527,528,527,528,527,528,527,528,527,528,527,528,527,528,527,528,527,528,527,528,527,528,527,528,527,528,527,528,0,0,0,0,0,0,0,0,0,519,520,519,520,519,520,519,520,
0,527,528,527,528,974,974,974,974,974,974,974,974,974,974,535,536,535,536,535,536,535,536,535,536,535,536,535,536,535,536,535,536,535,536,535,536,535,536,535,536,535,536,535,536,535,536,535,536,0,0,0,0,0,0,0,0,0,527,528,527,528,527,528,527,528,
0,535,536,535,536,974,974,974,974,974,974,974,974,974,982,980,980,980,980,980,980,980,980,980,980,980,980,980,980,980,980,980,980,980,980,980,980,980,980,980,980,980,980,980,980,980,980,980,980,980,0,0,0,0,0,0,0,0,535,536,535,536,535,536,535,536,
0,519,520,519,520,974,974,974,974,974,974,974,974,982,980,980,980,980,980,980,980,980,980,980,980,980,980,980,980,980,980,980,980,980,980,980,980,980,980,980,980,980,980,980,980,980,980,980,980,980,0,0,0,0,0,0,0,0,519,520,519,520,519,520,519,520,
0,527,528,527,528,974,974,974,974,974,974,974,982,980,980,980,980,980,980,980,980,980,980,980,980,980,980,980,980,980,980,980,980,980,980,980,980,980,2499,2500,2501,2502,2503,2504,2505,980,980,980,980,988,0,0,0,0,0,0,0,0,527,528,527,528,527,528,527,528,
0,535,536,535,536,0,0,0,0,0,0,0,0,0,0,0,0,0,0,0,0,0,0,105,0,0,0,0,0,0,0,0,0,0,105,0,0,0,2507,2508,2509,2510,2511,2512,2513,519,520,519,520,974,0,0,0,0,0,0,0,0,535,536,535,536,535,536,535,536,
0,519,520,519,520,0,0,0,0,0,0,0,0,0,0,1467,1468,1469,1470,1471,0,0,0,0,0,0,0,105,105,0,0,0,0,105,105,0,0,0,2515,2516,2517,2518,2519,2520,2521,527,528,527,528,974,0,0,0,0,0,0,0,0,519,520,519,520,519,520,519,520,
0,527,528,527,528,0,0,0,0,0,0,0,0,0,0,1475,1476,1477,1478,1479,0,0,105,105,105,105,105,105,0,105,0,0,105,105,105,0,0,0,2523,2524,2525,2526,2527,2528,2529,535,536,535,536,974,0,0,0,0,0,0,0,0,527,528,527,528,527,528,527,528,
0,535,536,535,536,0,0,0,0,0,0,0,0,0,0,1483,1484,1485,1486,1487,0,0,0,105,105,105,105,105,105,105,105,105,0,0,0,105,0,0,2531,2532,2533,2534,2535,2536,2537,519,520,519,520,974,0,0,0,0,0,0,0,0,535,536,535,536,535,536,535,536,
0,519,520,519,520,0,0,0,0,0,0,0,0,0,0,1491,1492,1493,1494,1495,0,0,105,0,0,0,105,0,0,105,0,0,0,105,0,0,0,0,0,0,2541,2542,2543,0,0,527,528,527,528,974,0,0,0,0,0,0,0,0,519,520,519,520,519,520,519,520,
0,527,528,527,528,0,0,0,0,0,0,0,0,0,1053,0,0,0,0,0,0,0,0,0,0,0,0,0,0,0,0,0,0,0,0,0,0,0,0,0,0,0,0,0,0,535,536,535,536,974,0,0,0,0,0,0,0,0,527,528,527,528,527,528,527,528,
0,535,536,535,536,0,0,0,0,0,0,0,0,0,0,0,0,0,0,0,0,0,0,0,0,0,0,0,0,0,0,0,0,0,0,0,0,0,0,0,0,0,0,0,0,519,520,519,520,974,0,0,0,0,0,0,0,0,535,536,535,536,535,536,535,536,
0,519,520,519,520,0,0,0,0,0,0,0,0,0,0,0,0,0,0,0,0,0,0,0,0,0,0,0,0,0,0,0,0,0,0,0,0,0,0,0,0,0,0,0,0,527,528,527,528,974,0,0,0,0,0,0,0,0,519,520,519,520,519,520,519,520,
0,527,528,527,528,0,0,0,0,0,0,0,0,0,0,0,0,0,0,0,0,0,0,0,0,0,0,0,0,0,0,0,0,0,0,0,0,0,0,0,0,0,0,0,0,535,536,535,536,974,0,0,0,0,0,0,0,0,527,528,527,528,527,528,527,528,
0,535,536,535,536,0,0,0,0,0,0,0,0,0,0,0,0,0,0,0,0,0,0,0,0,0,0,0,0,0,0,0,0,0,0,0,0,0,0,0,0,0,0,0,0,574,0,0,0,974,0,0,0,0,0,0,0,0,535,536,535,536,535,536,535,536,
0,519,520,519,520,0,0,0,0,0,0,0,0,0,0,0,0,0,0,0,0,0,0,0,0,0,0,0,0,0,0,0,0,0,0,0,0,0,0,0,0,0,0,0,0,574,0,0,0,974,0,0,0,0,0,0,0,0,519,520,519,520,519,520,519,520,
0,527,528,527,528,0,0,0,0,0,0,15086,0,0,0,0,0,0,0,0,0,0,877,0,0,0,0,0,0,0,0,0,0,0,0,0,0,0,0,0,0,0,0,0,0,0,0,0,0,0,0,0,0,0,0,0,0,0,527,528,527,528,527,528,527,528,
0,535,536,535,536,0,0,0,0,0,0,0,0,0,0,0,0,0,0,0,0,0,0,0,0,0,0,0,0,0,0,0,0,0,0,0,0,0,0,0,0,0,0,0,0,0,0,0,0,0,0,0,0,0,0,0,0,0,535,536,535,536,535,536,535,536,
0,519,520,519,520,0,0,0,0,0,0,0,0,0,0,0,0,0,0,0,0,0,0,0,0,0,0,0,0,0,0,0,0,0,0,0,0,0,0,0,0,0,0,0,0,0,0,0,0,0,0,0,0,0,0,0,0,0,519,520,519,520,519,520,519,520,
0,527,528,527,528,0,0,0,0,0,0,0,0,0,0,0,0,0,0,0,0,0,0,0,0,0,0,0,0,0,0,0,0,0,0,0,15087,0,0,0,0,0,0,0,0,0,0,0,0,0,0,0,0,0,0,0,0,0,527,528,527,528,527,528,527,528,
0,535,536,535,536,0,0,0,0,0,0,0,0,0,0,0,0,0,0,0,0,0,0,0,0,0,0,0,0,0,0,0,0,0,0,0,0,0,0,0,0,0,0,0,0,0,0,0,0,0,0,0,0,0,0,0,0,0,535,536,535,536,535,536,535,536,
0,0,0,0,0,15092,0,0,0,0,0,0,0,0,0,0,0,0,0,0,0,0,0,0,0,0,0,0,0,0,0,0,0,0,0,0,0,0,0,0,0,0,0,0,0,0,0,0,0,0,0,0,0,0,0,0,0,0,519,520,519,520,519,520,519,520,
0,0,0,0,0,15083,0,0,0,0,0,0,0,0,0,0,0,0,0,0,0,0,0,0,0,0,0,0,0,0,0,0,0,0,0,0,0,0,0,0,0,0,0,0,0,14623,14624,0,0,0,0,0,0,0,0,0,0,0,527,528,527,528,527,528,527,528,
0,0,0,0,0,0,0,0,0,0,0,15075,14673,14673,14673,14673,0,0,0,0,0,0,0,0,0,0,0,0,0,0,0,0,0,0,0,0,0,0,14673,14673,14673,14673,0,0,0,14631,14632,0,0,0,0,0,0,0,0,0,0,0,535,536,535,536,535,536,535,536,
0,0,0,0,0,0,0,0,0,0,0,15075,14681,14681,14681,14681,0,14209,14209,14209,14209,14209,14209,14209,14209,14209,14209,14209,14209,14209,14209,14209,14209,14209,14209,14209,14209,0,14681,14681,14681,14681,0,0,0,14639,14640,0,0,0,0,0,0,0,0,0,0,0,519,520,519,520,519,520,519,520,
0,0,0,0,0,0,0,0,0,0,0,15075,14689,14689,14689,14689,0,14209,14209,14209,14209,14209,14209,14209,14209,14209,14209,14209,14209,14209,14209,14209,14209,14209,14209,14209,14209,0,14689,14689,14689,14689,0,0,0,14623,14624,0,0,0,0,0,0,0,0,0,0,0,527,528,527,528,527,528,527,528,
0,0,0,0,0,0,0,0,0,0,0,15075,0,0,0,0,0,14209,14209,14209,14209,14209,14209,14209,14209,14209,14209,14209,14209,14209,14209,14209,14209,14209,14209,14209,14209,0,0,0,0,14681,0,0,0,14631,14632,0,0,0,0,0,0,0,0,0,0,0,535,536,535,536,535,536,535,536,
0,0,0,0,0,0,0,0,0,0,0,15075,0,0,0,0,0,0,0,0,0,0,0,0,0,0,0,0,0,0,0,0,0,0,0,0,0,0,0,0,0,14689,0,0,0,14639,14640,0,0,0,0,0,0,0,0,0,0,0,519,520,519,520,519,520,519,520,
0,0,0,0,0,0,0,0,0,0,0,15075,0,0,0,0,0,0,0,0,0,0,0,0,0,0,0,0,0,0,0,0,0,0,0,0,0,0,0,0,0,14673,0,0,0,14623,14624,0,0,0,0,0,0,0,0,0,0,0,527,528,527,528,527,528,527,528,
0,0,0,0,0,0,0,0,0,0,0,15083,15084,15084,15084,15088,0,0,0,0,0,0,0,0,0,0,0,0,0,0,0,0,0,0,0,0,0,0,0,0,0,14681,0,0,0,14631,14632,0,0,0,0,0,0,0,0,0,0,0,535,536,535,536,535,536,535,536,
0,0,0,0,0,0,0,0,0,0,0,0,0,53,53,53,53,53,0,0,0,0,0,0,0,0,0,0,0,0,0,0,0,0,0,0,0,0,0,0,0,14689,0,0,0,14639,14640,0,0,0,0,0,0,0,0,0,0,0,519,520,519,520,519,520,519,520,
0,0,0,0,0,0,0,0,0,0,0,0,0,53,53,53,53,0,0,0,0,0,0,0,0,0,0,0,0,0,0,0,0,0,0,0,0,0,0,0,0,14673,0,0,0,14623,14624,0,0,0,0,0,0,0,0,0,0,0,527,528,527,528,527,528,527,528,
0,0,0,0,0,0,0,0,0,0,0,0,0,0,0,53,53,53,53,53,53,53,53,53,53,53,53,53,53,53,53,53,53,53,53,0,0,0,0,0,0,14681,0,0,0,14631,14632,0,0,0,0,0,0,0,0,0,0,0,535,536,535,536,535,536,535,536,
0,0,0,0,0,0,0,0,0,0,0,0,0,0,0,53,53,53,53,53,53,53,53,53,53,53,53,53,53,53,53,53,53,53,53,0,0,0,0,0,0,14689,0,0,0,14639,14640,0,0,0,0,0,0,0,0,0,0,0,519,520,519,520,519,520,519,520,
0,0,0,0,0,0,0,0,0,0,0,0,0,0,0,53,53,53,53,53,53,53,53,53,53,53,53,53,53,53,53,53,53,53,53,0,0,0,0,0,0,14673,0,0,0,14623,14624,0,0,0,0,0,0,0,0,0,0,0,527,528,527,528,527,528,527,528,
0,0,0,0,0,0,0,0,0,0,0,0,0,0,0,53,53,53,53,53,53,53,53,53,53,53,53,53,53,53,53,53,53,53,53,0,0,0,0,0,0,14681,0,0,0,14631,14632,0,0,0,0,0,0,0,0,0,0,0,535,536,535,536,535,536,535,536,
0,0,0,0,0,0,0,0,0,0,0,0,0,0,0,53,53,53,53,53,53,53,53,18242,18243,18243,18243,18243,18244,53,53,53,53,53,53,0,0,0,0,0,0,14689,0,0,0,14639,14640,0,0,0,0,0,0,0,0,0,0,0,519,520,519,520,519,520,519,520,
0,0,0,0,0,0,0,0,0,0,0,0,0,0,0,53,53,53,53,53,53,53,53,18260,18261,18261,18261,18261,18262,53,53,53,53,53,53,0,0,0,0,0,0,14673,0,0,0,14623,14624,0,0,0,0,0,0,0,0,0,0,0,527,528,527,528,527,528,527,528,
0,0,0,0,0,0,0,0,0,0,0,0,0,0,0,53,53,53,53,53,53,53,53,18260,18261,18261,18261,18261,18262,53,53,53,53,53,53,0,0,0,0,0,0,14681,0,0,0,14631,14632,0,0,0,0,0,0,0,0,0,0,0,535,536,535,536,535,536,535,536,
0,0,0,0,0,0,0,0,0,0,0,0,0,0,0,53,53,53,53,53,53,53,53,18260,18261,18261,18261,18261,18262,53,53,53,53,53,53,0,0,0,0,0,0,14689,0,0,0,14639,14640,0,0,0,0,0,0,0,0,0,0,0,519,520,519,520,519,520,519,520,
0,0,0,0,0,0,0,0,0,0,0,0,0,0,0,53,53,53,53,53,53,53,53,18278,18279,18279,18279,18279,18280,53,53,53,53,53,53,0,0,0,0,0,0,14673,0,0,0,14623,14624,0,0,0,0,0,0,0,0,0,0,0,527,528,527,528,527,528,527,528,
0,0,0,0,0,0,0,0,0,0,0,0,0,0,0,53,53,53,53,53,53,53,53,53,53,53,53,53,53,53,53,53,53,53,53,0,0,0,0,0,0,14681,0,0,0,14631,14632,0,0,0,0,0,0,0,0,0,0,0,535,536,535,536,535,536,535,536,
0,0,0,0,0,0,0,0,0,0,0,0,0,0,0,53,53,53,53,53,53,53,53,53,53,53,53,53,53,53,53,53,53,53,53,0,0,0,0,0,0,14689,0,0,0,14639,14640,0,0,0,0,0,0,0,0,0,0,0,519,520,519,520,519,520,519,520,
0,0,0,0,0,0,0,0,0,0,0,0,0,0,0,53,53,53,53,53,53,53,53,53,53,53,53,53,53,53,53,53,53,53,53,0,0,0,0,0,0,14673,0,0,0,14623,14624,0,0,0,0,0,0,0,0,0,0,0,527,528,527,528,527,528,527,528,
53,53,53,53,53,53,53,53,53,53,53,53,53,53,53,53,53,53,53,53,53,53,53,53,53,53,53,53,53,53,53,53,53,53,53,0,0,0,0,0,0,14681,0,0,0,14631,14632,0,0,0,0,0,0,0,0,0,0,0,535,536,535,536,535,536,535,536,
53,53,53,53,53,53,53,53,53,53,53,53,53,53,53,53,53,53,53,53,53,53,53,53,53,53,53,53,53,53,53,53,53,53,53,0,0,0,0,0,0,14689,0,0,0,14639,14640,0,0,0,0,0,0,0,0,0,0,0,519,520,519,520,519,520,519,520,
53,53,53,53,53,53,53,53,53,53,53,53,53,53,53,53,53,53,53,53,53,53,53,53,53,53,53,53,53,53,53,53,53,53,53,0,0,0,0,0,0,14673,0,0,0,14623,14624,0,0,0,0,0,0,0,0,0,0,0,527,528,527,528,527,528,527,528,
53,53,53,53,53,53,53,53,53,53,53,53,53,53,53,53,53,53,53,53,53,53,53,53,53,53,53,53,53,53,53,53,53,53,53,0,0,0,0,0,0,14681,0,0,0,14631,14632,0,0,0,0,0,0,0,0,0,0,0,535,536,535,536,535,536,535,536,
0,0,0,0,0,0,0,0,0,0,0,0,0,0,0,53,53,53,53,53,53,53,53,53,53,53,53,53,53,53,53,53,53,53,53,0,0,0,0,0,0,14689,0,0,0,14639,14640,0,0,0,0,0,0,0,0,0,0,0,519,520,519,520,519,520,519,520,
0,519,520,0,0,0,0,0,0,0,0,0,0,0,0,0,0,0,0,0,0,0,0,0,0,0,0,0,0,0,0,0,0,0,0,0,0,0,0,0,0,14673,0,0,0,14623,14624,0,0,0,0,0,0,0,0,0,0,0,527,528,527,528,527,528,527,528,
0,527,528,0,0,0,0,519,520,0,0,0,0,519,520,0,0,0,0,0,0,0,0,0,0,0,0,0,0,0,0,0,0,0,0,0,0,0,0,0,0,14681,0,0,0,14631,14632,0,0,0,0,0,0,0,0,0,0,0,535,536,535,536,535,536,535,536,
0,535,536,0,0,0,0,527,528,0,0,0,0,527,528,0,0,0,0,0,0,0,0,0,0,0,0,0,0,0,0,0,0,0,0,0,0,0,0,0,0,14689,0,0,0,14639,14640,0,0,0,0,0,0,0,0,0,0,0,519,520,519,520,519,520,519,520,
0,0,0,0,0,0,0,535,536,0,0,0,0,535,536,0,0,0,0,0,0,0,0,0,0,0,0,0,0,0,0,0,0,0,0,0,0,0,0,0,0,14673,0,0,0,14623,14624,0,0,0,0,0,0,0,0,0,0,0,527,528,527,528,527,528,527,528,
0,0,0,0,0,0,0,14623,14624,15079,15079,15079,15079,519,520,0,0,0,0,0,0,0,0,0,0,0,0,0,0,0,0,0,0,0,0,0,0,0,0,0,0,14681,0,0,0,14631,14632,0,0,0,0,0,0,0,0,0,0,0,535,536,535,536,535,536,535,536,
519,520,0,0,0,0,0,14631,14632,15079,15079,15079,15079,527,528,0,0,0,0,0,0,0,0,0,0,0,0,0,0,0,0,0,0,0,0,0,0,0,0,0,0,14689,0,0,0,14639,14640,0,0,0,0,0,0,0,0,0,0,0,519,520,519,520,519,520,519,520,
527,528,0,0,0,0,0,14639,14640,15079,15079,15079,15079,535,536,0,15116,15116,15116,15116,15116,15116,15116,15116,15116,15116,15116,15116,15116,15116,15116,15116,15116,15116,15116,15116,15116,15116,0,0,0,14673,0,0,0,14623,14624,0,0,0,0,0,0,0,0,0,0,0,527,528,527,528,527,528,527,528,
535,536,0,0,0,0,0,14623,14624,15079,15079,15079,15079,519,520,0,14365,14365,14365,14365,14365,14365,14365,14365,14365,14365,14365,14365,14365,14365,14365,14365,14365,14365,14365,14365,14365,14365,0,0,0,14681,0,0,0,14631,14632,0,0,0,0,0,0,0,0,0,0,0,535,536,535,536,535,536,535,536,
0,0,0,0,0,0,0,14631,14632,15079,15079,15079,15079,527,528,0,14365,14365,14365,14365,14365,14365,14365,14365,14365,14365,14365,14365,14365,14365,14365,14365,14365,14365,14365,14365,14365,14365,0,0,0,14689,0,0,0,14639,14640,0,0,0,0,982,0,0,0,0,0,0,0,0,0,0,0,0,0,0,
0,0,0,0,0,0,0,14639,14640,15079,15079,15079,15079,535,536,0,14365,14365,14365,14365,14365,14365,14365,14365,14365,14365,14365,14365,14365,14365,14365,14365,14365,14365,14365,14365,14365,14365,0,0,0,0,0,0,0,0,0,0,0,0,982,0,0,0,0,0,0,0,0,0,0,0,0,0,0,0,
0,0,0,0,0,0,0,0,0,0,0,0,0,0,0,0,0,0,0,0,0,0,0,0,0,0,0,0,0,0,0,0,0,0,0,0,0,0,0,0,0,0,0,0,0,0,0,0,0,982,519,520,519,520,0,0,0,0,0,0,0,0,0,0,0,0,
0,0,0,0,0,0,0,0,0,994,0,0,0,0,0,0,0,0,0,0,0,0,0,0,0,15132,15132,15132,0,0,0,0,0,0,0,0,0,0,0,0,0,0,0,0,0,0,0,0,205,574,527,528,527,528,574,0,0,0,519,520,519,520,519,520,519,520,
0,0,0,0,0,0,0,0,0,0,994,0,0,0,0,0,0,0,0,0,0,0,0,0,0,0,0,0,0,0,0,0,0,0,0,0,0,0,0,0,0,0,0,0,0,0,0,0,205,574,535,536,535,536,574,0,0,0,527,528,527,528,527,528,527,528,
0,0,0,0,0,197,197,197,197,1044,197,197,197,197,197,197,197,197,197,197,197,197,197,197,197,197,197,197,197,197,197,197,197,197,197,197,197,197,197,197,197,197,197,197,197,197,197,197,205,1042,519,520,519,520,574,0,0,0,535,536,535,536,535,536,535,536,
0,0,0,0,0,519,520,519,520,519,520,519,520,519,520,519,520,519,520,519,520,519,520,519,520,519,520,519,520,519,520,519,520,519,520,519,520,519,520,519,520,519,520,519,520,519,520,519,520,1042,527,528,527,528,574,0,0,0,519,520,519,520,519,520,519,520,
0,0,0,0,0,527,528,527,528,527,528,527,528,527,528,527,528,527,528,527,528,527,528,527,528,527,528,527,528,527,528,527,528,527,528,527,528,527,528,527,528,527,528,527,528,527,528,527,528,1042,535,536,535,536,574,0,0,0,527,528,527,528,527,528,527,528,
0,0,0,0,0,535,536,535,536,535,536,535,536,535,536,535,536,535,536,535,536,535,536,535,536,535,536,535,536,535,536,535,536,535,536,535,536,535,536,535,536,535,536,535,536,535,536,535,536,0,519,520,519,520,574,0,0,0,535,536,535,536,535,536,535,536,
519,520,519,520,0,519,520,519,520,519,520,519,520,519,520,519,520,519,520,519,520,519,520,519,520,519,520,519,520,519,520,519,520,519,520,519,520,519,520,519,520,519,520,519,520,519,520,519,520,0,527,528,527,528,574,0,0,0,519,520,519,520,519,520,519,520,
527,528,527,528,0,527,528,527,528,527,528,527,528,527,528,527,528,527,528,527,528,527,528,527,528,527,528,527,528,527,528,527,528,527,528,527,528,527,528,527,528,527,528,527,528,527,528,527,528,0,535,536,535,536,574,0,0,0,527,528,527,528,527,528,527,528,
535,536,535,536,0,535,536,535,536,535,536,535,536,535,536,535,536,535,536,535,536,535,536,535,536,535,536,535,536,535,536,535,536,535,536,535,536,535,536,535,536,535,536,535,536,535,536,535,536,0,574,574,574,574,574,0,0,0,535,536,535,536,535,536,535,536,
519,520,519,520,519,520,519,520,519,520,519,520,519,520,519,520,519,520,519,520,519,520,519,520,519,520,519,520,519,520,519,520,519,520,519,520,519,520,519,520,519,520,519,520,519,520,519,520,519,520,519,520,519,520,574,0,0,0,519,520,519,520,519,520,519,520,
527,528,527,528,527,528,527,528,527,528,527,528,527,528,527,528,527,528,527,528,527,528,527,528,527,528,527,528,527,528,527,528,527,528,527,528,527,528,527,528,527,528,527,528,527,528,527,528,527,528,527,528,527,528,574,0,0,0,527,528,527,528,527,528,527,528,
535,536,535,536,535,536,535,536,535,536,535,536,535,536,535,536,535,536,535,536,535,536,535,536,535,536,535,536,535,536,535,536,535,536,535,536,535,536,535,536,535,536,535,536,535,536,535,536,535,536,535,536,535,536,574,0,0,0,535,536,535,536,535,536,535,536,
519,520,519,520,519,520,519,520,519,520,519,520,519,520,519,520,519,520,519,520,519,520,519,520,519,520,519,520,519,520,519,520,519,520,519,520,519,520,519,520,519,520,519,520,519,520,519,520,519,520,519,520,519,520,574,0,0,0,519,520,519,520,519,520,519,520,
527,528,527,528,527,528,527,528,527,528,527,528,527,528,527,528,527,528,527,528,527,528,527,528,527,528,527,528,527,528,527,528,527,528,527,528,527,528,527,528,527,528,527,528,527,528,527,528,527,528,527,528,527,528,574,0,0,0,527,528,527,528,527,528,527,528,
535,536,535,536,535,536,535,536,535,536,535,536,535,536,535,536,535,536,535,536,535,536,535,536,535,536,535,536,535,536,535,536,535,536,535,536,535,536,535,536,535,536,535,536,535,536,535,536,535,536,535,536,535,536,574,0,0,0,535,536,535,536,535,536,535,536,
519,520,519,520,519,520,519,520,519,520,519,520,519,520,519,520,519,520,519,520,519,520,519,520,519,520,519,520,519,520,519,520,519,520,519,520,519,520,519,520,519,520,519,520,519,520,519,520,519,520,519,520,519,520,574,0,0,0,519,520,519,520,519,520,519,520,
527,528,527,528,527,528,527,528,527,528,527,528,527,528,527,528,527,528,527,528,527,528,527,528,527,528,527,528,527,528,527,528,527,528,527,528,527,528,527,528,527,528,527,528,527,528,527,528,527,528,527,528,527,528,574,0,0,0,527,528,527,528,527,528,527,528,
535,536,535,536,535,536,535,536,535,536,535,536,535,536,535,536,535,536,535,536,535,536,535,536,535,536,535,536,535,536,535,536,535,536,535,536,535,536,535,536,535,536,535,536,535,536,535,536,535,536,535,536,535,536,574,0,0,0,535,536,535,536,535,536,535,536,
0,0,0,0,0,0,0,0,0,0,0,0,0,0,0,0,0,0,0,0,0,0,0,0,0,0,0,0,0,0,0,0,0,0,0,0,0,0,0,0,0,0,0,0,0,0,0,0,0,0,0,0,0,0,0,0,0,0,519,520,519,520,519,520,519,520,
0,0,0,0,0,0,0,0,0,0,0,0,0,0,0,0,0,0,0,0,0,0,0,0,0,0,0,0,0,0,0,0,0,0,0,0,0,0,0,0,0,0,0,0,0,0,0,0,0,0,0,0,0,0,0,0,0,0,527,528,527,528,527,528,527,528,
0,0,0,0,0,0,0,0,0,0,0,0,0,0,0,0,0,0,0,0,0,0,0,0,0,0,0,0,0,0,0,0,0,0,0,0,0,0,0,0,0,0,0,0,0,0,0,0,0,0,0,0,0,0,0,0,0,0,535,536,535,536,535,536,535,536,
0,0,0,0,0,0,0,0,0,0,0,0,0,0,0,0,0,0,0,0,0,0,0,0,0,0,0,0,0,0,0,0,0,0,0,0,0,0,0,0,0,0,0,0,0,0,0,0,0,0,0,0,0,0,0,0,0,0,519,520,519,520,519,520,519,520,
0,0,0,0,0,0,0,0,0,0,0,0,0,0,0,0,0,0,0,0,0,0,0,0,0,0,0,0,0,0,0,0,0,0,0,0,0,0,0,0,0,0,0,0,0,0,0,0,0,0,0,0,0,0,0,0,0,0,527,528,527,528,527,528,527,528,
0,0,0,0,0,0,0,0,0,0,0,0,0,0,0,0,0,0,0,0,0,0,0,0,0,0,0,0,0,0,0,0,0,0,0,0,0,0,0,0,0,0,0,0,0,0,0,0,0,0,0,0,0,0,0,0,0,0,535,536,535,536,535,536,535,536,
0,0,0,0,0,0,0,0,0,0,0,0,0,0,0,0,0,0,0,0,0,0,0,0,0,0,0,0,0,0,0,0,0,0,0,0,0,0,0,0,0,0,0,0,0,0,0,0,0,0,0,0,0,0,0,0,0,574,0,0,0,0,0,0,0,0,
0,0,0,0,0,0,0,0,0,0,0,0,0,0,0,0,0,0,0,0,0,0,0,0,0,0,0,0,0,0,0,0,0,0,0,0,0,0,0,0,0,0,0,0,0,0,0,0,0,0,0,0,0,0,0,0,574,0,0,0,0,0,0,0,0,0,
519,520,519,520,519,520,519,520,519,520,519,520,519,520,519,520,519,520,519,520,519,520,519,520,519,520,519,520,519,520,519,520,519,520,519,520,519,520,519,520,519,520,519,520,519,520,519,520,519,520,519,520,519,520,519,520,519,520,519,520,519,520,519,520,519,520,
527,528,527,528,527,528,527,528,527,528,527,528,527,528,527,528,527,528,527,528,527,528,527,528,527,528,527,528,527,528,527,528,527,528,527,528,527,528,527,528,527,528,527,528,527,528,527,528,527,528,527,528,527,528,527,528,527,528,527,528,527,528,527,528,527,528,
535,536,535,536,535,536,535,536,535,536,535,536,535,536,535,536,535,536,535,536,535,536,535,536,535,536,535,536,535,536,535,536,535,536,535,536,535,536,535,536,535,536,535,536,535,536,535,536,535,536,535,536,535,536,535,536,535,536,535,536,535,536,535,536,535,536,
519,520,519,520,519,520,519,520,519,520,519,520,519,520,519,520,519,520,519,520,519,520,519,520,519,520,519,520,519,520,519,520,519,520,519,520,519,520,519,520,519,520,519,520,519,520,519,520,519,520,519,520,519,520,519,520,519,520,519,520,519,520,519,520,519,520,
527,528,527,528,527,528,527,528,527,528,527,528,527,528,527,528,527,528,527,528,527,528,527,528,527,528,527,528,527,528,527,528,527,528,527,528,527,528,527,528,527,528,527,528,527,528,527,528,527,528,527,528,527,528,527,528,527,528,527,528,527,528,527,528,527,528,
535,536,535,536,535,536,535,536,535,536,535,536,535,536,535,536,535,536,535,536,535,536,535,536,535,536,535,536,535,536,535,536,535,536,535,536,535,536,535,536,535,536,535,536,535,536,535,536,535,536,535,536,535,536,535,536,535,536,535,536,535,536,535,536,535,536,
519,520,519,520,519,520,519,520,519,520,519,520,519,520,519,520,519,520,519,520,519,520,519,520,519,520,519,520,519,520,519,520,519,520,519,520,519,520,519,520,519,520,519,520,519,520,519,520,519,520,519,520,519,520,519,520,519,520,519,520,519,520,519,520,519,520,
527,528,527,528,527,528,527,528,527,528,527,528,527,528,527,528,527,528,527,528,527,528,527,528,527,528,527,528,527,528,527,528,527,528,527,528,527,528,527,528,527,528,527,528,527,528,527,528,527,528,527,528,527,528,527,528,527,528,527,528,527,528,527,528,527,528,
14639,14640,14639,14640,14639,14640,14639,14640,14639,14640,14639,14640,14639,14640,14639,14640,14639,14640,14639,14640,14639,14640,14639,14640,14639,14640,14639,14640,14639,14640,14639,14640,14639,14640,14639,14640,14639,14640,14639,14640,14639,14640,14639,14640,14639,14640,14639,14640,14639,14640,14639,14640,14639,14640,14639,14640,14639,14640,14639,14640,14639,14640,14639,14640,14639,14640
</data>
 </layer>
 <layer id="6" name="sopra_testa" width="66" height="109">
  <data encoding="csv">
14623,14624,14623,14624,0,0,0,0,0,0,0,0,0,0,0,0,0,0,0,0,0,0,0,0,0,0,0,0,0,0,0,0,0,0,0,0,0,0,0,0,0,0,0,0,0,0,0,0,0,0,0,0,0,0,0,0,0,0,0,0,0,0,0,0,0,0,
14631,14632,14631,14632,0,0,0,0,0,0,0,0,0,0,0,0,0,0,0,0,0,0,0,0,0,0,0,0,0,0,0,0,0,0,0,0,0,0,0,0,0,0,0,0,0,0,0,0,0,0,0,0,0,0,0,0,0,0,0,0,0,0,0,0,0,0,
14639,14640,14639,14640,0,0,0,0,0,0,0,0,0,0,0,0,0,0,0,0,0,0,0,0,0,0,0,0,0,0,0,0,0,0,0,0,0,0,0,0,0,0,0,0,0,0,0,0,0,0,0,0,0,0,0,0,0,0,0,0,0,0,0,0,0,0,
14623,14624,14623,14624,0,0,0,0,0,0,0,0,0,0,0,0,0,0,0,0,0,0,0,0,0,0,0,0,0,0,0,0,0,0,0,0,0,0,0,0,0,0,0,0,0,0,0,0,0,0,0,0,0,0,0,0,0,0,0,0,0,0,0,0,0,0,
14631,14632,14631,14632,0,0,0,0,0,0,0,0,0,0,0,0,0,0,0,0,0,0,0,0,0,0,0,0,0,0,0,0,0,0,0,0,0,0,0,0,0,0,0,0,0,0,0,0,0,0,0,0,0,0,0,0,0,0,0,0,0,0,0,0,0,0,
14639,14640,14639,14640,0,0,0,0,0,0,0,0,0,0,0,0,0,0,0,0,0,0,0,0,0,0,0,0,0,0,0,0,0,0,0,0,0,0,0,0,0,0,0,0,0,0,0,0,0,0,0,0,0,0,0,0,0,0,0,0,0,0,0,0,0,0,
0,0,0,0,0,0,0,0,0,0,0,0,0,0,0,0,0,0,0,0,0,0,0,0,0,0,0,0,0,0,0,0,0,0,0,0,0,0,0,0,0,0,0,0,0,0,0,0,0,0,0,0,0,0,0,0,0,0,0,0,0,0,0,0,0,0,
0,0,0,0,0,0,0,0,0,0,0,0,0,0,0,0,0,0,0,0,0,0,0,0,0,0,0,0,0,0,0,0,0,0,0,0,0,0,0,0,0,0,0,0,0,0,0,0,0,0,0,0,0,0,0,0,0,0,0,0,0,0,0,0,0,0,
0,0,0,0,0,0,0,0,0,0,0,0,0,0,0,0,0,0,0,0,0,0,0,0,0,0,0,0,0,0,0,0,0,0,0,0,0,0,0,0,0,0,0,0,0,0,0,0,0,0,0,0,0,0,0,0,0,0,0,0,0,0,0,0,0,0,
0,0,0,0,0,0,0,0,0,0,0,0,0,0,0,0,0,0,0,0,0,0,0,0,0,0,0,0,0,0,0,0,0,0,0,0,0,0,0,0,0,0,0,0,0,0,0,0,0,0,0,0,0,0,0,0,0,0,0,0,0,0,0,0,0,0,
0,0,0,0,0,0,0,0,0,0,0,0,0,0,0,0,0,0,0,0,0,0,0,0,0,0,0,0,0,0,0,0,0,0,0,0,0,0,0,0,0,0,0,0,0,0,0,0,0,0,0,0,0,0,0,0,0,0,0,0,0,0,0,0,0,0,
0,0,0,0,0,0,0,0,0,0,0,0,0,0,0,0,0,0,0,0,0,0,0,0,0,0,0,0,0,0,0,0,0,0,0,0,0,0,0,0,0,0,0,0,0,0,0,0,0,0,0,0,0,0,0,0,0,0,0,0,0,0,0,0,0,0,
0,0,0,0,0,0,0,0,0,0,0,0,0,0,0,0,0,0,0,0,0,0,0,0,0,0,0,0,0,0,0,0,0,0,0,0,0,0,0,0,0,0,0,0,0,0,0,0,0,0,0,0,0,0,0,0,0,0,0,0,0,0,0,0,0,0,
0,0,0,0,0,0,0,0,0,0,0,0,0,0,0,0,0,0,0,0,0,0,0,0,0,0,0,0,0,0,0,0,0,0,0,0,0,0,0,0,0,0,0,0,0,0,0,0,0,0,0,0,0,0,0,0,0,0,0,0,0,0,0,0,0,0,
0,0,0,0,0,0,0,0,0,0,0,0,0,0,0,0,0,0,0,0,0,0,0,0,0,0,0,0,0,0,0,0,0,0,0,0,0,0,0,0,0,0,0,0,0,0,0,0,0,0,0,0,0,0,0,0,0,0,0,0,0,0,0,0,0,0,
0,0,0,0,0,0,0,0,0,0,0,0,0,0,0,0,0,0,0,0,0,0,0,0,0,0,0,0,0,0,0,0,0,0,0,0,0,0,0,0,0,0,0,0,0,0,0,0,0,0,0,0,0,0,0,0,0,0,0,0,0,0,0,0,0,0,
0,0,0,0,0,0,0,0,0,0,0,0,0,0,0,0,0,0,0,0,0,0,0,0,0,0,0,0,0,0,0,0,0,0,0,0,0,0,0,0,0,0,0,0,0,0,0,0,0,0,0,0,0,0,0,0,0,0,0,0,0,0,0,0,0,0,
0,0,0,0,0,0,0,0,0,0,0,0,0,0,0,0,0,0,0,0,0,0,0,0,0,0,0,0,0,0,0,0,0,0,0,0,0,0,0,0,0,0,0,0,0,0,0,0,0,0,0,0,0,0,0,0,0,0,0,0,0,0,0,0,0,0,
0,0,0,0,0,0,0,0,0,0,0,0,0,0,0,0,0,0,0,0,0,0,0,0,0,0,0,0,0,0,0,0,0,0,0,0,0,0,0,0,0,0,0,0,0,0,0,0,0,0,0,0,0,0,0,0,0,0,0,0,0,0,0,0,0,0,
0,0,0,0,0,0,0,0,0,0,0,0,0,0,0,0,0,0,0,0,0,0,0,0,0,0,0,0,0,0,0,0,0,0,0,0,0,0,0,0,0,0,0,0,0,0,0,0,0,0,0,0,0,0,0,0,0,0,0,0,0,0,0,0,0,0,
0,0,0,0,0,0,0,0,0,0,0,0,0,0,0,0,0,0,0,0,0,0,0,0,0,0,0,0,0,0,0,0,0,0,0,0,0,0,0,0,0,0,0,0,0,0,0,0,0,0,0,0,0,0,0,0,0,0,0,0,0,0,0,0,0,0,
0,0,0,0,0,0,0,0,0,0,0,0,0,0,0,0,0,0,0,0,0,0,0,0,0,0,0,0,0,0,0,0,0,0,0,0,0,0,0,0,0,0,0,0,0,0,0,0,0,0,0,0,0,0,0,0,0,0,0,0,0,0,0,0,0,0,
0,0,0,0,0,0,0,0,0,0,0,0,0,0,0,0,0,0,0,0,0,0,0,0,0,0,0,0,0,0,0,0,0,0,0,0,0,0,0,0,0,0,0,0,0,0,0,0,0,0,0,0,0,0,0,0,0,0,0,0,0,0,0,0,0,0,
0,0,0,0,0,0,0,0,0,0,0,0,0,0,0,0,0,0,0,0,0,0,0,0,0,0,0,0,0,0,0,0,0,0,0,0,0,0,0,0,0,0,0,0,0,0,0,0,0,0,0,0,0,0,0,0,0,0,0,0,0,0,0,0,0,0,
0,0,0,0,0,0,0,0,0,0,0,0,0,0,0,0,0,0,0,0,0,0,0,0,0,0,0,0,0,0,0,0,0,0,0,0,0,0,0,0,0,0,0,0,0,0,0,0,0,0,0,0,0,0,0,0,0,0,0,0,0,0,0,0,0,0,
0,0,0,0,0,0,0,0,0,0,0,0,0,0,0,0,0,0,0,0,0,0,0,0,0,0,0,0,0,0,0,0,0,0,0,0,0,0,0,0,0,0,0,0,0,0,0,0,0,0,0,0,0,0,0,0,0,0,0,0,0,0,0,0,0,0,
0,0,0,0,0,0,0,0,0,0,0,0,0,0,0,0,0,0,0,0,0,0,0,0,0,0,0,0,0,0,0,0,0,0,0,0,0,0,0,0,0,0,0,0,0,0,0,0,0,0,0,0,0,0,0,0,0,0,0,0,0,0,0,0,0,0,
0,0,0,0,0,0,0,0,0,0,0,0,0,0,0,0,0,0,0,0,0,0,0,0,0,0,0,0,0,0,0,0,0,0,0,0,0,0,0,0,0,0,0,0,0,0,0,0,0,0,0,0,0,0,0,0,0,0,0,0,0,0,0,0,0,0,
0,0,0,0,0,0,0,0,0,0,0,0,0,0,0,0,0,0,0,0,0,0,0,0,0,0,0,0,0,0,0,0,0,0,0,0,0,0,0,0,0,0,0,0,0,0,0,0,0,0,0,0,0,0,0,0,0,0,0,0,0,0,0,0,0,0,
0,0,0,0,0,0,0,0,0,0,0,0,0,0,0,0,0,0,0,0,0,0,0,0,0,0,0,0,0,0,0,0,0,0,0,0,0,0,0,0,0,0,0,0,0,0,0,0,0,0,0,0,0,0,0,0,0,0,0,0,0,0,0,0,0,0,
0,0,0,0,0,0,0,0,0,0,0,0,0,0,0,0,0,0,0,0,0,0,0,0,0,0,0,0,0,0,0,0,0,0,0,0,0,0,0,0,0,0,0,0,0,0,0,0,0,0,0,0,0,0,0,0,0,0,0,0,0,0,0,0,0,0,
0,0,0,0,0,0,0,0,0,0,0,0,0,0,0,0,0,0,0,0,0,0,0,0,0,0,0,0,0,0,0,0,0,0,0,0,0,0,0,0,0,0,0,0,0,0,0,0,0,0,0,0,0,0,0,0,0,0,0,0,0,0,0,0,0,0,
0,0,0,0,0,0,0,0,0,0,0,0,0,0,0,0,0,0,0,0,0,0,0,0,0,0,0,0,0,0,0,0,0,0,0,0,0,0,0,0,0,0,0,0,0,0,0,0,0,0,0,0,0,0,0,0,0,0,0,0,0,0,0,0,0,0,
0,0,0,0,0,0,0,0,0,0,0,0,0,0,0,0,0,0,0,0,0,0,0,0,0,0,0,0,0,0,0,0,0,0,0,0,0,0,0,0,0,0,0,0,0,0,0,0,0,0,0,0,0,0,0,0,0,0,0,0,0,0,0,0,0,0,
0,0,0,0,0,0,0,0,0,0,0,0,0,0,0,0,0,0,0,0,0,0,0,0,0,0,0,0,0,0,0,0,0,0,0,0,0,0,0,0,0,0,0,0,0,0,0,0,0,0,0,0,0,0,0,0,0,0,0,0,0,0,0,0,0,0,
0,0,0,0,0,0,0,0,0,0,0,0,0,0,0,0,0,0,0,0,0,0,0,0,0,0,0,0,0,0,0,0,0,0,0,0,0,0,0,0,0,0,0,0,0,0,0,0,0,0,0,0,0,0,0,0,0,0,0,0,0,0,0,0,0,0,
0,0,0,0,0,15083,0,0,0,0,0,0,0,0,0,0,0,0,0,0,0,0,0,0,0,0,0,0,0,0,0,0,0,0,0,0,0,0,0,0,0,0,0,0,0,0,0,0,0,0,0,0,0,0,0,0,0,0,0,0,0,0,0,0,0,0,
0,0,0,0,0,0,0,0,0,0,0,0,0,0,0,0,0,0,0,0,0,0,0,0,0,0,0,0,0,0,0,0,0,0,0,0,0,0,0,0,0,0,0,0,0,0,0,0,0,0,0,0,0,0,0,0,0,0,0,0,0,0,0,0,0,0,
0,0,0,0,0,0,0,0,0,0,0,0,0,0,0,0,0,0,0,0,0,0,0,0,0,0,0,0,0,0,0,0,0,0,0,0,0,0,0,0,0,0,0,0,0,0,0,0,0,0,0,0,0,0,0,0,0,0,0,0,0,0,0,0,0,0,
0,0,0,0,0,0,0,0,0,0,0,0,0,0,0,0,0,0,0,0,0,0,0,0,0,0,0,0,0,0,0,0,0,0,0,0,0,0,0,0,0,14673,0,0,0,0,0,0,0,0,0,0,0,0,0,0,0,0,0,0,0,0,0,0,0,0,
0,0,0,0,0,0,0,0,0,0,0,0,0,0,0,0,0,0,0,0,0,0,0,0,0,0,0,0,0,0,0,0,0,0,0,0,0,0,0,0,0,14681,0,0,0,0,0,0,0,0,0,0,0,0,0,0,0,0,0,0,0,0,0,0,0,0,
0,0,0,0,0,0,0,0,0,0,0,0,0,0,0,0,0,0,0,0,0,0,0,0,0,0,0,0,0,0,0,0,0,0,0,0,0,0,0,0,0,14689,0,0,0,0,0,0,0,0,0,0,0,0,0,0,0,0,0,0,0,0,0,0,0,0,
0,0,0,0,0,0,0,0,0,0,0,0,0,0,0,15091,15084,15084,15084,15084,15084,15084,15084,15084,15084,15084,15084,15084,15084,15084,15084,15084,15084,15084,15084,15084,15084,15084,15092,0,0,0,0,0,0,0,0,0,0,0,0,0,0,0,0,0,0,0,0,0,0,0,0,0,0,0,
0,0,0,0,0,0,0,0,0,0,0,0,0,0,0,15088,50,0,0,0,0,0,0,0,0,0,0,0,0,0,0,0,0,0,0,0,0,0,15075,0,0,0,0,0,0,0,0,0,0,0,0,0,0,0,0,0,0,0,0,0,0,0,0,0,0,0,
0,0,0,0,0,0,0,0,0,0,0,0,0,0,0,50,50,0,0,0,0,0,0,0,0,0,0,0,0,0,0,0,0,0,0,0,0,0,15075,0,0,0,0,0,0,0,0,0,0,0,0,0,0,0,0,0,0,0,0,0,0,0,0,0,0,0,
0,0,0,0,0,0,0,0,0,0,0,0,0,0,0,50,50,0,0,0,0,0,0,0,0,0,0,0,0,0,0,0,0,0,0,0,0,0,15075,0,0,0,0,0,0,0,0,0,0,0,0,0,0,0,0,0,0,0,0,0,0,0,0,0,0,0,
0,0,0,0,0,0,0,0,0,0,0,0,0,0,0,50,50,0,0,0,0,0,0,0,0,0,0,0,0,0,0,0,0,0,0,0,0,0,15075,0,0,0,0,0,0,0,0,0,0,0,0,0,0,0,0,0,0,0,0,0,0,0,0,0,0,0,
0,0,0,0,0,0,0,0,0,0,0,0,0,0,0,50,50,0,0,0,0,0,0,0,0,0,0,0,0,0,0,0,0,0,0,0,0,0,15075,0,0,0,0,0,0,0,0,0,0,0,0,0,0,0,0,0,0,0,0,0,0,0,0,0,0,0,
0,0,0,0,0,0,0,0,0,0,0,0,0,0,0,0,0,0,0,0,0,0,0,0,0,0,0,0,0,0,0,0,0,0,0,0,0,0,15075,0,0,0,0,0,0,0,0,0,0,0,0,0,0,0,0,0,0,0,0,0,0,0,0,0,0,0,
0,0,0,0,0,0,0,0,0,0,0,0,0,0,0,0,0,0,0,0,0,0,0,0,0,0,0,0,0,0,0,0,0,0,0,0,0,0,15075,0,0,0,0,0,0,0,0,0,0,0,0,0,0,0,0,0,0,0,0,0,0,0,0,0,0,0,
0,0,0,0,0,0,0,0,0,0,0,0,0,0,0,0,0,0,0,0,0,0,0,0,0,0,0,0,0,0,0,0,0,0,0,0,0,0,15075,0,0,0,0,0,0,0,0,0,0,0,0,0,0,0,0,0,0,0,0,0,0,0,0,0,0,0,
0,0,0,0,0,0,0,0,0,0,0,0,0,0,0,0,0,0,0,0,0,0,0,0,0,0,0,0,0,0,0,0,0,0,0,0,0,0,15075,0,0,0,0,0,0,0,0,0,0,0,0,0,0,0,0,0,0,0,0,0,0,0,0,0,0,0,
0,0,0,0,0,0,0,0,0,0,0,0,0,0,0,0,0,0,0,0,0,0,0,0,0,0,0,0,0,0,0,0,0,0,0,0,0,0,15075,0,0,0,0,0,0,0,0,0,0,0,0,0,0,0,0,0,0,0,0,0,0,0,0,0,0,0,
0,0,0,0,0,0,0,0,0,0,0,0,0,0,0,0,0,0,0,0,0,0,0,0,0,0,0,0,0,0,0,0,0,0,0,0,0,0,15075,0,0,0,0,0,0,0,0,0,0,0,0,0,0,0,0,0,0,0,0,0,0,0,0,0,0,0,
0,0,0,0,0,0,0,0,0,0,0,0,0,0,0,0,0,0,0,0,0,0,0,0,0,0,0,0,0,0,0,0,0,0,0,0,0,0,15075,0,0,0,0,0,0,0,0,0,0,0,0,0,0,0,0,0,0,0,0,0,0,0,0,0,0,0,
0,0,0,0,0,0,0,0,0,0,0,0,0,0,0,0,0,0,0,0,0,0,0,0,0,0,0,0,0,0,0,0,0,0,0,0,0,0,15075,0,0,0,0,0,0,0,0,0,0,0,0,0,0,0,0,0,0,0,0,0,0,0,0,0,0,0,
0,0,0,0,0,0,0,0,0,0,0,0,0,0,0,0,0,0,0,0,0,0,0,0,0,0,0,0,0,0,0,0,0,0,0,0,0,0,15075,0,0,0,0,0,0,0,0,0,0,0,0,0,0,0,0,0,0,0,0,0,0,0,0,0,0,0,
0,0,0,0,0,0,0,0,0,0,0,0,0,0,0,0,0,0,0,0,0,0,0,0,0,0,0,0,0,0,0,0,0,0,0,0,0,0,15075,0,0,0,0,0,0,0,0,0,0,0,0,0,0,0,0,0,0,0,0,0,0,0,0,0,0,0,
0,0,0,0,0,0,0,0,0,0,0,0,0,0,0,0,0,0,0,0,0,0,0,0,0,0,0,0,0,0,0,0,0,0,0,0,0,0,15075,0,0,0,0,0,0,0,0,0,0,0,0,0,0,0,0,0,0,0,0,0,0,0,0,0,0,0,
0,0,0,0,0,0,0,0,0,0,0,0,0,0,0,0,0,0,0,0,0,0,0,0,0,0,0,0,0,0,0,0,0,0,0,0,0,0,15075,0,0,0,0,0,0,0,0,0,0,0,0,0,0,0,0,0,0,0,0,0,0,0,0,0,0,0,
0,0,0,0,0,0,0,0,0,0,0,0,0,0,0,0,0,0,0,0,0,0,0,0,0,0,0,0,0,0,0,0,0,0,0,0,0,0,15075,0,0,0,0,0,0,0,0,0,0,0,0,0,0,0,0,0,0,0,0,0,0,0,0,0,0,0,
0,0,0,0,0,0,0,0,0,0,0,0,0,0,0,0,0,0,0,0,0,0,0,0,0,0,0,0,0,0,0,0,0,0,0,0,0,0,15075,0,0,0,0,0,0,0,0,0,0,0,0,0,0,0,0,0,0,0,0,0,0,0,0,0,0,0,
0,0,0,0,0,0,0,0,0,0,0,0,0,0,0,0,0,0,0,0,0,0,0,0,0,0,0,0,0,0,0,0,0,0,0,0,0,0,15075,0,0,0,0,0,0,0,0,0,0,0,0,0,0,0,0,0,0,0,0,0,0,0,0,0,0,0,
0,0,0,0,0,0,0,0,0,0,0,0,0,0,0,0,0,0,0,0,0,0,0,0,0,0,0,0,0,0,0,0,0,0,0,0,0,0,15075,0,0,0,0,0,0,0,0,0,0,0,0,0,0,0,0,0,0,0,0,0,0,0,0,0,0,0,
0,0,0,0,0,0,0,0,0,0,0,0,0,0,0,0,0,0,0,0,0,0,0,0,0,0,0,0,0,0,0,0,0,0,0,0,0,0,15075,0,0,0,0,0,0,0,0,0,0,0,0,0,0,0,0,0,0,0,0,0,0,0,0,0,0,0,
0,0,0,0,0,0,0,0,0,0,0,0,0,0,0,0,0,0,0,0,0,0,0,0,0,0,0,0,0,0,0,0,0,0,0,0,0,0,15075,0,0,0,0,0,0,0,0,0,0,0,0,0,0,0,0,0,0,0,0,0,0,0,0,0,0,0,
0,0,0,0,0,0,0,0,0,0,0,0,0,0,0,0,0,0,0,0,0,0,0,0,0,0,0,0,0,0,0,0,0,0,0,0,0,0,15075,0,0,0,0,0,0,0,0,0,0,0,0,0,0,0,0,0,0,0,0,0,0,0,0,0,0,0,
0,0,0,0,0,0,0,0,0,0,0,0,0,0,0,15077,0,0,0,0,0,0,0,0,0,0,0,0,0,0,0,0,0,0,0,0,0,0,15075,0,0,0,0,0,0,0,0,0,0,0,0,0,0,0,0,0,0,0,0,0,0,0,0,0,0,0,
0,0,0,0,0,0,0,0,0,0,0,0,0,0,0,15077,0,0,0,0,0,0,0,0,0,0,0,0,0,0,0,0,0,0,0,0,0,0,15075,0,0,0,0,0,0,0,0,0,0,0,0,0,0,0,0,0,0,0,0,0,0,0,0,0,0,0,
0,0,0,0,0,0,0,0,0,0,0,0,0,0,0,0,0,0,0,0,0,0,0,0,0,0,0,0,0,0,0,0,0,0,0,0,0,0,0,0,0,0,0,0,0,0,0,0,0,0,0,0,0,0,0,0,0,0,0,0,0,0,0,0,0,0,
0,0,0,0,0,0,0,0,0,0,0,0,0,0,0,0,0,0,0,0,0,0,0,0,0,0,0,0,0,0,0,0,0,0,0,0,0,0,0,0,0,0,0,0,0,0,0,0,0,0,0,0,0,0,0,0,0,0,0,0,0,0,0,0,0,0,
0,0,0,0,0,0,0,0,0,0,0,0,0,0,0,0,0,0,0,0,0,0,0,0,0,0,0,0,0,0,0,0,0,0,0,0,0,0,0,0,0,0,0,0,0,0,0,0,0,0,0,0,0,0,0,0,0,0,0,0,0,0,0,0,0,0,
0,0,0,0,0,0,0,0,0,0,0,0,0,0,0,0,0,0,0,0,0,0,0,0,0,0,0,0,0,0,0,0,0,0,0,0,0,0,0,0,0,0,0,0,0,0,0,0,0,0,0,0,0,0,0,0,0,0,0,0,0,0,0,0,0,0,
0,0,0,0,0,0,0,0,0,0,0,0,0,0,0,0,0,0,0,0,0,0,0,0,0,0,0,0,0,0,0,0,0,0,0,0,0,0,0,0,0,0,0,0,0,0,0,0,0,0,0,0,0,0,0,0,0,0,0,0,0,0,0,0,0,0,
0,0,0,0,0,0,0,0,0,0,0,0,0,0,0,0,0,0,0,0,0,0,0,0,0,0,0,0,0,0,0,0,0,0,0,0,0,0,0,0,0,0,0,0,0,0,0,0,0,0,0,0,0,0,0,0,0,0,0,0,0,0,0,0,0,0,
0,0,0,0,0,0,0,0,0,0,0,0,0,0,0,0,0,0,0,0,0,0,0,0,0,0,0,0,0,0,0,0,0,0,0,0,0,0,0,0,0,0,0,0,0,0,0,0,0,0,0,0,0,0,0,0,0,0,0,0,0,0,0,0,0,0,
0,0,0,0,0,0,0,0,0,0,0,0,0,0,0,0,0,0,0,0,0,0,0,0,0,0,0,0,0,0,0,0,0,0,0,0,0,0,0,0,0,0,0,0,0,0,0,0,0,0,0,0,0,0,0,0,0,0,0,0,0,0,0,0,0,0,
0,0,0,0,0,0,0,0,0,0,0,0,0,0,0,0,0,0,0,0,0,0,0,0,0,0,0,0,0,0,0,0,0,0,0,0,0,0,0,0,0,0,0,0,0,0,0,0,0,0,0,0,0,0,0,0,0,0,0,0,0,0,0,0,0,0,
0,0,0,0,0,0,0,0,0,0,0,0,0,0,0,0,0,0,0,0,0,0,0,0,0,0,0,0,0,0,0,0,0,0,0,0,0,0,0,0,0,0,0,0,0,0,0,0,0,0,0,0,0,0,0,0,0,0,0,0,0,0,0,0,0,0,
0,0,0,0,0,0,0,0,0,0,0,0,0,0,0,0,0,0,0,0,0,0,0,0,0,0,0,0,0,0,0,0,0,0,0,0,0,0,0,0,0,0,0,0,0,0,0,0,0,0,0,0,0,0,0,0,0,0,0,0,0,0,0,0,0,0,
0,0,0,0,0,0,0,0,0,0,0,0,0,0,0,0,0,0,0,0,0,0,0,0,0,0,0,0,0,0,0,0,0,0,0,0,0,0,0,0,0,0,0,0,0,0,0,0,0,0,0,0,0,0,0,0,0,0,0,0,0,0,0,0,0,0,
0,0,0,0,0,0,0,0,0,0,0,0,0,0,0,0,0,0,0,0,0,0,0,0,0,0,0,0,0,0,0,0,0,0,0,0,0,0,0,0,0,0,0,0,0,0,0,0,0,0,0,0,0,0,0,0,0,0,0,0,0,0,0,0,0,0,
0,0,0,0,0,0,0,0,0,0,0,0,0,0,0,0,0,0,0,0,0,0,0,0,0,0,0,0,0,0,0,0,0,0,0,0,0,0,0,0,0,0,0,0,0,0,0,0,0,0,0,0,0,0,0,0,0,0,0,0,0,0,0,0,0,0,
0,0,0,0,0,0,0,0,0,0,0,0,0,0,0,0,0,0,0,0,0,0,0,0,0,0,0,0,0,0,0,0,0,0,0,0,0,0,0,0,0,0,0,0,0,0,0,0,0,0,0,0,0,0,0,0,0,0,0,0,0,0,0,0,0,0,
0,0,0,0,0,0,0,0,0,0,0,0,0,0,0,0,0,0,0,0,0,0,0,0,0,0,0,0,0,0,0,0,0,0,0,0,0,0,0,0,0,0,0,0,0,0,0,0,0,0,0,0,0,0,0,0,0,0,0,0,0,0,0,0,0,0,
0,0,0,0,0,0,0,0,0,0,0,0,0,0,0,0,0,0,0,0,0,0,0,0,0,0,0,0,0,0,0,0,0,0,0,0,0,0,0,0,0,0,0,0,0,0,0,0,0,0,0,0,0,0,0,0,0,0,0,0,0,0,0,0,0,0,
0,0,0,0,0,0,0,0,0,0,0,0,0,0,0,0,0,0,0,0,0,0,0,0,0,0,0,0,0,0,0,0,0,0,0,0,0,0,0,0,0,0,0,0,0,0,0,0,0,0,0,0,0,0,0,0,0,0,0,0,0,0,0,0,0,0,
0,0,0,0,0,0,0,0,0,0,0,0,0,0,0,0,0,0,0,0,0,0,0,0,0,0,0,0,0,0,0,0,0,0,0,0,0,0,0,0,0,0,0,0,0,0,0,0,0,0,0,0,0,0,0,0,0,0,0,0,0,0,0,0,0,0,
0,0,0,0,0,0,0,0,0,0,0,0,0,0,0,0,0,0,0,0,0,0,0,0,0,0,0,0,0,0,0,0,0,0,0,0,0,0,0,0,0,0,0,0,0,0,0,0,0,0,0,0,0,0,0,0,0,0,0,0,0,0,0,0,0,0,
0,0,0,0,0,0,0,0,0,0,0,0,0,0,0,0,0,0,0,0,0,0,0,0,0,0,0,0,0,0,0,0,0,0,0,0,0,0,0,0,0,0,0,0,0,0,0,0,0,0,0,0,0,0,0,0,0,0,0,0,0,0,0,0,0,0,
0,0,0,0,0,0,0,0,0,0,0,0,0,0,0,0,0,0,0,0,0,0,0,0,0,0,0,0,0,0,0,0,0,0,0,0,0,0,0,0,0,0,0,0,0,0,0,0,0,0,0,0,0,0,0,0,0,0,0,0,0,0,0,0,0,0,
0,0,0,0,0,0,0,0,0,0,0,0,0,0,0,0,0,0,0,0,0,0,0,0,0,0,0,0,0,0,0,0,0,0,0,0,0,0,0,0,0,0,0,0,0,0,0,0,0,0,0,0,0,0,0,0,0,0,0,0,0,0,0,0,0,0,
0,0,0,0,0,0,0,0,0,0,0,0,0,0,0,0,0,0,0,0,0,0,0,0,0,0,0,0,0,0,0,0,0,0,0,0,0,0,0,0,0,0,0,0,0,0,0,0,0,0,0,0,0,0,0,0,0,0,0,0,0,0,0,0,0,0,
0,0,0,0,0,0,0,0,0,0,0,0,0,0,0,0,0,0,0,0,0,0,0,0,0,0,0,0,0,0,0,0,0,0,0,0,0,0,0,0,0,0,0,0,0,0,0,0,0,0,0,0,0,0,0,0,0,0,0,0,0,0,0,0,0,0,
0,0,0,0,0,0,0,0,0,0,0,0,0,0,0,0,0,0,0,0,0,0,0,0,0,0,0,0,0,0,0,0,0,0,0,0,0,0,0,0,0,0,0,0,0,0,0,0,0,0,0,0,0,0,0,0,0,0,0,0,0,0,0,0,0,0,
0,0,0,0,0,0,0,0,0,0,0,0,0,0,0,0,0,0,0,0,0,0,0,0,0,0,0,0,0,0,0,0,0,0,0,0,0,0,0,0,0,0,0,0,0,0,0,0,0,0,0,0,0,0,0,0,0,0,0,0,0,0,0,0,0,0,
0,0,0,0,0,0,0,0,0,0,0,0,0,0,0,0,0,0,0,0,0,0,0,0,0,0,0,0,0,0,0,0,0,0,0,0,0,0,0,0,0,0,0,0,0,0,0,0,0,0,0,0,0,0,0,0,0,0,0,0,0,0,0,0,0,0,
0,0,0,0,0,0,0,0,0,0,0,0,0,0,0,0,0,0,0,0,0,0,0,0,0,0,0,0,0,0,0,0,0,0,0,0,0,0,0,0,0,0,0,0,0,0,0,0,0,0,0,0,0,0,0,0,0,0,0,0,0,0,0,0,0,0,
0,0,0,0,0,0,0,0,0,0,0,0,0,0,0,0,0,0,0,0,0,0,0,0,0,0,0,0,0,0,0,0,0,0,0,0,0,0,0,0,0,0,0,0,0,0,0,0,0,0,0,0,0,0,0,0,0,0,0,0,0,0,0,0,0,0,
0,0,0,0,0,0,0,0,0,0,0,0,0,0,0,0,0,0,0,0,0,0,0,0,0,0,0,0,0,0,0,0,0,0,0,0,0,0,0,0,0,0,0,0,0,0,0,0,0,0,0,0,0,0,0,0,0,0,0,0,0,0,0,0,0,0,
0,0,0,0,0,0,0,0,0,0,0,0,0,0,0,0,0,0,0,0,0,0,0,0,0,0,0,0,0,0,0,0,0,0,0,0,0,0,0,0,0,0,0,0,0,0,0,0,0,0,0,0,0,0,0,0,0,0,0,0,0,0,0,0,0,0,
0,0,0,0,0,0,0,0,0,0,0,0,0,0,0,0,0,0,0,0,0,0,0,0,0,0,0,0,0,0,0,0,0,0,0,0,0,0,0,0,0,0,0,0,0,0,0,0,0,0,0,0,0,0,0,0,0,0,0,0,0,0,0,0,0,0,
0,0,0,0,0,0,0,0,0,0,0,0,0,0,0,0,0,0,0,0,0,0,0,0,0,0,0,0,0,0,0,0,0,0,0,0,0,0,0,0,0,0,0,0,0,0,0,0,0,0,0,0,0,0,0,0,0,0,0,0,0,0,0,0,0,0,
0,0,0,0,0,0,0,0,0,0,0,0,0,0,0,0,0,0,0,0,0,0,0,0,0,0,0,0,0,0,0,0,0,0,0,0,0,0,0,0,0,0,0,0,0,0,0,0,0,0,0,0,0,0,0,0,0,0,0,0,0,0,0,0,0,0,
0,0,0,0,0,0,0,0,0,0,0,0,0,0,0,0,0,0,0,0,0,0,0,0,0,0,0,0,0,0,0,0,0,0,0,0,0,0,0,0,0,0,0,0,0,0,0,0,0,0,0,0,0,0,0,0,0,0,0,0,0,0,0,0,0,0,
0,0,0,0,0,0,0,0,0,0,0,0,0,0,0,0,0,0,0,0,0,0,0,0,0,0,0,0,0,0,0,0,0,0,0,0,0,0,0,0,0,0,0,0,0,0,0,0,0,0,0,0,0,0,0,0,0,0,0,0,0,0,0,0,0,0,
0,0,0,0,0,0,0,0,0,0,0,0,0,0,0,0,0,0,0,0,0,0,0,0,0,0,0,0,0,0,0,0,0,0,0,0,0,0,0,0,0,0,0,0,0,0,0,0,0,0,0,0,0,0,0,0,0,0,0,0,0,0,0,0,0,0,
0,0,0,0,0,0,0,0,0,0,0,0,0,0,0,0,0,0,0,0,0,0,0,0,0,0,0,0,0,0,0,0,0,0,0,0,0,0,0,0,0,0,0,0,0,0,0,0,0,0,0,0,0,0,0,0,0,0,0,0,0,0,0,0,0,0,
0,0,0,0,0,0,0,0,0,0,0,0,0,0,0,0,0,0,0,0,0,0,0,0,0,0,0,0,0,0,0,0,0,0,0,0,0,0,0,0,0,0,0,0,0,0,0,0,0,0,0,0,0,0,0,0,0,0,0,0,0,0,0,0,0,0
</data>
 </layer>
 <objectgroup id="5" name="collisioni">
  <object id="78" x="372.794" y="966.802" width="133.117" height="210.85"/>
  <object id="79" x="750.166" y="968.632" width="832.571" height="8.74494"/>
  <object id="80" x="1574.74" y="970.688" width="22.3482" height="1354.49"/>
  <object id="81" x="1438.7" y="1046.48" width="83.5762" height="1278.7"/>
  <object id="82" x="1170.53" y="1030.93" width="292.47" height="140.891"/>
  <object id="83" x="508.826" y="1095.06" width="566.478" height="68.0162"/>
  <object id="84" x="587.53" y="1037.73" width="658.785" height="9.7166"/>
  <object id="85" x="1350.28" y="1185.43" width="76.7611" height="1141.7"/>
  <object id="86" x="1229.8" y="1208.74" width="129.231" height="38.8664"/>
  <object id="87" x="382.51" y="1197.09" width="124.372" height="51.498"/>
  <object id="89" x="1321.13" y="1270.93" width="10.6883" height="1018.3"/>
  <object id="90" x="496.194" y="1347.69" width="744.291" height="19.4332"/>
  <object id="91" x="1226.88" y="1361.3" width="8.74494" height="830.769"/>
  <object id="93" x="386.397" y="2327.13" width="962.915" height="4.8583"/>
  <object id="95" name="acqua_lago di nemi" type="albero_taglio" x="522.033" y="1387.6" width="685.813" height="809.258">
   <properties>
    <property name="id" value="acqua_lago di nemi"/>
    <property name="type" value="acqua surf"/>
   </properties>
  </object>
  <object id="118" x="358.219" y="965.344" width="11.6599" height="435.303"/>
  <object id="119" x="366.964" y="1378.79" width="131.174" height="26.2342"/>
  <object id="120" name="acqua_lago di nemi" type="albero_taglio" x="4.66435" y="1156.35" width="343.692" height="558.57">
   <properties>
    <property name="id" value="acqua_lago di nemi"/>
    <property name="type" value="acqua surf"/>
   </properties>
  </object>
  <object id="121" name="acqua_lago di nemi" type="albero_taglio" x="6.85036" y="1416.26" width="525.692" height="591.72">
   <properties>
    <property name="id" value="acqua_lago di nemi"/>
    <property name="type" value="acqua surf"/>
   </properties>
  </object>
  <object id="122" x="165" y="430" width="194" height="743"/>
  <object id="123" x="359" y="432" width="1197.33" height="151"/>
  <object id="124" x="1464" y="518" width="124" height="444"/>
  <object id="125" x="463.714" y="974.628" width="222.571" height="8.74494"/>
  <object id="131" x="1575" y="2377" width="16" height="43"/>
  <object id="133" x="426" y="608.667" width="12" height="176.667"/>
  <object id="134" x="453.333" y="757.333" width="19.3333" height="25.3333"/>
  <object id="135" x="472" y="656.667" width="66" height="104.667"/>
  <object id="136" x="517.333" y="637.333" width="116" height="89.3333"/>
  <object id="137" x="580" y="697.333" width="50.6667" height="64.6667"/>
  <object id="138" x="645.333" y="768" width="534" height="18.6667"/>
  <object id="139" x="1165.33" y="611.333" width="14.6667" height="169.333"/>
  <object id="140" x="1133.33" y="794.667" width="38" height="22.6667"/>
  <object id="141" x="1190.67" y="775.333" width="75.3333" height="18"/>
  <object id="142" x="1260.67" y="738" width="8.66667" height="80"/>
  <object id="143" x="1231.33" y="788.667" width="0.666667" height="30.6667"/>
  <object id="144" x="1226" y="903.333" width="11.3333" height="39.3333"/>
  <object id="145" x="1248" y="938" width="50.6667" height="8"/>
  <object id="146" x="1295.33" y="907.333" width="106.667" height="6.66667"/>
  <object id="147" x="1386" y="738" width="10.6667" height="170.667"/>
  <object id="148" x="1224.67" y="586.667" width="76.6667" height="155.333"/>
  <object id="149" x="1302" y="589.333" width="62.6667" height="117.333"/>
  <object id="150" x="1354" y="583.333" width="80" height="147.333"/>
  <object id="141" x="1576" y="2413.33" width="14.6667" height="109.333"/>
  <object id="142" x="176" y="2508" width="1386.67" height="137.333"/>
  <object id="144" x="293" y="2368" width="21" height="20"/>
  <object id="145" x="334" y="2401" width="13" height="19"/>
  <object id="146" x="155" y="2337" width="898" height="28"/>
  <object id="147" x="1057" y="2338" width="468" height="17"/>
  <object id="148" x="324" y="2466" width="19" height="19"/>
  <object id="153" x="416" y="2004" width="59" height="315"/>
  <object id="154" x="485" y="2006" width="21" height="187"/>
  <object id="155" x="13" y="2034" width="492" height="33"/>
  <object id="156" x="32" y="2039" width="199" height="97"/>
  <object id="157" x="179" y="2133" width="56" height="198"/>
  <object id="158" x="234" y="2062" width="43" height="253"/>
  <object id="159" x="-10" y="2121" width="204" height="23"/>
  <object id="160" x="15" y="2178" width="37" height="79"/>
  <object id="161" x="456" y="254.667" width="17.3333" height="172"/>
  <object id="162" x="1606.67" y="514.667" width="42.6667" height="1821.33"/>
  <object id="163" x="1854.67" y="262.667" width="264" height="3205.33"/>
  <object id="164" x="2.66667" y="3217.33" width="2094.67" height="265.333"/>
  <object id="165" x="8" y="2574.67" width="1741.33" height="352"/>
  <object id="166" x="1618.67" y="2345.33" width="136" height="310.667"/>
  <object id="167" x="1659" y="2275" width="90" height="52"/>
  <object id="168" x="1797" y="2281" width="66" height="80"/>
  <object id="169" x="20" y="-12" width="452" height="269.333"/>
  <object id="170" x="13.3333" y="198.667" width="160" height="941.333"/>
  <object id="171" x="166.667" y="233.333" width="290.667" height="200"/>
  <object id="172" x="476" y="1.33333" width="1378.67" height="280"/>
  <object id="173" x="1801.33" y="273.333" width="49.3333" height="74.6667"/>
 </objectgroup>
 <objectgroup id="2" name="eventi">
  <object id="127" name="erba alta lago di nemi" x="549.48" y="1221.59" width="622.374" height="78.1613">
   <properties>
    <property name="id" value="incontri  lago di nemi"/>
    <property name="type" value="erba_alta"/>
   </properties>
  </object>
  <object id="131" name="cartello" type="cartello" x="449.333" y="766.667" width="32" height="32">
   <properties>
    <property name="testo" value="Pensione Pokémon"/>
   </properties>
  </object>
  <object id="132" name="cartello" type="cartello" x="1022" y="803.333" width="32" height="32">
   <properties>
    <property name="testo" value="Museo delle Navi"/>
   </properties>
  </object>
  <object id="133" name="npc" type="npc" x="1186.17" y="801" width="32" height="32">
   <properties>
    <property name="condizione" value="documentoVillaOttenuto"/>
    <property name="direzione" value="nord"/>
    <property name="id" value="gdf_gate_nemi"/>
    <property name="sprite" value="GDF_GRUNT_SPRITE"/>
    <property name="type" value="npc"/>
   </properties>
  </object>
  <object id="134" name="trainer" type="trainer" x="902.667" y="849.333" width="32" height="32">
   <properties>
    <property name="condizione" value="documentoVillaOttenuto"/>
    <property name="direzione" value="sud"/>
    <property name="id" value="gdf_grunt_nemi_1"/>
    <property name="sprite" value="GDF_GRUNT_SPRITE"/>
    <property name="type" value="trainer"/>
    <property name="vista" type="int" value="4"/>
   </properties>
  </object>
  <object id="135" name="trainer" type="trainer" x="1001.33" y="932" width="32" height="32">
   <properties>
    <property name="condizione" value="documentoVillaOttenuto"/>
    <property name="direzione" value="est"/>
    <property name="id" value="gdf_grunt_nemi_2"/>
    <property name="sprite" value="GDF_GRUNT_SPRITE"/>
    <property name="type" value="trainer"/>
    <property name="vista" type="int" value="4"/>
   </properties>
  </object>
  <object id="136" name="trainer" type="trainer" x="1246.67" y="896" width="32" height="32">
   <properties>
    <property name="condizione" value="documentoVillaOttenuto"/>
    <property name="direzione" value="sud"/>
    <property name="id" value="gdf_grunt_nemi_3"/>
    <property name="sprite" value="GDF_GRUNT_SPRITE"/>
    <property name="type" value="trainer"/>
    <property name="vista" type="int" value="5"/>
   </properties>
  </object>
  <object id="137" name="trainer" type="trainer" x="929.333" y="926.667" width="32" height="32">
   <properties>
    <property name="condizione" value="documentoVillaOttenuto"/>
    <property name="direzione" value="ovest"/>
    <property name="id" value="gdf_grunt_nemi_4"/>
    <property name="sprite" value="GDF_GRUNT_SPRITE"/>
    <property name="type" value="trainer"/>
    <property name="vista" type="int" value="4"/>
   </properties>
  </object>
  <object id="138" name="trainer" type="trainer" x="1088" y="810.667" width="32" height="32">
   <properties>
    <property name="condizione" value="documentoVillaOttenuto"/>
    <property name="direzione" value="sud"/>
    <property name="id" value="gdf_grunt_nemi_5"/>
    <property name="sprite" value="GDF_GRUNT_SPRITE"/>
    <property name="type" value="trainer"/>
    <property name="vista" type="int" value="4"/>
   </properties>
  </object>
  <object id="151" name="oggetto_squama_cuore" type="oggetto" x="503.333" y="314.667" width="32" height="32">
   <properties>
    <property name="contenuto" value="squama_cuore"/>
    <property name="id" value="oggetto_squama_cuore"/>
    <property name="quantita" type="int" value="1"/>
    <property name="type" value="oggetto"/>
   </properties>
  </object>
  <object id="152" name="masso_p5_1" type="masso" x="299.028" y="2435.86" width="17.9432" height="20.286">
   <properties>
    <property name="id" value="masso_p5_1"/>
    <property name="type" value="masso"/>
   </properties>
  </object>
  <object id="174" name="SUICUNE" type="leggendario_ambientale" x="824" y="1674.67">
   <properties>
    <property name="id" value="suicune_nemi"/>
    <property name="pokemon_id" value="245"/>
    <property name="type" value="leggendario_ambientale"/>
   </properties>
   <point/>
  </object>
  <object id="179" name="RAIKOU" type="leggendario_ambientale" x="760" y="1674.67">
   <properties>
    <property name="id" value="raikou_nemi"/>
    <property name="pokemon_id" value="243"/>
    <property name="type" value="leggendario_ambientale"/>
   </properties>
   <point/>
  </object>
  <object id="180" name="ENTEI" type="leggendario_ambientale" x="888" y="1674.67">
   <properties>
    <property name="id" value="entei_nemi"/>
    <property name="pokemon_id" value="244"/>
    <property name="type" value="leggendario_ambientale"/>
   </properties>
   <point/>
  </object>
  <object id="176" name="pensione_nemi" type="npc" x="448" y="800">
   <properties>
    <property name="direzione" value="sud"/>
    <property name="id" value="pensione_nemi"/>
    <property name="sprite" value="NPC 27"/>
    <property name="type" value="npc"/>
   </properties>
  </object>
  <object id="177" name="porta_museo_navi" x="1300" y="850">
   <properties>
    <property name="destinazione" value="museo_navi_1f"/>
    <property name="spawn_id" value="entrata_museo"/>
    <property name="type" value="warp"/>
   </properties>
   <point/>
  </object>
  <object id="178" name="spawn" x="1300" y="880">
   <properties>
    <property name="id" value="da_museo_navi"/>
    <property name="type" value="spawn"/>
   </properties>
   <point/>
  </object>
 </objectgroup>
</map>
