<?xml version="1.0" encoding="UTF-8"?>
<map version="1.10" tiledversion="1.12.2" orientation="orthogonal" renderorder="right-down" width="55" height="45" tilewidth="32" tileheight="32" infinite="0" nextlayerid="7" nextobjectid="103">
 <properties>
  <property name="zone_id" value="lago_di_albano-spiaggia"/>
 </properties>
 <tileset firstgid="1" source="../Sea.tsj"/>
 <tileset firstgid="99" source="../../outside.tsx"/>
 <tileset firstgid="4115" source="../pokemon_emerald_exterior_32.tsj"/>
 <tileset firstgid="10187" source="../Outside_pallet.tsx"/>
 <tileset firstgid="14203" source="../../Emerald_Outside.tsx"/>
 <tileset firstgid="19451" source="../outside.tsx"/>
 <tileset firstgid="23467" source="../spiaggia_animata_onde.tsj"/>
 <layer id="1" name="ground" width="55" height="45">
  <data encoding="csv">
53,53,53,53,53,53,53,53,53,53,53,53,53,53,53,53,53,53,53,53,53,53,53,53,53,53,53,53,53,53,53,53,53,53,53,53,53,53,53,53,53,53,53,53,53,53,53,53,53,53,53,53,53,53,53,
49,53,53,53,53,53,53,53,53,53,53,53,53,53,53,53,53,53,53,53,53,53,53,53,53,53,53,53,53,53,53,53,53,53,53,53,53,53,53,53,53,53,53,53,53,53,53,53,53,53,53,53,53,53,53,
53,53,53,53,53,53,53,53,53,53,53,53,53,53,53,53,53,53,53,53,53,53,53,53,53,53,53,53,53,53,53,53,53,53,53,53,53,53,53,53,53,53,53,53,53,53,53,53,53,53,53,53,53,53,53,
49,53,53,53,53,53,53,53,53,53,53,53,53,53,53,53,53,53,53,53,53,53,53,53,53,53,53,53,53,53,53,53,53,53,53,53,53,53,53,53,53,53,53,53,53,53,53,53,53,53,53,53,53,53,53,
49,53,53,53,53,53,53,53,53,53,53,53,53,53,53,53,53,53,53,53,53,53,53,53,53,53,53,53,53,53,53,53,53,53,53,53,53,53,53,53,53,53,53,53,53,53,53,53,53,53,53,53,53,53,53,
49,53,53,53,53,53,53,53,53,53,53,53,53,53,53,53,53,53,53,53,53,53,53,53,53,53,53,53,53,53,53,53,53,53,53,53,53,53,53,53,53,53,53,53,53,53,53,53,53,53,53,53,53,53,53,
49,53,53,53,53,53,53,53,53,53,53,53,53,53,53,53,53,53,53,53,53,53,53,53,53,53,53,53,53,53,53,53,53,53,53,53,53,53,53,53,53,53,53,53,53,53,53,53,53,53,53,53,53,53,53,
53,53,53,53,53,53,53,53,53,53,53,53,53,53,53,53,53,53,53,53,53,53,53,53,53,53,53,53,53,53,53,53,53,53,53,53,53,53,53,53,53,53,53,53,53,53,53,53,53,53,53,53,53,53,53,
53,53,53,53,53,53,53,53,53,53,53,53,53,53,53,53,53,53,53,53,53,53,53,53,53,53,53,53,53,53,53,53,53,53,53,53,53,53,53,53,53,53,53,53,53,53,53,53,53,53,53,53,53,53,53,
53,53,53,53,53,53,53,53,53,53,53,53,53,53,53,53,53,53,53,53,53,53,53,53,53,53,53,53,53,53,53,53,53,53,53,53,53,53,53,53,53,53,53,53,53,53,53,53,53,53,53,53,53,53,53,
53,53,53,53,53,53,53,53,53,53,53,53,53,53,53,53,53,53,53,53,53,53,53,53,53,53,53,53,53,53,53,53,53,53,53,53,53,53,53,53,53,53,53,53,53,53,53,53,53,53,53,53,53,53,53,
53,53,53,53,53,53,53,53,53,53,53,53,53,53,53,53,53,53,53,53,53,53,53,53,53,53,53,53,53,53,53,53,53,53,53,53,53,53,53,53,53,53,53,53,53,53,53,53,53,53,53,53,53,53,53,
53,53,53,53,53,53,53,53,53,53,53,53,53,53,53,53,53,53,53,53,53,53,53,53,53,53,53,53,53,53,53,53,53,53,53,53,53,53,53,53,53,53,53,53,53,53,53,53,53,53,53,53,53,53,53,
53,53,53,53,53,53,53,53,53,53,53,53,53,53,53,53,53,53,53,53,53,53,53,53,53,53,53,53,53,53,53,53,53,53,53,53,53,53,53,53,53,53,53,53,53,53,53,53,53,53,53,53,53,53,53,
53,53,53,53,53,53,53,53,53,53,53,53,53,53,53,53,53,53,53,53,53,53,53,53,53,53,53,53,53,53,53,53,53,53,53,53,53,53,53,53,53,53,53,53,53,53,53,53,53,53,53,53,53,53,53,
53,53,53,53,53,53,53,53,53,53,53,53,53,53,53,53,53,53,53,53,53,53,53,53,53,53,53,53,53,53,53,53,53,53,53,53,53,53,53,53,53,53,53,53,53,53,53,53,53,53,53,53,53,53,53,
53,53,53,53,53,53,53,53,53,53,53,53,53,53,53,53,53,53,53,53,53,53,53,53,53,53,53,53,53,53,53,53,53,53,53,53,53,53,53,53,53,53,53,53,53,53,53,53,53,53,53,53,53,53,53,
53,53,53,53,53,53,53,53,53,53,53,53,53,53,53,53,53,53,53,53,53,53,53,53,53,53,53,53,53,53,53,53,53,53,53,53,53,53,53,53,53,53,53,53,53,53,53,53,53,53,53,53,53,53,53,
53,53,53,53,53,53,53,53,53,53,53,53,53,53,53,53,53,53,53,53,53,53,53,53,53,53,53,53,53,53,53,53,53,53,53,53,53,53,53,53,53,53,53,53,53,53,53,53,53,53,53,261,261,261,261,
53,53,53,53,53,53,53,53,53,53,53,53,53,53,53,53,53,53,53,53,53,53,53,53,53,53,53,53,53,53,53,53,53,53,53,53,53,53,53,53,53,53,53,53,53,53,53,53,53,53,53,261,53,53,0,
53,53,53,53,53,53,53,53,53,53,53,53,53,53,53,53,53,53,53,53,53,53,53,53,53,53,53,53,53,53,53,53,53,53,53,53,53,53,53,53,53,53,53,53,53,53,53,53,53,53,53,261,53,53,0,
53,53,53,53,53,53,53,53,53,53,53,53,53,53,53,53,53,53,53,53,53,53,53,53,53,53,53,53,53,53,53,53,53,53,53,53,53,53,53,53,53,53,53,53,53,53,53,53,53,53,53,261,53,53,0,
53,53,53,53,53,53,53,53,53,53,53,53,53,53,53,53,53,53,53,53,53,53,53,53,53,53,53,53,53,53,53,53,53,53,53,53,53,53,53,53,53,53,53,53,53,53,53,53,53,53,53,261,53,53,0,
53,53,53,53,53,53,53,53,53,53,53,53,53,53,53,53,53,53,53,53,53,53,53,53,53,53,53,53,53,53,53,53,53,53,53,53,53,53,53,53,53,53,53,53,53,53,53,53,53,53,53,261,53,53,0,
53,53,53,53,53,53,53,53,53,53,53,53,53,53,53,53,53,53,53,53,53,53,53,53,53,53,53,53,53,53,53,53,53,53,53,53,53,53,53,53,53,53,53,53,53,53,53,53,53,53,53,261,53,53,0,
53,53,53,53,53,53,53,53,53,53,53,53,53,53,53,53,53,53,53,53,53,53,53,53,53,53,53,53,53,53,53,8608,53,53,53,53,53,53,53,53,53,53,53,53,53,53,53,53,53,53,53,261,53,53,0,
53,53,53,53,53,53,53,53,53,53,53,53,53,53,53,53,53,53,53,53,53,53,53,53,53,53,53,53,53,53,53,8608,53,53,53,53,53,53,53,53,53,53,53,53,53,53,53,53,53,53,53,261,53,53,0,
53,53,53,53,53,53,53,53,53,53,53,53,53,53,53,53,53,53,53,53,53,53,53,53,53,53,53,53,53,53,53,8608,53,53,53,53,53,53,53,53,53,53,53,53,53,53,53,53,53,53,53,261,53,53,0,
53,53,53,53,53,53,53,53,53,53,53,53,53,53,53,53,53,53,53,53,53,53,53,53,53,53,53,53,53,53,53,8608,53,53,53,53,53,53,53,53,53,53,53,53,53,53,53,53,53,53,53,261,53,53,0,
23504,23504,23504,23504,23504,23504,23504,23504,23504,23504,23504,23504,23504,23504,23504,23504,23504,23504,23504,23504,23504,23504,23504,23504,23504,23504,23504,23504,23504,23504,23504,23504,23504,23504,23504,23504,23504,23504,23504,23504,23504,23504,23504,23504,23504,23504,23504,23504,23504,23504,23504,261,53,53,0,
23504,23504,23504,23504,23504,23504,23504,23504,23504,23504,23504,23504,23504,23504,23504,23504,23504,23504,23504,23504,23504,23504,23504,23504,23504,23504,23504,23504,23504,23504,23504,23504,23504,23504,23504,23504,23504,23504,23504,23504,23504,23504,23504,23504,23504,23504,23504,23504,23504,23504,23504,261,261,53,0,
23504,23504,23504,23504,23504,23504,23504,23504,23504,23504,23504,23504,23504,23504,23504,23504,23504,23504,23504,23504,23504,23504,23504,23504,23504,23504,23504,23504,23504,23504,23504,23504,23504,23504,23504,23504,23504,23504,23504,23504,23504,23504,23504,23504,23504,23504,23504,23504,23504,23504,23504,261,261,53,0,
23504,23504,23504,23504,23504,23504,23504,23504,23504,23504,23504,23504,23504,23504,23504,23504,23504,23504,23504,23504,23504,23504,23504,23504,23504,23504,23504,23504,23504,23504,23504,23504,23504,23504,23504,23504,23504,23504,23504,23504,23504,23504,23504,23504,23504,23504,23504,23504,23504,23504,23504,261,261,53,0,
23504,23504,23504,23504,23504,23504,23504,23504,23504,23504,23504,23504,23504,23504,23504,23504,23504,23504,23504,23504,23504,23504,23504,23504,23504,23504,23504,23504,23504,23504,23504,23504,23504,23504,23504,23504,23504,23504,23504,23504,23504,23504,23504,23504,23504,23504,23504,23504,23504,23504,23504,261,261,53,0,
23504,23504,23504,23504,23504,23504,23504,23504,23504,23504,23504,23504,23504,23504,23504,23504,23504,23504,23504,23504,23504,23504,23504,23504,23504,23504,23504,23504,23504,23504,23504,23504,23504,23504,23504,23504,23504,23504,23504,23504,23504,23504,23504,23504,23504,23504,23504,23504,23504,23504,23504,261,261,53,0,
23504,23504,23504,23504,23504,23504,23504,23504,23504,23504,23504,23504,23504,23504,23504,23504,23504,23504,23504,23504,23504,23504,23504,23504,23504,23504,23504,23504,23504,23504,23504,23504,23504,23504,23504,23504,23504,23504,23504,23504,23504,23504,23504,23504,23504,23504,23504,23504,23504,23504,23504,261,261,53,0,
23504,23504,23504,23504,23504,23504,23504,23504,23504,23504,23504,23504,23504,23504,23504,23504,23504,23504,23504,23504,23504,23504,23504,23504,23504,23504,23504,23504,23504,23504,23504,23504,23504,23504,23504,23504,23504,23504,23504,23504,23504,23504,23504,23504,23504,23504,23504,23504,23504,23504,23504,261,261,53,0,
23504,23504,23504,23504,23504,23504,23504,23504,23504,23504,261,261,53,53,53,53,53,53,53,53,53,53,53,53,53,53,53,53,23504,23504,23504,23504,23504,23504,23504,23504,23504,23504,23504,23504,23504,23504,23504,23504,23504,23504,23504,23504,23504,23504,23504,261,261,53,0,
23504,23504,23504,23504,23504,23504,23504,23504,23504,23504,261,261,53,53,53,53,53,53,53,53,53,53,53,53,53,53,53,53,23504,23504,23504,23504,23504,23504,23504,23504,23504,23504,23504,23504,23504,23504,23504,23504,23504,23504,23504,23504,23504,23504,23504,261,261,53,0,
23504,23504,23504,23504,23504,23504,23504,23504,23504,23504,261,261,53,53,53,53,53,53,53,53,53,53,53,53,53,53,53,53,23504,23504,23504,23504,23504,23504,23504,23504,23504,23504,23504,23504,23504,23504,23504,23504,23504,23504,23504,23504,23504,23504,23504,261,261,53,0,
23504,23504,23504,23504,23504,23504,23504,23504,23504,23504,261,261,53,53,53,53,53,53,53,53,53,53,53,53,53,53,53,53,261,261,261,261,261,261,261,261,261,261,261,261,261,261,261,261,261,261,261,261,261,261,261,261,261,53,0,
23504,23504,23504,23504,23504,23504,23504,23504,23504,23504,261,261,53,53,53,53,53,53,53,53,53,53,53,53,53,53,53,53,53,53,53,53,53,53,53,53,53,53,53,53,53,53,53,53,53,53,53,53,53,53,53,53,53,53,0,
23504,23504,23504,23504,23504,23504,23504,23504,23504,23504,261,261,53,53,53,53,53,53,53,53,53,53,53,53,53,53,53,53,53,53,53,53,53,53,53,53,53,53,53,53,53,53,53,53,53,53,53,53,53,53,53,53,53,53,0,
23504,23504,23504,23504,23504,23504,23504,23504,23504,23504,261,261,53,53,53,53,53,53,53,53,53,53,53,53,53,53,53,53,53,53,53,53,53,53,53,53,53,53,53,53,53,53,53,53,53,53,53,53,53,53,53,53,53,53,0,
23504,23504,23504,23504,23504,23504,23504,23504,23504,23504,261,261,53,53,53,53,53,53,53,53,53,53,53,53,53,53,53,53,53,53,53,53,53,53,53,53,53,53,53,53,53,53,53,53,53,53,53,53,53,53,53,53,53,53,0
</data>
 </layer>
 <layer id="3" name="deco_sotto" width="55" height="45">
  <data encoding="csv">
0,0,0,0,0,0,0,0,0,0,0,0,53,53,53,53,53,53,53,53,53,0,0,0,0,0,7811,7812,7811,7812,7811,7812,7811,7812,7811,7812,7811,7812,7811,7812,7811,7812,7811,7812,7811,7812,7811,7812,7811,7812,7811,7812,0,0,0,
0,0,0,0,0,0,0,0,0,0,0,0,53,53,53,53,53,53,53,53,0,0,0,0,0,0,7899,7900,7899,7900,7899,7900,7899,7900,7899,7900,7899,7900,7899,7900,7899,7900,7899,7900,7899,7900,7899,7900,7899,7900,7899,7900,0,0,0,
0,0,0,0,0,0,0,0,0,0,0,0,53,53,53,53,53,53,53,0,0,0,0,0,0,0,0,0,0,0,0,0,0,0,0,0,0,0,0,0,0,0,0,0,7811,7812,0,0,0,0,0,0,0,0,0,
0,0,0,0,0,0,0,0,0,0,0,0,53,53,53,53,53,53,0,0,0,0,0,0,0,0,0,0,0,0,0,0,0,0,0,0,0,0,0,0,0,0,0,0,7899,7900,0,0,0,0,0,0,0,0,0,
0,0,0,0,0,0,0,0,0,0,0,0,53,53,53,53,53,53,0,0,0,0,0,0,0,0,0,0,0,7811,7812,0,0,0,0,0,0,0,0,0,0,0,0,0,0,0,0,0,0,0,0,0,0,0,0,
0,0,0,0,0,0,0,0,0,0,0,0,53,53,53,53,0,0,0,0,0,0,0,0,0,0,0,0,0,7899,7900,0,0,0,0,0,0,0,0,0,0,0,0,0,0,0,0,0,0,0,0,0,0,0,0,
0,0,0,0,0,0,0,0,0,0,0,0,53,53,53,0,0,0,0,0,0,0,0,0,0,0,0,0,0,0,0,0,0,0,0,0,0,0,0,0,0,0,0,0,0,0,0,0,0,0,0,0,0,7811,7812,
0,0,0,0,0,0,0,0,0,0,0,0,53,53,53,0,0,0,0,0,0,0,0,0,0,0,0,0,0,0,0,0,0,0,0,0,0,0,0,0,0,0,0,0,0,0,0,0,0,0,0,0,0,7899,7900,
0,0,0,0,0,0,0,0,0,0,0,0,53,0,0,0,0,0,0,0,0,7811,7812,0,0,0,0,0,0,0,0,0,0,0,0,0,0,0,0,0,0,0,0,0,0,0,0,0,0,0,0,0,0,0,0,
0,0,0,0,0,0,0,0,0,0,0,0,0,0,0,0,0,0,0,0,0,7899,7900,0,0,0,0,0,0,0,0,0,0,0,0,0,0,0,0,0,0,0,0,0,0,0,0,0,0,0,0,0,0,0,0,
0,0,0,0,0,0,0,0,0,0,0,0,0,0,7811,7812,0,0,0,0,0,0,0,0,0,0,0,0,0,0,0,0,0,0,0,0,0,0,0,0,0,0,0,0,0,0,0,0,0,0,0,0,0,0,0,
0,0,0,0,0,0,0,0,0,0,0,0,0,0,7899,7900,0,0,0,0,0,0,0,0,0,0,0,0,0,0,0,0,0,0,0,0,0,0,0,23485,23486,23486,23487,0,0,0,0,0,0,0,0,0,1047,0,0,
0,0,0,0,0,0,0,0,0,0,0,0,0,0,0,0,7811,7812,0,0,0,0,0,0,0,0,0,0,0,0,0,0,0,0,0,0,0,0,0,23503,23507,23504,23505,0,0,0,0,0,0,0,0,0,0,0,0,
0,0,0,0,0,0,0,0,0,0,0,0,0,0,0,0,7899,7900,0,0,0,0,0,0,0,0,0,0,0,0,0,0,0,0,0,0,0,0,0,23503,23504,23504,23505,0,0,0,0,0,0,0,0,0,0,0,0,
0,0,0,0,0,0,0,0,0,0,0,0,0,0,7811,7812,0,0,0,0,0,0,0,0,0,0,0,0,0,0,0,0,0,0,0,0,0,0,0,23521,23522,23522,23523,0,0,0,0,0,0,0,0,0,0,0,0,
0,0,0,0,0,0,0,0,0,0,0,0,0,0,7899,7900,0,0,0,0,0,0,0,0,0,0,0,0,0,0,0,0,0,0,0,0,0,0,0,0,0,0,0,0,0,0,0,0,0,9147,9148,9149,0,0,0,
0,0,0,0,0,0,0,0,0,0,0,0,0,0,0,0,0,0,0,0,0,0,0,0,0,0,0,0,0,0,0,0,0,0,0,0,0,0,0,0,0,0,0,0,0,0,0,0,0,9235,9236,9237,0,0,0,
0,0,0,0,0,0,0,0,0,0,0,0,0,0,0,0,0,0,0,0,0,0,0,0,0,0,0,0,0,0,0,0,0,0,0,0,0,0,0,0,0,0,0,0,0,0,0,0,0,9323,9324,9325,0,0,0,
0,0,0,0,0,0,0,0,0,0,0,0,0,0,0,0,0,0,0,0,0,0,0,0,0,0,0,0,0,0,0,0,0,0,0,0,0,0,0,0,0,0,0,0,0,0,0,0,0,0,0,971,972,972,972,
0,0,0,0,0,0,0,0,0,0,0,0,0,0,0,0,0,0,0,0,0,0,0,0,0,0,0,0,0,0,0,0,0,0,0,0,0,0,0,0,0,0,0,0,0,0,0,0,0,0,0,971,972,972,972,
0,0,0,0,0,0,0,0,0,0,0,0,0,0,0,0,0,0,0,0,0,0,0,0,0,0,0,0,0,0,0,0,0,0,0,0,0,0,0,0,0,0,0,0,0,0,0,0,0,0,0,971,972,972,972,
0,0,0,0,0,0,0,0,0,0,0,0,0,23488,23489,23490,0,0,0,0,0,0,0,0,0,0,0,0,0,0,0,0,0,0,0,0,0,0,0,0,0,0,0,0,0,0,0,0,0,0,0,971,972,972,972,
0,0,0,0,0,0,0,0,0,0,0,0,0,23506,23507,23508,0,0,0,0,0,0,0,0,0,0,0,0,0,0,23485,23486,23486,23487,0,0,0,0,0,0,0,0,0,0,0,0,0,0,0,0,0,971,972,972,972,
0,0,0,0,0,0,0,0,0,0,0,0,0,23524,23525,23526,0,0,0,0,0,0,0,0,0,0,0,0,0,0,23503,23504,23507,23505,0,0,0,0,0,0,0,0,0,0,0,0,0,0,0,0,0,971,972,972,972,
0,0,0,0,0,0,0,0,0,0,0,0,0,0,0,0,0,0,0,0,0,0,0,0,0,0,0,0,0,0,23521,23507,23507,23523,0,0,0,0,0,0,0,0,0,0,0,0,0,0,0,0,0,971,972,972,972,
0,0,0,0,0,0,0,0,0,0,0,0,0,0,0,0,0,0,0,0,0,0,0,0,0,0,0,0,0,0,0,23503,23505,0,0,0,0,0,0,0,0,0,0,0,0,0,0,0,0,0,0,971,972,972,972,
0,0,0,0,0,0,0,0,0,0,0,0,0,0,0,0,0,0,0,0,0,0,0,0,0,0,0,0,0,0,0,23503,23505,0,0,0,0,0,0,0,0,0,0,0,0,0,0,0,0,0,0,971,972,972,972,
0,0,0,0,0,0,0,0,0,0,0,0,0,0,0,0,0,0,0,0,0,0,0,0,0,0,0,0,0,0,0,23503,23505,0,0,0,0,0,0,0,0,0,0,0,0,0,0,0,0,0,0,971,972,972,972,
0,0,0,0,0,0,0,0,0,0,0,0,0,0,0,0,0,0,0,0,0,0,0,0,0,0,0,0,0,0,0,23503,23505,0,0,0,0,0,0,0,0,0,0,0,0,0,0,0,0,0,0,971,972,972,972,
23486,23486,23486,23486,23486,23486,23486,23486,23486,23486,23486,23486,23486,23486,23486,23486,23486,23486,23486,23486,23486,23486,23486,23486,23486,23486,23486,23486,23486,23486,23486,0,0,23486,23486,23486,23486,23486,23486,23486,23486,23486,23486,23486,23486,23486,23486,23486,23486,23486,23486,971,972,972,972,
0,0,0,0,0,0,0,0,0,0,0,0,0,0,0,0,0,0,0,0,0,0,0,0,0,0,0,0,0,0,0,0,0,0,0,0,0,23510,0,0,0,0,0,0,0,0,0,0,0,0,0,971,972,972,972,
0,0,0,0,0,0,0,0,0,0,0,0,0,0,0,0,0,0,0,0,0,0,0,0,0,0,0,0,0,0,0,0,0,0,0,0,0,0,0,0,0,0,0,0,0,0,0,0,0,0,0,971,972,972,972,
0,0,0,0,0,0,0,0,0,0,0,0,0,0,0,0,0,0,0,0,0,0,0,0,0,0,0,0,0,0,0,0,0,0,0,0,0,0,0,0,0,0,0,0,0,0,0,0,0,0,0,971,972,972,972,
0,0,0,0,0,0,0,0,0,0,963,964,964,964,964,964,964,964,964,964,964,964,964,964,964,964,964,965,0,0,0,0,0,0,0,0,0,0,0,0,0,0,0,0,0,0,0,0,0,0,0,971,972,972,972,
0,0,0,0,0,0,0,0,0,0,971,972,972,972,972,972,972,972,972,972,972,972,972,972,972,972,972,973,0,0,0,0,0,0,0,0,0,0,0,0,0,0,0,0,0,0,0,0,0,0,0,971,972,972,972,
0,0,0,0,0,0,0,0,0,0,971,972,972,972,972,972,972,972,972,972,972,972,972,10193,972,972,972,973,0,0,0,0,0,0,0,0,0,0,0,0,0,0,0,0,0,0,0,0,0,0,0,971,972,972,972,
0,0,0,0,0,0,0,0,0,0,971,972,972,972,972,10193,10193,10193,10193,10193,10193,10193,10193,10193,10193,972,972,973,0,0,0,0,0,0,0,0,0,0,0,0,0,0,0,0,0,0,0,0,0,0,0,971,972,972,972,
0,0,0,0,0,0,0,0,0,0,971,972,972,972,972,10193,10193,10193,10193,10193,10193,10193,10193,10193,10193,972,972,973,0,0,0,0,0,0,0,0,0,0,0,0,0,0,0,0,0,0,0,0,0,0,0,971,972,972,972,
0,0,0,0,0,0,0,0,0,0,971,972,972,972,972,10193,10193,10193,10193,10193,10193,10193,10193,10193,10193,972,972,973,0,0,0,0,0,0,0,0,0,0,0,0,0,0,0,0,0,0,0,0,0,0,0,971,972,972,972,
0,0,0,0,0,0,0,0,0,0,971,972,972,972,972,10193,10193,10193,10193,10193,10193,10193,10193,10193,10193,972,972,973,0,0,0,0,0,0,0,0,0,0,0,0,0,0,0,0,0,0,0,0,0,0,0,971,972,972,972,
0,0,0,0,0,0,0,0,0,0,971,972,972,972,972,10193,10193,10193,10193,10193,10193,10193,10193,10193,10193,972,972,972,964,964,975,975,975,975,975,975,975,964,964,964,964,964,964,964,964,964,964,964,964,964,964,972,972,972,972,
0,0,0,0,0,0,0,0,0,0,971,972,972,972,972,10193,10193,10193,10193,10193,10193,10193,10193,10193,10193,972,972,972,972,972,975,975,975,975,975,975,975,975,975,972,972,972,972,972,972,972,972,972,972,972,972,972,972,972,972,
0,0,0,0,0,0,0,0,0,0,971,972,972,972,972,972,972,972,972,972,972,972,972,972,972,972,972,972,972,972,975,975,975,975,975,975,975,975,975,972,972,972,972,972,972,972,972,972,972,972,972,972,972,972,972,
0,0,0,0,0,0,0,0,0,0,971,972,972,972,972,972,972,972,972,972,972,972,972,972,972,972,972,972,972,972,975,975,975,975,975,975,975,975,975,972,972,972,972,972,972,972,972,972,972,972,972,972,972,972,972,
0,0,0,0,0,0,0,0,0,0,971,972,972,972,972,972,972,972,972,972,972,972,972,972,972,972,972,972,972,972,975,975,975,975,975,975,975,972,972,972,972,972,972,972,972,972,972,972,972,972,972,972,972,972,972
</data>
 </layer>
 <layer id="4" name="edifici" width="55" height="45">
  <data encoding="csv">
0,0,0,0,0,0,0,0,0,0,0,0,0,0,0,0,0,0,0,0,0,0,0,0,0,0,0,0,0,0,0,0,0,0,0,0,0,0,0,0,0,0,0,0,0,0,0,0,0,0,0,0,14539,14540,14539,
14539,14540,14539,14540,0,0,0,0,0,0,0,0,0,0,0,0,0,0,0,0,0,0,0,0,0,0,0,0,0,0,0,0,0,0,0,0,0,0,0,0,0,0,0,0,0,0,0,0,0,0,0,0,14547,14548,14547,
14547,14548,14547,14548,0,0,0,0,0,0,0,0,0,0,0,0,0,0,0,0,0,0,0,0,0,0,0,0,0,0,0,0,0,0,0,0,0,0,0,0,0,0,0,0,0,0,0,0,0,0,0,0,0,0,0,
14539,14540,14539,14540,0,0,0,0,0,0,0,0,0,0,0,0,0,0,0,0,0,0,0,0,0,0,0,0,0,0,0,0,0,0,0,0,0,0,0,0,0,0,0,0,0,0,0,0,0,0,0,0,0,0,0,
14547,14548,14547,14548,0,0,0,0,0,0,0,0,0,0,0,0,0,0,0,0,0,0,0,0,0,0,0,0,0,0,0,0,0,0,0,0,0,0,0,0,0,0,0,0,0,0,0,0,0,0,0,0,0,0,0,
14539,14540,14539,14540,0,0,0,0,0,0,0,0,0,0,0,0,0,0,0,0,0,0,0,0,0,0,0,0,0,0,0,0,0,0,0,0,0,0,0,0,0,0,0,0,0,0,0,0,0,0,0,0,0,0,0,
14547,14548,14547,14548,0,0,0,0,0,0,0,0,0,0,0,0,0,0,0,0,0,0,0,0,0,0,0,0,0,0,0,0,0,0,0,0,0,0,0,0,0,0,0,0,0,0,0,0,0,0,0,0,0,0,0,
14539,14540,14539,14540,0,0,0,0,0,0,0,0,0,0,0,0,0,0,0,0,0,0,0,0,0,0,0,0,0,0,0,0,0,0,0,0,0,0,0,0,0,0,0,0,0,0,0,0,0,0,0,0,0,0,0,
14547,14548,14547,14548,0,0,0,0,0,0,0,0,0,0,0,0,0,0,0,0,0,0,0,0,0,0,0,0,0,0,0,0,0,0,0,0,0,0,0,0,0,0,0,0,0,0,0,0,0,0,0,0,8011,8012,8013,
14539,14540,14539,14540,14539,14540,0,0,0,0,0,0,0,0,0,0,0,0,0,0,0,0,0,0,0,0,0,0,0,0,0,0,0,0,0,0,0,0,0,0,0,0,0,0,0,0,0,0,0,0,0,0,8099,8100,8101,
14547,14548,14547,14548,14547,14548,0,0,0,0,0,0,0,0,0,0,0,0,0,0,0,0,0,0,0,0,0,0,0,0,0,0,0,0,0,0,0,0,0,0,0,0,0,0,0,0,0,0,0,0,0,0,8187,8188,8189,
14539,14540,14539,14540,14539,14540,0,0,0,0,0,0,0,0,0,0,0,0,0,0,0,0,0,0,0,0,0,0,0,0,0,0,0,0,0,0,0,0,0,0,0,0,0,0,0,0,0,0,0,0,0,0,8275,8276,8277,
14547,14548,14547,14548,14547,14548,0,0,0,0,0,0,0,0,0,0,0,0,0,0,0,0,0,0,0,0,0,0,0,0,0,0,0,0,0,0,0,0,0,0,0,0,0,0,0,0,0,0,0,9147,9148,9149,8363,8364,8365,
14539,14540,14539,14540,14539,14540,0,0,0,0,0,0,0,0,0,0,0,0,0,0,0,0,0,0,0,0,0,0,0,0,0,0,0,0,0,0,0,0,0,0,0,0,0,0,0,0,0,0,0,9235,9236,9237,0,8803,8804,
14547,14548,14547,14548,14547,14548,0,0,0,0,0,0,0,0,0,0,0,0,0,0,0,0,0,0,0,0,0,0,0,0,0,0,0,0,0,0,0,0,0,0,0,0,0,0,0,0,0,0,0,9323,9324,9325,0,8803,8804,
14539,14540,14539,14540,14539,14540,0,0,0,0,0,0,0,0,0,0,0,0,0,0,0,0,0,0,0,0,0,0,0,0,0,0,0,0,0,0,0,0,0,0,0,0,0,0,0,0,0,0,0,0,0,0,0,8803,8804,
14547,14548,14547,14548,14547,14548,0,0,0,0,0,0,0,0,0,0,0,0,0,0,0,0,0,0,0,0,0,0,0,0,0,0,0,0,0,0,0,0,0,0,0,0,0,0,0,0,0,0,0,0,0,0,0,8803,8804,
14539,14540,14539,14540,14539,14540,0,0,0,0,0,0,0,0,0,0,0,0,0,0,0,0,0,0,0,0,0,0,0,0,0,0,0,0,0,0,0,0,0,0,0,0,0,0,0,0,0,0,0,0,0,0,0,8803,8804,
14547,14548,14547,14548,14547,14548,0,0,0,0,0,0,0,0,0,0,9147,9148,9149,0,0,0,0,0,0,0,0,0,0,0,0,0,0,0,0,0,0,0,0,0,0,0,0,0,0,0,0,0,0,0,0,0,0,868,869,
14539,14540,14539,14540,14539,14540,0,0,0,0,0,0,0,0,0,0,9235,9236,9237,0,0,0,0,0,0,0,0,0,0,0,0,0,0,0,0,0,0,0,0,0,0,0,0,0,0,0,0,0,0,0,0,0,0,0,0,
14547,14548,14547,14548,14547,14548,0,0,0,0,0,0,0,0,0,0,9323,9324,9325,0,0,0,0,0,0,0,0,0,0,0,0,0,0,0,0,0,0,0,0,0,0,0,0,0,0,0,0,0,0,0,0,0,0,0,0,
14539,14540,14539,14540,14539,14540,0,0,0,0,0,0,0,0,0,0,0,0,0,0,0,0,0,0,0,0,0,0,0,0,0,0,0,0,0,0,0,0,0,0,0,0,0,0,0,0,0,0,0,0,0,0,0,0,0,
14547,14548,14547,14548,14547,14548,0,0,0,0,0,0,0,0,0,0,0,0,0,0,0,0,0,0,0,0,0,0,0,0,0,0,0,0,0,0,0,0,0,0,0,0,0,0,0,0,0,0,0,0,0,0,0,0,0,
14539,14540,14539,14540,14539,14540,0,0,0,0,0,0,0,0,0,0,0,0,0,0,0,0,0,0,0,0,0,0,0,0,0,0,0,0,0,0,0,0,0,0,0,0,0,0,0,0,0,0,0,0,0,0,0,0,0,
14547,14548,14547,14548,14547,14548,0,0,0,0,0,0,0,0,0,0,0,0,0,0,0,0,0,0,0,0,0,0,0,0,0,0,0,0,0,0,0,0,0,0,0,0,0,0,0,0,0,0,0,0,0,0,0,0,0,
14539,14540,14539,14540,14539,14540,0,0,0,0,0,0,0,0,0,0,0,0,0,0,0,0,0,0,0,0,0,0,0,0,0,0,0,0,0,0,0,0,0,0,0,0,0,0,0,0,0,0,0,0,0,0,0,0,0,
14547,14548,14547,14548,14547,14548,0,0,0,0,0,0,0,0,0,0,0,0,0,0,0,0,0,0,0,0,0,0,0,0,0,0,0,0,0,0,0,0,0,0,0,0,0,0,0,0,0,0,0,0,0,0,0,0,0,
14539,14540,14539,14540,14539,14540,0,0,0,0,0,0,0,0,0,0,0,0,0,0,0,0,0,0,0,0,0,0,0,0,0,0,0,0,0,0,0,0,0,0,0,0,0,0,0,0,0,0,0,0,0,0,0,0,0,
14547,14548,14547,14548,14547,14548,0,0,0,0,0,0,0,0,0,0,0,0,0,0,0,0,0,0,0,0,0,0,0,0,0,0,0,0,0,0,0,0,0,0,0,0,0,0,0,0,0,0,0,0,0,0,0,0,0,
519,520,519,520,0,14523,0,0,0,0,0,0,0,0,0,0,0,0,0,0,0,0,0,0,0,0,0,0,0,0,0,0,0,0,0,0,0,0,0,0,0,0,0,0,0,0,0,0,0,0,0,0,0,0,0,
527,528,527,528,0,14523,0,0,0,0,0,0,0,539,540,541,105,105,105,105,105,105,105,105,105,105,105,0,0,0,0,0,0,0,0,0,0,0,0,0,0,0,0,0,0,0,0,0,539,540,541,0,0,0,0,
535,536,535,536,0,14523,0,0,0,0,0,0,0,547,548,549,105,105,105,105,105,105,105,105,105,105,105,0,0,0,8181,8182,0,0,0,0,0,0,0,0,0,0,0,0,0,0,0,0,547,548,549,0,0,0,0,
519,520,519,520,0,14523,0,0,0,0,0,0,0,555,556,557,105,105,105,105,105,105,105,105,105,105,105,0,0,8180,8269,8270,8180,0,0,0,0,0,0,0,0,8180,8185,8186,8180,0,8185,8186,555,556,557,0,0,0,0,
527,528,527,528,0,14523,0,0,0,0,0,519,520,519,520,519,520,519,520,519,520,519,520,519,520,0,0,0,0,8268,8357,8358,8268,0,0,0,0,0,0,0,0,8268,8273,8274,8268,0,8273,8274,0,0,8179,0,0,0,0,
535,536,535,536,0,14523,0,0,0,0,0,527,528,527,528,527,528,527,528,527,528,527,528,527,528,0,0,0,0,8356,8181,8182,8356,0,0,0,0,0,0,0,0,8356,8361,8362,8356,0,8361,8362,0,0,8267,0,0,0,0,
519,520,519,520,0,14523,0,0,0,0,0,535,536,535,536,535,536,535,536,535,536,535,536,535,536,0,0,0,0,0,8269,8270,0,0,0,0,0,0,0,0,0,0,0,0,0,0,0,0,8185,8186,8355,0,0,0,0,
527,528,527,528,0,14523,0,0,0,0,0,519,520,0,0,0,0,0,0,0,0,0,0,0,0,0,0,0,0,0,8357,8358,0,8181,8182,0,0,0,0,0,0,8179,8185,8186,0,0,0,0,8273,8274,0,0,0,0,0,
535,536,535,536,0,14523,0,0,0,0,0,527,528,0,0,0,0,0,0,0,0,0,0,0,0,0,0,0,539,540,541,0,0,8269,8270,0,0,0,0,0,0,8267,8273,8274,0,0,0,0,8361,8362,0,0,0,0,0,
519,520,519,520,0,14523,0,0,0,0,0,535,536,0,0,0,0,0,0,0,0,0,0,0,0,0,0,0,547,548,549,0,0,8357,8358,0,0,0,0,0,0,8355,8361,8362,0,0,0,0,0,0,0,0,0,0,0,
527,528,527,528,0,14523,0,0,0,0,0,519,520,0,0,0,0,0,0,0,0,0,0,0,0,0,0,0,555,556,557,0,0,0,0,0,0,0,0,0,0,0,0,0,0,0,0,0,0,0,0,0,0,0,0,
535,536,535,536,0,14523,519,520,519,520,0,527,528,0,0,0,0,0,0,0,0,0,0,0,0,0,0,0,0,0,0,0,0,0,0,0,0,868,869,0,0,0,0,0,0,0,0,0,0,0,0,0,0,0,0,
519,520,519,520,0,14523,527,528,527,528,0,535,536,0,0,0,0,0,0,0,0,0,0,0,0,0,0,0,0,0,0,0,0,0,0,0,0,0,0,0,0,0,0,0,0,0,0,0,0,0,0,0,0,0,0,
527,528,527,528,0,14523,535,536,535,536,0,519,520,519,520,519,520,519,520,519,520,519,520,519,520,519,520,0,0,0,0,0,0,0,0,0,0,0,0,0,0,519,520,519,520,519,520,519,520,519,520,519,520,0,0,
535,536,535,536,0,14523,0,0,0,0,0,527,528,527,528,527,528,527,528,527,528,527,528,527,528,527,528,994,994,994,994,994,994,994,0,0,994,994,994,994,994,527,528,527,528,527,528,527,528,527,528,527,528,994,994,
0,0,0,0,0,14523,0,0,0,0,0,535,536,535,536,535,536,535,536,535,536,535,536,535,536,535,536,0,0,0,0,0,0,20346,0,0,20346,0,0,0,0,535,536,535,536,535,536,535,536,535,536,535,536,0,0
</data>
 </layer>
 <layer id="6" name="sopra_testa" width="55" height="45">
  <data encoding="csv">
0,0,0,0,0,0,0,0,0,0,0,0,0,0,0,0,0,0,0,0,0,0,0,0,0,0,0,0,0,0,0,0,0,0,0,0,0,0,0,0,0,0,0,0,0,0,0,0,0,0,0,0,0,0,0,
0,0,0,0,0,0,0,0,0,0,0,0,0,0,0,0,0,0,0,0,0,0,0,0,0,0,0,0,0,0,0,0,0,0,0,0,0,0,0,0,0,0,0,0,0,0,0,0,0,0,0,0,0,0,0,
0,0,0,0,0,0,0,0,0,0,0,0,0,0,0,0,0,0,0,0,0,0,0,0,0,0,0,0,0,0,0,0,0,0,0,0,0,0,0,0,0,0,0,0,0,0,0,0,0,0,0,0,0,0,0,
0,0,0,0,0,0,0,0,0,0,0,0,0,0,0,0,0,0,0,0,0,0,0,0,0,0,0,0,0,0,0,0,0,0,0,0,0,0,0,0,0,0,0,0,0,0,0,0,0,0,0,0,0,0,0,
0,0,0,0,0,0,0,0,0,0,0,0,0,0,0,0,0,0,0,0,0,0,0,0,0,0,0,0,0,0,0,0,0,0,0,0,0,0,0,0,0,0,0,0,0,0,0,0,0,0,0,0,0,0,0,
0,0,0,0,0,0,0,0,0,0,0,0,0,0,0,0,0,0,0,0,0,0,0,0,0,0,0,0,0,0,0,0,0,0,0,0,0,0,0,0,0,0,0,0,0,0,0,0,0,0,0,0,0,0,0,
0,0,0,0,0,0,0,0,0,0,0,0,0,0,0,0,0,0,0,0,0,0,0,0,0,0,0,0,0,0,0,0,0,0,0,0,0,0,0,0,0,0,0,0,0,0,0,0,0,0,0,0,0,0,0,
0,0,0,0,0,0,0,0,0,0,0,0,0,0,0,0,0,0,0,0,0,0,0,0,0,0,0,0,0,0,0,0,0,0,0,0,0,0,0,0,0,0,0,0,0,0,0,0,0,0,0,0,0,0,0,
0,0,0,0,0,0,0,0,0,0,0,0,0,0,0,0,0,0,0,0,0,0,0,0,0,0,0,0,0,0,0,0,0,0,0,0,0,0,0,0,0,0,0,0,0,0,0,0,0,0,0,0,0,0,0,
0,0,0,0,0,0,0,0,0,0,0,0,0,0,0,0,0,0,0,0,0,0,0,0,0,0,0,0,0,0,0,0,0,0,0,0,0,0,0,0,0,0,0,0,0,0,0,0,0,0,0,0,0,0,0,
0,0,0,0,0,0,0,0,0,0,0,0,0,0,0,0,0,0,0,0,0,0,0,0,0,0,0,0,0,0,0,0,0,0,0,0,0,0,0,0,0,0,0,0,0,0,0,0,0,0,0,0,0,0,0,
0,0,0,0,0,0,0,0,0,0,0,0,0,0,0,0,0,0,0,0,0,0,0,0,0,0,0,0,0,0,0,0,0,0,0,0,0,0,0,0,0,0,0,0,0,0,0,0,0,0,0,0,1047,0,0,
0,0,0,0,0,0,0,0,0,0,0,0,0,0,0,0,0,0,0,0,0,0,0,0,0,0,0,0,0,0,0,0,0,0,0,0,0,0,0,0,0,0,0,0,0,0,0,0,0,0,0,0,0,0,0,
0,0,0,0,0,0,0,0,0,0,0,0,0,0,0,0,0,0,0,0,0,0,0,0,0,0,0,0,0,0,0,0,0,0,0,0,0,0,0,0,0,0,0,0,0,0,0,0,0,0,0,0,0,0,0,
0,0,0,0,0,0,0,0,0,0,0,0,0,0,0,0,0,0,0,0,0,0,0,0,0,0,0,0,0,0,0,0,0,0,0,0,0,0,0,0,0,0,0,0,0,0,0,0,0,0,0,0,0,0,0,
0,0,0,0,0,0,0,0,0,0,0,0,0,0,0,0,0,0,0,0,0,0,0,0,0,0,0,0,0,0,0,0,0,0,0,0,0,0,0,0,0,0,0,0,0,0,0,0,0,0,0,0,0,0,0,
0,0,0,0,0,0,0,0,0,0,0,0,0,0,0,0,0,0,0,0,0,0,0,0,0,0,0,0,0,0,0,0,0,0,0,0,0,0,0,0,0,0,0,0,0,0,0,0,0,0,0,0,0,0,0,
0,0,0,0,0,0,0,0,0,0,0,0,0,0,0,0,0,0,0,0,0,0,0,0,0,0,0,0,0,0,0,0,0,0,0,0,0,0,0,0,0,0,0,0,0,0,0,0,0,0,0,0,0,0,0,
0,0,0,0,0,0,0,0,0,0,0,0,0,0,0,0,0,0,0,0,0,0,0,0,0,0,0,0,0,0,0,0,0,0,0,0,0,0,0,0,0,0,0,0,0,0,0,0,0,0,0,0,0,0,0,
0,0,0,0,0,0,0,0,0,0,0,0,0,0,0,0,0,0,0,0,0,0,0,0,0,0,0,0,0,0,0,0,0,0,0,0,0,0,0,0,0,0,0,0,0,0,0,0,0,0,0,0,0,0,0,
0,0,0,0,0,0,0,0,0,0,0,0,0,0,0,0,0,0,0,0,0,0,0,0,0,0,0,0,0,0,0,0,0,0,0,0,0,0,0,0,0,0,0,0,0,0,0,0,0,0,0,0,0,0,0,
0,0,0,0,0,0,0,0,0,0,0,0,0,0,0,0,0,0,0,0,0,0,0,0,0,0,0,0,0,0,0,0,0,0,0,0,0,0,0,0,0,0,0,0,0,0,0,0,0,0,0,0,0,0,0,
0,0,0,0,0,0,0,0,0,0,0,0,0,0,0,0,0,0,0,0,0,0,0,0,0,0,0,0,0,0,0,0,0,0,0,0,0,0,0,0,0,0,0,0,0,0,0,0,0,0,0,0,0,0,0,
0,0,0,0,0,0,0,0,0,0,0,0,0,0,0,0,0,0,0,0,0,0,0,0,0,0,0,0,0,0,0,0,0,0,0,0,0,0,0,0,0,0,0,0,0,0,0,0,0,0,0,0,0,0,0,
0,0,0,0,0,0,0,0,0,0,0,0,0,0,0,0,0,0,0,0,0,0,0,0,0,0,0,0,0,0,0,0,0,0,0,0,0,0,0,0,0,0,0,0,0,0,0,0,0,0,0,0,0,0,0,
0,0,0,0,0,0,0,0,0,0,0,0,0,0,0,0,0,0,0,0,0,0,0,0,0,0,0,0,0,0,0,0,0,0,0,0,0,0,0,0,0,0,0,0,0,0,0,0,0,0,0,0,0,0,0,
0,0,0,0,0,0,0,0,0,0,0,0,0,0,0,0,0,0,0,0,0,0,0,0,0,0,0,0,0,0,0,0,0,0,0,0,0,0,0,0,0,0,0,0,0,0,0,0,0,0,0,0,0,0,0,
0,0,0,0,0,0,0,0,0,0,0,0,0,0,0,0,0,0,0,0,0,0,0,0,0,0,0,0,0,0,0,0,0,0,0,0,0,0,0,0,0,0,0,0,0,0,0,0,0,0,0,0,0,0,0,
0,0,0,0,0,0,0,0,0,0,0,0,0,0,0,0,0,0,0,0,0,0,0,0,0,0,0,0,0,0,0,0,0,0,0,0,0,0,0,0,0,0,0,0,0,0,0,0,0,0,0,0,0,0,0,
0,0,0,0,0,0,0,0,0,0,0,0,0,0,0,0,0,0,0,0,0,0,0,0,0,0,0,0,0,0,0,0,0,0,0,0,0,0,0,0,0,0,0,0,0,0,0,0,0,0,0,0,0,0,0,
0,0,0,0,0,0,0,0,0,0,0,0,0,0,0,0,0,0,0,0,0,0,0,0,0,0,0,0,0,0,0,0,0,0,0,0,0,0,0,0,0,0,0,0,0,0,0,0,0,0,0,0,0,0,0,
0,0,0,0,0,0,0,0,0,0,0,0,0,0,0,0,0,0,0,0,0,0,0,0,0,0,0,0,0,0,0,0,0,0,0,0,0,0,0,0,0,0,0,0,0,0,0,0,0,0,0,0,0,0,0,
0,0,0,0,0,0,0,0,0,0,0,0,0,0,0,0,0,0,0,0,0,0,0,0,0,0,0,0,0,0,0,0,0,0,0,0,0,0,0,0,0,0,0,0,0,0,0,0,0,0,0,0,0,0,0,
0,0,0,0,0,0,0,0,0,0,0,0,0,0,0,0,0,0,0,0,0,0,0,0,0,0,0,0,0,0,0,0,0,0,0,0,0,0,0,0,0,0,0,0,0,0,0,0,0,0,0,0,0,0,0,
0,0,0,0,0,0,0,0,0,0,0,0,0,0,0,0,0,0,0,0,0,0,0,0,0,0,0,0,0,0,0,0,0,0,0,0,0,0,0,0,0,0,0,0,0,0,0,0,0,0,0,0,0,0,0,
0,0,0,0,0,0,0,0,0,0,0,0,0,0,0,0,0,0,0,0,0,0,0,0,0,0,0,0,0,0,0,0,0,0,0,0,0,0,0,0,0,0,0,0,0,0,0,0,0,0,0,0,0,0,0,
0,0,0,0,0,0,0,0,0,0,0,0,0,0,0,0,0,0,0,0,0,0,0,0,0,0,0,0,0,0,0,0,0,0,0,0,0,0,0,0,0,0,0,0,0,0,0,0,0,0,0,0,0,0,0,
0,0,0,0,0,0,0,0,0,0,0,0,0,0,0,0,0,0,0,0,0,0,0,0,0,0,0,0,0,0,0,0,0,0,0,0,0,0,0,0,0,0,0,0,0,0,0,0,0,0,0,0,0,0,0,
0,0,0,0,0,0,0,0,0,0,0,0,0,0,0,0,0,0,0,0,0,0,0,0,0,0,0,0,0,0,0,0,0,0,0,0,0,0,0,0,0,0,0,0,0,0,0,0,0,0,0,0,0,0,0,
0,0,0,0,0,0,0,0,0,0,0,0,0,0,0,0,0,0,0,0,0,0,0,0,0,0,0,0,0,0,0,0,0,0,0,0,0,0,0,0,0,0,0,0,0,0,0,0,0,0,0,0,0,0,0,
0,0,0,0,0,0,0,0,0,0,0,0,0,0,0,0,0,0,0,0,0,0,0,0,0,0,0,0,0,0,0,0,0,0,0,0,0,0,0,0,0,0,0,0,0,0,0,0,0,0,0,0,0,0,0,
0,0,0,0,0,0,0,0,0,0,0,0,0,0,0,0,0,0,0,0,0,0,0,0,0,0,0,0,0,0,0,0,0,0,0,0,0,0,0,0,0,0,0,0,0,0,0,0,0,0,0,0,0,0,0,
0,0,0,0,0,0,0,0,0,0,0,0,0,0,0,0,0,0,0,0,0,0,0,0,0,0,0,0,0,0,0,0,0,0,0,0,0,0,0,0,0,0,0,0,0,0,0,0,0,0,0,0,0,0,0,
0,0,0,0,0,0,0,0,0,0,0,0,0,0,0,0,0,0,0,0,0,0,0,0,0,0,0,0,0,0,0,0,0,0,0,0,0,0,0,0,0,0,0,0,0,0,0,0,0,0,0,0,0,0,0,
0,0,0,0,0,0,0,0,0,0,0,0,0,0,0,0,0,0,0,0,0,0,0,0,0,0,0,0,0,0,0,0,0,0,0,0,0,0,0,0,0,0,0,0,0,0,0,0,0,0,0,0,0,0,0
</data>
 </layer>
 <objectgroup id="5" name="collisioni" visible="0">
  <object id="1" x="837.179" y="0" width="820.547" height="57.8035"/>
  <object id="4" x="1332.04" y="1373.29" width="349.133" height="62.8676"/>
  <object id="5" x="384" y="1359.54" width="439.306" height="71.6763"/>
  <object id="6" x="381.688" y="1070.52" width="13.8728" height="293.642"/>
  <object id="7" x="427.931" y="1075.14" width="353.757" height="41.6185"/>
  <object id="8" x="441.803" y="980.347" width="34.6821" height="73.9884"/>
  <object id="9" x="925.04" y="1202.31" width="32.3699" height="67.052"/>
  <object id="10" x="1565.5" y="984.971" width="30.0578" height="55.4913"/>
  <object id="11" x="1609.43" y="1082.08" width="13.8728" height="34.6821"/>
  <object id="12" x="1576.36" y="405.069" width="74.7819" height="170.337"/>
  <object id="13" x="461.18" y="337.021" width="36.0175" height="28.2995"/>
  <object id="14" x="530.643" y="406.483" width="30.8721" height="23.1541"/>
  <object id="15" x="463.753" y="469.514" width="30.8721" height="23.1541"/>
  <object id="16" x="690.149" y="276.563" width="30.8721" height="23.1541"/>
  <object id="17" x="947.417" y="147.929" width="30.8721" height="23.1541"/>
  <object id="18" x="1423.36" y="86.1847" width="30.8721" height="23.1541"/>
  <object id="19" x="1711.5" y="214.819" width="30.8721" height="23.1541"/>
  <object id="21" x="975.716" y="1126.83" width="33.4448" height="36.0175"/>
  <object id="22" x="1032.32" y="1062.52" width="12.8634" height="33.4448"/>
  <object id="23" x="937.126" y="1057.37" width="10.2907" height="43.7355"/>
  <object id="24" x="980.861" y="1031.64" width="25.7268" height="38.5902"/>
  <object id="25" x="1070.9" y="1186" width="25.7268" height="48.8809"/>
  <object id="26" x="1325.6" y="1175.71" width="7.71803" height="46.3082"/>
  <object id="27" x="1361.62" y="1183.43" width="28.2995" height="46.3082"/>
  <object id="28" x="1364.19" y="1054.8" width="25.7268" height="48.8809"/>
  <object id="29" x="1418.22" y="1049.65" width="10.2907" height="38.5902"/>
  <object id="30" x="1320.45" y="1047.08" width="12.8634" height="51.4536"/>
  <object id="31" x="1492.82" y="1052.23" width="20.5814" height="51.4536"/>
  <object id="32" x="1557.14" y="1155.13" width="23.1541" height="48.8809"/>
  <object id="33" x="533.215" y="607.152" width="59.1716" height="38.5902"/>
  <object id="39" x="864.186" y="23.718" width="213.532" height="7.71803"/>
  <object id="70" x="387.887" y="1061.05" width="494.575" height="14.5749"/>
  <object id="71" x="871.773" y="1070.77" width="3.88664" height="207.935"/>
  <object id="72" x="879.547" y="1273.85" width="296.356" height="7.77328"/>
  <object id="73" x="1253.64" y="1276.76" width="389.636" height="8.74494"/>
  <object id="74" x="1642.3" y="584.939" width="8.74494" height="693.765"/>
  <object id="75" x="1649.1" y="581.053" width="33.0364" height="7.77328"/>
  <object id="89" x="6" y="44" width="110" height="1394"/>
  <object id="90" x="118" y="293" width="61" height="1168"/>
  <object id="91" x="183" y="1295" width="146" height="66"/>
  <object id="92" x="864" y="1381.5" width="214" height="28"/>
  <object id="96" x="325.333" y="1077.33" width="33.3333" height="346.667"/>
  <object id="98" x="1157.5" y="1380.5" width="214" height="28"/>
  <object id="99" x="1066.5" y="1417.5" width="9.5" height="9"/>
  <object id="100" x="1165" y="1416.5" width="6" height="10"/>
 </objectgroup>
 <objectgroup id="2" name="eventi" visible="0">
  <object id="43" name="spawn_dal_lago" type="spawn" x="2163.25" y="307.051" width="32" height="32">
   <properties>
    <property name="id" value="spawn_da_castelgandolfo_acqua"/>
    <property name="spawn_id" value="spawn_da castel gandolfo_acqua"/>
    <property name="type" value="spawn"/>
   </properties>
  </object>
  <object id="49" name="erba alta lago di albano" x="490.101" y="1162.34" width="295.975" height="163.745">
   <properties>
    <property name="id" value="incontri lago di albano spiaggia"/>
    <property name="type" value="erba_alta"/>
   </properties>
  </object>
  <object id="50" name="erba alta lago di albano" x="526.053" y="968.978" width="324.153" height="78.2391">
   <properties>
    <property name="id" value="incontri lago di albano spiaggia"/>
    <property name="type" value="erba_alta"/>
   </properties>
  </object>
  <object id="51" name="acqua_lago di albano_surf" type="acqua_surf" x="393.206" y="61.2538" width="859.968" height="600.407">
   <properties>
    <property name="id" value="acqua_lago di albano_surf"/>
    <property name="type" value="acqua surf"/>
   </properties>
  </object>
  <object id="52" name="acqua_lago di albano_surf" type="acqua_surf" x="388.832" y="0.114083" width="442.157" height="55.2313">
   <properties>
    <property name="id" value="acqua_lago di albano_surf"/>
    <property name="type" value="acqua surf"/>
   </properties>
  </object>
  <object id="53" name="acqua_lago di albano_surf" type="acqua_surf" x="1651.99" y="-1.90411" width="103.048" height="276.845">
   <properties>
    <property name="id" value="acqua_lago di albano_surf"/>
    <property name="type" value="acqua surf"/>
   </properties>
  </object>
  <object id="54" name="acqua_lago di albano_surf" type="acqua_surf" x="506.233" y="706.096" width="447.987" height="203.97">
   <properties>
    <property name="id" value="acqua_lago di albano_surf"/>
    <property name="type" value="acqua surf"/>
   </properties>
  </object>
  <object id="55" name="acqua_lago di albano_surf" type="acqua_surf" x="1089.88" y="710.809" width="538.352" height="208.828">
   <properties>
    <property name="id" value="acqua_lago di albano_surf"/>
    <property name="type" value="acqua surf"/>
   </properties>
  </object>
  <object id="57" name="acqua_lago di albano_surf" type="acqua_surf" x="417.496" y="755.019" width="73.8979" height="153.444">
   <properties>
    <property name="id" value="acqua_lago di albano_surf"/>
    <property name="type" value="acqua surf"/>
   </properties>
  </object>
  <object id="58" name="acqua_lago di albano_surf" type="acqua_surf" x="1065.11" y="813.318" width="73.8979" height="110.691">
   <properties>
    <property name="id" value="acqua_lago di albano_surf"/>
    <property name="type" value="acqua surf"/>
   </properties>
  </object>
  <object id="59" name="acqua_lago di albano_surf" type="acqua_surf" x="912.557" y="615.1" width="73.8979" height="110.691">
   <properties>
    <property name="id" value="acqua_lago di albano_surf"/>
    <property name="type" value="acqua surf"/>
   </properties>
  </object>
  <object id="60" name="acqua_lago di albano_surf" type="acqua_surf" x="916.5" y="810.622" width="73.8979" height="110.691">
   <properties>
    <property name="id" value="acqua_lago di albano_surf"/>
    <property name="type" value="acqua surf"/>
   </properties>
  </object>
  <object id="61" name="acqua_lago di albano_surf" type="acqua_surf" x="1068.02" y="613.157" width="73.8979" height="110.691">
   <properties>
    <property name="id" value="acqua_lago di albano_surf"/>
    <property name="type" value="acqua surf"/>
   </properties>
  </object>
  <object id="62" name="acqua_lago di albano_surf" type="acqua_surf" x="1263.81" y="486.841" width="298.349" height="206.885">
   <properties>
    <property name="id" value="acqua_lago di albano_surf"/>
    <property name="type" value="acqua surf"/>
   </properties>
  </object>
  <object id="63" name="acqua_lago di albano_surf" type="acqua_surf" x="1374.58" y="151.132" width="181.75" height="310.853">
   <properties>
    <property name="id" value="acqua_lago di albano_surf"/>
    <property name="type" value="acqua surf"/>
   </properties>
  </object>
  <object id="64" name="acqua_lago di albano_surf" type="acqua_surf" x="1267.7" y="82.6302" width="129.159" height="261.298">
   <properties>
    <property name="id" value="acqua_lago di albano_surf"/>
    <property name="type" value="acqua surf"/>
   </properties>
  </object>
  <object id="65" name="acqua_lago di albano_surf" type="acqua_surf" x="1491.67" y="82.1445" width="158.43" height="290.448">
   <properties>
    <property name="id" value="acqua_lago di albano_surf"/>
    <property name="type" value="acqua surf"/>
   </properties>
  </object>
  <object id="66" name="acqua_lago di albano_surf" type="acqua_surf" x="1564.06" y="578.663" width="60.2923" height="125.266">
   <properties>
    <property name="id" value="acqua_lago di albano_surf"/>
    <property name="type" value="acqua surf"/>
   </properties>
  </object>
  <object id="67" name="acqua_lago di albano_surf" type="acqua_surf" x="1663.65" y="430.97" width="22.3976" height="125.266">
   <properties>
    <property name="id" value="acqua_lago di albano_surf"/>
    <property name="type" value="acqua surf"/>
   </properties>
  </object>
  <object id="68" name="acqua_lago di albano_surf" type="acqua_surf" x="1161.79" y="666.112" width="87.4988" height="32.9583">
   <properties>
    <property name="id" value="acqua_lago di albano_surf"/>
    <property name="type" value="acqua surf"/>
   </properties>
  </object>
  <object id="69" name="acqua_lago di albano_surf" type="acqua_surf" x="513.206" y="665.626" width="625.798" height="32.9583">
   <properties>
    <property name="id" value="acqua_lago di albano_surf"/>
    <property name="type" value="acqua surf"/>
   </properties>
  </object>
  <object id="77" name="nonna_assunta_surf" x="1349.71" y="976.146">
   <properties>
    <property name="azione" value="interagisciDonatoreSurf"/>
    <property name="direzione" value="sud"/>
    <property name="id" value="mn-surf"/>
    <property name="sprite" value="NPC 09"/>
    <property name="type" value="npc"/>
   </properties>
   <point/>
  </object>
  <object id="78" name="Nino" x="1040.97" y="1171.95">
   <properties>
    <property name="direzione" value="sud"/>
    <property name="id" value="all-lago-1"/>
    <property name="type" value="trainer"/>
    <property name="vista" value="6"/>
   </properties>
   <point/>
  </object>
  <object id="79" name="Wanda" x="843.595" y="1107.82">
   <properties>
    <property name="direzione" value="sud"/>
    <property name="id" value="all-lago-2"/>
    <property name="type" value="trainer"/>
    <property name="vista" value="6"/>
   </properties>
   <point/>
  </object>
  <object id="80" name="Renzo" x="879.417" y="320.777">
   <properties>
    <property name="direzione" value="sud"/>
    <property name="id" value="all-lago-3"/>
    <property name="type" value="trainer"/>
    <property name="vista" value="6"/>
   </properties>
   <point/>
  </object>
  <object id="81" name="Ilaria" x="1266.4" y="1094.02">
   <properties>
    <property name="direzione" value="nord"/>
    <property name="id" value="all-lago-4"/>
    <property name="type" value="trainer"/>
    <property name="vista" value="6"/>
   </properties>
   <point/>
  </object>
  <object id="82" name="Beppe" x="1313.88" y="400.259">
   <properties>
    <property name="direzione" value="nord"/>
    <property name="id" value="all-lago-5"/>
    <property name="type" value="trainer"/>
    <property name="vista" value="6"/>
   </properties>
   <point/>
  </object>
  <object id="83" name="Ottavia" x="459.66" y="711.19">
   <properties>
    <property name="direzione" value="nord"/>
    <property name="id" value="all-lago-6"/>
    <property name="type" value="trainer"/>
    <property name="vista" value="6"/>
   </properties>
   <point/>
  </object>
  <object id="84" name="Bagnante" x="1008.84" y="950.348">
   <properties>
    <property name="direzione" value="sud"/>
    <property name="id" value="lago_albano_npc1"/>
    <property name="type" value="npc"/>
   </properties>
   <point/>
  </object>
  <object id="85" name="Abitante della casa sul lago" x="1699.63" y="808.653">
   <properties>
    <property name="direzione" value="ovest"/>
    <property name="id" value="lago_albano_npc2"/>
    <property name="type" value="npc"/>
   </properties>
   <point/>
  </object>
  <object id="86" x="1681.33" y="378.667">
   <properties>
    <property name="contenuto" value="antiparalisi"/>
    <property name="id" value="oggetto_87"/>
    <property name="quantita" value="1"/>
    <property name="type" value="oggetto"/>
   </properties>
   <point/>
  </object>
  <object id="87" x="720" y="400">
   <properties>
    <property name="contenuto" value="ultraball"/>
    <property name="id" value="oggetto_88"/>
    <property name="quantita" value="1"/>
    <property name="type" value="oggetto"/>
   </properties>
   <point/>
  </object>
  <object id="88" name="acqua_lago di albano_surf" type="acqua_surf" x="185.718" y="12.6113" width="223.231" height="902.777">
   <properties>
    <property name="id" value="acqua_lago di albano_surf"/>
    <property name="type" value="acqua surf"/>
   </properties>
  </object>
  <object id="94" name="acqua_lago di albano_surf" type="acqua_surf" x="131.051" y="5.94483" width="160.564" height="280.11">
   <properties>
    <property name="id" value="acqua_lago di albano_surf"/>
    <property name="type" value="acqua surf"/>
   </properties>
  </object>
  <object id="95" name="acqua_lago di albano_surf" type="acqua_surf" x="5.05133" y="-1.38833" width="160.564" height="30.7767">
   <properties>
    <property name="id" value="acqua_lago di albano_surf"/>
    <property name="type" value="acqua surf"/>
   </properties>
  </object>
  <object id="97" x="1693.33" y="1396" width="60" height="40"/>
  <object id="101" name="warp_Percorso 7b" type="warp" x="1091.21" y="1436.33" width="16.5063" height="62.676" rotation="270.29">
   <properties>
    <property name="destinazione" value="Percorso 7b"/>
    <property name="spawn_id" value="da Lago di Albano"/>
   </properties>
  </object>
  <object id="102" name="spawn_da_percorso 7" type="spawn" x="1104.63" y="1382.5" width="32" height="32">
   <properties>
    <property name="id" value="da_percorso 7b"/>
   </properties>
  </object>
 </objectgroup>
</map>
