<?xml version="1.0" encoding="UTF-8"?>
<map version="1.10" tiledversion="1.12.2" orientation="orthogonal" renderorder="right-down" width="55" height="36" tilewidth="32" tileheight="32" infinite="0" nextlayerid="7" nextobjectid="81">
 <tileset firstgid="1" source="../Sea.tsj"/>
 <tileset firstgid="99" source="../../Emerald_Outside.tsx"/>
 <tileset firstgid="5347" source="../outside.tsx"/>
 <tileset firstgid="9363" source="../sub.tsj"/>
 <tileset firstgid="9447" source="../Underwater.tsj"/>
 <layer id="1" name="ground" width="55" height="36">
  <data encoding="csv">
9496,9496,9496,9496,9496,9496,9496,9496,9496,9496,9496,9496,9496,9496,9496,9496,9496,9496,9496,9496,9496,9496,9496,9496,9496,9496,9496,9496,9496,9496,9496,9496,9496,9496,9496,9496,9496,9496,9496,9496,9496,9496,9496,9496,9496,9496,9496,9496,9496,9496,9496,9496,9496,9496,9496,
9496,9496,9496,9496,9496,9496,9496,9496,9496,9496,9496,9496,9496,9496,9496,9496,9496,9496,9496,9496,9496,9496,9496,9496,9496,9496,9496,9496,9496,9496,9496,9496,9496,9496,9496,9496,9496,9496,9496,9496,9496,9496,9496,9496,9496,9496,9496,9496,9496,9496,9496,9496,9496,9496,9496,
9496,9496,9496,9496,9496,9496,9496,9496,9496,9496,9496,9496,9496,9496,9496,9496,9496,9496,9496,9496,9496,9496,9496,9496,9496,9496,9496,9496,9496,9496,9496,9496,9496,9496,9496,9496,9496,9496,9496,9496,9496,9496,9496,9496,9496,9496,9496,9496,9496,9496,9496,9496,9496,9496,9496,
9496,9496,9496,9496,9496,9496,9496,9496,9496,9496,9496,9496,9496,9496,9496,9496,9496,9496,9496,9496,9496,9496,9496,9496,9496,9496,9496,9496,9496,9496,9496,9496,9496,9496,9496,9496,9496,9496,9496,9496,9496,9496,9496,9496,9496,9496,9496,9496,9496,9496,9496,9496,9496,9496,9496,
9496,9496,9496,9496,9496,9496,9496,9496,9496,9496,9496,9496,9496,9496,9496,9496,9496,9496,9496,9496,9496,9496,9496,9496,9496,9496,9496,9496,9496,9496,9496,9496,9496,9496,9496,9496,9496,9496,9496,9496,9496,9496,9496,9496,9496,9496,9496,9496,9496,9496,9496,9496,9496,9496,9496,
9457,9457,9457,9457,9457,9457,9457,9457,9457,9457,9457,9457,9457,9457,9457,9457,9457,9457,9457,9457,9457,9457,9457,9457,9457,9457,9457,9457,9457,9457,9457,9457,9457,9457,9457,9457,9457,9457,9457,9457,9457,9457,9457,9457,9457,9457,9457,9457,9457,9457,9457,9457,9457,9457,9457,
9457,9457,9457,9457,9457,9457,9457,9457,9457,9457,9457,9457,9457,9457,9457,9457,9457,9457,9457,9457,9457,9457,9457,9457,9457,9457,9457,9457,9457,9457,9457,9457,9457,9457,9457,9457,9457,9457,9457,9457,9457,9457,9457,9457,9457,9457,9457,9457,9457,9457,9457,9457,9457,9457,9457,
9457,9457,9457,9457,9457,9457,9457,9457,9457,9457,9457,9457,9457,9457,9457,9457,9457,9457,9457,9457,9457,9457,9457,9457,9457,9457,9457,9457,9457,9457,9457,9457,9457,9457,9457,9457,9457,9457,9457,9457,9457,9457,9457,9457,9457,9457,9457,9457,9457,9457,9457,9457,9457,9457,9457,
9480,9480,9480,9480,9480,9480,9480,9480,9480,9480,9480,9480,9480,9480,9480,9480,9480,9480,9480,9480,9480,9480,9480,9480,9480,9480,9480,9480,9480,9480,9457,9457,9457,9457,9457,9457,9457,9457,9457,9457,9457,9457,9457,9457,9457,9457,9457,9457,9457,9457,9457,9457,9457,9457,9457,
9488,9488,9488,9488,9488,9488,9488,9488,9488,9488,9488,9488,9488,9488,9488,9488,9488,9488,9488,9488,9488,9488,9488,9488,9488,9488,9488,9488,9488,9488,9457,9457,9457,9457,9457,9457,9457,9457,9457,9457,9457,9457,9457,9457,9457,9457,9457,9457,9457,9457,9457,9457,9457,9457,9457,
9488,9488,9488,9488,9488,9488,9488,9488,9488,9488,9488,9488,9488,9488,9488,9488,9488,9488,9488,9488,9488,9488,9488,9488,9488,9488,9488,9488,9488,9488,9457,9457,9457,9457,9457,9457,9457,9457,9457,9457,9457,9457,9457,9457,9457,9457,9457,9457,9457,9457,9457,9457,9457,9457,9457,
9512,9512,9512,9512,9512,9512,9512,9512,9512,9512,9512,9512,9512,9512,9512,9512,9512,9512,9512,9512,9512,9512,9512,9512,9512,9512,9512,9512,9488,9488,9457,9457,9457,9457,9457,9457,9457,9457,9457,9457,9457,9457,9457,9457,9457,9457,9457,9457,9457,9457,9457,9457,9457,9457,9457,
9457,9457,9457,9457,9457,9457,9457,9457,9457,9457,9457,9457,9457,9457,9457,9457,9457,9457,9457,9457,9457,9457,9457,9457,9457,9457,9457,9512,9512,9457,9457,9457,9457,9457,9457,9457,9457,9457,9457,9457,9457,9457,9457,9457,9457,9457,9457,9457,9457,9457,9457,9457,9457,9457,9457,
9457,9457,9457,9457,9457,9457,9457,9457,9457,9457,9457,9457,9457,9457,9457,9457,9457,9457,9457,9457,9457,9457,9457,9457,9457,9457,9457,9512,9512,9457,9457,9457,9457,9457,9457,9457,9457,9457,9457,9457,9457,9457,9457,9457,9457,9457,9457,9457,9457,9457,9457,9457,9457,9457,9457,
9457,9457,9457,9457,9457,9457,9457,9457,9457,9457,9457,9457,9457,9457,9457,9457,9457,9457,9457,9457,9457,9457,9457,9457,9457,9457,9457,9512,9512,9512,9457,9457,9457,9457,9457,9457,9457,9457,9457,9457,9457,9457,9457,9457,9457,9457,9457,9457,9457,9457,9457,9457,9457,9457,9457,
9457,9457,9457,9457,9457,9457,9457,9457,9457,9457,9457,9457,9457,9457,9457,9457,9457,9457,9457,9457,9457,9457,9457,9457,9457,9457,9457,9512,9457,9512,9457,9457,9457,9457,9457,9457,9457,9457,9457,9457,9457,9457,9457,9457,9457,9457,9457,9457,9457,9457,9457,9457,9457,9457,9457,
9457,9457,9457,9457,9457,9457,9457,9457,9457,9457,9457,9457,9457,9457,9457,9457,9457,9457,9457,9457,9457,9457,9457,9457,9457,9457,9457,9512,9512,9512,9457,9457,9457,9457,9457,9457,9457,9457,9457,9457,9457,9457,9457,9457,9457,9457,9457,9457,9457,9457,9457,9457,9457,9457,9457,
9457,9457,9457,9457,9457,9457,9457,9457,9457,9457,9457,9457,9457,9457,9457,9457,9457,9457,9457,9457,9457,9457,9457,9457,9457,9457,9457,9457,9512,9512,9457,9457,9457,9457,9457,9457,9457,9457,9457,9457,9457,9457,9457,9457,9457,9457,9457,9457,9457,9457,9457,9457,9457,9457,9457,
9457,9457,9457,9457,9457,9457,9457,9457,9457,9457,9457,9457,9457,9457,9457,9457,9457,9457,9457,9457,9457,9457,9457,9457,9457,9457,9457,9457,9457,9457,9457,9457,9457,9457,9457,9457,9457,9457,9457,9457,9457,9457,9457,9457,9457,9457,9457,9457,9457,9457,9457,9457,9457,9457,9457,
9457,9457,9457,9457,9457,9457,9457,9457,9457,9457,9457,9457,9457,9457,9457,9457,9457,9457,9457,9457,9457,9457,9457,9457,9457,9457,9457,9457,9457,9457,9457,9457,9457,9457,9457,9457,9457,9457,9457,9457,9457,9457,9457,9457,9457,9457,9457,9457,9457,9457,9457,9457,9457,9457,9457,
9457,9457,9457,9457,9457,9457,9457,9457,9457,9457,9457,9457,9457,9457,9457,9457,9457,9457,9457,9457,9457,9457,9457,9457,9457,9457,9457,9457,9457,9457,9457,9457,9457,9457,9457,9457,9457,9457,9457,9457,9457,9457,9457,9457,9457,9457,9457,9457,9457,9457,9457,9457,9457,9457,9457,
9457,9457,9457,9457,9457,9457,9457,9457,9457,9457,9457,9457,9457,9457,9457,9457,9457,9457,9457,9457,9457,9457,9457,9457,9457,9457,9457,9457,9457,9457,9457,9457,9457,9457,9457,9457,9457,9457,9457,9457,9457,9457,9457,9457,9457,9457,9457,9457,9457,9457,9457,9457,9457,9457,9457,
9457,9457,9457,9457,9457,9457,9457,9457,9457,9457,9457,9457,9457,9457,9457,9457,9457,9457,9457,9457,9457,9457,9457,9457,9457,9457,9457,9457,9457,9457,9457,9457,9457,9457,9457,9457,9457,9457,9457,9457,9457,9457,9457,9457,9457,9457,9457,9457,9457,9457,9457,9457,9457,9457,9457,
9457,9457,9457,9457,9457,9457,9457,9457,9457,9457,9457,9457,9457,9457,9457,9457,9457,9457,9457,9457,9457,9457,9457,9457,9457,9457,9457,9457,9457,9457,9457,9457,9457,9457,9457,9457,9457,9457,9457,9457,9457,9457,9457,9457,9457,9457,9457,9457,9457,9457,9457,9457,9457,9457,9457,
9457,9457,9457,9457,9457,9457,9457,9457,9457,9457,9457,9457,9457,9457,9457,9457,9457,9457,9457,9457,9457,9457,9457,9457,9457,9457,9457,9457,9457,9457,9457,9457,9457,9457,9457,9457,9457,9457,9457,9457,9457,9457,9457,9457,9457,9457,9457,9457,9457,9457,9457,9457,9457,9457,9457,
9457,9457,9457,9457,9457,9457,9457,9457,9457,9457,9457,9457,9457,9457,9457,9457,9457,9457,9457,9457,9457,9457,9457,9457,9457,9457,9457,9457,9457,9457,9457,9457,9457,9457,9457,9457,9457,9457,9457,9457,9457,9457,9457,9457,9457,9457,9457,9457,9457,9457,9457,9457,9457,9457,9457,
9457,9457,9457,9457,9457,9457,9457,9457,9457,9457,9457,9457,9457,9457,9457,9457,9457,9457,9457,9457,9457,9457,9457,9457,9457,9457,9457,9457,9457,9457,9457,9457,9457,9457,9457,9457,9457,9457,9457,9457,9457,9457,9457,9457,9457,9457,9457,9457,9457,9457,9457,9457,9457,9457,9457,
9457,9457,9457,9457,9457,9457,9457,9457,9457,9457,9457,9457,9457,9457,9457,9457,9457,9457,9457,9457,9457,9457,9457,9457,9457,9457,9457,9457,9457,9457,9457,9457,9457,9457,9457,9457,9457,9457,9457,9457,9457,9457,9457,9457,9457,9457,9457,9457,9457,9457,9457,9457,9457,9457,9457,
9457,9457,9457,9457,9457,9457,9457,9457,9457,9457,9457,9457,9457,9457,9457,9457,9457,9457,9457,9457,9457,9457,9457,9457,9457,9457,9457,9457,9457,9457,9457,9457,9457,9457,9457,9457,9457,9457,9457,9457,9457,9457,9457,9457,9457,9457,9457,9457,9457,9457,9457,9457,9457,9457,9457,
9457,9457,9457,9457,9457,9457,9457,9457,9457,9457,9457,9457,9457,9457,9457,9457,9457,9457,9457,9457,9457,9457,9457,9457,9457,9457,9457,9457,9457,9457,9457,9457,9457,9457,9457,9457,9457,9457,9457,9457,9457,9457,9457,9457,9457,9457,9457,9457,9457,9457,9457,9457,9457,9457,9457,
9457,9457,9457,9457,9457,9457,9457,9457,9457,9457,9457,9457,9457,9457,9457,9457,9457,9457,9457,9457,9457,9457,9457,9457,9457,9457,9457,9457,9457,9457,9457,9457,9457,9457,9457,9457,9457,9457,9457,9457,9457,9457,9457,9457,9457,9457,9457,9457,9457,9457,9457,9457,9457,9457,9457,
9457,9457,9457,9457,9457,9457,9457,9457,9457,9457,9457,9457,9457,9457,9457,9457,9457,9457,9457,9457,9457,9457,9457,9457,9457,9457,9457,9457,9457,9457,9457,9457,9457,9457,9457,9457,9457,9457,9457,9457,9457,9457,9457,9457,9457,9457,9457,9457,9457,9457,9457,9457,9457,9457,9457,
9457,9457,9457,9457,9457,9457,9457,9457,9457,9457,9457,9457,9457,9457,9457,9457,9457,9457,9457,9457,9457,9457,9457,9457,9457,9457,9457,9457,9457,9457,9457,9457,9457,9457,9457,9457,9457,9457,9457,9457,9457,9457,9457,9457,9457,9457,9457,9457,9457,9457,9457,9457,9457,9457,9457,
9457,9457,9457,9457,9457,9457,9457,9457,9457,9457,9457,9457,9457,9457,9457,9457,9457,9457,9457,9457,9457,9457,9457,9457,9457,9457,9457,9457,9457,9457,9457,9457,9457,9457,9457,9457,9457,9457,9457,9457,9457,9457,9457,9457,9457,9457,9457,9457,9457,9457,9457,9457,9457,9457,9457,
9457,9457,9457,9457,9457,9457,9457,9457,9457,9457,9457,9457,9457,9457,9457,9457,9457,9457,9457,9457,9457,9457,9457,9457,9457,9457,9457,9457,9457,9457,9457,9457,9457,9457,9457,9457,9457,9457,9457,9457,9457,9457,9457,9457,9457,9457,9457,9457,9457,9457,9457,9457,9457,9457,9457,
9457,9457,9457,9457,9457,9457,9457,9457,9457,9457,9457,9457,9457,9457,9457,9457,9457,9457,9457,9457,9457,9457,9457,9457,9457,9457,9457,9457,9457,9457,9457,9457,9457,9457,9457,9457,9457,9457,9457,9457,9457,9457,9457,9457,9457,9457,9457,9457,9457,9457,9457,9457,9457,9457,9457
</data>
 </layer>
 <layer id="2" name="deco_sotto" width="55" height="36">
  <data encoding="csv">
9499,9499,9499,9499,9499,9499,9499,9499,9499,9499,9499,9499,9499,9499,9499,9499,9499,9499,9499,9499,9499,9499,9499,9499,9499,9499,9499,9499,9499,9499,9499,9499,9499,9499,9499,9499,9499,9499,9499,9499,9499,9499,9499,9499,9499,9499,9499,9499,9499,9486,9491,9491,9491,9491,9491,
9499,9499,9499,9499,9499,9499,9499,9499,9499,9499,9499,9499,9499,9499,9499,9499,9499,9499,9499,9499,9499,9499,9499,9499,9499,9499,9499,9499,9499,9499,9499,9499,9499,9499,9499,9499,9499,9499,9499,9499,9499,9499,9499,9499,9499,9499,9499,9499,9499,9487,9491,9491,9491,9491,9491,
9523,9523,9523,9523,9523,9523,9523,9523,9523,9523,9523,9523,9523,9523,9523,9523,9523,9523,9523,9523,9523,9523,9523,9523,9523,9523,9523,9523,9523,9523,9523,9523,9523,9523,9523,9523,9523,9523,9523,9523,9523,9523,9523,9523,9523,9523,9523,9510,9487,9487,9491,9491,9491,9491,9491,
9523,9523,9523,9523,9523,9523,9523,9523,9523,9523,9523,9523,9523,9523,9523,9523,9523,9523,9523,9523,9523,9523,9523,9523,9523,9523,9523,9523,9523,9523,9523,9523,9523,9523,9523,9523,9523,9523,9523,9523,9523,9523,9523,9523,9523,9523,9510,9514,9487,9487,9491,9491,9491,9491,9491,
9547,9547,9547,9547,9547,9547,9547,9547,9547,9547,9547,9547,9547,9547,9547,9547,9547,9547,9547,9547,9547,9547,9547,9547,9547,9547,9547,9547,9547,9547,9547,9547,9547,9547,9547,9547,9547,9547,9547,9547,9547,9547,9547,9547,9547,9534,9514,9514,9487,9487,9491,9491,9491,9491,9491,
0,0,0,0,0,0,0,0,0,0,0,0,0,0,0,0,0,0,0,0,0,0,0,0,0,0,0,0,0,0,0,0,0,0,0,0,0,0,0,0,0,0,0,0,0,9538,9514,9514,9487,9487,9491,9491,9491,9491,9491,
0,0,0,0,0,0,0,0,0,0,0,9550,0,0,0,9550,9550,9550,9550,9550,0,0,0,0,0,0,0,0,9550,0,0,0,0,0,0,0,0,0,0,0,0,0,0,0,0,9538,9514,9514,9487,9487,9491,9491,9491,9491,9491,
0,0,0,0,0,0,0,0,9550,9550,0,9550,9550,9550,9550,9550,0,0,0,9550,9550,9550,9550,9550,9550,0,0,9550,0,0,0,0,0,0,0,0,0,0,0,0,0,0,0,0,0,9538,9514,9514,9487,9487,9491,9491,9491,9491,9491,
9531,9531,9531,9531,9531,9531,9531,9531,9531,9531,9531,9531,9531,9531,9531,9531,9531,9531,9531,9531,9531,9531,9531,9531,9531,9531,9531,9531,9531,9531,9529,0,0,0,0,0,0,0,0,0,0,0,0,0,0,9538,9514,9514,9487,9487,9491,9491,9491,9491,9491,
9507,9507,9507,9507,9507,9507,9507,9507,9507,9507,9507,9507,9507,9507,9507,9507,9507,9507,9507,9507,9507,9507,9507,9507,9507,9507,9507,9507,9507,9508,9537,0,0,0,0,0,0,0,0,0,0,0,0,0,0,9538,9514,9514,9487,9487,9491,9491,9491,9491,9491,
9507,9507,9507,9507,9507,9507,9507,9507,9507,9507,9507,9507,9507,9507,9507,9507,9507,9507,9507,9507,9507,9507,9507,9507,9507,9507,9507,9507,9508,9516,9537,0,0,0,0,0,0,0,0,0,0,0,0,0,0,9538,9514,9514,9487,9487,9491,9491,9491,9491,9491,
9480,9480,9480,9480,9480,9480,9480,9480,9480,9480,9480,9480,9480,9480,9480,9480,9480,9480,9480,9480,9480,9480,9480,9480,9480,9480,9480,9481,9516,9516,9537,0,0,0,0,0,0,0,0,0,0,0,0,0,0,9538,9514,9514,9487,9487,9491,9491,9491,9491,9491,
9480,9480,9480,9480,9480,9480,9480,9480,9480,9480,9480,9480,9480,9480,9480,9480,9480,9480,9480,9480,9480,9480,9480,9480,9480,9480,9484,9489,9516,9516,9537,0,0,0,0,0,0,0,0,0,0,0,0,0,0,9538,9514,9514,9487,9487,9491,9491,9491,9491,9491,
9488,9488,9488,9488,9488,9488,9488,9488,9488,9488,9488,9488,9488,9488,9488,9488,9488,9488,9488,9488,9488,9488,9488,9488,9488,9488,9492,9492,9516,9516,9537,0,0,0,0,0,0,0,0,0,0,0,0,0,0,9538,9514,9514,9487,9487,9491,9491,9491,9491,9491,
9485,9499,9499,9499,9499,9499,9499,9499,9499,9499,9499,9499,9499,9499,9499,9499,9499,9499,9499,9499,9499,9499,9499,9499,9499,9499,9500,9492,9516,9516,9537,0,0,0,0,0,0,0,0,0,0,0,0,0,0,9538,9514,9514,9487,9487,9491,9491,9491,9491,9491,
9492,9488,9488,9488,9488,9488,9488,9488,9488,9488,9488,9488,9488,9488,9488,9488,9488,9488,9488,9488,9488,9488,9488,9488,9488,9488,9488,9492,9516,9516,9537,0,0,0,0,0,0,0,0,0,0,0,0,0,0,9538,9514,9514,9487,9487,9491,9491,9491,9491,9491,
9492,9485,9496,9496,9496,9496,9496,9496,9496,9496,9496,9496,9496,9496,9496,9496,9496,9496,9496,9496,9496,9496,9496,9496,9496,9496,9496,9500,9516,9516,9537,0,0,0,0,0,0,0,0,0,0,0,0,0,0,9538,9514,9514,9487,9487,9491,9491,9491,9491,9491,
9492,9492,9509,9520,9520,9520,9520,9520,9520,9520,9520,9520,9520,9520,9520,9520,9520,9520,9520,9520,9520,9520,9520,9520,9520,9520,9520,9520,9524,9516,9537,0,0,0,0,0,0,0,0,0,0,0,0,0,0,9538,9514,9514,9487,9487,9491,9491,9491,9491,9491,
9492,9492,9516,9509,9520,9520,9520,9520,9520,9520,9520,9520,9520,9520,9520,9520,9520,9520,9520,9520,9520,9520,9520,9520,9520,9520,9520,9520,9520,9524,9537,0,0,0,0,0,0,0,0,0,0,0,0,0,0,9538,9514,9514,9487,9487,9491,9491,9491,9491,9491,
9492,9492,9516,9516,9533,9540,9540,9544,9544,9544,9544,9544,9544,9544,9544,9544,9544,9544,9544,9544,9544,9544,9544,9544,9544,9544,9544,9544,9544,9544,9545,0,0,0,0,0,0,0,0,0,0,0,0,0,0,9538,9514,9514,9487,9487,9491,9491,9491,9491,9491,
9492,9492,9516,9516,9540,9456,9456,0,0,0,0,0,0,0,0,0,0,0,0,0,0,0,0,0,0,0,0,0,0,0,0,0,0,0,0,0,0,0,0,0,0,0,0,0,0,9538,9514,9514,9487,9487,9491,9491,9491,9491,9491,
9492,9492,9516,9516,9540,9456,9456,0,0,0,0,0,0,0,0,0,0,0,0,0,0,0,0,0,0,0,0,0,0,0,0,0,0,0,0,9550,0,0,0,0,0,0,0,0,0,9538,9514,9514,9487,9487,9491,9491,9491,9491,9491,
9492,9492,9516,9516,9540,9456,9456,0,0,0,0,0,0,0,0,0,0,0,0,0,0,0,0,0,0,0,0,9550,0,0,0,0,0,0,0,0,0,0,0,0,0,0,0,0,0,9538,9514,9514,9487,9487,9491,9491,9491,9491,9491,
9492,9492,9516,9516,9540,9456,9456,0,0,0,0,0,0,0,0,0,0,0,0,0,0,0,0,0,0,0,0,0,0,0,0,0,0,0,0,0,0,0,0,0,0,0,0,0,0,9538,9514,9514,9487,9487,9491,9491,9491,9491,9491,
9492,9492,9516,9516,9540,9456,9456,0,0,0,0,0,0,0,0,0,0,0,0,0,0,0,0,0,0,0,0,0,0,0,0,0,0,0,0,0,0,0,0,0,0,0,0,0,0,9538,9514,9514,9487,9487,9491,9491,9491,9491,9491,
9492,9492,9516,9516,9531,9531,9531,9531,9531,9531,9531,9531,9531,9531,9531,9531,9531,9531,9531,9531,9531,9531,9531,9531,9531,9531,9531,9531,9531,9531,9531,9531,9531,9531,9531,9531,9531,9531,9531,9531,9531,9531,9531,9531,9531,9531,9514,9514,9487,9487,9491,9491,9491,9491,9491,
9492,9492,9516,9507,9507,9507,9507,9507,9507,9507,9507,9507,9507,9507,9507,9507,9507,9507,9507,9507,9507,9507,9507,9507,9507,9507,9507,9507,9507,9507,9507,9507,9507,9507,9507,9507,9507,9507,9507,9507,9507,9507,9507,9507,9507,9507,9507,9514,9487,9487,9491,9491,9491,9491,9491,
9492,9492,9507,9507,9507,9507,9507,9507,9507,9507,9507,9507,9507,9507,9507,9507,9507,9507,9507,9507,9507,9507,9507,9507,9507,9507,9507,9507,9507,9507,9507,9507,9507,9507,9507,9507,9507,9507,9507,9507,9507,9507,9507,9507,9507,9507,9507,9507,9487,9487,9491,9491,9491,9491,9491,
9492,9491,9491,9491,9491,9491,9491,9491,9491,9491,9491,9491,9491,9491,9491,9491,9491,9491,9491,9491,9491,9491,9491,9491,9491,9491,9491,9491,9491,9491,9491,9491,9491,9491,9491,9491,9491,9491,9491,9491,9491,9491,9491,9491,9491,9491,9491,9491,9491,9487,9491,9491,9491,9491,9491,
9491,9491,9491,9491,9491,9491,9491,9491,9491,9491,9491,9491,9491,9491,9491,9491,9491,9491,9491,9491,9491,9491,9491,9491,9491,9491,9491,9491,9491,9491,9491,9491,9491,9491,9491,9491,9491,9491,9491,9491,9491,9491,9491,9491,9491,9491,9491,9491,9491,9491,9491,9491,9491,9491,9491,
9491,9491,9491,9491,9491,9491,9491,9491,9491,9491,9491,9491,9491,9491,9491,9491,9491,9491,9491,9491,9491,9491,9491,9491,9491,9491,9491,9491,9491,9491,9491,9491,9491,9491,9491,9491,9491,9491,9491,9491,9491,9491,9491,9491,9491,9491,9491,9491,9491,9491,9491,9491,9491,9491,9491,
9491,9491,9491,9491,9491,9491,9491,9491,9491,9491,9491,9491,9491,9491,9491,9491,9491,9491,9491,9491,9491,9491,9491,9491,9491,9491,9491,9491,9491,9491,9491,9491,9491,9491,9491,9491,9491,9491,9491,9491,9491,9491,9491,9491,9491,9491,9491,9491,9491,9491,9491,9491,9491,9491,9491,
9491,9491,9491,9491,9491,9491,9491,9491,9491,9491,9491,9491,9491,9491,9491,9491,9491,9491,9491,9491,9491,9491,9491,9491,9491,9491,9491,9491,9491,9491,9491,9491,9491,9491,9491,9491,9491,9491,9491,9491,9491,9491,9491,9491,9491,9491,9491,9491,9491,9491,9491,9491,9491,9491,9491,
9491,9491,9491,9491,9491,9491,9491,9491,9491,9491,9491,9491,9491,9491,9491,9491,9491,9491,9491,9491,9491,9491,9491,9491,9491,9491,9491,9491,9491,9491,9491,9491,9491,9491,9491,9491,9491,9491,9491,9491,9491,9491,9491,9491,9491,9491,9491,9491,9491,9491,9491,9491,9491,9491,9491,
9491,9491,9491,9491,9491,9491,9491,9491,9491,9491,9491,9491,9491,9491,9491,9491,9491,9491,9491,9491,9491,9491,9491,9491,9491,9491,9491,9491,9491,9491,9491,9491,9491,9491,9491,9491,9491,9491,9491,9491,9491,9491,9491,9491,9491,9491,9491,9491,9491,9491,9491,9491,9491,9491,9491,
9491,9491,9491,9491,9491,9491,9491,9491,9491,9491,9491,9491,9491,9491,9491,9491,9491,9491,9491,9491,9491,9491,9491,9491,9491,9491,9491,9491,9491,9491,9491,9491,9491,9491,9491,9491,9491,9491,9491,9491,9491,9491,9491,9491,9491,9491,9491,9491,9491,9491,9491,9491,9491,9491,9491
</data>
 </layer>
 <layer id="3" name="edifici" width="55" height="36">
  <data encoding="csv">
0,0,0,0,0,0,0,0,0,0,0,0,0,0,0,0,0,0,0,0,0,0,0,0,0,0,0,0,0,0,0,0,0,0,0,0,0,0,0,0,0,0,0,0,0,0,0,0,0,0,0,0,0,0,0,
0,0,0,0,0,0,0,0,0,0,0,0,0,0,0,0,0,0,0,0,0,0,0,0,0,0,0,0,0,0,0,0,0,0,0,0,0,0,0,0,0,0,0,0,0,0,0,0,0,0,0,0,0,0,0,
0,0,0,0,0,0,0,0,0,0,0,0,0,0,0,0,0,0,0,0,0,0,0,0,0,0,0,0,0,0,0,0,0,0,0,0,0,0,0,0,0,0,0,0,0,0,0,0,0,0,0,0,0,0,0,
0,0,0,0,0,0,0,0,0,0,0,0,0,0,0,0,0,0,0,0,0,0,0,0,0,0,0,0,0,0,0,0,0,0,0,0,0,0,0,0,0,0,0,0,0,0,0,0,0,0,0,0,0,0,0,
0,0,0,0,0,0,0,0,0,0,0,0,0,0,0,0,0,0,0,0,0,0,0,0,0,0,0,0,0,0,0,0,0,0,0,0,0,0,0,0,0,0,0,0,0,0,0,0,0,0,0,0,0,0,0,
9493,9493,0,0,0,0,0,0,0,0,0,0,0,0,0,0,0,0,0,0,0,0,0,0,0,0,0,0,0,0,0,0,0,0,0,0,9550,0,0,0,0,0,0,0,0,0,0,0,0,0,0,0,0,0,0,
9493,9493,0,0,0,0,0,0,0,0,0,0,0,0,0,0,0,0,0,0,0,0,0,0,0,0,0,0,0,0,0,0,0,0,0,0,9550,0,0,0,0,0,9488,9488,0,0,0,0,0,0,0,0,0,0,0,
0,0,0,0,0,0,0,0,0,0,0,0,0,0,0,0,0,0,0,0,0,0,0,0,0,0,0,0,0,0,0,0,0,0,0,0,9550,0,0,0,0,0,9488,9488,0,0,0,0,0,0,0,0,0,0,0,
0,0,0,0,0,0,0,0,0,0,0,0,0,0,0,0,0,0,0,0,0,0,0,0,0,0,0,0,0,0,0,0,0,0,0,0,9550,0,0,0,0,0,0,0,0,0,0,0,0,0,0,0,0,0,0,
0,0,0,0,0,0,0,0,0,0,0,0,0,0,0,0,0,0,0,0,0,0,0,0,0,0,0,0,0,0,0,0,0,0,0,0,9550,0,0,0,0,0,0,0,0,0,0,0,0,0,0,0,0,0,0,
0,0,0,0,0,0,0,0,0,0,0,0,0,0,0,0,0,0,0,0,0,0,0,0,0,0,0,0,0,0,0,0,0,0,0,0,9550,9550,9550,9550,9550,9550,9550,9550,9550,0,0,0,0,0,0,0,0,0,0,
0,0,0,0,0,0,0,0,0,0,0,0,0,0,0,0,0,0,0,0,0,0,0,0,0,0,0,0,0,0,0,0,0,0,0,0,9550,9550,0,0,0,0,0,0,0,0,0,0,0,0,0,0,0,0,0,
0,0,0,0,0,0,0,0,0,0,0,0,0,0,0,0,0,0,0,0,0,0,0,0,0,0,0,0,0,0,0,0,0,0,0,0,9550,9550,0,0,0,0,0,0,0,0,0,0,0,0,0,0,0,0,0,
0,0,0,0,0,0,0,0,0,0,0,0,0,0,0,0,0,0,0,0,0,0,0,0,0,0,0,0,0,0,0,0,0,0,0,0,9550,9550,0,0,0,0,9502,0,0,0,0,0,0,0,0,0,0,0,0,
0,0,0,0,0,0,0,0,0,9486,9491,9491,9491,9491,9485,0,0,0,0,0,0,0,0,0,0,0,0,0,0,0,0,0,0,0,0,0,9550,0,0,0,0,0,0,0,0,0,0,0,0,0,0,0,0,0,0,
0,0,0,0,0,0,0,0,0,9498,9499,9468,9469,9470,9500,0,0,0,0,0,0,0,0,0,0,0,0,0,0,0,0,0,0,0,0,0,0,9550,0,9550,9550,0,0,0,0,0,0,0,0,0,0,0,0,0,0,
0,0,0,0,0,0,0,0,0,0,0,9476,9477,9478,0,0,0,0,0,0,0,0,0,0,0,0,0,0,0,0,0,0,0,0,0,0,0,0,9550,9550,9550,0,0,0,0,0,0,0,0,0,0,0,0,0,0,
0,0,0,0,0,0,0,0,0,0,9526,0,2176,0,9526,0,0,0,0,0,0,0,0,0,0,0,0,0,0,0,0,0,0,0,0,0,0,0,0,9550,9550,0,0,0,0,0,0,0,0,0,0,0,0,0,0,
0,0,0,0,0,0,0,0,0,0,9526,0,2176,0,9526,0,0,0,0,0,0,0,0,0,0,0,0,0,0,0,0,0,0,0,0,0,9527,9530,9531,9539,9532,9529,0,0,0,0,0,0,0,0,0,0,0,0,0,
0,0,0,0,0,9547,9547,9547,9547,9547,9550,9547,2176,9547,9550,9547,9547,9547,9547,9547,9547,9547,9547,9547,9547,9547,9547,9547,9547,9547,0,0,0,0,0,0,9535,9538,9539,9539,9540,9537,0,0,0,0,0,0,0,0,0,0,0,0,0,
0,0,0,0,0,0,9457,9550,0,0,0,0,0,0,0,0,0,0,0,0,0,0,0,0,0,0,0,0,0,0,0,0,0,0,0,0,9535,9546,9547,9547,9548,9537,0,0,0,0,0,0,0,0,0,0,0,0,0,
0,0,0,0,0,9457,9457,9457,9550,0,0,0,0,0,9550,9550,0,0,0,0,0,9550,0,0,0,0,0,0,0,0,0,0,0,0,0,0,9543,9544,9544,9544,9547,9545,0,0,0,0,0,0,0,0,0,0,0,0,0,
0,0,0,0,0,9457,9457,9457,9457,9550,0,0,0,9550,9550,9550,0,0,0,0,0,0,0,0,0,9550,9550,0,9550,9550,9550,9550,9550,9550,9550,0,0,0,0,0,9550,0,0,0,0,0,0,0,0,0,0,0,0,0,0,
0,0,0,0,0,9456,9502,9457,0,0,9550,9550,9550,9550,0,0,9550,9550,9550,9550,9550,9550,9550,9550,9550,0,0,0,0,0,0,0,0,0,0,0,0,0,0,0,0,0,0,0,0,0,0,0,0,0,0,0,0,0,0,
0,0,0,0,0,9457,9457,0,0,0,0,0,0,0,0,0,0,0,0,0,0,0,0,0,0,0,0,0,0,0,0,0,0,0,0,0,0,0,0,0,0,0,0,0,0,0,0,0,0,0,0,0,0,0,0,
0,0,0,0,0,0,0,0,0,0,0,0,0,0,0,0,0,0,0,0,0,0,0,0,0,0,0,0,0,0,0,0,0,0,0,0,0,0,0,0,0,0,0,0,0,0,0,0,0,0,0,0,0,0,0,
0,0,0,0,0,0,0,0,0,0,0,0,0,0,0,0,0,0,0,0,0,0,0,0,0,0,0,0,0,0,0,0,0,0,0,0,0,0,0,0,0,0,0,0,0,0,0,0,0,0,0,0,0,0,0,
0,0,0,0,0,0,0,0,0,0,0,0,0,0,0,0,0,0,0,0,0,0,0,0,0,0,0,0,0,0,0,0,0,0,0,0,0,0,0,0,0,0,0,0,0,0,0,0,0,0,0,0,0,0,0,
0,0,0,0,0,0,0,0,0,0,0,0,0,0,0,0,0,0,0,0,0,0,0,0,0,0,0,0,0,0,0,0,0,0,0,0,0,0,0,0,0,0,0,0,0,0,0,0,0,0,0,0,0,0,0,
0,0,0,0,0,0,0,0,0,0,0,0,0,0,0,0,0,0,0,0,0,0,0,0,0,0,0,0,0,0,0,0,0,0,0,0,0,0,0,0,0,0,0,0,0,0,0,0,0,0,0,0,0,0,0,
0,0,0,0,0,0,0,0,0,0,0,0,0,0,0,0,0,0,0,0,0,0,0,0,0,0,0,0,0,0,0,0,0,0,0,0,0,0,0,0,0,0,0,0,0,0,0,0,0,0,0,0,0,0,0,
0,0,0,0,0,0,0,0,0,0,0,0,0,0,0,0,0,0,0,0,0,0,0,0,0,0,0,0,0,0,0,0,0,0,0,0,0,0,0,0,0,0,0,0,0,0,0,0,0,0,0,0,0,0,0,
0,0,0,0,0,0,0,0,0,0,0,0,0,0,0,0,0,0,0,0,0,0,0,0,0,0,0,0,0,0,0,0,0,0,0,0,0,0,0,0,0,0,0,0,0,0,0,0,0,0,0,0,0,0,0,
0,0,0,0,0,0,0,0,0,0,0,0,0,0,0,0,0,0,0,0,0,0,0,0,0,0,0,0,0,0,0,0,0,0,0,0,0,0,0,0,0,0,0,0,0,0,0,0,0,0,0,0,0,0,0,
0,0,0,0,0,0,0,0,0,0,0,0,0,0,0,0,0,0,0,0,0,0,0,0,0,0,0,0,0,0,0,0,0,0,0,0,0,0,0,0,0,0,0,0,0,0,0,0,0,0,0,0,0,0,0,
0,0,0,0,0,0,0,0,0,0,0,0,0,0,0,0,0,0,0,0,0,0,0,0,0,0,0,0,0,0,0,0,0,0,0,0,0,0,0,0,0,0,0,0,0,0,0,0,0,0,0,0,0,0,0
</data>
 </layer>
 <layer id="4" name="sopra_testa" width="55" height="36">
  <data encoding="csv">
0,0,0,0,0,0,0,0,0,0,0,0,0,0,0,0,0,0,0,0,0,0,0,0,0,0,0,0,0,0,0,0,0,0,0,0,0,0,0,0,0,0,0,0,0,0,0,0,0,0,0,0,0,0,0,
0,0,0,0,0,0,0,0,0,0,0,0,0,0,0,0,0,0,0,0,0,0,0,0,0,0,0,0,0,0,0,0,0,0,0,0,0,0,0,0,0,0,0,0,0,0,0,0,0,0,0,0,0,0,0,
0,0,0,0,0,0,0,0,0,0,0,0,0,0,0,0,0,0,0,0,0,0,0,0,0,0,0,0,0,0,0,0,0,0,0,0,0,0,0,0,0,0,0,0,0,0,0,0,0,0,0,0,0,0,0,
0,0,0,0,0,0,0,0,0,0,0,0,0,0,0,0,0,0,0,0,0,0,0,0,0,0,0,0,0,0,0,0,0,0,0,0,0,0,0,0,0,0,0,0,0,0,0,0,0,0,0,0,0,0,0,
0,0,0,0,0,0,0,0,0,0,0,0,0,0,0,0,0,0,0,0,0,0,0,0,0,0,0,0,0,0,0,0,0,0,0,0,0,0,0,0,0,0,0,0,0,0,0,0,0,0,0,0,0,0,0,
0,0,0,0,0,0,0,0,0,0,0,0,0,0,0,0,0,0,0,0,0,0,0,0,0,0,0,0,0,0,0,0,0,0,0,0,0,0,0,0,0,0,0,0,0,0,0,0,0,0,0,0,0,0,0,
0,0,0,0,0,0,0,0,0,0,0,0,0,0,0,0,0,0,0,0,0,0,0,0,0,0,0,0,0,0,0,0,0,0,0,0,0,0,0,0,0,0,0,0,0,0,0,0,0,0,0,0,0,0,0,
0,0,0,0,0,0,0,0,0,0,0,0,0,0,0,0,0,0,0,0,0,0,0,0,0,0,0,0,0,0,0,0,0,0,0,0,0,0,0,0,0,0,0,0,0,0,0,0,0,0,0,0,0,0,0,
0,0,0,0,0,0,0,0,0,0,0,0,0,0,0,0,0,0,0,0,0,0,0,0,0,0,0,0,0,0,0,0,0,0,0,0,0,0,0,0,0,0,0,0,0,0,0,0,0,0,0,0,0,0,0,
0,0,0,0,0,0,0,0,0,0,0,0,0,0,0,0,0,0,0,0,0,0,0,0,0,0,0,0,0,0,0,0,0,0,0,0,0,0,0,0,0,0,0,0,0,0,0,0,0,0,0,0,0,0,0,
0,0,0,0,0,0,0,0,0,0,0,0,0,0,0,0,0,0,0,0,0,0,0,0,0,0,0,0,0,0,0,0,0,0,0,0,0,0,0,0,0,0,0,0,0,0,0,0,0,0,0,0,0,0,0,
0,0,0,0,0,0,0,0,0,0,0,0,0,0,0,0,0,0,0,0,0,0,0,0,0,0,0,0,0,0,0,0,0,0,0,0,0,0,0,0,0,0,0,0,0,0,0,0,0,0,0,0,0,0,0,
0,0,0,0,0,0,0,0,0,0,0,0,0,0,0,0,0,0,0,0,0,0,0,0,0,0,0,0,0,0,0,0,0,0,0,0,0,0,0,0,0,0,0,0,0,0,0,0,0,0,0,0,0,0,0,
0,0,0,0,0,0,0,0,0,0,0,0,0,0,0,0,0,0,0,0,0,0,0,0,0,0,0,0,0,0,0,0,0,0,0,0,0,0,0,0,0,0,0,0,0,0,0,0,0,0,0,0,0,0,0,
0,0,0,0,0,0,0,0,0,0,0,0,0,0,0,0,0,0,0,0,0,0,0,0,0,0,0,0,0,0,0,0,0,0,0,0,0,0,0,0,0,0,0,0,0,0,0,0,0,0,0,0,0,0,0,
0,0,0,0,0,0,0,0,0,0,0,0,0,0,0,0,0,0,0,0,0,0,0,0,0,0,0,0,0,0,0,0,0,0,0,0,0,0,0,0,0,0,0,0,0,0,0,0,0,0,0,0,0,0,0,
0,0,0,0,0,0,0,0,0,0,0,0,0,0,0,0,0,0,0,0,0,0,0,0,0,0,0,0,0,0,0,0,0,0,0,0,0,0,0,0,0,0,0,0,0,0,0,0,0,0,0,0,0,0,0,
0,0,0,0,0,0,0,0,0,0,0,0,0,0,0,0,0,0,0,0,0,0,0,0,0,0,0,0,0,0,0,0,0,0,0,0,0,0,0,0,0,0,0,0,0,0,0,0,0,0,0,0,0,0,0,
0,0,0,0,0,0,0,0,0,0,0,0,0,0,0,0,0,0,0,0,0,0,0,0,0,0,0,0,0,0,0,0,0,0,0,0,0,0,0,0,0,0,0,0,0,0,0,0,0,0,0,0,0,0,0,
0,0,0,0,0,0,0,0,0,0,0,0,0,0,0,0,0,0,0,0,0,0,0,0,0,0,0,0,0,0,0,0,0,0,0,0,0,0,0,0,0,0,0,0,0,0,0,0,0,0,0,0,0,0,0,
0,0,0,0,0,0,0,0,0,0,0,0,0,0,0,0,0,0,0,0,0,0,0,0,0,0,0,0,0,0,0,0,0,0,0,0,0,0,0,0,0,0,0,0,0,0,0,0,0,0,0,0,0,0,0,
0,0,0,0,0,0,0,0,0,0,0,0,0,0,0,0,0,0,0,0,0,0,0,0,0,0,0,0,0,0,0,0,0,0,0,0,0,0,0,0,0,0,0,0,0,0,0,0,0,0,0,0,0,0,0,
0,0,0,0,0,0,0,0,0,0,0,0,0,0,0,0,0,0,0,0,0,0,0,0,0,0,0,0,0,0,0,0,0,0,0,0,0,0,0,0,0,0,0,0,0,0,0,0,0,0,0,0,0,0,0,
0,0,0,0,0,0,0,0,0,0,0,0,0,0,0,0,0,0,0,0,0,0,0,0,0,0,0,0,0,0,0,0,0,0,0,0,0,0,0,0,0,0,0,0,0,0,0,0,0,0,0,0,0,0,0,
0,0,0,0,0,0,0,0,0,0,0,0,0,0,0,0,0,0,0,0,0,0,0,0,0,0,0,0,0,0,0,0,0,0,0,0,0,0,0,0,0,0,0,0,0,0,0,0,0,0,0,0,0,0,0,
0,0,0,0,0,0,0,0,0,0,0,0,0,0,0,0,0,0,0,0,0,0,0,0,0,0,0,0,0,0,0,0,0,0,0,0,0,0,0,0,0,0,0,0,0,0,0,0,0,0,0,0,0,0,0,
0,0,0,0,0,0,0,0,0,0,0,0,0,0,0,0,0,0,0,0,0,0,0,0,0,0,0,0,0,0,0,0,0,0,0,0,0,0,0,0,0,0,0,0,0,0,0,0,0,0,0,0,0,0,0,
0,0,0,0,0,0,0,0,0,0,0,0,0,0,0,0,0,0,0,0,0,0,0,0,0,0,0,0,0,0,0,0,0,0,0,0,0,0,0,0,0,0,0,0,0,0,0,0,0,0,0,0,0,0,0,
0,0,0,0,0,0,0,0,0,0,0,0,0,0,0,0,0,0,0,0,0,0,0,0,0,0,0,0,0,0,0,0,0,0,0,0,0,0,0,0,0,0,0,0,0,0,0,0,0,0,0,0,0,0,0,
0,0,0,0,0,0,0,0,0,0,0,0,0,0,0,0,0,0,0,0,0,0,0,0,0,0,0,0,0,0,0,0,0,0,0,0,0,0,0,0,0,0,0,0,0,0,0,0,0,0,0,0,0,0,0,
0,0,0,0,0,0,0,0,0,0,0,0,0,0,0,0,0,0,0,0,0,0,0,0,0,0,0,0,0,0,0,0,0,0,0,0,0,0,0,0,0,0,0,0,0,0,0,0,0,0,0,0,0,0,0,
0,0,0,0,0,0,0,0,0,0,0,0,0,0,0,0,0,0,0,0,0,0,0,0,0,0,0,0,0,0,0,0,0,0,0,0,0,0,0,0,0,0,0,0,0,0,0,0,0,0,0,0,0,0,0,
0,0,0,0,0,0,0,0,0,0,0,0,0,0,0,0,0,0,0,0,0,0,0,0,0,0,0,0,0,0,0,0,0,0,0,0,0,0,0,0,0,0,0,0,0,0,0,0,0,0,0,0,0,0,0,
0,0,0,0,0,0,0,0,0,0,0,0,0,0,0,0,0,0,0,0,0,0,0,0,0,0,0,0,0,0,0,0,0,0,0,0,0,0,0,0,0,0,0,0,0,0,0,0,0,0,0,0,0,0,0,
0,0,0,0,0,0,0,0,0,0,0,0,0,0,0,0,0,0,0,0,0,0,0,0,0,0,0,0,0,0,0,0,0,0,0,0,0,0,0,0,0,0,0,0,0,0,0,0,0,0,0,0,0,0,0,
0,0,0,0,0,0,0,0,0,0,0,0,0,0,0,0,0,0,0,0,0,0,0,0,0,0,0,0,0,0,0,0,0,0,0,0,0,0,0,0,0,0,0,0,0,0,0,0,0,0,0,0,0,0,0
</data>
 </layer>
 <objectgroup id="5" name="collisioni">
  <object id="28" x="0" y="-2" width="1757" height="155"/>
  <object id="29" x="262" y="230" width="44" height="18"/>
  <object id="30" x="365" y="198" width="9" height="45"/>
  <object id="31" x="370" y="232" width="142" height="16"/>
  <object id="32" x="491" y="204" width="139" height="9"/>
  <object id="33" x="624" y="209" height="34"/>
  <object id="34" x="615" y="235" width="172" height="17"/>
  <object id="35" x="870" y="232" width="15" height="21"/>
  <object id="36" x="903" y="202" width="10" height="14"/>
  <object id="37" x="1162" y="152" width="18" height="41"/>
  <object id="38" x="1167" y="259" width="7" height="210"/>
  <object id="39" x="1194" y="332" width="4" height="90"/>
  <object id="40" x="1257" y="330" width="214" height="12"/>
  <object id="41" x="1199" y="483" width="6" height="15"/>
  <object id="42" x="1228" y="511" width="18" height="23"/>
  <object id="43" x="1263" y="489" width="40" height="72"/>
  <object id="44" x="1168" y="586" width="158" height="110"/>
  <object id="45" x="1288" y="702" width="11" height="18"/>
  <object id="46" x="815" y="708" width="297" height="22"/>
  <object id="47" x="530" y="744" width="267" height="17"/>
  <object id="48" x="440" y="704" width="60" height="22"/>
  <object id="49" x="458" y="682" width="53" height="16"/>
  <object id="50" x="231" y="646" width="13" height="17"/>
  <object id="51" x="277" y="681" width="12" height="21"/>
  <object id="52" x="304" y="710" width="12" height="18"/>
  <object id="53" x="334" y="740" width="121" height="20"/>
  <object id="54" x="682" y="683" width="13" height="17"/>
  <object id="55" x="1133" y="683" width="15" height="18"/>
  <object id="56" x="1164" y="153" width="14" height="140"/>
  <object id="58" x="8.33333" y="266.667" width="972" height="228"/>
  <object id="59" x="451" y="486" width="524" height="145"/>
  <object id="60" x="-3" y="499" width="360" height="131"/>
  <object id="61" x="7" y="616" width="143" height="543"/>
  <object id="62" x="158" y="809" width="1590" height="340"/>
  <object id="63" x="1456" y="13" width="292" height="1031"/>
 </objectgroup>
 <objectgroup id="6" name="eventi">
  <object id="65" name="spawn_da_interno_lago" type="spawn" x="1264.67" y="313.333">
   <properties>
    <property name="id" value="da_interno_lago"/>
   </properties>
   <point/>
  </object>
  <object id="66" name="ritorno_interno_lago" type="warp" x="1389.67" y="217.333">
   <properties>
    <property name="destinazione" value="interno_lago"/>
    <property name="spawn_id" value="da_lago_albano_profondo"/>
   </properties>
   <point/>
  </object>
  <object id="69" name="verso_antro_abissale" type="warp" x="396" y="533">
   <properties>
    <property name="destinazione" value="antro_abissale"/>
    <property name="spawn_id" value="da_lago_albano_profondo"/>
   </properties>
   <point/>
  </object>
  <object id="70" name="incontri_lago_albano_profondo" type="erba_alta" x="1206" y="706" width="198.667" height="106.667">
   <properties>
    <property name="id" value="incontri lago albano profondo"/>
   </properties>
  </object>
  <object id="71" name="oggetto" type="oggetto" x="208" y="754">
   <properties>
    <property name="contenuto" value="mt_blizzard"/>
    <property name="id" value="lago_albano_profondo_mt"/>
    <property name="quantita" value="1"/>
   </properties>
   <point/>
  </object>
  <object id="72" name="oggetto" type="oggetto" x="1359" y="436">
   <properties>
    <property name="contenuto" value="frammento_stella"/>
    <property name="id" value="lago_albano_profondo_tesoro"/>
    <property name="quantita" value="1"/>
   </properties>
   <point/>
  </object>
  <object id="73" name="spawn_da_sub_marino" type="spawn" x="83.5" y="217.43">
   <properties>
    <property name="id" value="da_sub_marino"/>
   </properties>
   <point/>
  </object>
  <object id="74" name="ritorno_gdf_marino_2f_b" type="warp" x="12" y="218">
   <properties>
    <property name="destinazione" value="gdf_marino_2f_b"/>
    <property name="spawn_id" value="da_lago_albano_profondo"/>
   </properties>
   <point/>
  </object>
  <object id="75" name="ritorno_interno_lago" type="warp" x="1364.5" y="207.5">
   <properties>
    <property name="destinazione" value="interno_lago"/>
    <property name="spawn_id" value="da_lago_albano_profondo"/>
   </properties>
   <point/>
  </object>
  <object id="76" name="ritorno_interno_lago" type="warp" x="1360.5" y="237">
   <properties>
    <property name="destinazione" value="interno_lago"/>
    <property name="spawn_id" value="da_lago_albano_profondo"/>
   </properties>
   <point/>
  </object>
  <object id="77" name="ritorno_interno_lago" type="warp" x="1394" y="242">
   <properties>
    <property name="destinazione" value="interno_lago"/>
    <property name="spawn_id" value="da_lago_albano_profondo"/>
   </properties>
   <point/>
  </object>
  <object id="78" name="ritorno_gdf_marino_2f_b" type="warp" x="45.25" y="211.25">
   <properties>
    <property name="destinazione" value="gdf_marino_2f_b"/>
    <property name="spawn_id" value="da_lago_albano_profondo"/>
   </properties>
   <point/>
  </object>
  <object id="79" name="ritorno_gdf_marino_2f_b" type="warp" x="47.25" y="179.25">
   <properties>
    <property name="destinazione" value="gdf_marino_2f_b"/>
    <property name="spawn_id" value="da_lago_albano_profondo"/>
   </properties>
   <point/>
  </object>
  <object id="80" name="ritorno_gdf_marino_2f_b" type="warp" x="17.5" y="176.25">
   <properties>
    <property name="destinazione" value="gdf_marino_2f_b"/>
    <property name="spawn_id" value="da_lago_albano_profondo"/>
   </properties>
   <point/>
  </object>
 </objectgroup>
</map>
