<?xml version="1.0" encoding="UTF-8"?>
<map version="1.10" tiledversion="1.12.2" orientation="orthogonal" renderorder="right-down" width="20" height="20" tilewidth="32" tileheight="32" infinite="0" nextlayerid="5" nextobjectid="6">
 <tileset firstgid="1" source="../interni_lega_2.tsj"/>
 <tileset firstgid="2653" source="../interno lega acc.tsj"/>
 <tileset firstgid="3677" source="../interno lega psico.tsj"/>
 <tileset firstgid="4701" source="../lega_acc_psico.tsj"/>
 <tileset firstgid="5725" source="../rifugi nemici 3.tsj"/>
 <tileset firstgid="6749" source="../RIFUGIO.tsj"/>
 <tileset firstgid="7773" source="../Caves.tsj"/>
 
 <layer id="1" name="ground" width="20" height="20">
  <data encoding="csv">
8717,8717,8717,8717,8717,8717,8717,8717,8717,8717,8717,8717,8717,8717,8717,8717,8717,8717,8717,8717,
8702,8702,8702,8702,8702,8702,8702,8717,8717,8717,8717,8717,8717,8717,8717,8717,8717,8717,8717,8717,
8717,8717,8717,8717,8717,8717,8717,8717,8717,8717,8717,8717,8717,8717,8717,8717,8717,8717,8717,8717,
8694,8717,8717,8717,8766,8767,8767,8767,8767,8767,8767,8767,8767,8767,8767,8768,8717,8717,8717,8717,
8717,8694,8717,8717,8774,8775,8775,8775,8775,8775,8775,8775,8775,8775,8775,8776,8717,8717,8717,8717,
0,8717,8694,8717,8774,8775,8775,8775,8775,8775,8775,8775,8775,8775,8775,8776,8717,8717,8717,0,
0,0,8694,8694,8774,8775,8775,8775,8775,8775,8775,8775,8775,8775,8775,8776,8717,8717,0,0,
0,0,8694,8694,8774,8775,8775,8775,8775,8775,8775,8775,8775,8775,8775,8776,8717,0,0,0,
0,0,8694,8694,8774,8775,8775,8775,8775,8775,8775,8775,8775,8775,8775,8776,8717,0,0,0,
0,0,8694,8694,8774,8775,8775,8775,8775,8775,8775,8775,8775,8775,8775,8776,8717,0,0,0,
0,0,8694,8694,8774,8775,8775,8775,8775,8775,8775,8775,8775,8775,8775,8776,8717,0,0,0,
0,0,8694,8694,8774,8775,8775,8775,8775,8775,8775,8775,8775,8775,8775,8776,8717,0,0,0,
0,0,8694,8694,8774,8775,8775,8775,8775,8775,8775,8775,8775,8775,8775,8776,8717,8717,0,0,
0,8717,8694,8717,8774,8775,8775,8775,8775,8775,8775,8775,8775,8775,8775,8776,8717,8694,8717,0,
8717,8694,8717,8694,8774,8775,8775,8775,8775,8775,8775,8775,8775,8775,8775,8776,8694,8717,8694,8717,
8694,8717,8694,8694,8774,8775,8775,8775,8775,8775,8775,8775,8775,8775,8775,8776,8694,8694,8717,8694,
8717,8694,8717,8717,8774,8775,8775,8775,8775,8775,8775,8775,8775,8775,8775,8776,8717,8717,8694,8717,
8717,8694,8717,8717,8774,8775,8775,8775,8775,8775,8775,8775,8775,8775,8775,8776,8717,8717,8717,8717,
8717,8717,8717,8717,8774,8775,8775,8775,8775,8775,8775,8775,8775,8775,8775,8776,8717,8717,8717,8717,
8717,8717,8717,8717,8782,8783,8783,8783,8783,8783,8783,8783,8783,8783,8783,8784,8717,8717,8717,8717
</data>
 </layer>
 <layer id="2" name="deco_sotto" width="20" height="20">
  <data encoding="csv">
8702,8702,8702,8702,8702,8702,8703,8695,8693,8694,8694,8695,8693,8701,8702,8702,8702,8702,8702,8702,
8702,8702,8702,8702,8702,8702,8702,8703,8693,8694,8694,8695,8701,8702,8702,8702,8702,8702,8702,8702,
8692,8717,8717,8717,0,0,0,0,8693,8694,8694,8695,0,0,0,0,8717,8717,0,8718,
8701,8692,8717,8717,0,0,0,8685,8686,8694,8694,8686,8687,0,8738,0,8717,8717,8718,8703,
8692,8701,8692,0,0,8738,8685,8686,8694,8694,8694,8694,8686,8687,0,0,0,8718,8703,8718,
8701,8692,8701,8692,0,8685,8686,8694,8694,8694,8694,8694,8694,8686,8687,0,8718,8703,8718,8703,
0,8701,8692,8693,0,8693,8694,8694,8694,8694,8694,8694,8694,8694,8695,0,8695,8718,8703,0,
0,0,8693,8693,0,8693,8694,8694,8694,8694,8694,8694,8694,8694,8695,0,8695,8695,0,0,
0,0,8693,8693,0,8693,8694,8694,8694,8694,8694,8694,8694,8694,8695,0,8695,8695,0,0,
0,0,8693,8693,0,8693,8694,8694,8694,8694,8694,8694,8694,8694,8695,0,8695,8695,0,0,
0,0,8693,8693,0,8701,8692,8694,8694,8694,8694,8694,8694,8718,8703,0,8695,8695,0,0,
0,0,8693,8693,0,0,8701,8692,8694,8694,8694,8694,8718,8703,0,0,8695,8695,0,0,
0,8685,8686,8693,0,0,0,8701,8692,8694,8694,8718,8703,0,8738,0,8695,8686,8687,0,
8685,8686,8685,8686,0,8738,0,0,8693,8694,8694,8695,0,0,0,0,8686,8687,8686,8687,
8686,8685,8686,0,0,0,0,8738,8693,8694,8694,8695,0,8738,0,0,0,8686,8687,8686,
8685,8686,0,0,0,0,0,0,8693,8694,8694,8695,0,0,0,0,0,0,8686,8687,
8686,0,0,0,0,8738,0,0,8693,8694,8694,8695,0,0,0,0,0,0,0,8686,
0,8694,8694,0,0,0,0,0,8693,8694,8694,8695,8738,0,8738,0,0,8694,8694,0,
0,8694,8694,0,0,8738,8738,0,8693,8694,8694,8695,0,0,0,0,0,8694,8694,0,
0,0,0,0,0,0,0,0,8693,8694,8694,8695,0,0,0,0,0,0,0,0
</data>
 </layer>
 <layer id="3" name="edifici" width="20" height="20">
  <data encoding="csv">
0,0,0,0,0,0,0,0,0,0,0,0,0,0,0,0,0,0,0,0,
0,0,0,0,0,0,0,0,0,0,0,0,0,0,0,0,0,0,0,0,
0,0,0,0,0,0,0,0,0,0,0,0,0,0,0,0,0,0,0,0,
0,0,0,0,0,0,0,0,0,0,0,0,0,0,0,0,0,0,0,0,
0,0,0,0,0,0,0,0,0,0,0,0,0,0,0,0,0,0,0,0,
0,0,0,0,0,0,0,0,0,0,0,0,0,0,0,0,0,0,0,0,
0,0,0,0,0,0,0,0,0,0,0,0,0,0,0,0,0,0,0,0,
0,0,0,0,0,0,0,0,0,0,0,0,0,0,0,0,0,0,0,0,
0,0,0,0,0,0,0,0,0,0,0,0,0,0,0,0,0,0,0,0,
0,0,0,0,0,0,0,0,0,0,0,0,0,0,0,0,0,0,0,0,
0,0,0,0,0,0,0,0,0,0,0,0,0,0,0,0,0,0,0,0,
0,0,0,0,0,0,0,0,0,0,0,0,0,0,0,0,0,0,0,0,
0,0,0,0,0,0,0,0,0,0,0,0,0,0,0,0,0,0,0,0,
0,0,0,0,0,0,0,0,0,0,0,0,0,0,0,0,0,0,0,0,
0,0,0,0,0,0,0,0,0,0,0,0,0,0,0,0,0,0,0,0,
0,0,0,0,0,0,0,0,0,0,0,0,0,0,0,0,0,0,0,0,
0,0,0,0,0,0,0,0,0,0,0,0,0,0,0,0,0,0,0,0,
0,0,0,0,0,0,0,0,0,0,0,0,0,0,0,0,0,0,0,0,
0,0,0,0,0,0,0,0,0,0,0,0,0,0,0,0,0,0,0,0,
0,0,0,0,0,0,0,0,0,0,0,0,0,0,0,0,0,0,0,0
</data>
 </layer>
 <objectgroup id="4" name="eventi">
  <object id="1" name="spawn_2f_in" x="304.666666666667" y="592.666666666667" width="32" height="32">
   <properties>
    <property name="id" value="spawn_2f_in"/>
    <property name="type" value="spawn"/>
   </properties>
  </object>
  <object id="3" name="scala su" x="305.333333333333" y="0.666666666666664" width="32" height="32">
   <properties>
    <property name="destinazione" value="lega_pokemon_3f"/>
    <property name="spawn_id" value="spawn_3f_in"/>
    <property name="type" value="warp"/>
   </properties>
  </object>
  <object id="4" name="sq_pres" x="304" y="173.333333333333" width="32" height="32">
   <properties>
    <property name="direzione" value="sud"/>
    <property name="id" value="sq_pres"/>
    <property name="type" value="trainer"/>
    <property name="vista" type="int" value="5"/>
   </properties>
  </object>
 </objectgroup>
</map>
