<?xml version="1.0" encoding="UTF-8"?>
<map version="1.10" tiledversion="1.12.2" orientation="orthogonal" renderorder="right-down" width="20" height="20" tilewidth="32" tileheight="32" infinite="0" nextlayerid="5" nextobjectid="6">
 <tileset firstgid="1" source="../interni_lega_2.tsj"/>
 <tileset firstgid="2653" source="../interno lega acc.tsj"/>
 <tileset firstgid="3677" source="../interno lega psico.tsj"/>
 <tileset firstgid="4701" source="../lega_acc_psico.tsj"/>
 <tileset firstgid="5725" source="../rifugi nemici 3.tsj"/>
 <tileset firstgid="6749" source="../RIFUGIO.tsj"/>
 <tileset firstgid="7773" source="../Caves.tsj"/>
 <tileset firstgid="10045" source="../Tiled/Gyms interior.tsx"/>
 
 <layer id="1" name="ground" width="20" height="20">
  <data encoding="csv">
10835,10835,10835,10835,10835,10835,9199,10835,10835,10835,10835,10835,10835,9199,10835,10835,10835,10835,10835,10835,
10835,10835,10835,10835,10835,10835,10835,10835,10835,10835,10835,10835,10835,10835,10835,10835,10835,10835,10835,10835,
10835,10835,10835,10835,10835,10835,10835,10835,10835,10835,10835,10835,10835,10835,10835,10835,10835,10835,10835,10835,
9199,10835,10835,10835,10835,10835,10835,10835,10835,10835,10835,10835,10835,10835,10835,10835,10835,10835,10835,9199,
10835,9199,10835,10835,10835,10835,10835,10835,10835,10835,10835,10835,10835,10835,10835,10835,10835,10835,9199,10835,
0,10835,9199,10835,10835,10835,10835,10835,10835,10835,10835,10835,10835,10835,10835,10835,10835,9199,10835,0,
0,0,10835,10835,10835,10835,10835,10835,10835,10835,10835,10835,10835,10835,10835,10835,10835,10835,0,0,
0,0,10835,10835,10835,10835,10835,10835,10835,10835,10835,10835,10835,10835,10835,10835,10835,0,0,0,
0,0,10835,10835,10835,10835,10835,10835,10835,10835,10835,10835,10835,10835,10835,10835,10835,0,0,0,
0,0,10835,10835,10835,10835,10835,10835,10835,10835,10835,10835,10835,10835,10835,10835,10835,0,0,0,
0,0,10835,10835,10835,10835,10835,10835,10835,10835,10835,10835,10835,10835,10835,10835,10835,0,0,0,
0,0,10835,10835,10835,10835,10835,10835,10835,10835,10835,10835,10835,10835,10835,10835,10835,0,0,0,
0,0,9199,10835,10835,10835,10835,10835,10835,10835,10835,10835,10835,10835,10835,10835,10835,9199,0,0,
0,9199,9199,9199,10835,10835,10835,10835,10835,10835,10835,10835,10835,10835,10835,10835,9199,9199,9199,0,
9199,9199,9199,10835,10835,10835,10835,10835,10835,10835,10835,10835,10835,10835,10835,10835,10835,10835,9199,9199,
9199,9199,10835,10835,10835,10835,10835,10835,10835,10835,10835,10835,10835,10835,10835,10835,10835,10835,10835,9199,
9199,10835,10835,10835,10835,10835,10835,10835,10835,10835,10835,10835,10835,10835,10835,10835,10835,10835,10835,10835,
10835,10835,10835,10835,10835,10835,10835,10835,10835,10835,10835,10835,10835,10835,10835,10835,10835,10835,10835,10835,
10835,10835,10835,10835,10835,10835,10835,10835,10835,10835,10835,10835,10835,10835,10835,10835,10835,10835,10835,10835,
10835,10835,10835,10835,10835,10835,10835,10835,10835,10835,10835,10835,10835,10835,10835,10835,10835,10835,10835,10835
</data>
 </layer>
 <layer id="2" name="deco_sotto" width="20" height="20">
  <data encoding="csv">
9134,9134,9134,9134,9134,9134,9135,9127,9125,9199,9199,9127,9125,9133,9134,9134,9134,9134,9134,9134,
9134,9134,9134,9134,9134,9134,9134,9135,9125,9199,9199,9127,9133,9134,9134,9134,9134,9134,9134,9134,
9153,10835,9190,9192,0,10851,0,0,9125,9199,9199,9127,0,0,10852,0,9190,9192,0,9152,
9133,9153,9206,9208,0,10859,0,9117,9190,9199,9199,9192,9119,0,10860,0,9206,9208,9152,9135,
9153,9133,9153,0,0,10867,9117,9190,9199,9199,9199,9199,9192,9119,10868,0,0,9152,9135,9152,
9133,9153,9133,9153,0,9117,9190,9199,9199,9199,9199,9199,9199,9192,9119,0,9152,9135,9152,9135,
0,9133,9153,9125,0,9125,9198,9199,9199,9199,9199,9199,9199,9200,9127,0,9127,9152,9135,0,
0,0,9125,9125,0,9125,9198,9199,9199,9199,9199,9199,9199,9200,9127,0,9127,9127,0,0,
0,0,9125,9125,0,9125,9198,9199,9199,9199,9199,9199,9199,9200,9127,0,9127,9127,0,0,
0,0,9125,9125,0,9125,9206,9199,9199,9199,9199,9199,9199,9208,9127,0,9127,9127,0,0,
0,0,9125,9125,0,9133,9153,9206,9199,9199,9199,9199,9208,9152,9135,0,9127,9127,0,0,
0,0,9125,9125,0,0,9133,9153,9206,9199,9199,9208,9152,9135,0,0,9127,9127,0,0,
0,9117,9118,9125,0,0,0,9133,9153,9198,9200,9152,9135,0,9154,0,9127,9118,9119,0,
9117,9118,9117,9118,0,10851,0,0,9125,9198,9200,9127,0,10852,0,0,9118,9119,9118,9119,
9118,9117,9118,0,0,10859,0,9154,9125,9198,9200,9127,0,10860,0,0,0,9118,9119,9118,
9117,9118,0,0,0,10867,0,0,9125,9198,9200,9127,0,10868,0,0,0,0,9118,9119,
9118,0,0,0,0,10851,0,0,9125,9198,9200,9127,0,10852,0,0,0,0,0,9118,
0,9221,9222,9223,0,10859,0,0,9125,9198,9200,9127,9154,10860,9154,0,9221,9222,9223,0,
0,9229,9230,9231,0,10867,9154,10046,9125,9198,9200,9127,10046,10868,0,0,9229,9230,9231,0,
0,9237,9238,9239,0,0,0,10054,9125,9198,9200,9127,10054,0,0,0,9237,9238,9239,0
</data>
 </layer>
 <layer id="3" name="edifici" width="20" height="20">
  <data encoding="csv">
0,0,0,0,0,0,0,0,0,0,0,0,0,0,0,0,0,0,0,0,
0,0,0,0,0,0,0,0,0,0,0,0,0,0,0,0,0,0,0,0,
0,0,0,0,0,0,0,0,0,0,0,0,0,0,0,0,0,0,0,0,
0,0,0,0,0,0,0,0,0,0,0,0,0,0,0,0,0,0,0,0,
0,0,0,0,0,0,0,10851,0,0,0,0,10852,0,0,0,0,0,0,0,
0,0,0,0,0,0,0,10859,0,0,0,0,10860,0,0,0,0,0,0,0,
0,0,0,0,0,0,0,10867,0,0,0,0,10868,0,0,0,0,0,0,0,
0,0,0,0,0,0,0,10851,0,0,0,0,10852,0,0,0,0,0,0,0,
0,0,0,0,0,0,0,10859,0,0,0,0,10860,0,0,0,0,0,0,0,
0,0,0,0,0,0,0,10867,0,0,0,0,10868,0,0,0,0,0,0,0,
0,0,0,0,0,0,0,0,0,0,0,0,0,0,0,0,0,0,0,0,
0,0,0,0,0,0,0,0,0,0,0,0,0,0,0,0,0,0,0,0,
0,0,0,0,0,0,0,0,0,0,0,0,0,0,0,0,0,0,0,0,
0,0,0,0,0,0,0,0,0,0,0,0,0,0,0,0,0,0,0,0,
0,0,0,0,0,0,0,0,0,0,0,0,0,0,0,0,0,0,0,0,
0,0,0,0,0,0,0,0,0,0,0,0,0,0,0,0,0,0,0,0,
0,0,0,0,0,0,0,0,0,0,0,0,0,0,0,0,0,0,0,0,
0,0,0,0,0,0,0,0,0,0,0,0,0,0,0,0,0,0,0,0,
0,0,0,0,0,0,0,10046,0,0,0,0,10046,0,0,0,0,0,0,0,
0,0,0,0,0,0,0,10054,0,0,0,0,10054,0,0,0,0,0,0,0
</data>
 </layer>
 <objectgroup id="4" name="eventi">
  <object id="1" name="spawn_3f_in" x="303.333333333333" y="557.333333333333" width="32" height="32">
   <properties>
    <property name="id" value="spawn_3f_in"/>
    <property name="type" value="spawn"/>
   </properties>
  </object>
  <object id="3" name="scala su" x="301.333333333333" y="-15.3333333333333" width="32" height="32">
   <properties>
    <property name="destinazione" value="lega_pokemon_4f"/>
    <property name="spawn_id" value="spawn_4f_in"/>
    <property name="type" value="warp"/>
   </properties>
  </object>
  <object id="4" name="sq_dema" x="304.666666666667" y="210.666666666667" width="32" height="32">
   <properties>
    <property name="direzione" value="sud"/>
    <property name="id" value="sq_dema"/>
    <property name="type" value="trainer"/>
    <property name="vista" type="int" value="5"/>
   </properties>
  </object>
 </objectgroup>
</map>
