<?xml version="1.0" encoding="UTF-8"?>
<map version="1.10" tiledversion="1.12.2" orientation="orthogonal" renderorder="right-down" width="20" height="20" tilewidth="32" tileheight="32" infinite="0" nextlayerid="5" nextobjectid="6">
 <tileset firstgid="1" source="../interni_lega_2.tsj"/>
 <tileset firstgid="2653" source="../interno lega acc.tsj"/>
 <tileset firstgid="3677" source="../interno lega psico.tsj"/>
 <tileset firstgid="4701" source="../lega_acc_psico.tsj"/>
 <tileset firstgid="5725" source="../rifugi nemici 3.tsj"/>
 <tileset firstgid="6749" source="../RIFUGIO.tsj"/>
 <tileset firstgid="7773" source="../Caves.tsj"/>
 <tileset firstgid="10045" source="../Tiled/Gyms interior.tsx"/>
 
 <layer id="1" name="ground" width="20" height="20">
  <data encoding="csv">
9269,9269,9269,9269,9269,9269,9269,9269,9269,9319,9319,9319,9269,9269,9269,9269,9269,9269,9269,9269,
9269,9269,9269,9269,9269,9269,9269,9269,9269,9269,9269,9269,9269,9269,9269,9269,9269,9269,9269,9269,
9269,9269,9269,9269,9269,9269,9269,9269,9269,9269,9269,9269,9269,9269,9269,9269,9269,9269,9269,9269,
9319,9269,9269,9269,9310,9311,9311,9311,9311,9311,9311,9311,9311,9311,9311,9312,9269,9269,9269,9319,
9269,9319,9269,9269,9318,9319,9319,9319,9319,9319,9319,9319,9319,9319,9319,9320,9269,9269,9319,9269,
0,9269,9319,9269,9318,9319,9319,9319,9319,9319,9319,9319,9319,9319,9319,9320,9269,9319,9269,0,
0,0,9269,9319,9318,9319,9319,9254,9319,9319,9319,9319,9319,9319,9319,9320,9319,9269,0,0,
0,0,0,9319,9318,9319,9319,9319,9319,9319,9319,9319,9319,9254,9319,9320,9319,0,0,0,
0,0,0,9319,9318,9319,9319,9319,9319,9319,9319,9319,9319,9319,9319,9320,9319,0,0,0,
0,0,0,9319,9318,9319,9319,9254,9319,9319,9319,9319,9254,9319,9319,9320,9319,0,0,0,
0,0,0,9319,9318,9319,9319,9319,9319,9319,9319,9319,9319,9319,9319,9320,9319,0,0,0,
0,0,0,9319,9318,9319,9319,9319,9319,9319,9319,9319,9319,9319,9319,9320,9319,0,0,0,
0,0,9269,9319,9318,9319,9319,9319,9319,9319,9319,9319,9319,9319,9319,9320,9269,9269,0,0,
0,9269,9254,9269,9318,9319,9319,9319,9319,9319,9319,9319,9319,9319,9319,9320,9269,9254,9269,0,
9269,9254,9269,9269,9318,9319,9319,9319,9319,9319,9319,9319,9319,9319,9319,9320,9269,9269,9254,9269,
9254,9269,9269,9269,9318,9319,9319,9319,9319,9319,9319,9319,9319,9319,9319,9320,9269,9269,9269,9254,
9269,9269,9269,9269,9318,9319,9319,9319,9319,9319,9319,9319,9319,9319,9319,9320,9269,9269,9269,9269,
9269,9269,9269,9269,9318,9319,9319,9319,9319,9319,9319,9319,9319,9319,9319,9320,9269,9269,9269,9269,
9269,9269,9269,9269,9318,9319,9319,9319,9319,9319,9319,9319,9319,9319,9319,9320,9269,9269,9269,9269,
9269,9269,9269,9269,9326,9327,9327,9327,9327,9327,9327,9327,9327,9327,9327,9328,9269,9269,9269,9269
</data>
 </layer>
 <layer id="2" name="deco_sotto" width="20" height="20">
  <data encoding="csv">
9262,9262,9262,9262,9262,9262,9263,9255,9253,9254,9254,9255,9253,9261,9262,9262,9262,9262,9262,9262,
9262,9262,9262,9262,9262,9262,9262,9263,9253,9254,9254,9255,9261,9262,9262,9262,9262,9262,9262,9262,
9252,0,9270,9271,0,10708,0,0,9253,9254,9254,9255,0,0,10708,0,9270,9271,0,9251,
9261,9252,9278,9279,0,10716,0,9245,9259,9254,9254,9259,9247,0,10716,0,9278,9279,9251,9263,
9252,9261,9252,0,0,10724,9245,9259,9254,9254,9254,9254,9259,9247,10724,0,0,9251,9263,9251,
9261,9252,9261,9252,0,9245,9259,9254,9254,9254,9254,9254,9254,9259,9247,0,9251,9263,9251,9263,
0,9261,9252,9253,0,9253,9254,9265,9254,9254,9254,9254,9254,9254,9255,0,9255,9251,9263,0,
0,0,9253,9253,0,9253,9254,9254,9254,9254,9254,9254,9254,9265,9255,0,9255,9255,0,0,
0,0,9253,9253,0,9253,9254,9254,9254,9254,9254,9254,9254,9254,9255,0,9255,9255,0,0,
0,0,9253,9253,0,9253,9254,9265,9254,9254,9254,9254,9265,9254,9255,0,9255,9255,0,0,
0,0,9253,9253,0,9261,9252,9254,9254,9254,9254,9254,9254,9251,9263,0,9255,9255,0,0,
0,0,9253,9253,0,0,9261,9252,9254,9254,9254,9254,9251,9263,0,0,9255,9255,0,0,
0,9245,9259,9253,0,0,0,9261,9252,9254,9254,9251,9263,0,9284,0,9255,9259,9247,0,
9245,9259,9245,9260,0,9284,0,0,9253,9254,9254,9255,0,0,0,0,9259,9247,9259,9247,
9259,9245,9260,0,0,0,0,9284,9253,9254,9254,9255,0,9284,0,0,0,9259,9247,9259,
9245,9260,0,0,0,0,0,0,9253,9254,9254,9255,0,0,0,0,0,0,9259,9247,
9260,0,0,0,0,9284,10708,0,9253,9254,9254,9255,0,0,10708,0,0,0,0,9259,
0,9270,9271,0,0,0,10716,0,9253,9254,9254,9255,9284,0,10716,0,0,9270,9271,0,
0,9278,9279,0,0,0,10724,0,9253,9254,9254,9255,0,0,10724,0,0,9278,9279,0,
0,0,0,0,0,0,0,0,9253,9254,9254,9255,0,0,0,0,0,0,0,0
</data>
 </layer>
 <layer id="3" name="edifici" width="20" height="20">
  <data encoding="csv">
0,0,0,0,0,0,0,0,0,0,0,0,0,0,0,0,0,0,0,0,
0,0,0,0,0,0,0,0,0,0,0,0,0,0,0,0,0,0,0,0,
0,0,0,0,0,0,0,0,0,0,0,0,0,0,0,0,0,0,0,0,
0,0,0,0,0,0,0,0,0,0,0,0,0,0,0,0,0,0,0,0,
0,0,0,0,0,0,0,0,10051,0,0,0,0,0,0,0,0,0,0,0,
0,0,0,0,0,0,0,0,0,0,0,0,0,0,0,0,0,0,0,0,
0,0,0,0,0,0,0,0,10122,10123,10123,10124,10051,0,0,0,0,0,0,0,
0,0,0,0,0,0,0,0,10130,10131,10131,10132,0,0,0,0,0,0,0,0,
0,0,0,0,0,0,0,10051,0,0,0,0,0,10051,0,0,0,0,0,0,
0,0,0,0,0,0,0,0,0,0,0,0,0,0,0,0,0,0,0,0,
0,0,0,0,0,0,0,0,10051,0,0,0,0,0,0,0,0,0,0,0,
0,0,0,0,0,0,0,0,0,0,0,0,0,0,0,0,0,0,0,0,
0,0,0,0,0,0,0,0,0,0,0,0,0,0,0,0,0,0,0,0,
0,0,0,0,0,0,0,0,0,0,0,0,0,0,0,0,0,0,0,0,
0,0,0,0,0,0,0,0,0,0,0,0,0,0,0,0,0,0,0,0,
0,0,0,0,0,0,0,0,0,0,0,0,0,0,0,0,0,0,0,0,
0,0,0,0,0,0,0,0,0,0,0,0,0,0,0,0,0,0,0,0,
0,0,0,0,0,0,0,0,0,0,0,0,0,0,0,0,0,0,0,0,
0,0,0,0,0,0,0,10046,0,0,0,0,10046,0,0,0,0,0,0,0,
0,0,0,0,0,0,0,10054,0,0,0,0,10054,0,0,0,0,0,0,0
</data>
 </layer>
 <objectgroup id="4" name="eventi">
  <object id="1" name="spawn_1f_in" x="304.5" y="589.5" width="32" height="32">
   <properties>
    <property name="id" value="spawn_1f_in"/>
    <property name="type" value="spawn"/>
   </properties>
  </object>
  <object id="3" name="scala su" x="304" y="-8" width="32" height="32">
   <properties>
    <property name="destinazione" value="lega_pokemon_2f"/>
    <property name="spawn_id" value="spawn_2f_in"/>
    <property name="type" value="warp"/>
   </properties>
  </object>
  <object id="4" name="sq_captain" x="304" y="202" width="32" height="32">
   <properties>
    <property name="direzione" value="sud"/>
    <property name="id" value="sq_captain"/>
    <property name="type" value="trainer"/>
    <property name="vista" type="int" value="5"/>
   </properties>
  </object>
 </objectgroup>
</map>
