<?xml version="1.0" encoding="UTF-8"?>
<map version="1.10" tiledversion="1.12.2" orientation="orthogonal" renderorder="right-down" width="20" height="20" tilewidth="32" tileheight="32" infinite="0" nextlayerid="5" nextobjectid="6">
 <tileset firstgid="1" source="../interni_lega_2.tsj"/>
 <tileset firstgid="2653" source="../interno lega acc.tsj"/>
 <tileset firstgid="3677" source="../interno lega psico.tsj"/>
 <tileset firstgid="4701" source="../lega_acc_psico.tsj"/>
 <tileset firstgid="5725" source="../rifugi nemici 3.tsj"/>
 <tileset firstgid="6749" source="../RIFUGIO.tsj"/>
 <tileset firstgid="7773" source="../Tiled/Gyms interior.tsx"/>
 
 <layer id="1" name="ground" width="20" height="20">
  <data encoding="csv">
2786,2654,2786,2654,2786,2654,2786,2654,2786,0,0,2654,2786,2654,2786,2654,2786,2654,2786,2658,
2721,2722,2721,2721,2721,2722,2685,2721,2721,0,0,2721,2717,2721,2722,2721,2721,2722,2721,2721,
2688,2753,2753,2685,2753,2753,2753,2753,2753,0,0,2753,2753,2753,2753,2717,2753,2753,2753,2688,
4806,5925,5925,5925,5925,5925,5925,5925,5925,0,0,5925,5925,5925,5925,5925,5925,5925,0,4806,
4806,5925,0,5925,5925,0,5925,5925,0,6022,6022,0,5925,5925,0,5925,5925,5925,5925,4806,
4957,4806,5925,5925,5925,5925,5925,0,0,6022,6022,0,0,5925,5925,5925,5925,5925,4806,4960,
4989,4990,4806,5925,5925,5925,0,0,6022,6022,6022,6022,0,0,5925,5925,5925,4806,4991,4992,
5021,5022,5023,4806,5925,0,0,6022,6022,6022,6022,6022,6022,0,0,5925,4806,5022,5023,5024,
5053,5054,5055,4806,5925,0,5925,6022,6022,6022,6022,6022,6022,5925,0,5925,4806,5054,5055,5056,
5085,5086,5087,5088,5956,0,4806,6022,6022,6022,6022,6022,6022,5925,0,4806,5085,5086,5087,5088,
4957,4958,4959,4960,2719,0,5925,6022,6022,6022,6022,6022,6022,5925,0,2719,4957,4958,4959,4960,
4989,4990,4991,2752,5925,0,0,5925,6022,6022,6022,6022,5925,0,0,5925,2752,4990,4991,4992,
5021,5022,5023,4806,5925,5925,0,0,5925,6022,6022,5925,0,0,5925,5925,4806,5022,5023,5024,
5053,5054,5055,2718,5925,5925,5925,0,5925,5925,5925,5925,0,5925,5925,5925,2718,5054,5055,5056,
5085,5086,4806,5925,5925,0,5925,0,0,0,0,0,0,5925,5925,5925,5925,5925,5087,5088,
4957,4806,5925,5925,5925,5925,5925,5925,0,0,0,0,5925,5925,0,5925,5925,5925,4806,4960,
4806,5925,5925,5925,0,5925,5925,5925,5925,0,0,5925,5925,5925,5925,5925,5925,5925,5925,4806,
4806,5925,5925,5925,5925,5925,5925,5925,0,0,0,0,5925,5925,5925,0,5925,5925,5925,4806,
4806,5925,0,5925,5925,5925,5925,5925,0,0,0,0,5925,5925,5925,5925,5925,5925,5925,4806,
4806,4806,4806,4806,4806,4806,4806,4806,0,0,0,0,4806,4806,4806,4806,4806,4806,4806,4806
</data>
 </layer>
 <layer id="2" name="deco_sotto" width="20" height="20">
  <data encoding="csv">
0,0,0,0,0,0,0,0,0,2849,2850,0,0,0,0,0,0,0,0,0,
0,0,0,0,6829,0,0,6829,2816,2849,2850,6829,0,6829,0,0,6829,0,6829,0,
0,0,0,0,6861,2816,0,6861,0,2849,2850,6861,0,6861,2816,0,6861,0,6861,0,
2753,0,0,0,0,0,0,0,0,2849,2850,0,0,0,0,0,0,0,0,2753,
2753,0,0,2817,0,0,0,0,0,0,0,0,0,0,0,0,2817,0,0,2753,
0,2751,0,0,0,0,0,0,0,0,0,0,0,0,0,0,0,0,2751,0,
0,0,2785,0,0,0,0,0,0,0,0,0,0,0,0,0,0,2785,0,0,
0,0,0,2751,0,0,0,0,0,0,0,0,0,0,0,0,2751,0,0,0,
0,0,0,2689,0,0,2783,0,0,0,0,0,0,2783,0,0,2689,0,0,0,
0,0,0,0,2718,0,2783,0,0,0,0,0,0,2783,0,2718,0,0,0,0,
0,0,0,0,0,0,2813,0,0,0,0,0,0,2813,0,0,0,0,0,0,
0,0,0,0,0,0,0,2813,0,0,0,0,2813,0,0,0,0,0,0,0,
0,0,0,2751,0,0,0,0,2813,0,0,2813,0,0,0,0,2751,0,0,0,
0,0,0,0,0,0,0,0,2818,2849,2850,2818,0,0,0,0,0,0,0,0,
0,0,2785,0,0,0,0,0,0,2849,2850,0,0,0,0,0,0,2785,0,0,
0,2751,0,0,0,0,0,0,0,2849,2850,0,0,0,0,0,0,0,2751,0,
2785,0,0,0,0,0,0,0,2818,2849,2850,2818,0,0,0,0,0,0,0,2785,
2753,0,0,0,0,0,0,7774,0,2849,2850,0,7774,0,0,0,0,0,0,2753,
2753,0,0,0,0,0,0,7782,0,2849,2850,0,7782,0,0,0,0,0,0,2753,
2848,2848,2848,2848,2848,2848,2848,2848,2848,2849,2850,2848,2848,2848,2848,2848,2848,2848,2848,2848
</data>
 </layer>
 <layer id="3" name="edifici" width="20" height="20">
  <data encoding="csv">
0,0,0,0,0,0,0,0,0,0,0,0,0,0,0,0,0,0,0,0,
0,0,0,0,0,0,0,0,0,0,0,0,0,0,0,0,0,0,0,0,
0,0,0,0,0,0,0,0,0,0,0,0,0,0,0,0,0,0,0,0,
0,0,0,0,0,0,0,0,0,0,0,0,0,0,0,0,0,0,0,0,
0,0,0,0,0,0,0,0,0,0,0,0,0,0,0,0,0,0,0,0,
0,0,0,0,0,0,0,0,0,0,0,0,0,0,0,0,0,0,0,0,
0,0,0,0,0,0,0,0,0,0,0,0,0,0,0,0,0,0,0,0,
0,0,0,0,0,0,0,0,0,0,0,0,0,0,0,0,0,0,0,0,
0,0,0,0,0,0,0,0,0,0,0,0,0,0,0,0,0,0,0,0,
0,0,0,0,5956,0,0,0,0,0,0,0,0,0,0,5956,0,0,0,0,
0,0,0,0,5956,0,0,0,0,0,0,0,0,0,0,5956,0,0,0,0,
0,0,0,0,0,0,0,0,0,0,0,0,0,0,0,0,0,0,0,0,
0,0,0,0,0,0,0,0,0,0,0,0,0,0,0,0,0,0,0,0,
0,0,0,0,0,0,0,0,0,0,0,0,0,0,0,0,0,0,0,0,
0,0,0,0,0,0,0,0,0,0,0,0,0,0,0,0,0,0,0,0,
0,0,0,0,0,0,0,0,0,0,0,0,0,0,0,0,0,0,0,0,
0,0,0,0,0,0,0,0,0,0,0,0,0,0,0,0,0,0,0,0,
0,0,0,0,0,0,0,0,0,0,0,0,0,0,0,0,0,0,0,0,
0,0,0,0,0,0,0,0,0,0,0,0,0,0,0,0,0,0,0,0,
0,0,0,0,0,0,0,0,2818,0,0,2818,0,0,0,0,0,0,0,0
</data>
 </layer>
 <objectgroup id="4" name="eventi">
  <object id="1" name="spawn_4f_in" x="310.836752899197" y="617.505798394291" width="32" height="32">
   <properties>
    <property name="id" value="spawn_4f_in"/>
    <property name="type" value="spawn"/>
   </properties>
  </object>
  <object id="3" name="scala su" x="308.595896520963" y="0.842105263157904" width="32" height="32">
   <properties>
    <property name="destinazione" value="lega_pokemon_5f"/>
    <property name="spawn_id" value="spawn_5f_in"/>
    <property name="type" value="warp"/>
   </properties>
  </object>
  <object id="4" name="sq_marcuois" x="305.370205173952" y="223.414808206958" width="32" height="32">
   <properties>
    <property name="direzione" value="sud"/>
    <property name="id" value="sq_marcuois"/>
    <property name="type" value="trainer"/>
    <property name="vista" type="int" value="5"/>
   </properties>
  </object>
 </objectgroup>
</map>
