<?xml version="1.0" encoding="UTF-8"?>
<map version="1.10" tiledversion="1.12.2" orientation="orthogonal" renderorder="right-down" width="17" height="18" tilewidth="32" tileheight="32" infinite="0" nextlayerid="5" nextobjectid="4">
 <tileset firstgid="1" source="../interni_lega_2.tsj"/>
 <tileset firstgid="2653" source="../interno lega acc.tsj"/>
 <tileset firstgid="3677" source="../interno lega psico.tsj"/>
 <tileset firstgid="4701" source="../lega_acc_psico.tsj"/>
 <tileset firstgid="5725" source="../rifugi nemici 3.tsj"/>
 <tileset firstgid="6749" source="../RIFUGIO.tsj"/>
 <tileset firstgid="7773" source="../Tiled/Gyms interior.tsx"/>
 
 <layer id="1" name="ground" width="17" height="18">
  <data encoding="csv">
8789,8790,8790,8790,8790,8790,8790,8790,8790,8790,8790,8790,8790,8790,8790,8790,0,
8797,8798,8798,8798,8798,8798,8798,8798,8798,8798,8798,8798,8798,8798,8798,8798,0,
8805,8806,8806,8806,8806,8806,8806,8806,8806,8806,8806,8806,8806,8806,8806,8806,0,
8813,8815,8815,8815,8815,8815,8815,8815,8815,8815,8815,8815,8815,8815,8815,8815,0,
8813,8815,8815,8815,8815,8815,8815,8815,8815,8815,8815,8815,8815,8815,8815,8815,0,
8813,8815,8815,8815,8815,8815,8815,8815,8815,8815,8815,8815,8815,8815,8815,8815,0,
8813,8815,8815,8815,8815,8815,8815,8815,8815,8815,8815,8815,8815,8815,8815,8815,0,
8813,8815,8815,8815,8815,8815,8815,8815,8815,8815,8815,8815,8815,8815,8815,8815,0,
8813,8815,8815,8815,8815,8815,8815,8815,8815,8815,8815,8815,8815,8815,8815,8815,0,
8813,8815,8815,8815,8815,8815,8815,8815,8815,8815,8815,8815,8815,8815,8815,8815,0,
8813,8815,8815,8815,8815,8815,8815,8815,8815,8815,8815,8815,8815,8815,8815,8815,0,
8813,8815,8815,8815,8815,8815,8815,8815,8815,8815,8815,8815,8815,8815,8815,8815,0,
8813,8815,8815,8815,8815,8815,8815,8815,8815,8815,8815,8815,8815,8815,8815,8815,0,
8813,8815,8815,8815,8815,8815,8815,8815,8815,8815,8815,8815,8815,8815,8815,8815,0,
0,0,0,0,0,0,0,8815,8815,8815,0,0,0,0,0,0,0,
0,0,0,0,0,0,0,8815,8815,8815,0,0,0,0,0,0,0,
0,0,0,0,0,0,0,8815,8815,8815,0,0,0,0,0,0,0,
0,0,0,0,0,0,0,8815,8815,8815,0,0,0,0,0,0,0
</data>
 </layer>
 <layer id="2" name="deco_sotto" width="17" height="18">
  <data encoding="csv">
0,0,0,0,0,0,8792,8793,8794,8795,8796,0,0,0,0,8790,8831,
0,0,0,0,0,0,8800,8801,8802,8803,8804,0,0,0,0,8798,8839,
0,0,0,0,0,0,8808,8809,8810,8811,8812,0,0,0,0,8806,8847,
0,0,0,0,0,0,8816,8817,8818,8819,8820,0,0,0,0,8815,8855,
0,0,0,0,0,0,8828,8825,8826,8827,8828,0,0,0,0,8815,8863,
0,0,0,0,0,0,8836,0,0,0,8836,0,0,0,0,8815,8863,
0,0,0,0,0,8828,0,0,0,0,0,8828,0,0,0,8815,8863,
0,0,0,0,0,8836,0,0,0,0,0,8836,0,0,0,8815,8863,
0,0,0,0,0,0,0,8833,8834,8835,0,0,0,0,0,8815,8863,
0,0,0,0,0,0,0,8841,8842,8843,0,0,0,0,0,8815,8863,
0,0,0,0,0,0,0,8849,8850,8851,0,0,0,0,0,8815,8863,
0,0,0,0,0,8828,0,0,0,0,0,8828,0,0,0,8815,8863,
0,0,0,0,0,8836,8828,0,0,0,8828,8836,0,0,0,8815,8863,
8821,0,0,0,0,0,8836,0,0,0,8836,0,0,0,0,8815,8871,
0,0,0,0,0,8758,0,8759,8760,8761,0,8758,0,0,0,0,0,
0,0,0,0,0,8758,0,8759,8760,8761,0,8758,0,0,0,0,0,
0,0,0,0,0,8758,0,8759,8760,8761,0,8758,0,0,0,0,0,
0,0,0,0,0,8758,0,8759,8760,8761,0,8758,0,0,0,0,0
</data>
 </layer>
 <layer id="3" name="edifici" width="17" height="18">
  <data encoding="csv">
0,0,0,0,0,0,0,0,0,0,0,0,0,0,0,0,0,
0,0,0,0,0,0,0,0,0,0,0,0,0,0,0,0,0,
0,0,0,0,0,0,0,0,0,0,0,0,0,0,0,0,0,
0,0,0,0,0,0,0,0,0,0,0,0,0,0,0,0,0,
0,0,0,0,0,0,0,0,0,0,0,0,0,0,0,0,0,
0,0,0,0,0,0,0,0,0,0,0,0,0,0,0,0,0,
0,0,0,0,0,0,0,0,0,0,0,0,0,0,0,0,0,
0,0,0,0,0,0,0,0,0,0,0,0,0,0,0,0,0,
0,0,0,0,0,0,0,0,0,0,0,0,0,0,0,0,0,
0,0,0,0,0,0,0,0,0,0,0,0,0,0,0,0,0,
0,0,0,0,0,0,0,0,0,0,0,0,0,0,0,0,0,
0,0,0,0,0,0,0,0,0,0,0,0,0,0,0,0,0,
0,0,0,0,0,0,0,0,0,0,0,0,0,0,0,0,0,
0,0,0,0,0,0,0,0,0,0,0,0,0,0,0,0,0,
0,0,0,0,0,0,0,0,0,0,0,0,0,0,0,0,0,
0,0,0,0,0,0,0,0,0,0,0,0,0,0,0,0,0,
0,0,0,0,0,0,0,0,0,0,0,0,0,0,0,0,0,
0,0,0,0,0,0,0,0,0,0,0,0,0,0,0,0,0
</data>
 </layer>
 <objectgroup id="4" name="eventi">
  <object id="1" name="spawn_5f_in" x="254.92952720785" y="517.109723461195" width="32" height="32">
   <properties>
    <property name="id" value="spawn_5f_in"/>
    <property name="type" value="spawn"/>
   </properties>
  </object>
  <object id="3" name="campione_remo" x="253.8590544157" y="256.942016057092" width="32" height="32">
   <properties>
    <property name="direzione" value="sud"/>
    <property name="id" value="campione_remo"/>
    <property name="type" value="trainer"/>
    <property name="vista" type="int" value="5"/>
   </properties>
  </object>
 </objectgroup>
</map>
