<?xml version="1.0" encoding="UTF-8"?>
<map version="1.10" tiledversion="1.12.2" orientation="orthogonal" renderorder="right-down" width="60" height="88" tilewidth="32" tileheight="32" infinite="0" nextlayerid="6" nextobjectid="418">
 <tileset firstgid="1" source="../Sea.tsj"/>
 <tileset firstgid="99" source="../Outside_pallet.tsx"/>
 <tileset firstgid="4115" source="../../outside.tsx"/>
 <tileset firstgid="8131" source=":/automap-tiles.tsx"/>
 <tileset firstgid="8136" source="../../Emerald_Outside.tsx"/>
 <tileset firstgid="13384" source="../outside.tsx"/>
 <tileset firstgid="17400" source="../fontana.tsj"/>
 <layer id="1" name="ground" width="60" height="88">
  <data encoding="csv">
101,102,102,102,102,104,104,102,102,102,104,102,102,102,102,101,104,102,101,101,104,103,102,102,103,102,104,102,102,101,103,103,101,103,101,104,102,102,103,101,101,104,104,103,102,104,103,104,102,102,102,103,4119,4119,4119,4119,4119,4119,4119,4119,
104,101,104,102,104,102,104,104,102,104,102,104,103,104,102,102,101,101,104,104,103,104,102,101,104,103,103,101,102,104,102,101,102,101,103,104,101,102,102,102,101,104,103,104,104,104,104,101,103,102,103,103,25,26,26,26,26,26,26,26,
101,104,102,101,102,103,104,102,101,102,104,101,104,101,102,101,101,104,101,101,103,104,103,103,104,103,102,101,103,102,101,103,101,101,103,101,101,102,102,103,104,104,104,102,102,103,104,103,102,104,101,103,49,53,53,53,53,53,53,53,
104,103,101,103,102,103,104,102,103,102,103,104,101,104,101,101,103,101,104,103,103,103,104,103,101,104,101,104,102,101,104,103,103,102,104,102,104,103,104,101,104,104,104,103,102,101,101,104,104,102,102,102,49,53,53,53,53,53,53,53,
102,104,104,732,732,732,732,732,732,732,732,732,732,732,732,732,732,101,102,103,104,102,101,102,101,102,102,102,103,104,103,101,101,102,101,102,101,103,104,101,101,103,103,103,104,104,103,103,104,102,103,101,49,53,53,53,53,53,53,53,
102,101,104,103,102,101,104,103,102,103,104,103,103,102,101,103,103,101,101,101,101,102,104,101,101,103,104,104,104,102,101,101,104,101,103,102,104,103,101,101,101,101,101,102,103,101,102,104,104,104,101,103,49,53,53,53,53,53,53,53,
102,103,101,732,732,732,732,732,732,732,732,732,732,732,732,732,732,103,101,102,102,104,102,101,104,103,103,101,101,104,101,102,101,101,103,101,101,103,103,101,101,101,101,104,102,104,102,104,102,103,101,101,49,53,53,53,53,53,53,53,
104,103,103,102,102,101,103,104,103,103,103,102,102,101,103,101,103,102,102,102,102,104,101,102,103,101,102,103,103,103,102,103,101,103,104,104,101,103,103,102,103,101,102,101,103,103,101,103,103,104,101,101,49,53,53,53,53,53,53,53,
101,101,103,732,732,732,732,732,732,732,732,732,732,732,732,732,732,103,103,104,104,104,104,102,102,102,103,102,103,103,102,104,104,102,101,102,103,104,102,102,103,103,101,104,103,103,102,104,104,103,102,101,49,53,53,53,53,53,53,53,
102,102,104,104,102,103,101,103,104,101,103,104,104,102,102,103,102,104,104,103,104,102,103,103,102,104,101,104,102,103,103,104,104,104,101,102,103,103,101,104,103,104,102,103,102,101,104,103,101,103,102,104,49,50,50,50,50,50,50,53,
103,101,104,732,732,732,732,732,732,732,732,732,732,732,732,732,732,102,104,104,102,101,103,104,101,101,103,103,103,101,103,102,102,101,102,102,101,103,432,433,433,433,433,433,433,433,433,434,102,102,104,101,49,50,50,50,50,50,50,53,
101,101,102,104,101,101,102,103,103,104,104,104,101,103,104,102,103,101,104,102,101,103,104,102,432,102,101,104,103,102,101,103,103,101,104,102,102,104,440,441,441,441,441,441,441,441,441,442,102,104,103,102,49,50,50,50,50,50,50,53,
102,104,102,103,103,103,102,103,104,102,101,103,102,103,102,103,104,101,104,102,432,433,433,433,441,433,433,433,433,433,433,433,433,433,433,434,101,103,440,441,441,441,441,441,441,441,441,442,102,102,103,102,49,50,50,50,50,50,50,53,
104,102,104,101,102,102,102,102,104,101,102,101,104,104,101,104,102,101,102,104,440,441,441,441,441,441,441,441,441,441,441,441,441,441,441,442,103,103,448,449,449,449,449,449,449,449,449,450,101,103,104,102,49,50,50,50,50,50,50,53,
103,102,103,103,102,101,432,433,433,441,441,441,441,441,441,441,441,441,441,441,441,441,441,441,441,441,441,441,441,441,441,441,441,441,441,442,103,102,104,104,104,104,101,103,101,103,104,101,103,103,104,102,49,50,50,50,50,50,50,53,
103,103,101,102,103,102,440,441,441,442,103,103,101,102,101,104,102,103,102,101,440,441,441,441,441,441,13726,13726,13726,441,441,441,441,441,441,442,104,103,102,104,103,102,103,101,103,102,101,103,102,103,104,101,49,50,50,50,50,50,50,53,
103,104,103,101,103,103,440,441,441,442,102,101,102,103,103,101,104,103,104,103,440,441,441,441,441,441,13726,13726,13726,441,441,441,441,441,441,442,102,101,102,104,103,102,102,101,104,103,104,104,102,104,102,104,49,50,50,50,50,50,50,53,
101,102,101,104,103,104,440,441,441,442,103,102,103,103,102,101,103,102,102,104,440,441,441,441,441,441,13726,13726,13726,441,441,441,441,441,441,442,103,104,104,103,101,103,104,102,101,104,103,103,101,104,101,102,49,50,50,50,50,50,50,53,
104,103,101,101,102,102,440,441,441,442,103,103,102,101,104,103,102,101,101,101,440,441,441,441,441,441,13726,13726,13726,441,441,441,441,441,441,442,104,104,102,101,103,104,101,102,102,102,104,101,102,103,103,103,49,50,50,50,50,50,50,53,
102,103,101,103,102,103,440,441,441,442,103,101,104,102,101,101,101,101,101,102,440,441,441,441,441,441,441,441,441,441,441,441,441,441,441,442,102,103,102,104,102,103,104,102,103,101,104,102,104,104,104,101,49,50,50,50,50,50,50,53,
103,101,103,102,104,432,441,441,441,442,101,103,432,104,103,101,102,101,101,103,440,441,441,441,441,441,441,441,441,441,441,441,441,441,441,442,103,104,101,104,101,102,104,103,102,102,102,102,101,101,104,102,49,50,50,50,50,50,50,53,
103,104,104,101,103,440,449,449,449,450,101,102,440,102,104,104,102,103,103,102,440,441,441,441,441,441,441,441,441,441,441,441,441,441,441,442,103,101,102,104,101,102,102,102,103,101,102,103,101,103,104,102,49,50,50,50,50,50,50,53,
103,104,104,101,102,440,102,104,103,103,101,102,440,101,102,102,102,101,103,101,440,441,441,441,441,441,441,441,441,441,441,441,441,441,441,441,433,433,433,433,433,434,102,101,102,102,102,101,104,103,104,101,49,50,50,50,50,50,50,53,
103,101,101,102,103,440,101,102,101,104,104,102,440,103,103,104,101,103,103,103,440,441,441,441,441,441,441,441,441,441,441,441,441,441,441,441,441,441,441,441,441,442,104,102,101,104,103,102,103,101,102,103,49,50,50,50,50,50,50,53,
102,104,101,101,101,440,103,103,103,101,102,104,440,103,102,102,104,104,103,104,440,441,441,441,441,441,441,441,441,441,441,441,441,441,441,441,441,441,441,441,441,442,104,103,103,104,103,101,102,104,101,101,49,50,50,50,50,50,50,53,
102,101,102,103,102,441,441,441,441,441,441,441,440,104,103,101,102,104,104,101,448,449,449,449,449,449,441,441,441,441,449,449,449,449,449,449,449,449,449,449,449,450,101,103,104,104,101,101,104,102,104,104,49,50,50,50,50,50,50,53,
102,102,102,103,104,440,103,102,102,102,104,104,440,104,104,101,101,104,104,102,101,101,103,101,103,101,440,441,441,442,102,101,104,104,101,104,103,104,104,102,102,103,104,102,104,102,103,102,101,102,101,104,49,50,50,50,50,50,50,53,
102,101,103,102,101,440,101,102,102,104,101,101,440,102,102,104,101,101,103,102,103,102,101,104,102,102,440,441,441,442,103,102,102,102,104,102,101,103,103,102,104,102,104,102,102,104,102,104,103,102,104,101,49,50,50,50,50,50,50,53,
104,102,101,104,103,440,103,104,103,103,101,104,440,103,102,103,101,102,102,102,102,104,101,103,103,103,440,441,441,441,433,433,433,433,433,433,433,433,433,433,433,433,433,433,433,433,433,433,433,434,104,102,49,50,50,50,50,50,50,53,
102,101,101,103,101,440,103,102,103,102,104,102,440,434,102,102,103,104,103,101,101,104,104,102,102,102,440,441,441,441,441,441,441,441,441,441,441,441,441,441,441,441,441,441,441,441,441,441,441,442,104,103,49,50,50,50,50,50,50,53,
104,103,104,103,103,440,104,102,101,102,101,102,440,442,102,101,102,104,104,104,103,101,101,102,102,101,440,441,441,441,449,449,449,449,449,449,449,449,449,449,449,449,449,449,449,449,449,449,449,450,101,102,49,50,50,50,50,50,50,53,
104,102,102,104,102,448,104,103,101,102,103,103,448,442,104,104,101,102,104,103,104,104,102,104,101,101,440,441,441,442,104,103,102,104,103,103,101,102,103,102,103,103,102,101,102,101,102,102,102,102,102,103,49,50,50,50,50,50,50,53,
104,101,104,104,103,441,441,441,441,441,441,441,441,440,101,104,101,102,103,102,101,103,103,102,102,104,440,441,441,442,104,101,103,101,103,103,102,104,102,103,101,104,102,103,103,104,104,104,103,104,102,104,49,50,50,50,50,50,50,53,
104,104,103,102,103,102,103,103,102,102,104,102,103,440,104,101,101,104,104,103,101,101,103,103,101,101,440,441,441,442,103,102,104,103,103,102,101,104,104,104,101,103,103,101,104,102,101,103,103,102,103,102,49,50,50,50,50,50,50,53,
103,103,103,101,103,103,103,102,104,102,101,103,104,440,103,103,103,102,102,103,104,104,102,101,102,104,440,441,441,442,102,104,103,102,104,104,102,104,104,101,104,102,102,101,103,102,103,103,103,103,102,103,49,50,50,50,50,50,50,53,
101,102,101,103,103,101,104,102,103,102,101,103,102,440,101,103,102,104,103,102,102,104,102,102,101,102,440,441,441,442,104,103,102,104,104,103,101,101,103,102,104,102,101,101,102,104,104,103,103,103,102,104,49,50,50,50,50,50,50,53,
103,101,103,104,103,103,432,433,433,433,433,433,433,441,433,433,433,433,433,433,433,433,433,433,433,433,441,441,441,442,103,103,101,103,102,102,104,103,104,101,101,101,103,103,102,101,103,102,104,102,104,104,49,50,50,50,50,50,50,53,
104,101,103,104,103,432,441,441,441,441,441,441,441,441,441,441,441,441,441,441,441,441,441,441,441,441,441,441,441,442,101,103,103,102,432,102,102,101,102,102,101,104,104,102,102,103,104,104,104,104,102,104,49,50,50,50,50,50,50,53,
103,101,101,104,104,440,441,441,441,441,441,441,441,441,441,441,441,441,441,441,441,441,441,441,441,441,441,441,441,442,101,102,102,103,440,101,102,103,104,102,104,104,101,102,103,103,103,102,101,104,104,101,49,50,50,50,50,50,50,53,
103,101,101,104,103,440,449,449,449,449,449,449,449,449,449,449,449,449,449,449,449,449,449,449,449,449,441,441,441,442,104,101,101,102,440,103,103,103,104,104,103,102,102,103,103,104,102,103,104,102,104,102,49,50,50,50,50,50,50,53,
103,102,101,102,104,440,101,101,102,103,103,101,101,102,102,102,104,102,101,103,104,101,102,102,103,102,440,441,441,442,101,103,101,103,440,102,101,104,101,103,103,102,103,103,103,102,102,102,104,103,103,104,49,50,50,50,50,50,50,53,
104,101,102,101,102,440,103,102,102,102,101,104,104,101,101,102,104,103,103,101,103,104,103,101,101,104,440,441,441,442,101,101,102,101,440,103,104,104,103,101,104,101,101,104,101,104,101,102,101,103,102,104,49,50,50,50,50,50,50,53,
103,102,101,102,104,440,103,103,103,101,104,104,101,102,104,103,101,101,104,103,102,104,103,103,103,104,440,441,441,442,104,103,102,103,440,102,102,104,102,102,102,102,102,104,101,104,103,103,103,102,103,101,49,50,50,50,50,50,50,53,
102,103,102,102,103,440,103,101,102,103,101,432,104,103,104,104,104,104,104,101,102,102,103,102,102,104,440,441,441,442,101,101,101,104,440,104,103,103,102,103,103,101,101,103,101,102,102,102,103,104,104,102,73,74,74,74,74,74,74,53,
104,101,101,101,101,440,103,104,102,102,103,440,103,103,102,102,103,103,103,103,104,102,104,103,104,104,440,441,441,442,104,102,102,101,440,101,103,102,104,102,103,104,102,101,104,104,104,104,102,104,103,102,4964,4964,4964,4964,4964,4964,4964,4964,
103,104,104,101,104,440,101,103,102,104,104,440,104,104,104,104,101,103,102,102,101,104,101,101,103,104,440,441,441,442,102,102,102,104,440,434,104,102,103,103,101,103,102,101,102,432,101,102,101,103,103,103,101,104,102,101,103,102,104,102,
104,102,102,103,102,440,103,104,103,101,102,440,104,103,104,103,102,102,102,104,102,102,104,104,103,103,440,441,441,442,102,103,104,103,440,442,102,103,101,104,102,104,104,102,103,440,101,102,104,101,101,102,101,104,103,103,102,102,104,104,
104,103,103,101,104,441,441,441,441,441,441,440,441,441,441,441,441,441,441,441,441,441,441,441,441,441,440,441,441,442,441,441,441,441,440,442,441,441,441,441,441,441,441,441,441,440,104,104,103,103,104,101,103,102,102,102,104,101,102,102,
101,102,104,102,103,448,104,102,103,101,104,440,102,102,103,102,104,101,103,103,102,104,101,102,104,103,440,441,441,442,101,104,103,101,448,442,101,104,104,102,101,102,103,104,103,440,101,103,103,102,102,104,101,101,104,101,101,104,101,104,
104,102,102,104,101,104,101,103,104,104,104,448,104,102,101,103,102,104,101,103,104,102,102,104,103,102,448,449,449,450,103,103,104,104,101,448,101,102,102,104,102,103,104,101,103,448,102,104,101,104,104,103,104,103,101,102,101,102,104,101,
4119,4119,4119,4119,4119,4119,4119,4119,4119,4119,4119,4119,4119,4119,4119,4119,4119,4119,4119,4119,4119,4119,4119,4119,4119,4119,4119,4119,4119,4119,4119,4119,4119,4119,4119,4119,4119,4119,4119,4119,4119,4119,4119,4119,4119,4119,4119,4119,4119,4119,4119,4119,4119,4119,4119,4119,4119,4119,4119,4119,
4119,4119,4119,4119,4119,4119,4119,4119,4119,4119,4119,4119,4119,4119,4119,4119,4119,4119,4119,4119,4119,4119,4119,4119,4119,4119,4119,4119,4119,4119,4119,4119,4119,4119,4119,4119,4119,4119,4119,4119,4119,4119,4119,4119,4119,4119,4119,4119,4119,4119,4119,4119,4119,4119,4119,4119,4119,4119,4119,4119,
4119,4119,4119,4119,4119,4119,4119,4119,4119,4119,4119,4119,4119,4119,4119,4119,4119,4119,4119,4119,4119,4119,4119,4119,4119,4119,4119,4119,4119,4119,4119,4119,4119,4119,4119,4119,4119,4119,4119,4119,4119,4119,4119,4119,4119,4119,4119,4119,4119,4119,4119,4119,4119,4119,4119,4119,4119,4119,4119,4119,
4119,4119,4119,4119,4119,4119,4119,4119,4119,4119,4119,4119,4119,4119,4119,4119,4119,4119,4119,4119,4119,4119,4119,4119,4119,4119,4119,4119,4119,4119,4119,4119,4119,4119,4119,4119,4119,4119,4119,4119,4119,4119,4119,4119,4119,4119,4119,4119,4119,4119,4119,4119,4119,4119,4119,4119,4119,4119,4119,4119,
4119,4119,4119,4119,4119,4119,4119,4119,4119,4119,4119,4119,4119,4119,4119,4119,4119,4119,4119,4119,4119,4119,4119,4119,4119,4119,4119,4119,4119,4119,4119,4119,4119,4119,4119,4119,4119,4119,4119,4119,4119,4119,4119,4119,4119,4119,4119,4119,4119,4119,4119,4119,4119,4119,4119,4119,4119,4119,4119,4119,
4119,4119,4119,4119,4119,4119,4119,4119,4119,4119,4119,4119,4119,4119,4119,4119,4119,4119,4119,4119,4119,4119,4119,4119,4119,4119,4119,4119,4119,4119,4119,4119,4119,4119,4119,4119,4119,4119,4119,4119,4119,4119,4119,4119,4119,4119,4119,4119,4119,4119,4119,4119,4119,4119,4119,4119,4119,4119,4119,4119,
4119,4119,4119,4119,4119,4119,4119,4119,4119,4119,4119,4119,4119,4119,4119,4119,4119,4119,4119,4119,4119,4119,4119,4119,4119,4119,4119,4119,4119,4119,4119,4119,4119,4119,4119,4119,4119,4119,4119,4119,4119,4119,4119,4119,4119,4119,4119,4119,4119,4119,4119,4119,4119,4119,4119,4119,4119,4119,4119,4119,
4119,4119,4119,4119,4119,4119,4119,4119,4119,4119,4119,4119,4119,4119,4119,4119,4119,4119,4119,4119,4119,4119,4119,4119,4119,4119,4119,4119,4119,4119,4119,4119,4119,4119,4119,4119,4119,4119,4119,4119,4119,4119,4119,4119,4119,4119,4119,4119,4119,4119,4119,4119,4119,4119,4119,4119,4119,4119,4119,4119,
4119,4119,4119,4119,4119,4119,4119,4119,4119,4119,4119,4119,4119,4119,4119,4119,4119,4119,4119,4119,4119,4119,4119,4119,4119,4119,4119,4119,4119,4119,4119,4119,4119,4119,4119,4119,4119,4119,4119,4119,4119,4119,4119,4119,4119,4119,4119,4119,4119,4119,4119,4119,4119,4119,4119,4119,4119,4119,4119,4119,
4119,4119,4119,4119,4119,4119,4119,4119,4119,4119,4119,4119,4119,4119,4119,4119,4119,4119,4119,4119,4119,4119,4119,4119,4119,4119,4119,4119,4119,4119,4119,4119,4119,4119,4119,4119,4119,4119,4119,4119,4119,4119,4119,4119,4119,4119,4119,4119,4119,4119,4119,4119,4119,4119,4119,4119,4119,4119,4119,4119,
4119,4119,4119,4119,4119,4119,4119,4119,4119,4119,4119,4119,4119,4119,4119,4119,4119,4119,4119,4119,4119,4119,4119,4119,4119,4119,4119,4119,4119,4119,4119,4119,4119,4119,4119,4119,4119,4119,4119,4119,4119,4119,4119,4119,4119,4119,4119,4119,4119,4119,4119,4119,4119,4119,4119,4119,4119,4119,4119,4119,
4119,4119,4119,4119,4119,4119,4119,4119,4119,4119,4119,4119,4119,4119,4119,4119,4119,4119,4119,4119,4119,4119,4119,4119,4119,4119,4119,4119,4119,4119,4119,4119,4119,4119,4119,4119,4119,4119,4119,4119,4119,4119,4119,4119,4119,4119,4119,4119,4119,4119,4119,4119,4119,4119,4119,4119,4119,4119,4119,4119,
4119,4119,4119,4119,4119,4119,4119,4119,4119,4119,4119,4119,4119,4119,4119,4119,4119,4119,4119,4119,4119,4119,4119,4119,4119,4119,4119,4119,4119,4119,4119,4119,4119,4119,4119,4119,4119,4119,4119,4119,4119,4119,4119,4119,4119,4119,4119,4119,4119,4119,4119,4119,4119,4119,4119,4119,4119,4119,4119,4119,
4119,4119,4119,4119,4119,4119,4119,4119,4119,4119,4119,4119,4119,4119,4119,4119,4119,4119,4119,4119,4119,4119,4119,4119,4119,4119,4119,4119,4119,4119,4119,4119,4119,4119,4119,4119,4119,4119,4119,4119,4119,4119,4119,4119,4119,4119,4119,4119,4119,4119,4119,4119,4119,4119,4119,4119,4119,4119,4119,4119,
4119,4119,4119,4119,4119,4119,4119,4119,4119,4119,4119,4119,4119,4119,4119,4119,4119,4119,4119,4119,4119,4119,4119,4119,4119,4119,4119,4119,4119,4119,4119,4119,4119,4119,4119,4119,4119,4119,4119,4119,4119,4119,4119,4119,4119,4119,4119,4119,4119,4119,4119,4119,4119,4119,4119,4119,4119,4119,4119,4119,
4119,4119,4119,4119,4119,4119,4119,4119,4119,4119,4119,4119,4119,4119,4119,4119,4119,4119,4119,4119,4119,4119,4119,4119,4119,4119,4119,4119,4119,4119,4119,4119,4119,4119,4119,4119,4119,4119,4119,4119,4119,4119,4119,4119,4119,4119,4119,4119,4119,4119,4119,4119,4119,4119,4119,4119,4119,4119,4119,4119,
4119,4119,4119,4119,4119,4119,4119,4119,4119,4119,4119,4119,4119,4119,4119,4119,4119,4119,4119,4119,4119,4119,4119,4119,4119,4119,4119,4119,4119,4119,4119,4119,4119,4119,4119,4119,4119,4119,4119,4119,4119,4119,4119,4119,4119,4119,4119,4119,4119,4119,4119,4119,4119,4119,4119,4119,4119,4119,4119,4119,
4119,4119,4119,4119,4119,4119,4119,4119,4119,4119,4119,4119,4119,4119,4119,4119,4119,4119,4119,4119,4119,4119,4119,4119,4119,4119,4119,4119,4119,4119,4119,4119,4119,4119,4119,4119,4119,4119,4119,4119,4119,4119,4119,4119,4119,4119,4119,4119,4119,4119,4119,4119,4119,4119,4119,4119,4119,4119,4119,4119,
4119,4119,4119,4119,4119,4119,4119,4119,4119,4119,4119,4119,4119,4119,4119,4119,4119,4119,4119,4119,4119,4119,4119,4119,4119,4119,4119,4119,4119,4119,4119,4119,4119,4119,4119,4119,4119,4119,4119,4119,4119,4119,4119,4119,4119,4119,4119,4119,4119,4119,4119,4119,4119,4119,4119,4119,4119,4119,4119,4119,
4119,4119,4119,4119,4119,4119,4119,4119,4119,4119,4119,4119,4119,4119,4119,4119,4119,4119,4119,4119,4119,4119,4119,4119,4119,4119,4119,4119,4119,4119,4119,4119,4119,4119,4119,4119,4119,4119,4119,4119,4119,4119,4119,4119,4119,4119,4119,4119,4119,4119,4119,4119,4119,4119,4119,4119,4119,4119,4119,4119,
4119,4119,4119,4119,4119,4119,4119,4119,4119,4119,4119,4119,4119,4119,4119,4119,4119,4119,4119,4119,4119,4119,4119,4119,4119,4119,4119,4119,4119,4119,4119,4119,4119,4119,4119,4119,4119,4119,4119,4119,4119,4119,4119,4119,4119,4119,4119,4119,4119,4119,4119,4119,4119,4119,4119,4119,4119,4119,4119,4119,
4119,4119,4119,4119,4119,4119,4119,4119,4119,4119,4119,4119,4119,4119,4119,4119,4119,4119,4119,4119,4119,4119,4119,4119,4119,4119,4119,4119,4119,4119,4119,4119,4119,4119,4119,4119,4119,4119,4119,4119,4119,4119,4119,4119,4119,4119,4119,4119,4119,4119,4119,4119,4119,4119,4119,4119,4119,4119,4119,4119,
4119,4119,4119,4119,4119,4119,4119,4119,4119,4119,4119,4119,4119,4119,4119,4119,4119,4119,4119,4119,4119,4119,4119,4119,4119,4119,4119,4119,4119,4119,4119,4119,4119,4119,4119,4119,4119,4119,4119,4119,4119,4119,4119,4119,4119,4119,4119,4119,4119,4119,4119,4119,4119,4119,4119,4119,4119,4119,4119,4119,
4119,4119,4119,4119,4119,4119,4119,4119,4119,4119,4119,4119,4119,4119,4119,4119,4119,4119,4119,4119,4119,4119,4119,4119,4119,4119,4119,4119,4119,4119,4119,4119,4119,4119,4119,4119,4119,4119,4119,4119,4119,4119,4119,4119,4119,4119,4119,4119,4119,4119,4119,4119,4119,4119,4119,4119,4119,4119,4119,4119,
4119,4119,4119,4119,4119,4119,4119,4119,4119,4119,4119,4119,4119,4119,4119,4119,4119,4119,4119,4119,4119,4119,4119,4119,4119,4119,4119,4119,4119,4119,4119,4119,4119,4119,4119,4119,4119,4119,4119,4119,4119,4119,4119,4119,4119,4119,4119,4119,4119,4119,4119,4119,4119,4119,4119,4119,4119,4119,4119,4119,
4119,4119,4119,4119,4119,4119,4119,4119,4119,4119,4119,4119,4119,4119,4119,4119,4119,4119,4119,4119,4119,4119,4119,4119,4119,4119,4119,4119,4119,4119,4119,4119,4119,4119,4119,4119,4119,4119,4119,4119,4119,4119,4119,4119,4119,4119,4119,4119,4119,4119,4119,4119,4119,4119,4119,4119,4119,4119,4119,4119,
4119,4119,4119,4119,4119,4119,4119,4119,4119,4119,4119,4119,4119,4119,4119,4119,4119,4119,4119,4119,4119,4119,4119,4119,4119,4119,4119,4119,4119,4119,4119,4119,4119,4119,4119,4119,4119,4119,4119,4119,4119,4119,4119,4119,4119,4119,4119,4119,4119,4119,4119,4119,4119,4119,4119,4119,4119,4119,4119,4119,
4119,4119,4119,4119,4119,4119,4119,4119,4119,4119,4119,4119,4119,4119,4119,4119,4119,4119,4119,4119,4119,4119,4119,4119,4119,4119,4119,4119,4119,4119,4119,4119,4119,4119,4119,4119,4119,4119,4119,4119,4119,4119,4119,4119,4119,4119,4119,4119,4119,4119,4119,4119,4119,4119,4119,4119,4119,4119,4119,4119,
4119,4119,4119,4119,4119,4119,4119,4119,4119,4119,4119,4119,4119,4119,4119,4119,4119,4119,4119,4119,4119,4119,4119,4119,4119,4119,4119,4119,4119,4119,4119,4119,4119,4119,4119,4119,4119,4119,4119,4119,4119,4119,4119,4119,4119,4119,4119,4119,4119,4119,4119,4119,4119,4119,4119,4119,4119,4119,4119,4119,
4119,4119,4119,4119,4119,4119,4119,4119,4119,4119,4119,4119,4119,4119,4119,4119,4119,4119,4119,4119,4119,4119,4119,4119,4119,4119,4119,4119,4119,4119,4119,4119,4119,4119,4119,4119,4119,4119,4119,4119,4119,4119,4119,4119,4119,4119,4119,4119,4119,4119,4119,4119,4119,4119,4119,4119,4119,4119,4119,4119,
4119,4119,4119,4119,4119,4119,4119,4119,4119,4119,4119,4119,4119,4119,4119,4119,4119,4119,4119,4119,4119,4119,4119,4119,4119,4119,4119,4119,4119,4119,4119,4119,4119,4119,4119,4119,4119,4119,4119,4119,4119,4119,4119,4119,4119,4119,4119,4119,4119,4119,4119,4119,4119,4119,4119,4119,4119,4119,4119,4119,
4119,4119,4119,4119,4119,4119,4119,4119,4119,4119,4119,4119,4119,4119,4119,4119,4119,4119,4119,4119,4119,4119,4119,4119,4119,4119,4119,4119,4119,4119,4119,4119,4119,4119,4119,4119,4119,4119,4119,4119,4119,4119,4119,4119,4119,4119,4119,4119,4119,4119,4119,4119,4119,4119,4119,4119,4119,4119,4119,4119,
4119,4119,4119,4119,4119,4119,4119,4119,4119,4119,4119,4119,4119,4119,4119,4119,4119,4119,4119,4119,4119,4119,4119,4119,4119,4119,4119,4119,4119,4119,4119,4119,4119,4119,4119,4119,4119,4119,4119,4119,4119,4119,4119,4119,4119,4119,4119,4119,4119,4119,4119,4119,4119,4119,4119,4119,4119,4119,4119,4119,
4119,4119,4119,4119,4119,4119,4119,4119,4119,4119,4119,4119,4119,4119,4119,4119,4119,4119,4119,4119,4119,4119,4119,4119,4119,4119,4119,4119,4119,4119,4119,4119,4119,4119,4119,4119,4119,4119,4119,4119,4119,4119,4119,4119,4119,4119,4119,4119,4119,4119,4119,4119,4119,4119,4119,4119,4119,4119,4119,4119,
4119,4119,4119,4119,4119,4119,4119,4119,4119,4119,4119,4119,4119,4119,4119,4119,4119,4119,4119,4119,4119,4119,4119,4119,4119,4119,4119,4119,4119,4119,4119,4119,4119,4119,4119,4119,4119,4119,4119,4119,4119,4119,4119,4119,4119,4119,4119,4119,4119,4119,4119,4119,4119,4119,4119,4119,4119,4119,4119,4119,
4119,4119,4119,4119,4119,4119,4119,4119,4119,4119,4119,4119,4119,4119,4119,4119,4119,4119,4119,4119,4119,4119,4119,4119,4119,4119,4119,4119,4119,4119,4119,4119,4119,4119,4119,4119,4119,4119,4119,4119,4119,4119,4119,4119,4119,4119,4119,4119,4119,4119,4119,4119,4119,4119,4119,4119,4119,4119,4119,4119,
4119,4119,4119,4119,4119,4119,4119,4119,4119,4119,4119,4119,4119,4119,4119,4119,4119,4119,4119,4119,4119,4119,4119,4119,4119,4119,4119,4119,4119,4119,4119,4119,4119,4119,4119,4119,4119,4119,4119,4119,4119,4119,4119,4119,4119,4119,4119,4119,4119,4119,4119,4119,4119,4119,4119,4119,4119,4119,4119,4119,
4119,4119,4119,4119,4119,4119,4119,4119,4119,4119,4119,4119,4119,4119,4119,4119,4119,4119,4119,4119,4119,4119,4119,4119,4119,4119,4119,4119,4119,4119,4119,4119,4119,4119,4119,4119,4119,4119,4119,4119,4119,4119,4119,4119,4119,4119,4119,4119,4119,4119,4119,4119,4119,4119,4119,4119,4119,4119,4119,4119
</data>
 </layer>
 <layer id="2" name="deco_sotto" width="60" height="88">
  <data encoding="csv">
0,0,0,0,0,0,0,0,0,0,0,0,0,0,0,0,0,0,0,0,0,0,0,0,0,0,0,0,0,0,0,0,0,0,0,0,0,0,0,0,0,0,0,0,0,0,0,0,0,0,0,0,0,0,0,0,0,0,0,0,
0,0,0,0,0,0,0,0,0,0,0,0,0,0,0,0,0,0,0,0,0,0,0,0,0,0,0,0,0,0,0,0,0,0,0,0,0,0,0,0,0,0,0,0,0,0,0,0,0,0,0,0,0,0,0,0,0,0,0,0,
0,0,252,253,253,253,253,253,253,253,253,253,253,253,253,253,253,254,105,105,105,105,105,105,105,105,105,105,105,105,105,105,105,105,105,105,105,105,105,0,0,0,0,0,0,0,0,0,0,0,0,0,0,0,0,0,0,0,0,0,
0,0,260,261,261,261,261,261,261,261,261,261,261,261,261,261,261,262,105,105,105,105,105,105,105,105,105,105,105,105,105,105,105,105,105,105,105,105,105,0,0,0,0,0,0,0,0,0,0,0,0,0,0,0,0,0,0,0,0,0,
0,0,260,261,261,261,261,261,261,261,261,261,261,261,261,261,261,262,105,105,105,105,105,105,105,105,105,105,105,105,105,105,105,105,105,105,105,105,105,0,0,0,0,0,0,0,0,0,0,0,0,0,0,0,0,0,0,0,0,0,
0,0,260,261,261,261,261,261,261,261,261,261,261,261,261,261,261,262,105,105,0,0,0,0,0,0,0,0,0,0,0,0,0,0,0,0,0,0,0,0,0,0,0,0,0,0,0,0,0,0,0,0,0,0,0,0,0,0,0,0,
0,0,260,261,261,261,261,261,261,261,261,261,261,261,261,261,261,262,105,105,0,0,0,0,0,0,0,0,0,0,0,0,0,0,0,0,0,0,0,0,0,0,0,0,0,0,0,0,0,0,0,0,0,0,0,0,0,0,0,0,
0,0,260,261,261,261,261,261,261,261,261,261,261,261,261,261,261,262,105,105,0,0,0,0,0,0,0,0,0,0,0,0,0,0,0,1055,0,0,0,0,0,0,0,0,0,0,0,0,0,0,0,0,0,0,0,0,0,0,0,0,
0,0,260,261,261,261,261,261,261,261,261,261,261,261,261,261,261,262,105,105,0,0,0,0,0,0,0,0,0,0,0,0,0,0,0,0,0,0,0,0,0,0,0,0,0,0,0,0,0,0,0,0,0,0,0,0,0,0,0,0,
0,0,260,261,261,261,261,261,261,261,261,261,261,261,261,261,261,262,105,105,0,0,0,0,0,0,0,0,0,0,0,1055,0,0,0,0,0,0,0,0,0,0,0,0,0,0,0,0,0,0,0,0,0,0,0,0,0,0,0,0,
0,0,260,261,261,261,261,261,261,261,261,261,261,261,261,261,261,262,0,0,0,0,0,0,0,0,0,0,0,0,0,0,0,0,0,0,0,0,0,0,0,0,0,0,0,0,0,0,0,0,0,0,0,0,0,0,0,0,0,0,
0,0,260,261,261,261,261,261,261,261,261,261,261,261,261,261,261,262,0,0,0,0,0,0,0,0,0,0,0,0,0,0,0,0,0,0,0,0,0,0,0,0,0,0,0,0,0,0,0,0,0,0,0,0,0,0,0,0,0,0,
0,0,268,269,269,269,269,269,269,269,269,269,269,269,269,269,269,270,0,0,0,0,0,0,0,0,0,0,0,0,0,0,0,0,0,0,0,0,0,0,0,0,0,0,0,0,0,0,0,0,0,0,0,0,0,0,0,0,0,0,
0,0,0,0,0,0,0,0,0,0,0,0,0,0,0,0,0,0,0,0,0,1055,1055,0,0,0,0,0,0,0,0,0,0,1055,1055,0,0,0,0,0,0,0,0,0,0,0,0,0,0,0,0,0,0,0,0,0,0,0,0,0,
0,0,0,0,0,0,0,0,0,0,0,0,0,0,0,0,0,0,0,0,0,0,0,0,0,0,0,0,0,0,0,0,0,0,0,0,0,0,0,1055,0,1055,0,0,0,0,0,0,0,0,0,0,0,0,0,0,0,0,0,0,
0,0,0,0,0,0,0,0,0,0,0,0,0,0,0,0,0,0,0,0,0,0,0,0,0,0,0,0,0,0,0,0,0,0,0,0,0,0,0,0,0,0,0,0,0,0,0,0,0,0,0,0,0,0,0,0,0,0,0,0,
0,0,0,0,0,0,0,0,0,0,0,0,0,0,0,0,0,1055,0,0,0,0,0,0,0,0,0,0,0,0,0,0,0,0,0,0,0,0,0,0,0,0,0,0,0,0,0,0,0,0,0,0,0,0,0,0,0,0,0,0,
0,0,0,0,0,0,0,0,0,0,0,0,0,0,0,0,0,0,0,0,0,0,0,0,0,0,0,0,0,0,0,0,0,0,0,0,0,0,0,0,0,0,0,0,0,0,0,0,0,0,0,0,0,0,0,0,0,0,0,0,
0,0,0,0,0,0,0,0,0,0,0,0,0,0,0,0,0,0,0,0,0,0,0,0,0,0,0,0,0,0,0,0,0,0,0,0,0,0,0,0,0,0,0,0,0,0,0,0,0,0,0,0,0,0,0,0,0,0,0,0,
0,0,0,0,0,0,0,0,0,0,0,0,0,0,0,0,0,1055,0,0,0,0,0,0,0,0,0,0,0,0,0,0,0,0,0,0,0,0,0,0,0,1055,0,0,0,0,0,1055,0,0,0,0,0,0,0,0,0,0,0,0,
0,0,0,0,0,0,0,0,0,0,0,0,0,0,0,0,0,0,0,0,0,0,0,0,0,0,0,0,0,0,0,0,0,0,0,0,0,0,0,0,0,0,0,0,0,0,0,0,0,0,0,0,0,0,0,0,0,0,0,0,
0,0,0,0,0,0,0,0,0,0,0,0,0,0,0,0,0,0,0,0,0,0,0,0,0,0,0,0,0,0,0,0,0,0,0,0,0,0,0,0,0,0,0,0,0,0,0,0,0,0,0,0,0,0,0,0,0,0,0,0,
0,0,0,0,0,0,0,0,0,0,0,0,0,0,0,0,0,0,0,0,0,1055,1055,0,0,0,0,0,0,0,0,0,0,1055,1055,0,0,0,0,0,0,0,0,0,0,0,0,0,0,0,0,0,0,0,0,0,0,0,0,0,
0,0,0,0,0,0,0,0,0,0,0,0,0,0,0,0,0,0,0,0,0,0,0,0,0,0,0,0,0,0,0,0,0,0,0,0,0,0,0,0,0,0,0,0,0,0,0,0,0,0,0,0,0,0,0,0,0,0,0,0,
0,0,0,0,0,0,0,0,0,0,0,0,0,0,0,0,0,0,0,0,0,0,0,0,0,0,0,0,0,0,0,0,0,0,0,0,0,0,0,0,0,0,0,0,0,0,0,0,0,0,0,0,0,0,0,0,0,0,0,0,
0,0,0,0,0,0,0,0,0,0,0,0,0,0,0,0,0,0,0,0,0,0,0,0,0,0,0,0,0,0,0,0,0,0,0,0,0,0,0,0,0,0,0,0,0,0,0,0,0,0,0,0,0,0,0,0,0,0,0,0,
0,0,0,0,0,0,0,0,0,0,0,0,0,0,0,0,0,0,0,0,0,0,0,0,0,0,0,0,0,0,0,0,0,0,0,0,0,0,0,0,0,0,0,0,0,0,0,0,0,0,0,0,0,0,0,0,0,0,0,0,
0,0,0,0,0,0,0,0,0,0,0,0,0,0,0,0,0,0,0,0,0,0,0,0,0,0,0,0,0,0,0,0,0,0,0,0,0,0,0,0,0,0,0,0,0,0,0,0,0,0,0,0,0,0,0,0,0,0,0,0,
0,0,0,0,0,0,0,0,0,0,0,0,0,0,0,0,0,0,0,0,0,0,0,0,0,0,0,0,0,0,0,0,0,0,0,0,0,0,0,0,0,0,0,0,0,0,0,0,0,0,0,0,0,0,0,0,0,0,0,0,
0,0,0,0,0,0,0,0,0,0,0,0,0,0,0,0,0,0,0,0,0,0,0,0,1055,0,0,0,0,0,0,0,0,0,0,0,0,0,0,0,0,0,0,0,0,0,0,0,0,0,0,0,0,0,0,0,0,0,0,0,
0,0,0,0,0,0,0,0,0,0,0,0,0,0,0,0,0,0,0,0,0,0,0,0,0,0,0,0,0,0,0,0,0,0,0,0,0,0,0,0,0,0,0,0,0,0,0,0,0,0,0,0,0,0,0,0,0,0,0,0,
0,0,0,0,0,0,0,0,0,0,0,0,0,0,0,0,0,0,0,0,0,0,0,0,0,0,0,0,0,0,0,0,0,0,0,0,0,0,0,0,0,0,0,0,0,0,0,0,0,0,0,0,0,0,0,0,0,0,0,0,
0,0,0,0,0,0,0,0,0,0,0,0,0,0,0,0,0,0,0,0,0,0,0,0,1055,0,0,0,0,0,0,0,0,0,0,0,0,0,0,0,0,0,0,0,0,0,0,0,0,0,0,0,0,0,0,0,0,0,0,0,
0,0,0,0,0,0,0,0,0,0,0,0,0,0,0,0,0,0,0,0,0,0,0,0,0,0,0,0,0,0,0,0,0,0,0,0,0,0,1055,0,0,0,0,0,0,0,0,0,0,0,0,0,0,0,0,0,0,0,0,0,
0,0,0,0,0,0,0,0,0,0,0,0,0,0,0,0,0,0,0,0,0,0,0,0,0,0,0,0,0,0,0,0,0,0,0,0,0,0,0,0,1055,0,0,0,0,0,0,0,0,0,0,0,0,0,0,0,0,0,0,0,
0,0,0,0,0,0,0,0,0,0,0,0,0,0,0,0,0,0,0,0,0,0,0,0,0,0,0,0,0,0,0,0,0,0,0,0,0,0,0,0,0,0,0,0,0,0,1055,0,0,0,0,0,0,0,0,0,0,0,0,0,
0,0,0,0,0,0,0,0,0,0,0,0,0,0,0,0,0,0,0,0,0,0,0,0,0,0,0,0,0,0,0,0,0,0,0,0,0,0,0,0,0,0,0,0,0,0,0,0,0,0,0,0,0,0,0,0,0,0,0,0,
0,0,0,0,0,0,0,0,0,0,0,0,0,0,0,0,0,0,0,0,0,0,0,0,0,0,0,0,0,0,0,0,0,0,0,0,0,0,0,0,0,0,0,0,1055,0,0,0,0,0,0,0,0,0,0,0,0,0,0,0,
0,0,0,0,0,0,0,0,0,0,0,0,0,0,0,0,0,0,0,0,0,0,0,0,0,0,0,0,0,0,0,0,0,0,0,0,0,0,0,0,0,0,0,0,0,0,0,0,0,0,0,0,0,0,0,0,0,0,0,0,
0,0,0,0,0,0,0,0,0,0,0,0,0,0,0,0,0,0,0,0,0,0,0,0,0,0,0,0,0,0,0,0,0,0,0,0,0,0,0,0,1055,0,0,0,0,0,0,0,0,0,0,0,0,0,0,0,0,0,0,0,
0,0,0,0,0,0,0,0,0,0,0,0,0,0,0,1055,0,0,0,0,0,0,0,0,0,0,0,0,0,0,0,0,0,0,0,0,0,0,0,0,0,0,0,0,0,0,0,0,0,0,0,0,0,0,0,0,0,0,0,0,
0,0,0,0,0,0,0,0,0,0,0,0,0,0,0,0,0,0,0,0,0,0,0,0,0,0,0,0,0,0,0,0,0,0,0,0,0,0,0,0,0,0,0,0,0,0,0,0,0,0,0,0,0,0,0,0,0,0,0,0,
0,0,0,0,0,0,0,0,0,0,0,0,0,0,0,0,0,0,0,0,0,0,0,0,0,0,0,0,0,0,0,0,0,0,0,0,0,0,0,0,0,0,0,0,0,0,0,0,0,0,0,0,0,0,0,0,0,0,0,0,
0,0,0,0,0,0,0,0,0,0,0,0,0,0,0,0,0,0,0,1055,0,0,0,0,0,0,0,0,0,0,0,0,0,0,0,0,0,0,0,0,0,0,0,0,0,0,0,0,0,0,0,0,0,0,0,0,0,0,0,0,
0,0,0,0,0,0,0,1055,0,0,0,0,0,0,0,0,0,1055,0,0,0,0,0,0,0,0,0,0,0,0,0,0,0,0,0,0,0,0,0,0,0,0,0,0,0,0,0,0,0,0,0,0,0,0,0,0,0,0,0,0,
0,0,0,0,0,0,0,0,0,0,0,0,0,0,0,0,0,0,0,0,0,0,0,0,0,0,0,0,0,0,0,0,0,0,0,0,0,0,0,0,0,0,0,0,0,0,0,0,0,0,0,0,0,0,0,0,0,0,0,0,
0,0,0,0,0,0,0,0,0,0,0,0,0,0,0,0,0,0,0,0,0,0,0,0,0,0,0,0,0,0,0,0,0,0,0,0,0,0,0,0,0,0,0,0,0,0,0,0,0,0,0,0,0,0,0,0,0,0,0,0,
0,0,0,0,0,0,0,0,0,0,0,0,0,0,0,0,0,0,0,0,0,0,0,0,0,0,0,0,0,0,0,0,0,0,0,0,0,0,0,0,0,0,0,0,0,0,0,0,0,0,0,0,0,0,0,0,0,0,0,0,
0,0,0,0,0,0,0,0,0,0,0,0,0,0,0,0,0,0,0,0,0,0,0,0,0,0,0,0,0,0,0,0,0,0,0,0,0,0,0,0,0,0,0,0,0,0,0,0,0,0,0,0,0,0,0,0,0,0,0,0,
0,0,0,0,0,0,0,0,0,0,0,0,0,0,0,0,0,0,0,0,0,0,0,0,0,0,0,0,0,0,0,0,0,0,0,0,0,0,0,0,0,0,0,0,0,0,0,0,0,0,0,0,0,0,0,0,0,0,0,0,
4535,4536,4535,4536,4535,4536,4535,4536,4535,4536,4535,4536,4535,4536,4535,4536,4535,4536,4535,4536,4535,4536,4535,4536,4535,4536,4276,4277,4277,4278,4535,4536,4535,4536,4535,4536,4535,4536,4535,4536,4535,4536,4535,4536,4535,4536,4535,4536,4535,4536,4535,4536,4535,4536,4535,4536,4535,4536,4535,4536,
4543,4544,4543,4544,4543,4544,4543,4544,4543,4544,4543,4544,4543,4544,4543,4544,4543,4544,4543,4544,4543,4544,4543,4544,4543,4544,4276,4277,4277,4278,4543,4544,4543,4544,4543,4544,4543,4544,4543,4544,4543,4544,4543,4544,4543,4544,4543,4544,4543,4544,4543,4544,4543,4544,4543,4544,4543,4544,4543,4544,
4551,4552,4551,4552,4551,4552,4551,4552,4551,4552,4551,4552,4551,4552,4551,4552,4551,4552,4551,4552,4551,4552,4551,4552,4551,4552,4276,4277,4277,4278,4551,4552,4551,4552,4551,4552,4551,4552,4551,4552,4551,4552,4551,4552,4551,4552,4551,4552,4551,4552,4551,4552,4551,4552,4551,4552,4551,4552,4551,4552,
4535,4536,4535,4536,4535,4536,4535,4536,4535,4536,4535,4536,4535,4536,4535,4536,4535,4536,4535,4536,4535,4536,4535,4536,4535,4536,4276,4277,4277,4278,4535,4536,4535,4536,4535,4536,4535,4536,4535,4536,4535,4536,4535,4536,4535,4536,4535,4536,4535,4536,4535,4536,4535,4536,4535,4536,4535,4536,4535,4536,
4543,4544,4543,4544,4543,4544,4543,4544,4543,4544,4543,4544,4543,4544,4543,4544,4543,4544,4543,4544,4543,4544,4543,4544,4543,4544,4276,4277,4277,4278,4543,4544,4543,4544,4543,4544,4543,4544,4543,4544,4543,4544,4543,4544,4543,4544,4543,4544,4543,4544,4543,4544,4543,4544,4543,4544,4543,4544,4543,4544,
4551,4552,4551,4552,4551,4552,4551,4552,4551,4552,4551,4552,4551,4552,4551,4552,4551,4552,4551,4552,4551,4552,4551,4552,4551,4552,4276,4277,4277,4278,4551,4552,4551,4552,4551,4552,4551,4552,4551,4552,4551,4552,4551,4552,4551,4552,4551,4552,4551,4552,4551,4552,4551,4552,4551,4552,4551,4552,4551,4552,
4535,4536,4535,4536,4535,4536,4535,4536,4535,4536,4535,4536,4535,4536,4535,4536,4535,4536,4535,4536,4535,4536,4535,4536,4535,4536,4276,4277,4277,4278,4535,4536,4535,4536,4535,4536,4535,4536,4535,4536,4535,4536,4535,4536,4535,4536,4535,4536,4535,4536,4535,4536,4535,4536,4535,4536,4535,4536,4535,4536,
4543,4544,4543,4544,4543,4544,4543,4544,4543,4544,4543,4544,4543,4544,4543,4544,4543,4544,4543,4544,4543,4544,4543,4544,4543,4544,4276,4277,4277,4278,4543,4544,4543,4544,4543,4544,4543,4544,4543,4544,4543,4544,4543,4544,4543,4544,4543,4544,4543,4544,4543,4544,4543,4544,4543,4544,4543,4544,4543,4544,
4551,4552,4551,4552,4551,4552,4551,4552,4551,4552,4551,4552,4551,4552,4551,4552,4551,4552,4551,4552,4551,4552,4551,4552,4551,4552,4276,4277,4277,4278,4551,4552,4551,4552,4551,4552,4551,4552,4551,4552,4551,4552,4551,4552,4551,4552,4551,4552,4551,4552,4551,4552,4551,4552,4551,4552,4551,4552,4551,4552,
4535,4536,4535,4536,4535,4536,4535,4536,4535,4536,4535,4536,4535,4536,4535,4536,4535,4536,4535,4536,4535,4536,4535,4536,4535,4536,4276,4277,4277,4278,4535,4536,4535,4536,4535,4536,4535,4536,4535,4536,4535,4536,4535,4536,4535,4536,4535,4536,4535,4536,4535,4536,4535,4536,4535,4536,4535,4536,4535,4536,
4543,4544,4543,4544,4543,4544,4543,4544,4543,4544,4543,4544,4543,4544,4543,4544,4543,4544,4543,4544,4543,4544,4543,4544,4543,4544,4276,4277,4277,4278,4543,4544,4543,4544,4543,4544,4543,4544,4543,4544,4543,4544,4543,4544,4543,4544,4543,4544,4543,4544,4543,4544,4543,4544,4543,4544,4543,4544,4543,4544,
4551,4552,4551,4552,4551,4552,4551,4552,4551,4552,4551,4552,4551,4552,4551,4552,4551,4552,4551,4552,4551,4552,4551,4552,4551,4552,4276,4277,4277,4278,4551,4552,4551,4552,4551,4552,4551,4552,4551,4552,4551,4552,4551,4552,4551,4552,4551,4552,4551,4552,4551,4552,4551,4552,4551,4552,4551,4552,4551,4552,
4535,4536,4535,4536,4535,4536,4535,4536,4535,4536,4535,4536,4535,4536,4535,4536,4535,4536,4535,4536,4535,4536,4535,4536,4535,4536,4276,4277,4277,4278,4535,4536,4535,4536,4535,4536,4535,4536,4535,4536,4535,4536,4535,4536,4535,4536,4535,4536,4535,4536,4535,4536,4535,4536,4535,4536,4535,4536,4535,4536,
4543,4544,4543,4544,4543,4544,4543,4544,4543,4544,4543,4544,4543,4544,4543,4544,4543,4544,4543,4544,4543,4544,4543,4544,4543,4544,4276,4277,4277,4278,4543,4544,4543,4544,4543,4544,4543,4544,4543,4544,4543,4544,4543,4544,4543,4544,4543,4544,4543,4544,4543,4544,4543,4544,4543,4544,4543,4544,4543,4544,
4551,4552,4551,4552,4551,4552,4551,4552,4551,4552,4551,4552,4551,4552,4551,4552,4551,4552,4551,4552,4551,4552,4551,4552,4551,4552,4276,4277,4277,4278,4551,4552,4551,4552,4551,4552,4551,4552,4551,4552,4551,4552,4551,4552,4551,4552,4551,4552,4551,4552,4551,4552,4551,4552,4551,4552,4551,4552,4551,4552,
4535,4536,4535,4536,4535,4536,4535,4536,4535,4536,4535,4536,4535,4536,4535,4536,4535,4536,4535,4536,4535,4536,4535,4536,4535,4536,4276,4277,4277,4278,4535,4536,4535,4536,4535,4536,4535,4536,4535,4536,4535,4536,4535,4536,4535,4536,4535,4536,4535,4536,4535,4536,4535,4536,4535,4536,4535,4536,4535,4536,
4543,4544,4543,4544,4543,4544,4543,4544,4543,4544,4543,4544,4543,4544,4543,4544,4543,4544,4543,4544,4543,4544,4543,4544,4543,4544,4276,4277,4277,4278,4543,4544,4543,4544,4543,4544,4543,4544,4543,4544,4543,4544,4543,4544,4543,4544,4543,4544,4543,4544,4543,4544,4543,4544,4543,4544,4543,4544,4543,4544,
4551,4552,4551,4552,4551,4552,4551,4552,4551,4552,4551,4552,4551,4552,4551,4552,4551,4552,4551,4552,4551,4552,4551,4552,4551,4552,4276,4277,4277,4278,4551,4552,4551,4552,4551,4552,4551,4552,4551,4552,4551,4552,4551,4552,4551,4552,4551,4552,4551,4552,4551,4552,4551,4552,4551,4552,4551,4552,4551,4552,
4535,4536,4535,4536,4535,4536,4535,4536,4535,4536,4535,4536,4535,4536,4535,4536,4535,4536,4535,4536,4535,4536,4535,4536,4535,4536,4276,4277,4277,4278,4535,4536,4535,4536,4535,4536,4535,4536,4535,4536,4535,4536,4535,4536,4535,4536,4535,4536,4535,4536,4535,4536,4535,4536,4535,4536,4535,4536,4535,4536,
4543,4544,4543,4544,4543,4544,4543,4544,4543,4544,4543,4544,4543,4544,4543,4544,4543,4544,4543,4544,4543,4544,4543,4544,4543,4544,4276,4277,4277,4278,4543,4544,4543,4544,4543,4544,4543,4544,4543,4544,4543,4544,4543,4544,4543,4544,4543,4544,4543,4544,4543,4544,4543,4544,4543,4544,4543,4544,4543,4544,
4551,4552,4551,4552,4551,4552,4551,4552,4551,4552,4551,4552,4551,4552,4551,4552,4551,4552,4551,4552,4551,4552,4551,4552,4551,4552,4276,4277,4277,4278,4551,4552,4551,4552,4551,4552,4551,4552,4551,4552,4551,4552,4551,4552,4551,4552,4551,4552,4551,4552,4551,4552,4551,4552,4551,4552,4551,4552,4551,4552,
4535,4536,4535,4536,4535,4536,4535,4536,4535,4536,4535,4536,4535,4536,4535,4536,4535,4536,4535,4536,4535,4536,4535,4536,4535,4536,4276,4277,4277,4278,4535,4536,4535,4536,4535,4536,4535,4536,4535,4536,4535,4536,4535,4536,4535,4536,4535,4536,4535,4536,4535,4536,4535,4536,4535,4536,4535,4536,4535,4536,
4543,4544,4543,4544,4543,4544,4543,4544,4543,4544,4543,4544,4543,4544,4543,4544,4543,4544,4543,4544,4543,4544,4543,4544,4543,4544,4276,4277,4277,4278,4543,4544,4543,4544,4543,4544,4543,4544,4543,4544,4543,4544,4543,4544,4543,4544,4543,4544,4543,4544,4543,4544,4543,4544,4543,4544,4543,4544,4543,4544,
4551,4552,4551,4552,4551,4552,4551,4552,4551,4552,4551,4552,4551,4552,4551,4552,4551,4552,4551,4552,4551,4552,4551,4552,4551,4552,4276,4277,4277,4278,4551,4552,4551,4552,4551,4552,4551,4552,4551,4552,4551,4552,4551,4552,4551,4552,4551,4552,4551,4552,4551,4552,4551,4552,4551,4552,4551,4552,4551,4552,
4535,4536,4535,4536,4535,4536,4535,4536,4535,4536,4535,4536,4535,4536,4535,4536,4535,4536,4535,4536,4535,4536,4535,4536,4535,4536,4276,4277,4277,4278,4535,4536,4535,4536,4535,4536,4535,4536,4535,4536,4535,4536,4535,4536,4535,4536,4535,4536,4535,4536,4535,4536,4535,4536,4535,4536,4535,4536,4535,4536,
4543,4544,4543,4544,4543,4544,4543,4544,4543,4544,4543,4544,4543,4544,4543,4544,4543,4544,4543,4544,4543,4544,4543,4544,4543,4544,4276,4277,4277,4278,4543,4544,4543,4544,4543,4544,4543,4544,4543,4544,4543,4544,4543,4544,4543,4544,4543,4544,4543,4544,4543,4544,4543,4544,4543,4544,4543,4544,4543,4544,
4551,4552,4551,4552,4551,4552,4551,4552,4551,4552,4551,4552,4551,4552,4551,4552,4551,4552,4551,4552,4551,4552,4551,4552,4551,4552,4276,4277,4277,4278,4551,4552,4551,4552,4551,4552,4551,4552,4551,4552,4551,4552,4551,4552,4551,4552,4551,4552,4551,4552,4551,4552,4551,4552,4551,4552,4551,4552,4551,4552,
4535,4536,4535,4536,4535,4536,4535,4536,4535,4536,4535,4536,4535,4536,4535,4536,4535,4536,4535,4536,4535,4536,4535,4536,4535,4536,4276,4277,4277,4278,4535,4536,4535,4536,4535,4536,4535,4536,4535,4536,4535,4536,4535,4536,4535,4536,4535,4536,4535,4536,4535,4536,4535,4536,4535,4536,4535,4536,4535,4536,
4543,4544,4543,4544,4543,4544,4543,4544,4543,4544,4543,4544,4543,4544,4543,4544,4543,4544,4543,4544,4543,4544,4543,4544,4543,4544,4276,4277,4277,4278,4543,4544,4543,4544,4543,4544,4543,4544,4543,4544,4543,4544,4543,4544,4543,4544,4543,4544,4543,4544,4543,4544,4543,4544,4543,4544,4543,4544,4543,4544,
4551,4552,4551,4552,4551,4552,4551,4552,4551,4552,4551,4552,4551,4552,4551,4552,4551,4552,4551,4552,4551,4552,4551,4552,4551,4552,4276,4277,4277,4278,4551,4552,4551,4552,4551,4552,4551,4552,4551,4552,4551,4552,4551,4552,4551,4552,4551,4552,4551,4552,4551,4552,4551,4552,4551,4552,4551,4552,4551,4552,
4535,4536,4535,4536,4535,4536,4535,4536,4535,4536,4535,4536,4535,4536,4535,4536,4535,4536,4535,4536,4535,4536,4535,4536,4535,4536,4276,4277,4277,4278,4535,4536,4535,4536,4535,4536,4535,4536,4535,4536,4535,4536,4535,4536,4535,4536,4535,4536,4535,4536,4535,4536,4535,4536,4535,4536,4535,4536,4535,4536,
4543,4544,4543,4544,4543,4544,4543,4544,4543,4544,4543,4544,4543,4544,4543,4544,4543,4544,4543,4544,4543,4544,4543,4544,4543,4544,4276,4277,4277,4278,4543,4544,4543,4544,4543,4544,4543,4544,4543,4544,4543,4544,4543,4544,4543,4544,4543,4544,4543,4544,4543,4544,4543,4544,4543,4544,4543,4544,4543,4544,
4551,4552,4551,4552,4551,4552,4551,4552,4551,4552,4551,4552,4551,4552,4551,4552,4551,4552,4551,4552,4551,4552,4551,4552,4551,4552,4276,4277,4277,4278,4551,4552,4551,4552,4551,4552,4551,4552,4551,4552,4551,4552,4551,4552,4551,4552,4551,4552,4551,4552,4551,4552,4551,4552,4551,4552,4551,4552,4551,4552,
4535,4536,4535,4536,4535,4536,4535,4536,4535,4536,4535,4536,4535,4536,4535,4536,4535,4536,4535,4536,4535,4536,4535,4536,4535,4536,4276,4277,4277,4278,4535,4536,4535,4536,4535,4536,4535,4536,4535,4536,4535,4536,4535,4536,4535,4536,4535,4536,4535,4536,4535,4536,4535,4536,4535,4536,4535,4536,4535,4536,
4543,4544,4543,4544,4543,4544,4543,4544,4543,4544,4543,4544,4543,4544,4543,4544,4543,4544,4543,4544,4543,4544,4543,4544,4543,4544,4276,4277,4277,4278,4543,4544,4543,4544,4543,4544,4543,4544,4543,4544,4543,4544,4543,4544,4543,4544,4543,4544,4543,4544,4543,4544,4543,4544,4543,4544,4543,4544,4543,4544,
4551,4552,4551,4552,4551,4552,4551,4552,4551,4552,4551,4552,4551,4552,4551,4552,4551,4552,4551,4552,4551,4552,4551,4552,4551,4552,4276,4277,4277,4278,4551,4552,4551,4552,4551,4552,4551,4552,4551,4552,4551,4552,4551,4552,4551,4552,4551,4552,4551,4552,4551,4552,4551,4552,4551,4552,4551,4552,4551,4552,
0,0,0,0,0,0,0,0,0,0,0,0,0,0,0,0,0,0,0,0,0,0,0,0,0,0,4276,4277,4277,4278,0,0,0,0,0,0,0,0,0,0,0,0,0,0,0,0,0,0,0,0,0,0,0,0,0,0,0,0,0,0,
0,0,0,0,0,0,0,0,0,0,0,0,0,0,0,0,0,0,0,0,0,0,0,0,0,0,4276,4277,4277,4278,0,0,0,0,0,0,0,0,0,0,0,0,0,0,0,0,0,0,0,0,0,0,0,0,0,0,0,0,0,0
</data>
 </layer>
 <layer id="3" name="edifici" width="60" height="88">
  <data encoding="csv">
0,0,601,601,601,601,601,601,601,601,601,601,601,601,601,601,601,601,601,601,601,601,601,601,601,601,601,0,0,0,0,601,601,601,601,601,601,601,601,4594,4594,4594,4594,4594,4594,4594,4594,4594,4594,4594,4594,4594,4590,4590,4590,4590,4590,4590,4590,4590,
586,586,609,609,609,609,609,609,609,609,609,609,609,609,609,609,609,609,609,609,609,609,609,609,609,609,609,0,0,0,0,609,609,609,609,609,609,609,609,4602,4602,4602,4602,4602,4602,4602,4602,4602,4602,4602,4602,4602,0,0,0,0,0,0,0,0,
594,594,0,0,0,0,0,0,0,0,0,0,0,0,0,0,0,0,0,0,0,0,0,0,0,0,0,0,0,0,0,0,0,0,0,0,0,0,0,4610,4610,4610,4610,4610,4610,4610,4610,4610,4610,4610,4610,4610,0,8472,8473,0,0,8472,8473,0,
602,602,0,785,785,785,785,785,785,785,785,785,785,785,785,785,785,0,0,0,0,0,0,0,0,0,0,0,0,0,0,0,0,0,0,0,0,0,0,4618,4618,4618,4618,4618,4618,4618,4618,4618,4618,4618,4618,4618,0,8480,8481,8472,8473,8480,8481,0,
610,610,0,0,0,0,0,0,0,0,0,0,0,0,0,0,0,0,0,0,0,0,0,0,0,0,0,0,0,0,0,0,0,0,0,0,0,0,0,4626,4626,4626,4626,4626,4626,4626,4626,4626,4626,4626,4626,4626,0,8472,8473,8480,8481,0,0,0,
586,586,0,785,785,785,785,785,785,785,785,785,785,785,785,785,785,0,0,0,0,0,0,0,0,0,0,0,0,0,0,0,0,0,0,0,0,0,0,0,0,0,0,0,0,0,0,0,0,0,0,0,0,8480,8481,0,0,0,0,0,
594,594,0,0,0,0,0,0,0,0,0,0,0,0,0,0,0,0,0,0,0,0,1635,1636,1637,1638,1639,0,0,0,519,520,519,520,0,0,0,0,1915,1916,1917,1918,0,0,0,0,0,0,0,0,0,0,0,0,0,0,0,0,0,0,
602,602,0,785,785,785,785,785,785,785,785,785,785,785,785,785,785,0,0,0,0,0,1643,1644,1645,1646,1647,0,0,0,527,528,527,528,0,0,0,0,1923,1924,1925,1926,0,0,0,1747,1748,1749,1750,0,0,0,0,8472,8473,8472,8473,8472,8473,0,
610,610,0,0,0,0,0,0,0,0,0,0,0,0,0,0,0,0,0,0,0,0,1651,1652,1653,1654,1655,0,0,0,535,536,535,536,0,0,0,0,1931,1932,1933,1934,0,0,0,1755,1756,1757,1758,0,0,0,0,8480,8481,8480,8481,8480,8481,0,
586,586,0,785,785,785,785,785,785,785,785,785,785,785,785,785,785,0,0,0,0,0,1659,1660,1661,1662,1663,0,0,0,0,0,0,0,0,0,0,0,1939,1940,1941,1942,0,0,0,1779,1780,1781,1782,0,0,0,0,0,0,0,0,0,8472,8473,
594,594,0,0,0,0,0,0,0,0,0,0,0,0,0,0,0,0,0,0,0,0,1667,1668,1669,1670,1671,0,0,0,0,0,0,0,0,0,0,0,1096,0,1096,0,0,0,0,1096,0,1096,0,0,0,0,0,0,0,0,0,0,8480,8481,
602,602,0,785,785,785,785,785,785,785,785,785,785,785,785,785,785,0,0,0,0,1057,0,1096,0,1057,0,0,0,1057,0,0,0,1057,0,0,519,520,0,0,0,0,0,0,0,0,0,0,0,0,0,0,0,0,0,0,0,0,8472,8473,
610,610,0,0,0,0,0,0,0,0,0,0,0,0,0,0,0,0,0,0,0,0,0,0,0,0,0,0,0,0,0,0,0,0,0,0,527,528,0,0,0,0,0,0,0,0,0,0,0,0,0,0,0,0,0,0,0,0,8480,8481,
586,586,0,0,0,1053,0,0,0,0,0,0,0,519,520,0,0,0,0,0,0,0,0,0,0,0,0,0,0,0,0,0,0,0,0,0,535,536,0,0,0,0,0,0,0,0,0,0,0,0,0,0,0,0,0,0,0,0,8472,8473,
594,594,0,0,0,0,0,0,0,0,0,0,0,527,528,0,0,0,0,0,0,0,0,1096,0,0,0,0,0,0,0,1096,0,0,0,0,0,0,0,0,0,0,0,0,519,520,0,0,0,0,0,0,0,0,0,0,0,0,8480,8481,
602,602,0,0,0,0,0,0,0,0,0,0,0,535,536,0,0,0,0,0,0,0,0,0,17400,17401,17402,17403,17404,17405,0,0,0,0,0,0,0,0,0,0,0,0,0,0,527,528,0,0,0,0,0,0,0,0,0,0,0,0,8472,8473,
610,610,0,0,1915,1916,1917,1918,0,0,0,0,0,0,0,0,0,0,0,0,0,0,0,0,17406,17407,17408,17409,17410,17411,0,0,0,0,0,0,0,0,0,0,0,0,0,0,535,536,0,519,520,0,0,0,0,0,0,0,8472,8473,8480,8481,
586,586,0,0,1923,1924,1925,1926,0,0,0,1767,1768,1769,1770,0,0,0,0,0,0,0,0,0,17412,17413,17414,17415,17416,17417,0,0,0,0,0,0,0,0,0,0,0,0,0,0,0,0,0,527,528,0,0,0,0,0,0,0,8480,8481,0,0,
594,594,0,0,1931,1932,1933,1934,0,0,0,1775,1776,1777,1778,0,0,0,0,0,0,0,0,0,17418,17419,17420,17421,17422,17423,0,0,0,0,0,0,0,0,0,0,0,0,0,0,519,520,0,535,536,0,0,0,0,0,4899,4902,4903,4904,4901,0,
602,602,0,0,1939,1940,1941,1942,0,0,0,1779,1780,1781,1782,0,0,0,0,0,0,0,0,0,17424,17425,17426,17427,17428,17429,0,0,0,0,0,0,0,0,0,519,520,0,0,0,527,528,0,0,0,0,0,0,0,0,4907,4910,4908,4912,4909,0,
610,610,0,0,1096,0,1096,0,0,0,0,1096,0,1096,0,0,0,0,0,0,0,0,0,0,0,0,0,0,0,0,0,1161,1162,0,0,0,0,0,0,527,528,0,0,0,535,536,0,0,0,0,0,0,0,0,4907,4918,5286,4920,4909,0,
586,586,0,0,0,0,0,0,0,0,0,0,0,0,0,0,0,0,0,0,0,0,0,0,0,0,0,0,0,0,0,1169,1170,0,0,0,0,0,0,535,536,0,0,0,0,0,0,0,0,0,0,0,0,0,4915,4916,4892,4916,4917,0,
594,594,519,520,0,0,0,0,0,519,520,0,0,519,520,0,519,520,0,0,0,0,0,0,0,0,0,0,0,0,0,0,0,0,0,0,0,0,0,0,0,0,0,0,0,0,0,0,0,0,0,0,0,0,0,4869,4277,4867,8472,8473,
602,602,527,528,0,0,0,0,0,527,528,0,0,527,528,0,527,528,0,0,0,0,0,0,0,0,0,0,0,0,0,0,0,0,0,0,0,0,0,0,0,0,2899,2900,2901,2902,2903,2904,2905,0,0,0,0,0,0,4869,4277,4867,8480,8481,
610,610,535,536,0,0,0,0,0,535,536,0,0,535,536,0,535,536,0,0,0,0,0,0,0,0,0,0,0,0,0,0,0,0,0,0,0,0,0,0,0,0,2907,2908,2909,2910,2911,2912,2913,0,0,0,4948,4948,4948,4948,4277,4867,8472,8473,
586,586,0,0,0,0,0,0,0,0,0,0,0,0,0,0,0,0,0,0,0,0,0,0,0,0,0,0,0,0,0,0,0,0,0,0,0,0,0,0,0,0,2915,2916,2917,2918,2919,2920,2921,0,0,0,4277,4277,4277,4277,4277,4867,8480,8481,
594,594,0,0,1751,1752,1753,1754,0,0,0,0,1763,1764,1765,1766,0,0,0,0,0,0,0,519,520,0,0,0,0,0,0,0,0,0,0,0,0,0,0,0,0,1065,2923,2924,2925,2926,2927,2928,2929,1065,0,0,4860,4860,4860,4860,4860,0,8472,8473,
602,602,0,0,1759,1760,1761,1762,0,0,0,0,1771,1772,1773,1774,0,519,520,0,0,0,0,527,528,1057,0,0,0,0,0,1057,0,0,0,0,0,0,0,0,0,1073,2931,2932,2933,2934,2935,2936,2937,1073,0,0,0,0,0,0,0,0,8480,8481,
610,610,0,0,1779,1780,1781,1782,0,0,0,0,1779,1780,1781,1782,0,527,528,0,0,0,0,535,536,0,0,0,0,0,0,0,0,0,0,0,0,0,0,0,0,0,0,0,1096,0,1096,0,0,0,0,0,0,0,0,0,0,0,8472,8473,
586,586,0,0,1096,0,1096,0,0,0,0,0,1096,0,1096,0,0,535,536,0,0,0,0,0,0,0,0,0,0,0,0,0,0,0,0,0,0,0,0,0,0,0,0,0,0,0,0,0,0,0,0,0,0,0,0,0,0,0,8480,8481,
594,594,0,0,0,0,0,0,0,0,0,0,0,0,0,0,0,0,0,0,0,0,0,0,0,0,0,0,0,0,0,0,0,0,0,0,0,0,0,0,0,0,0,0,0,0,0,0,0,0,0,0,0,0,0,0,0,0,8472,8473,
602,602,0,0,0,0,0,0,0,0,0,0,0,0,0,0,0,0,0,0,0,0,0,0,0,1057,0,0,0,0,0,1057,0,0,0,0,0,0,0,0,0,0,0,0,0,0,0,0,0,0,0,0,0,0,0,0,0,0,8480,8481,
610,610,0,0,0,0,0,0,0,0,0,0,0,0,0,0,0,0,2707,2708,2709,2710,2711,0,0,0,0,0,0,0,0,0,0,0,0,0,0,0,0,0,0,0,0,0,0,0,0,0,0,0,0,0,0,0,0,0,0,0,8472,8473,
586,586,0,0,1887,1888,1889,1890,0,0,0,0,0,0,0,0,0,0,2715,2716,2717,2718,2719,0,0,0,0,0,0,0,0,0,2747,2748,2749,2750,0,0,0,0,0,0,0,0,0,0,0,0,0,0,0,0,0,0,0,0,0,0,8480,8481,
594,594,0,0,1895,1896,1897,1898,0,0,0,0,0,0,0,0,0,0,2723,2724,2725,2726,2727,0,0,0,0,0,0,0,0,0,2755,2756,2757,2758,0,0,0,0,0,0,0,519,520,0,0,0,0,0,0,0,0,0,0,0,0,0,8472,8473,
602,602,0,0,1903,1904,1905,1906,0,0,0,0,0,0,0,0,0,0,2731,2732,2733,2734,2735,0,0,1057,0,0,0,0,0,1057,2763,2764,2765,2766,0,0,0,0,0,0,0,527,528,0,0,0,0,0,0,0,0,0,0,0,0,0,8480,8481,
610,610,0,0,1911,1912,1913,1914,0,0,0,0,0,0,0,0,0,0,2739,2740,2741,2742,2743,0,0,0,0,0,0,0,0,0,2771,2772,2773,2774,0,0,0,0,0,0,0,535,536,0,0,0,0,0,0,0,0,0,0,0,0,0,8472,8473,
586,586,0,0,1096,0,1096,0,0,0,0,0,0,0,0,0,0,0,0,1096,0,1096,0,0,0,0,0,0,0,0,0,0,0,1096,0,1096,0,0,0,0,0,0,0,0,0,0,0,0,0,0,0,0,0,0,0,0,0,0,8480,8481,
594,594,0,0,0,0,0,0,0,0,0,0,0,0,0,0,0,0,0,0,0,0,0,0,0,0,0,0,0,0,0,0,519,520,0,0,0,519,520,0,0,0,0,0,0,0,0,0,0,0,0,0,0,0,0,0,0,0,8472,8473,
602,602,0,0,0,0,0,0,0,0,0,0,0,0,0,0,0,0,0,0,0,0,0,0,0,1057,0,0,0,0,0,1057,527,528,0,0,0,527,528,0,0,0,0,0,0,0,0,0,0,0,0,0,0,0,0,0,0,0,8480,8481,
610,610,0,0,0,0,0,0,0,0,1747,1748,1749,1750,0,0,0,0,0,0,0,0,0,0,0,0,0,0,0,0,0,0,535,536,0,0,0,535,536,0,0,0,0,0,0,0,0,0,0,0,0,0,0,0,0,0,0,0,8472,8473,
586,586,0,0,0,0,0,0,0,0,1755,1756,1757,1758,0,0,0,0,0,0,0,0,0,0,0,0,0,0,0,0,0,0,0,0,0,0,0,0,0,0,0,0,0,0,1887,1888,1889,1890,0,0,0,0,0,0,0,0,0,0,8480,8481,
594,594,0,0,0,0,0,0,0,0,1779,1780,1781,1782,0,0,0,0,0,0,0,0,519,520,0,0,0,0,0,0,0,0,0,0,1767,1768,1769,1770,0,0,0,0,0,0,1895,1896,1897,1898,0,0,0,0,0,0,0,0,0,0,8472,8473,
602,602,0,0,0,0,0,0,0,0,1096,0,1096,0,0,0,0,0,0,0,0,0,527,528,0,0,0,0,0,0,0,0,0,0,1775,1776,1777,1778,0,0,0,519,520,0,1903,1904,1905,1906,0,0,0,0,0,0,0,0,0,0,8480,8481,
610,610,0,0,0,0,0,0,0,519,520,0,0,0,0,0,0,0,0,0,0,0,535,536,0,0,0,0,0,0,0,519,520,0,1779,1780,1781,1782,0,519,520,527,528,0,1911,1912,1913,1914,0,0,519,520,519,520,519,520,519,520,4535,4536,
586,586,0,0,0,0,0,0,0,527,528,0,0,0,0,0,0,0,0,0,0,0,0,0,0,0,0,0,0,0,0,527,528,0,1096,0,1096,0,0,527,528,535,536,0,1096,0,1096,0,0,0,527,528,527,528,527,528,527,528,4543,4544,
594,594,0,0,0,0,0,0,0,535,536,0,0,0,0,0,0,0,0,0,0,0,0,0,0,0,0,0,0,0,0,535,536,0,0,0,0,0,0,535,536,0,0,0,0,0,0,0,0,0,535,536,535,536,535,536,535,536,4551,4552,
602,602,593,593,593,593,593,593,593,593,593,593,593,593,593,593,593,593,593,593,593,593,593,593,593,593,0,0,0,0,593,593,593,593,593,593,593,593,593,593,593,593,593,593,593,593,593,593,593,593,593,593,593,593,593,593,593,593,593,593,
610,610,601,601,601,601,601,601,601,601,601,601,601,601,601,601,601,601,601,601,601,601,601,601,601,601,0,0,0,0,601,601,601,601,601,601,601,601,601,601,601,601,601,601,601,601,601,601,601,601,601,601,601,601,601,601,601,601,601,601,
0,0,609,609,609,609,609,609,609,609,609,609,609,609,609,609,609,609,609,609,609,609,609,609,609,609,0,0,0,0,609,609,609,609,609,609,609,609,609,609,609,609,609,609,609,609,609,609,609,609,609,609,609,609,609,609,609,609,609,609,
0,0,0,0,0,0,0,0,0,0,0,0,0,0,0,0,0,0,0,0,0,0,0,0,0,0,0,0,0,0,0,0,0,0,0,0,0,0,0,0,0,0,0,0,0,0,0,0,0,0,0,0,0,0,0,0,0,0,0,0,
0,0,0,0,0,0,0,0,0,0,0,0,0,0,0,0,0,0,0,0,0,0,0,0,0,0,0,0,0,0,0,0,0,0,0,0,0,0,0,0,0,0,0,0,0,0,0,0,0,0,0,0,0,0,0,0,0,0,0,0,
0,0,0,0,0,0,0,0,0,0,0,0,0,0,0,0,0,0,0,0,0,0,0,0,0,0,0,0,0,0,0,0,0,0,0,0,0,0,0,0,0,0,0,0,0,0,0,0,0,0,0,0,0,0,0,0,0,0,0,0,
0,0,0,0,0,0,0,0,0,0,0,0,0,0,0,0,0,0,0,0,0,0,0,0,0,0,0,0,0,0,0,0,0,0,0,0,0,0,0,0,0,0,0,0,0,0,0,0,0,0,0,0,0,0,0,0,0,0,0,0,
0,0,0,0,0,0,0,0,0,0,0,0,0,0,0,0,0,0,0,0,0,0,0,0,0,0,0,0,0,0,0,0,0,0,0,0,0,0,0,0,0,0,0,0,0,0,0,0,0,0,0,0,0,0,0,0,0,0,0,0,
0,0,0,0,0,0,0,0,0,0,0,0,0,0,0,0,0,0,0,0,0,0,0,0,0,0,0,0,0,0,0,0,0,0,0,0,0,0,0,0,0,0,0,0,0,0,0,0,0,0,0,0,0,0,0,0,0,0,0,0,
0,0,0,0,0,0,0,0,0,0,0,0,0,0,0,0,0,0,0,0,0,0,0,0,0,0,0,0,0,0,0,0,0,0,0,0,0,0,0,0,0,0,0,0,0,0,0,0,0,0,0,0,0,0,0,0,0,0,0,0,
0,0,0,0,0,0,0,0,0,0,0,0,0,0,0,0,0,0,0,0,0,0,0,0,0,0,0,0,0,0,0,0,0,0,0,0,0,0,0,0,0,0,0,0,0,0,0,0,0,0,0,0,0,0,0,0,0,0,0,0,
0,0,0,0,0,0,0,0,0,0,0,0,0,0,0,0,0,0,0,0,0,0,0,0,0,0,0,0,0,0,0,0,0,0,0,0,0,0,0,0,0,0,0,0,0,0,0,0,0,0,0,0,0,0,0,0,0,0,0,0,
0,0,0,0,0,0,0,0,0,0,0,0,0,0,0,0,0,0,0,0,0,0,0,0,0,0,0,0,0,0,0,0,0,0,0,0,0,0,0,0,0,0,0,0,0,0,0,0,0,0,0,0,0,0,0,0,0,0,0,0,
0,0,0,0,0,0,0,0,0,0,0,0,0,0,0,0,0,0,0,0,0,0,0,0,0,0,0,0,0,0,0,0,0,0,0,0,0,0,0,0,0,0,0,0,0,0,0,0,0,0,0,0,0,0,0,0,0,0,0,0,
0,0,0,0,0,0,0,0,0,0,0,0,0,0,0,0,0,0,0,0,0,0,0,0,0,0,0,0,0,0,0,0,0,0,0,0,0,0,0,0,0,0,0,0,0,0,0,0,0,0,0,0,0,0,0,0,0,0,0,0,
0,0,0,0,0,0,0,0,0,0,0,0,0,0,0,0,0,0,0,0,0,0,0,0,0,0,0,0,0,0,0,0,0,0,0,0,0,0,0,0,0,0,0,0,0,0,0,0,0,0,0,0,0,0,0,0,0,0,0,0,
0,0,0,0,0,0,0,0,0,0,0,0,0,0,0,0,0,0,0,0,0,0,0,0,0,0,0,0,0,0,0,0,0,0,0,0,0,0,0,0,0,0,0,0,0,0,0,0,0,0,0,0,0,0,0,0,0,0,0,0,
0,0,0,0,0,0,0,0,0,0,0,0,0,0,0,0,0,0,0,0,0,0,0,0,0,0,0,0,0,0,0,0,0,0,0,0,0,0,0,0,0,0,0,0,0,0,0,0,0,0,0,0,0,0,0,0,0,0,0,0,
0,0,0,0,0,0,0,0,0,0,0,0,0,0,0,0,0,0,0,0,0,0,0,0,0,0,0,0,0,0,0,0,0,0,0,0,0,0,0,0,0,0,0,0,0,0,0,0,0,0,0,0,0,0,0,0,0,0,0,0,
0,0,0,0,0,0,0,0,0,0,0,0,0,0,0,0,0,0,0,0,0,0,0,0,0,0,0,0,0,0,0,0,0,0,0,0,0,0,0,0,0,0,0,0,0,0,0,0,0,0,0,0,0,0,0,0,0,0,0,0,
0,0,0,0,0,0,0,0,0,0,0,0,0,0,0,0,0,0,0,0,0,0,0,0,0,0,0,0,0,0,0,0,0,0,0,0,0,0,0,0,0,0,0,0,0,0,0,0,0,0,0,0,0,0,0,0,0,0,0,0,
0,0,0,0,0,0,0,0,0,0,0,0,0,0,0,0,0,0,0,0,0,0,0,0,0,0,0,0,0,0,0,0,0,0,0,0,0,0,0,0,0,0,0,0,0,0,0,0,0,0,0,0,0,0,0,0,0,0,0,0,
0,0,0,0,0,0,0,0,0,0,0,0,0,0,0,0,0,0,0,0,0,0,0,0,0,0,0,0,0,0,0,0,0,0,0,0,0,0,0,0,0,0,0,0,0,0,0,0,0,0,0,0,0,0,0,0,0,0,0,0,
0,0,0,0,0,0,0,0,0,0,0,0,0,0,0,0,0,0,0,0,0,0,0,0,0,0,0,0,0,0,0,0,0,0,0,0,0,0,0,0,0,0,0,0,0,0,0,0,0,0,0,0,0,0,0,0,0,0,0,0,
0,0,0,0,0,0,0,0,0,0,0,0,0,0,0,0,0,0,0,0,0,0,0,0,0,0,0,0,0,0,0,0,0,0,0,0,0,0,0,0,0,0,0,0,0,0,0,0,0,0,0,0,0,0,0,0,0,0,0,0,
0,0,0,0,0,0,0,0,0,0,0,0,0,0,0,0,0,0,0,0,0,0,0,0,0,0,0,0,0,0,0,0,0,0,0,0,0,0,0,0,0,0,0,0,0,0,0,0,0,0,0,0,0,0,0,0,0,0,0,0,
0,0,0,0,0,0,0,0,0,0,0,0,0,0,0,0,0,0,0,0,0,0,0,0,0,0,0,0,0,0,0,0,0,0,0,0,0,0,0,0,0,0,0,0,0,0,0,0,0,0,0,0,0,0,0,0,0,0,0,0,
0,0,0,0,0,0,0,0,0,0,0,0,0,0,0,0,0,0,0,0,0,0,0,0,0,0,0,0,0,0,0,0,0,0,0,0,0,0,0,0,0,0,0,0,0,0,0,0,0,0,0,0,0,0,0,0,0,0,0,0,
0,0,0,0,0,0,0,0,0,0,0,0,0,0,0,0,0,0,0,0,0,0,0,0,0,0,0,0,0,0,0,0,0,0,0,0,0,0,0,0,0,0,0,0,0,0,0,0,0,0,0,0,0,0,0,0,0,0,0,0,
0,0,0,0,0,0,0,0,0,0,0,0,0,0,0,0,0,0,0,0,0,0,0,0,0,0,0,0,0,0,0,0,0,0,0,0,0,0,0,0,0,0,0,0,0,0,0,0,0,0,0,0,0,0,0,0,0,0,0,0,
0,0,0,0,0,0,0,0,0,0,0,0,0,0,0,0,0,0,0,0,0,0,0,0,0,0,0,0,0,0,0,0,0,0,0,0,0,0,0,0,0,0,0,0,0,0,0,0,0,0,0,0,0,0,0,0,0,0,0,0,
0,0,0,0,0,0,0,0,0,0,0,0,0,0,0,0,0,0,0,0,0,0,0,0,0,0,0,0,0,0,0,0,0,0,0,0,0,0,0,0,0,0,0,0,0,0,0,0,0,0,0,0,0,0,0,0,0,0,0,0,
0,0,0,0,0,0,0,0,0,0,0,0,0,0,0,0,0,0,0,0,0,0,0,0,0,0,0,0,0,0,0,0,0,0,0,0,0,0,0,0,0,0,0,0,0,0,0,0,0,0,0,0,0,0,0,0,0,0,0,0,
0,0,0,0,0,0,0,0,0,0,0,0,0,0,0,0,0,0,0,0,0,0,0,0,0,0,0,0,0,0,0,0,0,0,0,0,0,0,0,0,0,0,0,0,0,0,0,0,0,0,0,0,0,0,0,0,0,0,0,0,
0,0,0,0,0,0,0,0,0,0,0,0,0,0,0,0,0,0,0,0,0,0,0,0,0,0,0,0,0,0,0,0,0,0,0,0,0,0,0,0,0,0,0,0,0,0,0,0,0,0,0,0,0,0,0,0,0,0,0,0,
0,0,0,0,0,0,0,0,0,0,0,0,0,0,0,0,0,0,0,0,0,0,0,0,0,0,0,0,0,0,0,0,0,0,0,0,0,0,0,0,0,0,0,0,0,0,0,0,0,0,0,0,0,0,0,0,0,0,0,0,
0,0,0,0,0,0,0,0,0,0,0,0,0,0,0,0,0,0,0,0,0,0,0,0,0,0,0,0,0,0,0,0,0,0,0,0,0,0,0,0,0,0,0,0,0,0,0,0,0,0,0,0,0,0,0,0,0,0,0,0,
0,0,0,0,0,0,0,0,0,0,0,0,0,0,0,0,0,0,0,0,0,0,0,0,0,0,0,0,0,0,0,0,0,0,0,0,0,0,0,0,0,0,0,0,0,0,0,0,0,0,0,0,0,0,0,0,0,0,0,0,
0,0,0,0,0,0,0,0,0,0,0,0,0,0,0,0,0,0,0,0,0,0,0,0,0,0,0,0,0,0,0,0,0,0,0,0,0,0,0,0,0,0,0,0,0,0,0,0,0,0,0,0,0,0,0,0,0,0,0,0,
0,0,0,0,0,0,0,0,0,0,0,0,0,0,0,0,0,0,0,0,0,0,0,0,0,0,0,0,0,0,0,0,0,0,0,0,0,0,0,0,0,0,0,0,0,0,0,0,0,0,0,0,0,0,0,0,0,0,0,0,
0,0,0,0,0,0,0,0,0,0,0,0,0,0,0,0,0,0,0,0,0,0,0,0,0,0,0,0,0,0,0,0,0,0,0,0,0,0,0,0,0,0,0,0,0,0,0,0,0,0,0,0,0,0,0,0,0,0,0,0
</data>
 </layer>
 <objectgroup color="#ff0000" id="4" name="collisioni" opacity="0.5">
  <object id="1" name="vigna_filare_0" type="solid" x="96" y="96" width="32" height="32"/>
  <object id="2" name="vigna_filare_0" type="solid" x="128" y="96" width="32" height="32"/>
  <object id="3" name="vigna_filare_0" type="solid" x="160" y="96" width="32" height="32"/>
  <object id="4" name="vigna_filare_0" type="solid" x="192" y="96" width="32" height="32"/>
  <object id="5" name="vigna_filare_0" type="solid" x="224" y="96" width="32" height="32"/>
  <object id="6" name="vigna_filare_0" type="solid" x="256" y="96" width="32" height="32"/>
  <object id="7" name="vigna_filare_0" type="solid" x="288" y="96" width="32" height="32"/>
  <object id="8" name="vigna_filare_0" type="solid" x="320" y="96" width="32" height="32"/>
  <object id="9" name="vigna_filare_0" type="solid" x="352" y="96" width="32" height="32"/>
  <object id="10" name="vigna_filare_0" type="solid" x="384" y="96" width="32" height="32"/>
  <object id="11" name="vigna_filare_0" type="solid" x="416" y="96" width="32" height="32"/>
  <object id="12" name="vigna_filare_0" type="solid" x="448" y="96" width="32" height="32"/>
  <object id="13" name="vigna_filare_0" type="solid" x="480" y="96" width="32" height="32"/>
  <object id="14" name="vigna_filare_0" type="solid" x="512" y="96" width="32" height="32"/>
  <object id="15" name="vigna_filare_1" type="solid" x="96" y="160" width="32" height="32"/>
  <object id="16" name="vigna_filare_1" type="solid" x="128" y="160" width="32" height="32"/>
  <object id="17" name="vigna_filare_1" type="solid" x="160" y="160" width="32" height="32"/>
  <object id="18" name="vigna_filare_1" type="solid" x="192" y="160" width="32" height="32"/>
  <object id="19" name="vigna_filare_1" type="solid" x="224" y="160" width="32" height="32"/>
  <object id="20" name="vigna_filare_1" type="solid" x="256" y="160" width="32" height="32"/>
  <object id="21" name="vigna_filare_1" type="solid" x="288" y="160" width="32" height="32"/>
  <object id="22" name="vigna_filare_1" type="solid" x="320" y="160" width="32" height="32"/>
  <object id="23" name="vigna_filare_1" type="solid" x="352" y="160" width="32" height="32"/>
  <object id="24" name="vigna_filare_1" type="solid" x="384" y="160" width="32" height="32"/>
  <object id="25" name="vigna_filare_1" type="solid" x="416" y="160" width="32" height="32"/>
  <object id="26" name="vigna_filare_1" type="solid" x="448" y="160" width="32" height="32"/>
  <object id="27" name="vigna_filare_1" type="solid" x="480" y="160" width="32" height="32"/>
  <object id="28" name="vigna_filare_1" type="solid" x="512" y="160" width="32" height="32"/>
  <object id="29" name="vigna_filare_2" type="solid" x="96" y="224" width="32" height="32"/>
  <object id="30" name="vigna_filare_2" type="solid" x="128" y="224" width="32" height="32"/>
  <object id="31" name="vigna_filare_2" type="solid" x="160" y="224" width="32" height="32"/>
  <object id="32" name="vigna_filare_2" type="solid" x="192" y="224" width="32" height="32"/>
  <object id="33" name="vigna_filare_2" type="solid" x="224" y="224" width="32" height="32"/>
  <object id="34" name="vigna_filare_2" type="solid" x="256" y="224" width="32" height="32"/>
  <object id="35" name="vigna_filare_2" type="solid" x="288" y="224" width="32" height="32"/>
  <object id="36" name="vigna_filare_2" type="solid" x="320" y="224" width="32" height="32"/>
  <object id="37" name="vigna_filare_2" type="solid" x="352" y="224" width="32" height="32"/>
  <object id="38" name="vigna_filare_2" type="solid" x="384" y="224" width="32" height="32"/>
  <object id="39" name="vigna_filare_2" type="solid" x="416" y="224" width="32" height="32"/>
  <object id="40" name="vigna_filare_2" type="solid" x="448" y="224" width="32" height="32"/>
  <object id="41" name="vigna_filare_2" type="solid" x="480" y="224" width="32" height="32"/>
  <object id="42" name="vigna_filare_2" type="solid" x="512" y="224" width="32" height="32"/>
  <object id="43" name="vigna_filare_3" type="solid" x="96" y="288" width="32" height="32"/>
  <object id="44" name="vigna_filare_3" type="solid" x="128" y="288" width="32" height="32"/>
  <object id="45" name="vigna_filare_3" type="solid" x="160" y="288" width="32" height="32"/>
  <object id="46" name="vigna_filare_3" type="solid" x="192" y="288" width="32" height="32"/>
  <object id="47" name="vigna_filare_3" type="solid" x="224" y="288" width="32" height="32"/>
  <object id="48" name="vigna_filare_3" type="solid" x="256" y="288" width="32" height="32"/>
  <object id="49" name="vigna_filare_3" type="solid" x="288" y="288" width="32" height="32"/>
  <object id="50" name="vigna_filare_3" type="solid" x="320" y="288" width="32" height="32"/>
  <object id="51" name="vigna_filare_3" type="solid" x="352" y="288" width="32" height="32"/>
  <object id="52" name="vigna_filare_3" type="solid" x="384" y="288" width="32" height="32"/>
  <object id="53" name="vigna_filare_3" type="solid" x="416" y="288" width="32" height="32"/>
  <object id="54" name="vigna_filare_3" type="solid" x="448" y="288" width="32" height="32"/>
  <object id="55" name="vigna_filare_3" type="solid" x="480" y="288" width="32" height="32"/>
  <object id="56" name="vigna_filare_3" type="solid" x="512" y="288" width="32" height="32"/>
  <object id="57" name="vigna_filare_4" type="solid" x="96" y="352" width="32" height="32"/>
  <object id="58" name="vigna_filare_4" type="solid" x="128" y="352" width="32" height="32"/>
  <object id="59" name="vigna_filare_4" type="solid" x="160" y="352" width="32" height="32"/>
  <object id="60" name="vigna_filare_4" type="solid" x="192" y="352" width="32" height="32"/>
  <object id="61" name="vigna_filare_4" type="solid" x="224" y="352" width="32" height="32"/>
  <object id="62" name="vigna_filare_4" type="solid" x="256" y="352" width="32" height="32"/>
  <object id="63" name="vigna_filare_4" type="solid" x="288" y="352" width="32" height="32"/>
  <object id="64" name="vigna_filare_4" type="solid" x="320" y="352" width="32" height="32"/>
  <object id="65" name="vigna_filare_4" type="solid" x="352" y="352" width="32" height="32"/>
  <object id="66" name="vigna_filare_4" type="solid" x="384" y="352" width="32" height="32"/>
  <object id="67" name="vigna_filare_4" type="solid" x="416" y="352" width="32" height="32"/>
  <object id="68" name="vigna_filare_4" type="solid" x="448" y="352" width="32" height="32"/>
  <object id="69" name="vigna_filare_4" type="solid" x="480" y="352" width="32" height="32"/>
  <object id="70" name="vigna_filare_4" type="solid" x="512" y="352" width="32" height="32"/>
  <object id="71" name="palazzo_colonna_wall" type="solid" x="704" y="192" width="32" height="32"/>
  <object id="72" name="palazzo_colonna_wall" type="solid" x="736" y="192" width="32" height="32"/>
  <object id="73" name="palazzo_colonna_wall" type="solid" x="768" y="192" width="32" height="32"/>
  <object id="74" name="palazzo_colonna_wall" type="solid" x="800" y="192" width="32" height="32"/>
  <object id="75" name="palazzo_colonna_wall" type="solid" x="832" y="192" width="32" height="32"/>
  <object id="76" name="palazzo_colonna_wall" type="solid" x="704" y="224" width="32" height="32"/>
  <object id="77" name="palazzo_colonna_wall" type="solid" x="736" y="224" width="32" height="32"/>
  <object id="78" name="palazzo_colonna_wall" type="solid" x="768" y="224" width="32" height="32"/>
  <object id="79" name="palazzo_colonna_wall" type="solid" x="800" y="224" width="32" height="32"/>
  <object id="80" name="palazzo_colonna_wall" type="solid" x="832" y="224" width="32" height="32"/>
  <object id="81" name="palazzo_colonna_wall" type="solid" x="704" y="256" width="32" height="32"/>
  <object id="82" name="palazzo_colonna_wall" type="solid" x="736" y="256" width="32" height="32"/>
  <object id="83" name="palazzo_colonna_wall" type="solid" x="768" y="256" width="32" height="32"/>
  <object id="84" name="palazzo_colonna_wall" type="solid" x="800" y="256" width="32" height="32"/>
  <object id="85" name="palazzo_colonna_wall" type="solid" x="832" y="256" width="32" height="32"/>
  <object id="86" name="palazzo_colonna_wall" type="solid" x="704" y="288" width="32" height="32"/>
  <object id="87" name="palazzo_colonna_wall" type="solid" x="736" y="288" width="32" height="32"/>
  <object id="88" name="palazzo_colonna_wall" type="solid" x="768" y="288" width="32" height="32"/>
  <object id="89" name="palazzo_colonna_wall" type="solid" x="800" y="288" width="32" height="32"/>
  <object id="90" name="palazzo_colonna_wall" type="solid" x="832" y="288" width="32" height="32"/>
  <object id="91" name="palazzo_colonna_wall" type="solid" x="704" y="320" width="32" height="32"/>
  <object id="92" name="palazzo_colonna_wall" type="solid" x="736" y="320" width="32" height="32"/>
  <object id="93" name="palazzo_colonna_wall" type="solid" x="800" y="320" width="32" height="32"/>
  <object id="94" name="palazzo_colonna_wall" type="solid" x="832" y="320" width="32" height="32"/>
  <object id="95" name="palestra_moro_wall" type="solid" x="1344" y="736" width="32" height="32"/>
  <object id="96" name="palestra_moro_wall" type="solid" x="1376" y="736" width="32" height="32"/>
  <object id="97" name="palestra_moro_wall" type="solid" x="1408" y="736" width="32" height="32"/>
  <object id="98" name="palestra_moro_wall" type="solid" x="1440" y="736" width="32" height="32"/>
  <object id="99" name="palestra_moro_wall" type="solid" x="1472" y="736" width="32" height="32"/>
  <object id="100" name="palestra_moro_wall" type="solid" x="1504" y="736" width="32" height="32"/>
  <object id="101" name="palestra_moro_wall" type="solid" x="1536" y="736" width="32" height="32"/>
  <object id="102" name="palestra_moro_wall" type="solid" x="1344" y="768" width="32" height="32"/>
  <object id="103" name="palestra_moro_wall" type="solid" x="1376" y="768" width="32" height="32"/>
  <object id="104" name="palestra_moro_wall" type="solid" x="1408" y="768" width="32" height="32"/>
  <object id="105" name="palestra_moro_wall" type="solid" x="1440" y="768" width="32" height="32"/>
  <object id="106" name="palestra_moro_wall" type="solid" x="1472" y="768" width="32" height="32"/>
  <object id="107" name="palestra_moro_wall" type="solid" x="1504" y="768" width="32" height="32"/>
  <object id="108" name="palestra_moro_wall" type="solid" x="1536" y="768" width="32" height="32"/>
  <object id="109" name="palestra_moro_wall" type="solid" x="1344" y="800" width="32" height="32"/>
  <object id="110" name="palestra_moro_wall" type="solid" x="1376" y="800" width="32" height="32"/>
  <object id="111" name="palestra_moro_wall" type="solid" x="1408" y="800" width="32" height="32"/>
  <object id="112" name="palestra_moro_wall" type="solid" x="1440" y="800" width="32" height="32"/>
  <object id="113" name="palestra_moro_wall" type="solid" x="1472" y="800" width="32" height="32"/>
  <object id="114" name="palestra_moro_wall" type="solid" x="1504" y="800" width="32" height="32"/>
  <object id="115" name="palestra_moro_wall" type="solid" x="1536" y="800" width="32" height="32"/>
  <object id="116" name="palestra_moro_wall" type="solid" x="1344" y="832" width="32" height="32"/>
  <object id="117" name="palestra_moro_wall" type="solid" x="1376" y="832" width="32" height="32"/>
  <object id="118" name="palestra_moro_wall" type="solid" x="1408" y="832" width="32" height="32"/>
  <object id="119" name="palestra_moro_wall" type="solid" x="1440" y="832" width="32" height="32"/>
  <object id="120" name="palestra_moro_wall" type="solid" x="1472" y="832" width="32" height="32"/>
  <object id="121" name="palestra_moro_wall" type="solid" x="1504" y="832" width="32" height="32"/>
  <object id="122" name="palestra_moro_wall" type="solid" x="1536" y="832" width="32" height="32"/>
  <object id="123" name="palestra_moro_wall" type="solid" x="1344" y="864" width="32" height="32"/>
  <object id="124" name="palestra_moro_wall" type="solid" x="1376" y="864" width="32" height="32"/>
  <object id="125" name="palestra_moro_wall" type="solid" x="1408" y="864" width="32" height="32"/>
  <object id="126" name="palestra_moro_wall" type="solid" x="1472" y="864" width="32" height="32"/>
  <object id="127" name="palestra_moro_wall" type="solid" x="1504" y="864" width="32" height="32"/>
  <object id="128" name="palestra_moro_wall" type="solid" x="1536" y="864" width="32" height="32"/>
  <object id="129" name="statua_t" type="solid" x="1312" y="860.318" width="32" height="32"/>
  <object id="130" name="statua_b" type="solid" x="1566.24" y="864.664" width="32" height="32"/>
  <object id="131" name="pokecenter_wall" type="solid" x="576" y="1024" width="32" height="32"/>
  <object id="132" name="pokecenter_wall" type="solid" x="608" y="1024" width="32" height="32"/>
  <object id="133" name="pokecenter_wall" type="solid" x="640" y="1024" width="32" height="32"/>
  <object id="134" name="pokecenter_wall" type="solid" x="672" y="1024" width="32" height="32"/>
  <object id="135" name="pokecenter_wall" type="solid" x="704" y="1024" width="32" height="32"/>
  <object id="136" name="pokecenter_wall" type="solid" x="576" y="1056" width="32" height="32"/>
  <object id="137" name="pokecenter_wall" type="solid" x="608" y="1056" width="32" height="32"/>
  <object id="138" name="pokecenter_wall" type="solid" x="640" y="1056" width="32" height="32"/>
  <object id="139" name="pokecenter_wall" type="solid" x="672" y="1056" width="32" height="32"/>
  <object id="140" name="pokecenter_wall" type="solid" x="704" y="1056" width="32" height="32"/>
  <object id="141" name="pokecenter_wall" type="solid" x="576" y="1088" width="32" height="32"/>
  <object id="142" name="pokecenter_wall" type="solid" x="608" y="1088" width="32" height="32"/>
  <object id="143" name="pokecenter_wall" type="solid" x="640" y="1088" width="32" height="32"/>
  <object id="144" name="pokecenter_wall" type="solid" x="672" y="1088" width="32" height="32"/>
  <object id="145" name="pokecenter_wall" type="solid" x="704" y="1088" width="32" height="32"/>
  <object id="146" name="pokecenter_wall" type="solid" x="576" y="1120" width="32" height="32"/>
  <object id="147" name="pokecenter_wall" type="solid" x="608" y="1120" width="32" height="32"/>
  <object id="148" name="pokecenter_wall" type="solid" x="640" y="1120" width="32" height="32"/>
  <object id="149" name="pokecenter_wall" type="solid" x="672" y="1120" width="32" height="32"/>
  <object id="150" name="pokecenter_wall" type="solid" x="704" y="1120" width="32" height="32"/>
  <object id="151" name="pokecenter_wall" type="solid" x="576" y="1152" width="32" height="32"/>
  <object id="152" name="pokecenter_wall" type="solid" x="608" y="1152" width="32" height="32"/>
  <object id="153" name="pokecenter_wall" type="solid" x="672" y="1152" width="32" height="32"/>
  <object id="154" name="pokecenter_wall" type="solid" x="704" y="1152" width="32" height="32"/>
  <object id="155" name="market_wall" type="solid" x="1024" y="1056" width="32" height="32"/>
  <object id="156" name="market_wall" type="solid" x="1056" y="1056" width="32" height="32"/>
  <object id="157" name="market_wall" type="solid" x="1088" y="1056" width="32" height="32"/>
  <object id="158" name="market_wall" type="solid" x="1120" y="1056" width="32" height="32"/>
  <object id="159" name="market_wall" type="solid" x="1024" y="1088" width="32" height="32"/>
  <object id="160" name="market_wall" type="solid" x="1056" y="1088" width="32" height="32"/>
  <object id="161" name="market_wall" type="solid" x="1088" y="1088" width="32" height="32"/>
  <object id="162" name="market_wall" type="solid" x="1120" y="1088" width="32" height="32"/>
  <object id="163" name="market_wall" type="solid" x="1024" y="1120" width="32" height="32"/>
  <object id="164" name="market_wall" type="solid" x="1056" y="1120" width="32" height="32"/>
  <object id="165" name="market_wall" type="solid" x="1088" y="1120" width="32" height="32"/>
  <object id="166" name="market_wall" type="solid" x="1120" y="1120" width="32" height="32"/>
  <object id="167" name="market_wall" type="solid" x="1024" y="1152" width="32" height="32"/>
  <object id="168" name="market_wall" type="solid" x="1056" y="1152" width="32" height="32"/>
  <object id="169" name="market_wall" type="solid" x="1120" y="1152" width="32" height="32"/>
  <object id="170" name="casa_mattoni1_wall" type="solid" x="1216" y="192" width="32" height="32"/>
  <object id="171" name="casa_mattoni1_wall" type="solid" x="1248" y="192" width="32" height="32"/>
  <object id="172" name="casa_mattoni1_wall" type="solid" x="1280" y="192" width="32" height="32"/>
  <object id="173" name="casa_mattoni1_wall" type="solid" x="1312" y="192" width="32" height="32"/>
  <object id="174" name="casa_mattoni1_wall" type="solid" x="1216" y="224" width="32" height="32"/>
  <object id="175" name="casa_mattoni1_wall" type="solid" x="1248" y="224" width="32" height="32"/>
  <object id="176" name="casa_mattoni1_wall" type="solid" x="1280" y="224" width="32" height="32"/>
  <object id="177" name="casa_mattoni1_wall" type="solid" x="1312" y="224" width="32" height="32"/>
  <object id="178" name="casa_mattoni1_wall" type="solid" x="1216" y="256" width="32" height="32"/>
  <object id="179" name="casa_mattoni1_wall" type="solid" x="1248" y="256" width="32" height="32"/>
  <object id="180" name="casa_mattoni1_wall" type="solid" x="1280" y="256" width="32" height="32"/>
  <object id="181" name="casa_mattoni1_wall" type="solid" x="1312" y="256" width="32" height="32"/>
  <object id="182" name="casa_mattoni1_wall" type="solid" x="1216" y="288" width="32" height="32"/>
  <object id="183" name="casa_mattoni1_wall" type="solid" x="1248" y="288" width="32" height="32"/>
  <object id="184" name="casa_mattoni1_wall" type="solid" x="1280" y="288" width="32" height="32"/>
  <object id="185" name="casa_mattoni1_wall" type="solid" x="1312" y="288" width="32" height="32"/>
  <object id="186" name="casa_rossa1_wall" type="solid" x="1440" y="224" width="32" height="32"/>
  <object id="187" name="casa_rossa1_wall" type="solid" x="1472" y="224" width="32" height="32"/>
  <object id="188" name="casa_rossa1_wall" type="solid" x="1504" y="224" width="32" height="32"/>
  <object id="189" name="casa_rossa1_wall" type="solid" x="1536" y="224" width="32" height="32"/>
  <object id="190" name="casa_rossa1_wall" type="solid" x="1440" y="256" width="32" height="32"/>
  <object id="191" name="casa_rossa1_wall" type="solid" x="1472" y="256" width="32" height="32"/>
  <object id="192" name="casa_rossa1_wall" type="solid" x="1504" y="256" width="32" height="32"/>
  <object id="193" name="casa_rossa1_wall" type="solid" x="1536" y="256" width="32" height="32"/>
  <object id="194" name="casa_rossa1_wall" type="solid" x="1440" y="288" width="32" height="32"/>
  <object id="195" name="casa_rossa1_wall" type="solid" x="1472" y="288" width="32" height="32"/>
  <object id="196" name="casa_rossa1_wall" type="solid" x="1504" y="288" width="32" height="32"/>
  <object id="197" name="casa_rossa1_wall" type="solid" x="1536" y="288" width="32" height="32"/>
  <object id="198" name="casa_mattoni2_wall" type="solid" x="128" y="512" width="32" height="32"/>
  <object id="199" name="casa_mattoni2_wall" type="solid" x="160" y="512" width="32" height="32"/>
  <object id="200" name="casa_mattoni2_wall" type="solid" x="192" y="512" width="32" height="32"/>
  <object id="201" name="casa_mattoni2_wall" type="solid" x="224" y="512" width="32" height="32"/>
  <object id="202" name="casa_mattoni2_wall" type="solid" x="128" y="544" width="32" height="32"/>
  <object id="203" name="casa_mattoni2_wall" type="solid" x="160" y="544" width="32" height="32"/>
  <object id="204" name="casa_mattoni2_wall" type="solid" x="192" y="544" width="32" height="32"/>
  <object id="205" name="casa_mattoni2_wall" type="solid" x="224" y="544" width="32" height="32"/>
  <object id="206" name="casa_mattoni2_wall" type="solid" x="128" y="576" width="32" height="32"/>
  <object id="207" name="casa_mattoni2_wall" type="solid" x="160" y="576" width="32" height="32"/>
  <object id="208" name="casa_mattoni2_wall" type="solid" x="192" y="576" width="32" height="32"/>
  <object id="209" name="casa_mattoni2_wall" type="solid" x="224" y="576" width="32" height="32"/>
  <object id="210" name="casa_mattoni2_wall" type="solid" x="128" y="608" width="32" height="32"/>
  <object id="211" name="casa_mattoni2_wall" type="solid" x="192" y="608" width="32" height="32"/>
  <object id="212" name="casa_mattoni2_wall" type="solid" x="224" y="608" width="32" height="32"/>
  <object id="213" name="casa_gialla1_wall" type="solid" x="352" y="544" width="32" height="32"/>
  <object id="214" name="casa_gialla1_wall" type="solid" x="384" y="544" width="32" height="32"/>
  <object id="215" name="casa_gialla1_wall" type="solid" x="416" y="544" width="32" height="32"/>
  <object id="216" name="casa_gialla1_wall" type="solid" x="448" y="544" width="32" height="32"/>
  <object id="217" name="casa_gialla1_wall" type="solid" x="352" y="576" width="32" height="32"/>
  <object id="218" name="casa_gialla1_wall" type="solid" x="384" y="576" width="32" height="32"/>
  <object id="219" name="casa_gialla1_wall" type="solid" x="416" y="576" width="32" height="32"/>
  <object id="220" name="casa_gialla1_wall" type="solid" x="448" y="576" width="32" height="32"/>
  <object id="221" name="casa_gialla1_wall" type="solid" x="352" y="608" width="32" height="32"/>
  <object id="222" name="casa_gialla1_wall" type="solid" x="384" y="608" width="32" height="32"/>
  <object id="223" name="casa_gialla1_wall" type="solid" x="416" y="608" width="32" height="32"/>
  <object id="224" name="casa_gialla1_wall" type="solid" x="448" y="608" width="32" height="32"/>
  <object id="225" name="casa_verde1_wall" type="solid" x="128" y="832" width="32" height="32"/>
  <object id="226" name="casa_verde1_wall" type="solid" x="160" y="832" width="32" height="32"/>
  <object id="227" name="casa_verde1_wall" type="solid" x="192" y="832" width="32" height="32"/>
  <object id="228" name="casa_verde1_wall" type="solid" x="224" y="832" width="32" height="32"/>
  <object id="229" name="casa_verde1_wall" type="solid" x="128" y="864" width="32" height="32"/>
  <object id="230" name="casa_verde1_wall" type="solid" x="160" y="864" width="32" height="32"/>
  <object id="231" name="casa_verde1_wall" type="solid" x="192" y="864" width="32" height="32"/>
  <object id="232" name="casa_verde1_wall" type="solid" x="224" y="864" width="32" height="32"/>
  <object id="233" name="casa_verde1_wall" type="solid" x="128" y="896" width="32" height="32"/>
  <object id="234" name="casa_verde1_wall" type="solid" x="160" y="896" width="32" height="32"/>
  <object id="235" name="casa_verde1_wall" type="solid" x="192" y="896" width="32" height="32"/>
  <object id="236" name="casa_verde1_wall" type="solid" x="224" y="896" width="32" height="32"/>
  <object id="237" name="casa_blu1_wall" type="solid" x="384" y="832" width="32" height="32"/>
  <object id="238" name="casa_blu1_wall" type="solid" x="416" y="832" width="32" height="32"/>
  <object id="239" name="casa_blu1_wall" type="solid" x="448" y="832" width="32" height="32"/>
  <object id="240" name="casa_blu1_wall" type="solid" x="480" y="832" width="32" height="32"/>
  <object id="241" name="casa_blu1_wall" type="solid" x="384" y="864" width="32" height="32"/>
  <object id="242" name="casa_blu1_wall" type="solid" x="416" y="864" width="32" height="32"/>
  <object id="243" name="casa_blu1_wall" type="solid" x="448" y="864" width="32" height="32"/>
  <object id="244" name="casa_blu1_wall" type="solid" x="480" y="864" width="32" height="32"/>
  <object id="245" name="casa_blu1_wall" type="solid" x="384" y="896" width="32" height="32"/>
  <object id="246" name="casa_blu1_wall" type="solid" x="416" y="896" width="32" height="32"/>
  <object id="247" name="casa_blu1_wall" type="solid" x="448" y="896" width="32" height="32"/>
  <object id="248" name="casa_blu1_wall" type="solid" x="480" y="896" width="32" height="32"/>
  <object id="249" name="casa_campagna1_wall" type="solid" x="128" y="1056" width="32" height="32"/>
  <object id="250" name="casa_campagna1_wall" type="solid" x="160" y="1056" width="32" height="32"/>
  <object id="251" name="casa_campagna1_wall" type="solid" x="192" y="1056" width="32" height="32"/>
  <object id="252" name="casa_campagna1_wall" type="solid" x="224" y="1056" width="32" height="32"/>
  <object id="253" name="casa_campagna1_wall" type="solid" x="128" y="1088" width="32" height="32"/>
  <object id="254" name="casa_campagna1_wall" type="solid" x="160" y="1088" width="32" height="32"/>
  <object id="255" name="casa_campagna1_wall" type="solid" x="192" y="1088" width="32" height="32"/>
  <object id="256" name="casa_campagna1_wall" type="solid" x="224" y="1088" width="32" height="32"/>
  <object id="257" name="casa_campagna1_wall" type="solid" x="128" y="1120" width="32" height="32"/>
  <object id="258" name="casa_campagna1_wall" type="solid" x="160" y="1120" width="32" height="32"/>
  <object id="259" name="casa_campagna1_wall" type="solid" x="192" y="1120" width="32" height="32"/>
  <object id="260" name="casa_campagna1_wall" type="solid" x="224" y="1120" width="32" height="32"/>
  <object id="261" name="casa_campagna1_wall" type="solid" x="128" y="1152" width="32" height="32"/>
  <object id="262" name="casa_campagna1_wall" type="solid" x="160" y="1152" width="32" height="32"/>
  <object id="263" name="casa_campagna1_wall" type="solid" x="192" y="1152" width="32" height="32"/>
  <object id="264" name="casa_campagna1_wall" type="solid" x="224" y="1152" width="32" height="32"/>
  <object id="265" name="casa_rossa2_wall" type="solid" x="320" y="1280" width="32" height="32"/>
  <object id="266" name="casa_rossa2_wall" type="solid" x="352" y="1280" width="32" height="32"/>
  <object id="267" name="casa_rossa2_wall" type="solid" x="384" y="1280" width="32" height="32"/>
  <object id="268" name="casa_rossa2_wall" type="solid" x="416" y="1280" width="32" height="32"/>
  <object id="269" name="casa_rossa2_wall" type="solid" x="320" y="1312" width="32" height="32"/>
  <object id="270" name="casa_rossa2_wall" type="solid" x="352" y="1312" width="32" height="32"/>
  <object id="271" name="casa_rossa2_wall" type="solid" x="384" y="1312" width="32" height="32"/>
  <object id="272" name="casa_rossa2_wall" type="solid" x="416" y="1312" width="32" height="32"/>
  <object id="273" name="casa_rossa2_wall" type="solid" x="320" y="1344" width="32" height="32"/>
  <object id="274" name="casa_rossa2_wall" type="solid" x="352" y="1344" width="32" height="32"/>
  <object id="275" name="casa_rossa2_wall" type="solid" x="384" y="1344" width="32" height="32"/>
  <object id="276" name="casa_rossa2_wall" type="solid" x="416" y="1344" width="32" height="32"/>
  <object id="277" name="casa_gialla2_wall" type="solid" x="1088" y="1344" width="32" height="32"/>
  <object id="278" name="casa_gialla2_wall" type="solid" x="1120" y="1344" width="32" height="32"/>
  <object id="279" name="casa_gialla2_wall" type="solid" x="1152" y="1344" width="32" height="32"/>
  <object id="280" name="casa_gialla2_wall" type="solid" x="1184" y="1344" width="32" height="32"/>
  <object id="281" name="casa_gialla2_wall" type="solid" x="1088" y="1376" width="32" height="32"/>
  <object id="282" name="casa_gialla2_wall" type="solid" x="1120" y="1376" width="32" height="32"/>
  <object id="283" name="casa_gialla2_wall" type="solid" x="1152" y="1376" width="32" height="32"/>
  <object id="284" name="casa_gialla2_wall" type="solid" x="1184" y="1376" width="32" height="32"/>
  <object id="285" name="casa_gialla2_wall" type="solid" x="1088" y="1408" width="32" height="32"/>
  <object id="286" name="casa_gialla2_wall" type="solid" x="1120" y="1408" width="32" height="32"/>
  <object id="287" name="casa_gialla2_wall" type="solid" x="1152" y="1408" width="32" height="32"/>
  <object id="288" name="casa_gialla2_wall" type="solid" x="1184" y="1408" width="32" height="32"/>
  <object id="289" name="casa_campagna2_wall" type="solid" x="1408" y="1312" width="32" height="32"/>
  <object id="290" name="casa_campagna2_wall" type="solid" x="1440" y="1312" width="32" height="32"/>
  <object id="291" name="casa_campagna2_wall" type="solid" x="1472" y="1312" width="32" height="32"/>
  <object id="292" name="casa_campagna2_wall" type="solid" x="1504" y="1312" width="32" height="32"/>
  <object id="293" name="casa_campagna2_wall" type="solid" x="1408" y="1344" width="32" height="32"/>
  <object id="294" name="casa_campagna2_wall" type="solid" x="1440" y="1344" width="32" height="32"/>
  <object id="295" name="casa_campagna2_wall" type="solid" x="1472" y="1344" width="32" height="32"/>
  <object id="296" name="casa_campagna2_wall" type="solid" x="1504" y="1344" width="32" height="32"/>
  <object id="297" name="casa_campagna2_wall" type="solid" x="1408" y="1376" width="32" height="32"/>
  <object id="298" name="casa_campagna2_wall" type="solid" x="1440" y="1376" width="32" height="32"/>
  <object id="299" name="casa_campagna2_wall" type="solid" x="1472" y="1376" width="32" height="32"/>
  <object id="300" name="casa_campagna2_wall" type="solid" x="1504" y="1376" width="32" height="32"/>
  <object id="301" name="casa_campagna2_wall" type="solid" x="1408" y="1408" width="32" height="32"/>
  <object id="302" name="casa_campagna2_wall" type="solid" x="1440" y="1408" width="32" height="32"/>
  <object id="303" name="casa_campagna2_wall" type="solid" x="1472" y="1408" width="32" height="32"/>
  <object id="304" name="casa_campagna2_wall" type="solid" x="1504" y="1408" width="32" height="32"/>
  <object id="314" name="fontana_quattro_mori" type="solid" x="788" y="531" width="153.5" height="105"/>
  <object id="315" name="panchina" type="solid" x="992" y="640" width="32" height="32"/>
  <object id="316" name="panchina" type="solid" x="1024" y="640" width="32" height="32"/>
  <object id="317" name="panchina" type="solid" x="992" y="672" width="32" height="32"/>
  <object id="318" name="panchina" type="solid" x="1024" y="672" width="32" height="32"/>
  <object id="319" name="bordo_0_0" type="solid" x="0" y="0" width="64" height="96"/>
  <object id="320" name="bordo_3_0" type="solid" x="0" y="96" width="64" height="96"/>
  <object id="321" name="bordo_6_0" type="solid" x="0" y="192" width="64" height="96"/>
  <object id="322" name="bordo_9_0" type="solid" x="0" y="288" width="64" height="96"/>
  <object id="323" name="bordo_12_0" type="solid" x="0" y="384" width="64" height="96"/>
  <object id="324" name="bordo_15_0" type="solid" x="0" y="480" width="64" height="96"/>
  <object id="325" name="bordo_18_0" type="solid" x="0" y="576" width="64" height="96"/>
  <object id="326" name="bordo_21_0" type="solid" x="0" y="672" width="64" height="96"/>
  <object id="327" name="bordo_22_2" type="solid" x="64" y="704" width="64" height="96"/>
  <object id="328" name="bordo_24_0" type="solid" x="0" y="768" width="64" height="96"/>
  <object id="329" name="bordo_27_0" type="solid" x="0" y="864" width="64" height="96"/>
  <object id="330" name="bordo_30_0" type="solid" x="0" y="960" width="64" height="96"/>
  <object id="331" name="bordo_33_0" type="solid" x="0" y="1056" width="64" height="96"/>
  <object id="332" name="bordo_36_0" type="solid" x="0" y="1152" width="64" height="96"/>
  <object id="333" name="bordo_39_0" type="solid" x="0" y="1248" width="64" height="96"/>
  <object id="334" name="bordo_40_2" type="solid" x="1.46091" y="1246.23" width="64" height="96"/>
  <object id="335" name="bordo_42_0" type="solid" x="0" y="1344" width="64" height="96"/>
  <object id="336" name="bordo_43_2" type="solid" x="-1.04065" y="1379.75" width="64" height="96"/>
  <object id="337" name="bordo_45_0" type="solid" x="0" y="1440" width="64" height="96"/>
  <object id="380" name="bordo_44_50" type="solid" x="1600" y="1408" width="64" height="96"/>
  <object id="381" name="bordo_44_52" type="solid" x="1664" y="1408" width="64" height="96"/>
  <object id="382" name="bordo_44_54" type="solid" x="1728" y="1408" width="64" height="96"/>
  <object id="383" name="bordo_44_56" type="solid" x="1792" y="1408" width="64" height="96"/>
  <object id="384" name="verde_11_36" type="solid" x="1152" y="352" width="64" height="96"/>
  <object id="385" name="verde_44_31" type="solid" x="992" y="1408" width="64" height="96"/>
  <object id="386" name="verde_6_32" type="solid" x="1024" y="192" width="64" height="96"/>
  <object id="387" name="verde_38_37" type="solid" x="1184" y="1216" width="64" height="96"/>
  <object id="388" name="verde_14_44" type="solid" x="1408" y="448" width="64" height="96"/>
  <object id="389" name="verde_6_30" type="solid" x="960" y="192" width="64" height="96"/>
  <object id="390" name="verde_26_23" type="solid" x="736" y="832" width="64" height="96"/>
  <object id="391" name="verde_34_43" type="solid" x="1376" y="1088" width="64" height="96"/>
  <object id="392" name="verde_27_17" type="solid" x="544" y="864" width="64" height="96"/>
  <object id="393" name="verde_22_9" type="solid" x="288" y="704" width="64" height="96"/>
  <object id="394" name="verde_18_44" type="solid" x="1408" y="576" width="64" height="96"/>
  <object id="395" name="verde_22_16" type="solid" x="512" y="704" width="64" height="96"/>
  <object id="396" name="verde_44_9" type="solid" x="288" y="1408" width="64" height="96"/>
  <object id="397" name="verde_22_13" type="solid" x="416" y="704" width="64" height="96"/>
  <object id="398" name="verde_19_39" type="solid" x="1248" y="608" width="64" height="96"/>
  <object id="399" name="verde_43_41" type="solid" x="1312" y="1376" width="64" height="96"/>
  <object id="400" name="verde_16_47" type="solid" x="1504" y="512" width="64" height="96"/>
  <object id="401" name="verde_13_13" type="solid" x="416" y="483.156" width="64" height="28.8442"/>
  <object id="402" name="verde_38_32" type="solid" x="1024" y="1216" width="64" height="96"/>
  <object id="403" name="verde_44_39" type="solid" x="1248" y="1408" width="64" height="96"/>
  <object id="404" name="verde_42_22" type="solid" x="704" y="1344" width="64" height="96"/>
  <object id="22" name="verde_44_31" type="solid" x="15.9413" y="1558.07" width="803.781" height="38.464"/>
  <object id="23" name="verde_44_31" type="solid" x="5.37049" y="9.29549" width="847.05" height="38.464"/>
  <object id="24" name="verde_44_31" type="solid" x="970.528" y="1553.05" width="939.246" height="38.464"/>
  <object id="32" x="1066.01" y="356.824" width="11.5968" height="8.92061"/>
  <object id="33" x="937.11" y="362.177" width="11.5968" height="8.92061"/>
  <object id="34" x="809.545" y="359.5" width="11.5968" height="8.92061"/>
  <object id="35" x="742.64" y="360.393" width="11.5968" height="8.92061"/>
  <object id="36" x="683.764" y="358.608" width="11.5968" height="8.92061"/>
  <object id="37" x="392.953" y="931.311" width="11.5968" height="8.92061"/>
  <object id="38" x="460.749" y="934.88" width="11.5968" height="8.92061"/>
  <object id="39" x="200.268" y="931.311" width="11.5968" height="8.92061"/>
  <object id="40" x="136.039" y="934.88" width="11.5968" height="8.92061"/>
  <object id="41" x="136.039" y="649.42" width="11.5968" height="8.92061"/>
  <object id="42" x="202.944" y="647.636" width="11.5968" height="8.92061"/>
  <object id="43" x="361.731" y="652.096" width="11.5968" height="8.92061"/>
  <object id="44" x="423.283" y="645.852" width="11.5968" height="8.92061"/>
  <object id="45" x="202.052" y="1193.58" width="11.5968" height="8.92061"/>
  <object id="46" x="144.068" y="1190.9" width="11.5968" height="8.92061"/>
  <object id="47" x="617.752" y="1191.79" width="11.5968" height="8.92061"/>
  <object id="48" x="682.872" y="1192.69" width="11.5968" height="8.92061"/>
  <object id="49" x="395.629" y="1385.37" width="11.5968" height="8.92061"/>
  <object id="50" x="337.645" y="1383.59" width="11.5968" height="8.92061"/>
  <object id="51" x="1099.46" y="1446.03" width="11.5968" height="8.92061"/>
  <object id="52" x="1159.23" y="1449.6" width="11.5968" height="8.92061"/>
  <object id="53" x="1000.45" y="1258.7" width="11.5968" height="8.92061"/>
  <object id="54" x="811.329" y="1260.48" width="11.5968" height="8.92061"/>
  <object id="55" x="814.897" y="1133.81" width="11.5968" height="8.92061"/>
  <object id="56" x="810.437" y="1001.78" width="11.5968" height="8.92061"/>
  <object id="57" x="1004.91" y="1002.68" width="11.5968" height="8.92061"/>
  <object id="58" x="1669.79" y="393.337" width="11.5968" height="8.92061"/>
  <object id="59" x="813.113" y="876.004" width="11.5968" height="8.92061"/>
  <object id="60" x="1412.58" y="901.873" width="11.5968" height="8.92061"/>
  <object id="61" x="1477.7" y="902.765" width="11.5968" height="8.92061"/>
  <object id="62" x="1452.72" y="332.739" width="11.5968" height="8.92061"/>
  <object id="63" x="1513.38" y="329.17" width="11.5968" height="8.92061"/>
  <object id="64" x="1224.35" y="329.17" width="11.5968" height="8.92061"/>
  <object id="65" x="1131.58" y="1192.69" width="11.5968" height="8.92061"/>
  <object id="66" x="1482.16" y="1449.6" width="11.5968" height="8.92061"/>
  <object id="69" x="1897.86" y="171.276" width="11.5968" height="8.92061"/>
  <object id="84" x="1707" y="237" width="149" height="31"/>
  <object id="85" x="1867" y="296" width="38" height="231"/>
  <object id="86" x="1808" y="533" width="23" height="27"/>
  <object id="87" x="1863.33" y="707.333" width="54.6667" height="687.333"/>
  <object id="88" x="1711" y="72" width="42" height="110"/>
  <object id="89" x="1765" y="107" width="43" height="28"/>
  <object id="90" x="1829" y="86" width="34" height="20"/>
  <object id="97" name="verde_44_31" type="solid" x="996.475" y="2.768" width="909.05" height="22.464"/>
  <object id="98" x="1828" y="587.667" width="54.6667" height="103.333"/>
  <object id="99" x="1734.67" y="589" width="54.6667" height="103.333"/>
  <object id="100" x="1779.33" y="581" width="54.6667" height="49.9997"/>
  <object id="105" name="verde_44_31" type="solid" x="996.142" y="31.4347" width="511.717" height="22.464"/>
  <object id="106" name="verde_44_31" type="solid" x="1256.14" y="28.1013" width="403.05" height="125.797"/>
  <object id="412" x="1001.33" y="871.333" width="14" height="16"/>
  <object id="413" x="167.333" y="421.333" width="16.6667" height="14.6667"/>
  <object id="414" x="999.333" y="1127.33" width="12.6667" height="14"/>
  <object id="415" name="fontana_quattro_mori" type="solid" x="832.25" y="490" width="65.5" height="37.5"/>
 </objectgroup>
 <objectgroup color="#00ff00" id="5" name="eventi">
  <object id="1" name="npc_1" type="npc" x="694" y="596" width="32" height="32">
   <properties>
    <property name="facing" value="E"/>
    <property name="note" value="anziano alla fontana: racconta della Sagra e del vino dalla fontana"/>
   </properties>
  </object>
  <object id="2" name="npc_2" type="npc" x="1054.67" y="578" width="32" height="32">
   <properties>
    <property name="facing" value="W"/>
    <property name="note" value="turista che fotografa la Fontana dei Quattro Mori"/>
   </properties>
  </object>
  <object id="3" name="npc_3" type="npc" x="768" y="416" width="32" height="32">
   <properties>
    <property name="facing" value="S"/>
    <property name="note" value="davanti a Palazzo Colonna"/>
   </properties>
  </object>
  <object id="5" name="npc_5" type="npc" x="1504" y="960" width="32" height="32">
   <properties>
    <property name="facing" value="W"/>
    <property name="note" value="al belvedere, guarda il lago"/>
   </properties>
  </object>
  <object id="6" name="npc_6" type="npc" x="454.451" y="1176.09" width="32" height="32">
   <properties>
    <property name="facing" value="S"/>
    <property name="note" value="davanti al pokecenter"/>
   </properties>
  </object>
  <object id="7" name="npc_7" type="npc" x="1176.31" y="1191.36" width="32" height="32">
   <properties>
    <property name="facing" value="S"/>
    <property name="note" value="davanti al market"/>
   </properties>
  </object>
  <object id="8" name="npc_8" type="npc" x="160" y="256" width="25.7556" height="25.7556">
   <properties>
    <property name="facing" value="E"/>
    <property name="note" value="vignaiolo tra i filari: parla della vendemmia e dell'uva di Marino"/>
   </properties>
  </object>
  <object id="9" name="npc_9" type="npc" x="256" y="448" width="32" height="32">
   <properties>
    <property name="facing" value="N"/>
    <property name="note" value="aiutante del vignaiolo vicino al cartello del vigneto"/>
   </properties>
  </object>
  <object id="10" name="npc_10" type="npc" x="273.955" y="633.092" width="32" height="32">
   <properties>
    <property name="facing" value="E"/>
    <property name="note" value="borgo storico"/>
   </properties>
  </object>
  <object id="11" name="npc_11" type="npc" x="210.733" y="1006.62" width="32" height="32">
   <properties>
    <property name="facing" value="S"/>
    <property name="note" value="quartiere residenziale"/>
   </properties>
  </object>
  <object id="12" name="npc_12" type="npc" x="479.222" y="972.831" width="32" height="32">
   <properties>
    <property name="facing" value="W"/>
    <property name="note" value="quartiere residenziale"/>
   </properties>
  </object>
  <object id="13" name="npc_13" type="npc" x="1279.11" y="353.12" width="32" height="32">
   <properties>
    <property name="facing" value="S"/>
    <property name="note" value="case sopra la piazza"/>
   </properties>
  </object>
  <object id="14" name="npc_14" type="npc" x="1503.47" y="1478.7" width="32" height="32">
   <properties>
    <property name="facing" value="N"/>
    <property name="note" value="case sud"/>
   </properties>
  </object>
  <object id="15" name="npc_15" type="npc" x="896" y="992" width="32" height="32">
   <properties>
    <property name="facing" value="S"/>
    <property name="note" value="sul corso"/>
   </properties>
  </object>
  <object id="17" name="palazzo_colonna_door" type="warp" x="768" y="320" width="32" height="32">
   <properties>
    <property name="destinazione" value="interno_palazzo_colonna"/>
    <property name="note" value="palazzo_colonna_door"/>
   </properties>
  </object>
  <object id="18" name="palestra_moro_door" type="warp" x="1440" y="864" width="32" height="20.6667">
   <properties>
    <property name="destinazione" value="interno_palestra_moro"/>
    <property name="note" value="palestra_moro_door"/>
   </properties>
  </object>
  <object id="19" name="pokecenter_door" type="warp" x="639.108" y="1152" width="32" height="25.3333">
   <properties>
    <property name="destinazione" value="pokecenter_marino"/>
    <property name="note" value="pokecenter_door"/>
   </properties>
  </object>
  <object id="20" name="market_door" type="warp" x="1088" y="1152" width="32" height="20">
   <properties>
    <property name="destinazione" value="interno_market"/>
    <property name="note" value="market_door"/>
   </properties>
  </object>
  <object id="26" name="spawn" type="spawn" x="909.302" y="1516.54" width="32" height="32" rotation="89.7387">
   <properties>
    <property name="id" value="da_percorso 3"/>
    <property name="type" value="spawn"/>
   </properties>
  </object>
  <object id="27" name="erba alta percorso 3" x="573.633" y="69.5662" width="64.0691" height="247.372">
   <properties>
    <property name="id" value="incontri marino"/>
    <property name="type" value="erba_alta"/>
   </properties>
  </object>
  <object id="28" name="erba alta percorso 3" x="639.49" y="64.1683" width="594.164" height="85.4287">
   <properties>
    <property name="id" value="incontri marino"/>
    <property name="type" value="erba_alta"/>
   </properties>
  </object>
  <object id="31" name="warp" type="warp" x="838.908" y="1601.5" width="32" height="113.619" rotation="269.686">
   <properties>
    <property name="destinazione" value="Percorso 3"/>
    <property name="spawn_id" value="da_marino"/>
    <property name="type" value="warp"/>
   </properties>
  </object>
  <object id="70" name="acqua_marino_surf" type="acqua_surf" x="1680.03" y="846.348" width="173.609" height="552.622">
   <properties>
    <property name="id" value="acqua_marino_surf"/>
    <property name="type" value="acqua surf"/>
   </properties>
  </object>
  <object id="72" name="acqua_marino_surf" type="acqua_surf" x="1679.58" y="296.716" width="174.276" height="271.298">
   <properties>
    <property name="id" value="acqua_marino_surf"/>
    <property name="type" value="acqua surf"/>
   </properties>
  </object>
  <object id="73" name="acqua_marino_surf" type="acqua_surf" x="1682.26" y="584.28" width="47.6194" height="173.298">
   <properties>
    <property name="id" value="acqua_marino_surf"/>
    <property name="type" value="acqua surf"/>
   </properties>
  </object>
  <object id="74" name="acqua_marino_surf" type="acqua_surf" x="1731.31" y="705.862" width="47.6194" height="26.3058">
   <properties>
    <property name="id" value="acqua_marino_surf"/>
    <property name="type" value="acqua surf"/>
   </properties>
  </object>
  <object id="75" name="acqua_marino_surf" type="acqua_surf" x="1678.38" y="196.854" width="47.6194" height="26.3058">
   <properties>
    <property name="id" value="acqua_marino_surf"/>
    <property name="type" value="acqua surf"/>
   </properties>
  </object>
  <object id="76" name="acqua_marino_surf" type="acqua_surf" x="1830.78" y="712.984" width="26.2861" height="26.3058">
   <properties>
    <property name="id" value="acqua_marino_surf"/>
    <property name="type" value="acqua surf"/>
   </properties>
  </object>
  <object id="78" name="acqua_marino_surf" type="acqua_surf" x="1832.79" y="741.118" width="20.2861" height="57.6391">
   <properties>
    <property name="id" value="acqua_marino_surf"/>
    <property name="type" value="acqua surf"/>
   </properties>
  </object>
  <object id="79" name="acqua_marino_surf" type="acqua_surf" x="1831.15" y="792.235" width="23.6194" height="53.6391">
   <properties>
    <property name="id" value="acqua_marino_surf"/>
    <property name="type" value="acqua surf"/>
   </properties>
  </object>
  <object id="82" name="acqua_marino_surf" type="acqua_surf" x="1888.77" y="569.363" width="31.5623" height="133.928">
   <properties>
    <property name="id" value="acqua_marino_surf"/>
    <property name="type" value="acqua surf"/>
   </properties>
  </object>
  <object id="83" x="464" y="464">
   <properties>
    <property name="contenuto" value="pietra_acqua"/>
    <property name="id" value="oggetto_84"/>
    <property name="quantita" value="1"/>
    <property name="type" value="oggetto"/>
   </properties>
   <point/>
  </object>
  <object id="101" name="acqua_marino_surf" type="acqua_surf" x="1739.52" y="192.847" width="47.6194" height="26.3058">
   <properties>
    <property name="id" value="acqua_marino_surf"/>
    <property name="type" value="acqua surf"/>
   </properties>
  </object>
  <object id="102" name="acqua_marino_surf" type="acqua_surf" x="1760.86" y="167.514" width="163.619" height="50.9725">
   <properties>
    <property name="id" value="acqua_marino_surf"/>
    <property name="type" value="acqua surf"/>
   </properties>
  </object>
  <object id="103" name="acqua_marino_surf" type="acqua_surf" x="1828.86" y="133.847" width="80.9523" height="50.9725">
   <properties>
    <property name="id" value="acqua_marino_surf"/>
    <property name="type" value="acqua surf"/>
   </properties>
  </object>
  <object id="104" name="acqua_marino_surf" type="acqua_surf" x="1673.52" y="49.1804" width="232.952" height="19.6392">
   <properties>
    <property name="id" value="acqua_marino_surf"/>
    <property name="type" value="acqua surf"/>
   </properties>
  </object>
  <object id="107" name="acqua_marino_surf" type="acqua_surf" x="1674.86" y="72.8471" width="18.2853" height="212.973">
   <properties>
    <property name="id" value="acqua_marino_surf"/>
    <property name="type" value="acqua surf"/>
   </properties>
  </object>
  <object id="108" name="acqua_marino_surf" type="acqua_surf" x="1896.19" y="65.5135" width="18.2853" height="212.973">
   <properties>
    <property name="id" value="acqua_marino_surf"/>
    <property name="type" value="acqua surf"/>
   </properties>
  </object>
  <object id="109" name="acqua_marino_surf" type="acqua_surf" x="1764.86" y="64.8471" width="47.6194" height="26.3058">
   <properties>
    <property name="id" value="acqua_marino_surf"/>
    <property name="type" value="acqua surf"/>
   </properties>
  </object>
  <object id="110" name="acqua_marino_surf" type="acqua_surf" x="1730.86" y="736.847" width="47.6194" height="26.3058">
   <properties>
    <property name="id" value="acqua_marino_surf"/>
    <property name="type" value="acqua surf"/>
   </properties>
  </object>
  <object id="405" name="snorlax_marino" type="leggendario" x="1761.67" y="329.333" width="32" height="32">
   <properties>
    <property name="addormentato" value="true"/>
    <property name="direzione" value="sud"/>
    <property name="id" value="snorlax_marino"/>
    <property name="livello" value="32"/>
    <property name="sprite" value="snorlax"/>
    <property name="sveglia_con" value="flauto"/>
    <property name="type" value="pokemon leggendario"/>
   </properties>
  </object>
  <object id="406" name="npc_flauto_marino" type="npc" x="1690.67" y="445.333" width="32" height="32">
   <properties>
    <property name="direzione" value="est"/>
    <property name="id" value="npc_flauto_marino"/>
    <property name="type" value="npc"/>
   </properties>
  </object>
  <object id="407" name="npc_password_marino" type="npc" x="1594.67" y="445.333" width="32" height="32">
   <properties>
    <property name="direzione" value="est"/>
    <property name="id" value="npc_password_marino"/>
    <property name="type" value="npc"/>
   </properties>
  </object>
  <object id="408" name="guardia_marino" type="npc" x="1786.67" y="445.333" width="32" height="32">
   <properties>
    <property name="condizione" value="marino_password"/>
    <property name="direzione" value="ovest"/>
    <property name="gate" value="true"/>
    <property name="id" value="guardia_marino"/>
    <property name="type" value="npc"/>
   </properties>
  </object>
  <object id="416" name="warp_gdf_marino" type="warp" x="1824" y="576" width="32" height="32">
   <properties>
    <property name="destinazione" value="gdf_marino_1f"/>
    <property name="spawn_id" value="da_marino"/>
    <property name="type" value="warp"/>
    <property name="condizione" value="password_rifugio_completa"/>
    <property name="messaggio_gate" value="🔒 La porta è bloccata da una serratura a 3 combinazioni: ti servono tutte e 3 le parti della password."/>
   </properties>
  </object>
  <object id="417" name="spawn_da_gdf_marino" type="spawn" x="1824" y="608" width="32" height="32">
   <properties>
    <property name="id" value="da_gdf_marino_1f"/>
    <property name="type" value="spawn"/>
   </properties>
  </object>
  <object id="409" name="masso_marino_1" type="masso" x="1882.67" y="445.333" width="32" height="32">
   <properties>
    <property name="id" value="masso_marino_1"/>
    <property name="type" value="masso"/>
   </properties>
  </object>
  <object id="410" name="pulsante_marino_1" type="pulsante" x="1216" y="1024" width="32" height="32">
   <properties>
    <property name="id" value="pulsante_marino_1"/>
    <property name="type" value="pulsante"/>
   </properties>
  </object>
  <object id="411" name="oggetto_perla" type="oggetto" x="852.667" y="850.667" width="32" height="32">
   <properties>
    <property name="contenuto" value="perla"/>
    <property name="id" value="oggetto_perla"/>
    <property name="quantita" type="int" value="1"/>
    <property name="type" value="oggetto"/>
   </properties>
  </object>
 </objectgroup>
</map>
