<?xml version="1.0" encoding="UTF-8"?>
<map version="1.10" tiledversion="1.12.2" orientation="orthogonal" renderorder="right-down" width="54" height="72" tilewidth="32" tileheight="32" infinite="0" backgroundcolor="#000000" nextlayerid="21" nextobjectid="186">
 <tileset firstgid="1" source="../../outside.tsx"/>
 <tileset firstgid="4017" source="../../Emerald_Outside.tsx"/>
 <tileset firstgid="9265" source="../outside.tsx"/>
 <tileset firstgid="13281" source="../fiori_rossi_animati_v2.tsj"/>
 
 
 <layer id="1" name="ground" width="54" height="72">
  <data encoding="csv">
9267,9267,9267,9267,9267,9267,9267,9267,9267,9267,9267,9267,9267,9267,9267,9267,9267,9267,9267,9267,9267,9267,9267,9267,9267,9267,9267,9267,9267,9267,9267,9267,9267,9267,9267,9267,9267,9267,9267,9267,9267,9267,9267,9267,9267,9267,9267,9267,9267,9267,9267,9267,9267,9267,
9267,9267,9267,9267,9267,9267,9267,9267,9267,9267,9267,9267,9267,9267,9267,9267,9267,9267,9267,9267,9267,9267,9267,9267,9267,9267,9267,9267,9267,9267,9267,9267,9267,9267,9267,9267,9267,9267,9267,9267,9267,9267,9267,9267,9267,9267,9267,9267,9267,9267,9267,9267,9267,9267,
9267,9267,9267,9267,9267,9267,9267,9267,9267,9267,9267,9267,9267,9267,9267,9267,9267,9267,9267,9267,9267,9267,9267,9267,9267,9267,9267,9267,9267,9267,9267,9267,9267,9267,9267,9267,9267,9267,9267,9267,9267,9267,9267,9267,9267,9267,9267,9267,9267,9267,9267,9267,9267,9267,
9267,9267,9267,9267,9267,9267,9267,9267,9267,9267,9267,9267,9267,9267,9267,9267,9267,9267,9267,9267,9267,9267,9267,9267,9267,9267,9267,9267,9267,9267,9267,9267,9267,9267,9267,9267,9267,9267,9267,9267,9267,9267,9267,9267,9267,9267,9267,9267,9267,9267,9267,9267,9267,9267,
9267,9267,9267,9267,9267,9267,9267,9267,9267,9267,9267,9267,9267,9267,9267,9267,9267,9267,9267,9267,9267,9267,9267,9267,9267,9267,9267,9267,9267,9267,9267,9267,9267,9267,9267,9267,9267,9267,9267,9267,9267,9267,9267,9267,9267,9267,9267,9267,9267,9267,9267,9267,9267,9267,
9267,9267,9267,9267,9267,9267,9267,9267,9267,9267,9267,9267,9267,9267,9267,9267,9267,9267,9267,9267,9267,9267,9267,9267,9267,9267,9267,9267,9267,9267,9267,9267,9267,9267,9267,9267,9267,9267,9267,9267,9267,9267,9267,9267,9267,9267,9267,9267,9267,9267,9267,9267,9267,9267,
9267,9267,9267,9267,9267,9267,9267,9267,9267,9267,9267,9267,9267,9267,9267,9267,9267,9267,9267,9267,9267,9267,9267,9267,9267,9267,9267,9267,9267,9267,9267,9267,9267,9267,9267,9267,9267,9267,9267,9267,9267,9267,9267,9267,9267,9267,9267,9267,9267,9267,9267,9267,9267,9267,
9266,9266,9266,9266,9266,9266,9266,9266,9266,9266,9266,9266,9266,9266,9266,9266,9266,9266,9266,9266,9266,9266,9266,9266,9266,9266,9266,9266,9266,9266,9266,9266,9266,9266,9266,9266,9266,9266,9266,9266,9266,9266,9266,9266,9266,9266,9266,9266,9266,9266,9266,9266,9266,9266,
9266,9266,9266,9266,9266,9266,9266,9266,9266,9266,9266,9266,9266,9266,9266,9266,9266,9266,9266,9266,9266,9266,9266,9266,9266,9266,9266,9266,9266,9266,9266,9266,9266,9266,9266,9266,9266,9266,9266,9266,9266,9266,9266,9266,9266,9266,9266,9266,9266,9266,9266,9266,9266,9266,
9266,9266,9266,9266,9266,9266,9266,9266,9266,9266,9266,9266,9266,9266,9266,9266,9266,9266,9266,9266,9266,9266,9266,9266,9266,9266,9266,9266,9266,9266,9266,9266,9266,9266,9266,9266,9266,9266,9266,9266,9266,9266,9266,9266,9266,9266,9266,9266,9266,9266,9266,9266,9266,9266,
9266,9266,9266,9266,9266,9266,9266,9266,9266,9266,9266,9266,9266,9266,9266,9266,9266,9266,9266,9266,9266,9266,9266,9266,9266,9266,9266,9266,9266,9266,9266,9266,9266,9266,9266,9266,9266,9266,9266,9266,9266,9266,9266,9266,9266,9266,9266,9266,9266,9266,9266,9266,9266,9266,
9266,9266,9266,9266,9266,9266,9266,9266,9266,9266,9266,9266,9266,9266,9266,9266,9266,9266,9266,9266,9266,9266,9266,9266,9266,9266,9266,9266,9266,9266,9266,9266,9266,9266,9266,9266,9266,9266,9266,9266,9266,9266,9266,9266,9266,9266,9266,9266,9266,9266,9266,9266,9266,9266,
9266,9266,9266,9266,9266,9266,9266,9266,9266,9266,9266,9266,9266,9266,9266,9266,9266,9266,9266,9266,9266,9266,9266,9266,9266,9266,9266,9266,9266,9266,9266,9266,9266,9266,9266,9266,9266,9266,9266,9266,9266,9266,9266,9266,9266,9266,9266,9266,9266,9266,9266,9266,9266,9266,
9266,9266,9266,9266,9266,9266,9266,9266,9266,9266,9266,9266,9266,9266,9266,9266,9266,9266,9266,9266,9266,9266,9266,9266,9266,9266,9266,9266,9266,9266,9266,9266,9266,9266,9266,9266,9266,9266,9266,9266,9266,9266,9266,9266,9266,9266,9266,9266,9266,9266,9266,9266,9266,9266,
9266,9266,9266,9266,9266,9266,9266,9266,9266,9266,9266,9266,9266,9266,9266,9266,9266,9266,9266,9266,9266,9266,9266,9266,9266,9266,9266,9266,9266,9266,9266,9266,9266,9266,9266,9266,9266,9266,9266,9266,9266,9266,9266,9266,9266,9266,9266,9266,9266,9266,9266,9266,9266,9266,
9266,9266,9266,9266,9266,9266,9266,9266,9266,370,370,370,370,370,370,370,370,370,370,370,370,370,370,370,370,370,370,370,370,370,370,370,370,370,370,370,370,370,370,370,370,370,370,370,370,9266,9266,9266,9266,9266,9266,9266,9266,9266,
9266,9266,9266,9266,9266,9266,9266,9266,9266,370,370,370,370,370,370,370,370,370,370,370,370,370,370,370,370,2,2,2,2,370,370,370,370,370,370,370,370,370,370,370,370,370,370,370,370,9266,9266,9266,9266,9266,9266,9266,9266,9266,
9266,9266,9266,9266,9266,9266,9266,9266,9266,370,370,370,370,370,370,370,370,370,370,370,370,370,370,370,370,2,2,370,2,370,370,370,370,370,370,370,370,370,370,370,370,370,370,370,370,9266,9266,9266,9266,9266,9266,9266,9266,9266,
9266,9266,9266,9266,9266,9266,9266,9266,9266,370,370,370,370,370,370,370,370,370,370,370,370,370,370,370,370,370,2,2,2,370,370,370,370,370,370,370,370,370,370,370,370,370,370,370,370,9266,9266,9266,9266,9266,9266,9266,9266,9266,
9266,9266,9266,9266,9266,9266,9266,9266,9266,370,370,370,370,370,370,370,370,370,370,370,370,370,370,370,370,370,2,402,2,370,370,370,370,370,370,370,370,370,370,370,370,370,370,370,370,9266,9266,9266,9266,9266,9266,9266,9266,9266,
9266,9266,9266,9266,9266,9266,9266,9266,9266,370,370,370,370,370,370,370,370,370,370,370,370,370,370,370,370,370,402,402,402,370,370,370,370,370,370,370,370,370,370,370,370,370,370,370,370,9266,9266,9266,9266,9266,9266,9266,9266,9266,
9266,9266,9266,9266,9266,9266,9266,9266,9266,370,370,370,370,370,370,370,370,370,370,370,370,370,370,370,370,402,402,402,402,402,370,370,370,370,370,370,370,370,370,370,370,370,370,370,370,9266,9266,9266,9266,9266,9266,9266,9266,9266,
9266,9266,9266,9266,9266,9266,9266,9266,9266,370,370,370,370,370,370,370,370,370,370,370,370,370,370,370,402,402,402,402,402,402,402,370,370,370,370,370,370,370,370,370,370,370,370,370,370,9266,9266,9266,9266,9266,9266,9266,9266,9266,
9266,9266,9266,9266,9266,9266,9266,9266,9266,370,370,370,370,370,370,370,370,370,370,370,370,370,370,402,402,402,402,402,402,402,402,402,370,370,370,370,370,370,370,370,370,370,370,370,370,9266,9266,9266,9266,9266,9266,9266,9266,9266,
9266,9266,9266,9266,9266,9266,9266,9266,9266,370,370,370,370,370,370,370,370,370,370,370,370,370,402,402,402,402,402,402,402,402,402,402,402,370,370,370,370,370,370,370,370,370,370,370,370,9266,9266,9266,9266,9266,9266,9266,9266,9266,
9266,9266,9266,9266,9266,9266,9266,9266,9266,370,370,370,370,370,370,370,370,370,370,370,370,402,402,402,402,402,402,402,402,402,402,402,402,402,370,370,370,370,370,370,370,370,370,370,370,9266,9266,9266,9266,9266,9266,9266,9266,9266,
9266,9266,9266,9266,9266,9266,9266,9266,9266,370,370,370,370,370,370,370,370,370,370,370,402,402,402,402,402,402,402,402,402,402,402,402,402,402,402,370,370,370,370,370,370,370,370,370,370,9266,9266,9266,9266,9266,9266,9266,9266,9266,
9266,9266,9266,9266,9266,9266,9266,9266,9266,370,370,370,370,370,370,370,370,370,370,402,402,402,402,402,402,402,402,402,402,402,402,402,402,402,402,402,370,370,370,370,370,370,370,370,370,9266,9266,9266,9266,9266,9266,9266,9266,9266,
9266,9266,9266,9266,9266,9266,9266,9266,9266,370,370,370,370,370,370,370,370,370,402,402,402,402,402,402,402,402,402,402,402,402,402,402,402,402,402,402,402,370,370,370,370,370,370,370,370,9266,9266,9266,9266,9266,9266,9266,9266,9266,
9266,9266,9266,9266,9266,9266,9266,9266,9266,370,370,370,2,2,2,370,370,402,402,402,402,402,402,402,402,402,402,402,402,402,402,402,402,402,402,402,402,402,370,370,2,2,2,370,370,9266,9266,9266,9266,9266,9266,9266,9266,9266,
9266,9266,9266,9266,9266,9266,9266,9266,9266,370,370,370,2,370,2,402,402,402,402,402,402,402,402,402,402,402,402,402,402,402,402,402,402,402,402,402,402,402,402,402,2,370,2,370,370,9266,9266,9266,9266,9266,9266,9266,9266,9266,
9266,9266,9266,9266,9266,9266,9266,9266,9266,370,370,370,2,370,2,402,402,402,402,402,402,402,402,402,402,402,402,402,402,402,402,402,402,402,402,402,402,402,402,402,2,2,2,370,370,9266,9266,9266,9266,9266,9266,9266,9266,9266,
9266,9266,9266,9266,9266,9266,9266,9266,9266,370,370,370,370,370,370,370,370,402,402,402,402,402,402,402,402,402,402,402,402,402,402,402,402,402,402,402,402,402,370,370,370,370,370,370,370,9266,9266,9266,9266,9266,9266,9266,9266,9266,
9266,9266,9266,9266,9266,9266,9266,9266,9266,370,370,370,370,370,370,370,370,370,402,402,402,402,402,402,402,402,402,402,402,402,402,402,402,402,402,402,402,370,370,370,370,370,370,370,370,9266,9266,9266,9266,9266,9266,9266,9266,9266,
9266,9266,9266,9266,9266,9266,9266,9266,9266,370,370,370,370,370,370,370,370,370,370,402,402,402,402,402,402,402,402,402,402,402,402,402,402,402,402,402,370,370,370,370,370,370,370,370,370,9266,9266,9266,9266,9266,9266,9266,9266,9266,
9266,9266,9266,9266,9266,9266,9266,9266,9266,370,370,370,370,370,370,370,370,370,370,370,402,402,402,402,402,402,402,402,402,402,402,402,402,402,402,370,370,370,370,370,370,370,370,370,370,9266,9266,9266,9266,9266,9266,9266,9266,9266,
9266,9266,9266,9266,9266,9266,9266,9266,9266,370,370,370,370,370,370,370,370,370,370,370,370,409,402,402,402,402,402,402,402,402,402,402,402,402,370,370,370,370,370,370,370,370,370,370,370,9266,9266,9266,9266,9266,9266,9266,9266,9266,
9266,9266,9266,9266,9266,9266,9266,9266,9266,370,370,370,370,370,370,370,370,370,370,370,370,370,370,370,370,370,404,402,405,370,370,370,370,370,370,370,370,370,370,370,370,370,370,370,370,9266,9266,9266,9266,9266,9266,9266,9266,9266,
9266,9266,9266,9266,9266,9266,9266,9266,9266,370,370,370,370,370,370,370,370,370,370,370,370,370,370,370,370,370,401,402,403,370,370,370,370,370,370,370,370,370,370,370,370,370,370,370,370,9266,9266,9266,9266,9266,9266,9266,9266,9266,
9266,9266,9266,9266,9266,9266,9266,9266,9266,370,370,370,370,370,370,370,370,370,370,370,370,370,370,370,370,370,401,402,403,370,370,370,370,370,370,370,370,370,370,370,370,370,370,370,370,9266,9266,9266,9266,9266,9266,9266,9266,9266,
9266,9266,9266,9266,9266,9266,9266,9266,9266,370,370,370,370,370,370,370,370,370,370,370,370,370,370,370,370,370,401,402,403,370,370,370,370,370,370,370,370,370,370,370,370,370,370,370,370,9266,9266,9266,9266,9266,9266,9266,9266,9266,
9266,9266,9266,9266,9266,9266,9266,9266,9266,370,370,370,370,370,370,370,370,370,370,370,370,370,370,370,370,370,401,402,403,370,370,370,370,370,370,370,370,370,370,370,370,370,370,370,370,9266,9266,9266,9266,9266,9266,9266,9266,9266,
9266,9266,9266,9266,9266,9266,9266,9266,9266,370,370,370,370,370,370,370,370,370,370,370,370,370,370,370,370,370,401,402,403,370,370,370,370,370,370,370,370,370,370,370,370,370,370,370,370,9266,9266,9266,9266,9266,9266,9266,9266,9266,
9266,9266,9266,9266,9266,9266,9266,9266,9266,370,370,370,370,370,370,370,370,370,370,370,370,370,370,370,370,370,401,402,403,370,370,370,370,370,370,370,370,370,370,370,370,370,370,370,370,9266,9266,9266,9266,9266,9266,9266,9266,9266,
9266,9266,9266,9266,9266,9266,9266,9266,9266,370,370,370,370,370,370,370,370,370,370,370,370,370,370,370,370,370,401,402,403,370,370,370,370,370,370,370,370,370,370,370,370,370,370,370,370,9266,9266,9266,9266,9266,9266,9266,9266,9266,
9266,9266,9266,9266,9266,9266,9266,9266,9266,370,370,370,370,370,370,370,370,370,370,370,370,370,370,370,370,370,401,402,403,370,370,370,370,370,370,370,370,370,370,370,370,370,370,370,370,9266,9266,9266,9266,9266,9266,9266,9266,9266,
9266,9266,9266,9266,9266,9266,9266,9266,9266,370,370,370,370,370,370,370,370,370,370,370,370,370,370,370,370,370,401,402,403,370,370,370,370,370,370,370,370,370,370,370,370,370,370,370,370,9266,9266,9266,9266,9266,9266,9266,9266,9266,
9266,9266,9266,9266,9266,9266,9266,9266,9266,370,370,370,370,370,370,370,370,370,370,370,370,370,370,370,370,370,401,402,403,370,370,370,370,370,370,370,370,370,370,370,370,370,370,370,370,9266,9266,9266,9266,9266,9266,9266,9266,9266,
9266,9266,9266,9266,9266,9266,9266,9266,9266,370,370,370,370,370,370,370,370,370,370,370,370,370,370,370,370,370,401,402,403,370,370,370,370,370,370,370,370,370,370,370,370,370,370,370,370,9266,9266,9266,9266,9266,9266,9266,9266,9266,
9266,9266,9266,9266,9266,9266,9266,9266,9266,9266,9266,9266,9266,9266,9266,9266,9266,9266,9266,9266,9266,9266,9266,9266,9266,9266,9266,9266,9266,9266,9266,9266,9266,9266,9266,9266,9266,9266,9266,9266,9266,9266,9266,9266,9266,9266,9266,9266,9266,9266,9266,9266,9266,9266,
9266,9266,9266,9266,9266,9266,9266,9266,9266,9266,9266,9266,9266,9266,9266,9266,9266,9266,9266,9266,9266,9266,9266,9266,9266,9266,9266,9266,9266,9266,9266,9266,9266,9266,9266,9266,9266,9266,9266,9266,9266,9266,9266,9266,9266,9266,9266,9266,9266,9266,9266,9266,9266,9266,
9266,9266,9266,9266,9266,9266,9266,9266,9266,9266,9266,9266,9266,9266,9266,9266,9266,9266,9266,9266,9266,9266,9266,9266,9266,9266,9266,9266,9266,9266,9266,9266,9266,9266,9266,9266,9266,9266,9266,9266,9266,9266,9266,9266,9266,9266,9266,9266,9266,9266,9266,9266,9266,9266,
9266,9266,9266,9266,9266,9266,9266,9266,9266,9266,9266,9266,9266,9266,9266,9266,9266,9266,9266,9266,9266,9266,9266,9266,9266,9266,9266,9266,9266,9266,9266,9266,9266,9266,9266,9266,9266,9266,9266,9266,9266,9266,9266,9266,9266,9266,9266,9266,9266,9266,9266,9266,9266,9266,
9266,9266,9266,9266,9266,9266,9266,9266,9266,9266,9266,9266,9266,9266,9266,9266,9266,9266,9266,9266,9266,9266,9266,9266,9266,9266,9266,9266,9266,9266,9266,9266,9266,9266,9266,9266,9266,9266,9266,9266,9266,9266,9266,9266,9266,9266,9266,9266,9266,9266,9266,9266,9266,9266,
9266,9266,9266,9266,9266,9266,9266,9266,9266,9266,9266,9266,9266,9266,9266,9266,9266,9266,9266,9266,9266,9266,9266,9266,9266,9266,9266,9266,9266,9266,9266,9266,9266,9266,9266,9266,9266,9266,9266,9266,9266,9266,9266,9266,9266,9266,9266,9266,9266,9266,9266,9266,9266,9266,
9266,9266,9266,9266,9266,9266,9266,9266,9266,9266,9266,9266,9266,9266,9266,9266,9266,9266,9266,9266,9266,9266,9266,9266,9266,9266,9266,9266,9266,9266,9266,9266,9266,9266,9266,9266,9266,9266,9266,9266,9266,9266,9266,9266,9266,9266,9266,9266,9266,9266,9266,9266,9266,9266,
9266,9266,9266,9266,9266,9266,9266,9266,9266,9266,9266,9266,9266,9266,9266,9266,9266,9266,9266,9266,9266,9266,9266,9266,9266,9266,9266,9266,9266,9266,9266,9266,9266,9266,9266,9266,9266,9266,9266,9266,9266,9266,9266,9266,9266,9266,9266,9266,9266,9266,9266,9266,9266,9266,
9266,9266,9266,9266,9266,9266,9266,9266,9266,9266,9266,9266,9266,9266,9266,9266,9266,9266,9266,9266,9266,9266,9266,9266,9266,9266,9266,9266,9266,9266,9266,9266,9266,9266,9266,9266,9266,9266,9266,9266,9266,9266,9266,9266,9266,9266,9266,9266,9266,9266,9266,9266,9266,9266,
9266,9266,9266,9266,9266,9266,9266,9266,9266,9266,9266,9266,9266,9266,9266,9266,9266,9266,9266,9266,9266,9266,9266,9266,9266,9266,9266,9266,9266,9266,9266,9266,9266,9266,9266,9266,9266,9266,9266,9266,9266,9266,9266,9266,9266,9266,9266,9266,9266,9266,9266,9266,9266,9266,
9266,9266,9266,9266,9266,9266,9266,9266,9266,9266,9266,9266,9266,9266,9266,9266,9266,9266,9266,9266,9266,9266,9266,9266,9266,9266,9266,9266,9266,9266,9266,9266,9266,9266,9266,9266,9266,9266,9266,9266,9266,9266,9266,9266,9266,9266,9266,9266,9266,9266,9266,9266,9266,9266,
9266,9266,9266,9266,9266,9266,9266,9266,9266,9266,9266,9266,9266,9266,9266,9266,9266,9266,9266,9266,9266,9266,9266,9266,9266,9266,9266,9266,9266,9266,9266,9266,9266,9266,9266,9266,9266,9266,9266,9266,9266,9266,9266,9266,9266,9266,9266,9266,9266,9266,9266,9266,9266,9266,
9266,9266,9266,9266,9266,9266,9266,9266,9266,9266,9266,9266,9266,9266,9266,9266,9266,9266,9266,9266,9266,9266,9266,9266,9266,9266,9266,9266,9266,9266,9266,9266,9266,9266,9266,9266,9266,9266,9266,9266,9266,9266,9266,9266,9266,9266,9266,9266,9266,9266,9266,9266,9266,9266,
9266,9266,9266,9266,9266,9266,9266,9266,9266,9266,9266,9266,9266,9266,9266,9266,9266,9266,9266,9266,9266,9266,9266,9266,9266,9266,9266,9266,9266,9266,9266,9266,9266,9266,9266,9266,9266,9266,9266,9266,9266,9266,9266,9266,9266,9266,9266,9266,9266,9266,9266,9266,9266,9266,
9266,9266,9266,9266,9266,9266,9266,9266,9266,9266,9266,9266,9266,9266,9266,9266,9266,9266,9266,9266,9266,9266,9266,9266,9266,9266,9266,9266,9266,9266,9266,9266,9266,9266,9266,9266,9266,9266,9266,9266,9266,9266,9266,9266,9266,9266,9266,9266,9266,9266,9266,9266,9266,9266,
9266,9266,9266,9266,9266,9266,9266,9266,9266,9266,9266,9266,9266,9266,9266,9266,9266,9266,9266,9266,9266,9266,9266,9266,9266,9266,9266,9266,9266,9266,9266,9266,9266,9266,9266,9266,9266,9266,9266,9266,9266,9266,9266,9266,9266,9266,9266,9266,9266,9266,9266,9266,9266,9266,
9266,9266,9266,9266,9266,9266,9266,9266,9266,9266,9266,9266,9266,9266,9266,9266,9266,9266,9266,9266,9266,9266,9266,9266,9266,9266,9266,9266,9266,9266,9266,9266,9266,9266,9266,9266,9266,9266,9266,9266,9266,9266,9266,9266,9266,9266,9266,9266,9266,9266,9266,9266,9266,9266,
9266,9266,9266,9266,9266,9266,9266,9266,9266,9266,9266,9266,9266,9266,9266,9266,9266,9266,9266,9266,9266,9266,9266,9266,9266,9266,9266,9266,9266,9266,9266,9266,9266,9266,9266,9266,9266,9266,9266,9266,9266,9266,9266,9266,9266,9266,9266,9266,9266,9266,9266,9266,9266,9266,
9266,9266,9266,9266,9266,9266,9266,9266,9266,9266,9266,9266,9266,9266,9266,9266,9266,9266,9266,9266,9266,9266,9266,9266,9266,9266,9266,9266,9266,9266,9266,9266,9266,9266,9266,9266,9266,9266,9266,9266,9266,9266,9266,9266,9266,9266,9266,9266,9266,9266,9266,9266,9266,9266,
9266,9266,9266,9266,9266,9266,9266,9266,9266,9266,9266,9266,9266,9266,9266,9266,9266,9266,9266,9266,9266,9266,9266,9266,9266,9266,9266,9266,9266,9266,9266,9266,9266,9266,9266,9266,9266,9266,9266,9266,9266,9266,9266,9266,9266,9266,9266,9266,9266,9266,9266,9266,9266,9266,
9266,9266,9266,9266,9266,9266,9266,9266,9266,9266,9266,9266,9266,9266,9266,9266,9266,9266,9266,9266,9266,9266,9266,9266,9266,9266,9266,9266,9266,9266,9266,9266,9266,9266,9266,9266,9266,9266,9266,9266,9266,9266,9266,9266,9266,9266,9266,9266,9266,9266,9266,9266,9266,9266,
9266,9266,9266,9266,9266,9266,9266,9266,9266,9266,9266,9266,9266,9266,9266,9266,9266,9266,9266,9266,9266,9266,9266,9266,9266,9266,9266,9266,9266,9266,9266,9266,9266,9266,9266,9266,9266,9266,9266,9266,9266,9266,9266,9266,9266,9266,9266,9266,9266,9266,9266,9266,9266,9266,
9266,9266,9266,9266,9266,9266,9266,9266,9266,9266,9266,9266,9266,9266,9266,9266,9266,9266,9266,9266,9266,9266,9266,9266,9266,9266,9266,9266,9266,9266,9266,9266,9266,9266,9266,9266,9266,9266,9266,9266,9266,9266,9266,9266,9266,9266,9266,9266,9266,9266,9266,9266,9266,9266
</data>
 </layer>
 <layer id="2" name="deco_sotto" width="54" height="72">
  <data encoding="csv">
0,0,0,0,0,0,0,0,0,0,0,0,0,0,0,0,0,0,0,0,0,0,0,0,0,0,0,0,0,0,0,0,0,0,0,0,0,0,0,0,0,0,0,0,0,0,0,0,0,0,0,0,0,0,
0,0,0,0,0,0,0,0,0,0,0,0,0,0,0,0,0,0,0,0,0,0,0,0,0,0,0,0,0,0,0,0,0,0,0,0,0,0,0,0,0,0,0,0,0,0,0,0,0,0,0,0,0,0,
0,0,0,0,0,0,0,0,0,0,0,0,0,0,0,0,0,0,0,0,0,0,0,0,0,0,0,0,0,0,0,0,0,0,0,0,0,0,0,0,0,0,0,0,0,0,0,0,0,0,0,0,0,0,
0,0,0,0,0,0,0,0,0,0,0,0,0,0,0,0,0,0,0,0,0,0,0,0,0,0,0,0,0,0,0,0,0,0,0,0,0,0,0,0,0,0,0,0,0,0,0,0,0,0,0,0,0,0,
0,0,0,0,0,0,0,0,0,0,0,0,0,0,0,0,0,0,0,0,0,0,0,0,0,0,0,0,0,0,0,0,0,0,0,0,0,0,0,0,0,0,0,0,0,0,0,0,0,0,0,0,0,0,
0,0,0,0,0,0,0,0,0,0,0,0,0,0,0,0,0,0,0,0,0,0,0,0,0,0,0,0,0,0,0,0,0,0,0,0,0,0,0,0,0,0,0,0,0,0,0,0,0,0,0,0,0,0,
0,0,0,0,0,0,0,0,0,0,0,0,0,0,0,0,0,0,0,0,0,0,0,0,0,0,0,0,0,0,0,0,0,0,0,0,0,0,0,0,0,0,0,0,0,0,0,0,0,0,0,0,0,0,
0,0,0,0,0,0,0,0,0,0,0,0,0,0,0,0,0,0,0,0,0,0,0,0,0,0,0,0,0,0,0,0,0,0,0,0,0,0,9666,9666,0,0,0,0,0,0,0,0,0,0,0,0,0,0,
0,0,0,0,0,0,0,0,0,0,0,0,0,0,0,0,0,0,0,0,0,0,0,0,0,0,0,0,0,0,0,0,0,0,0,0,0,0,9666,9666,0,0,0,0,0,0,0,0,0,0,0,0,0,0,
0,0,0,0,0,0,0,0,0,0,0,0,0,0,0,0,0,0,0,0,0,0,0,0,0,0,0,0,0,0,0,0,0,0,0,0,0,0,9666,9666,0,0,0,0,0,0,0,0,0,0,0,0,0,0,
0,0,0,0,0,0,0,0,0,0,0,0,0,0,0,0,0,0,0,0,0,0,0,0,0,0,0,0,0,0,0,0,0,0,0,0,0,0,9666,9666,0,0,0,0,0,0,0,0,0,0,0,0,0,0,
0,0,0,0,0,0,0,0,0,0,0,0,0,0,0,0,0,0,0,0,0,0,0,0,0,0,0,0,0,0,0,0,0,0,0,0,0,0,9666,9666,0,0,0,0,0,0,0,0,0,0,0,0,0,0,
0,0,0,0,0,0,0,0,0,0,0,0,0,0,0,0,0,0,0,0,0,0,0,0,0,0,0,0,0,0,0,0,0,0,0,0,0,0,9666,9666,0,0,0,0,0,0,0,0,0,0,0,0,0,0,
0,0,0,0,0,0,0,0,0,0,0,0,0,0,0,0,0,0,0,0,0,0,0,0,0,0,0,0,0,0,0,0,0,0,0,0,0,0,9666,9666,0,0,0,0,0,0,0,0,0,0,0,0,0,0,
0,0,0,0,0,0,0,0,0,0,0,0,0,0,0,0,0,0,0,0,0,0,0,0,0,0,0,0,0,0,0,0,0,0,0,0,0,0,9666,9666,0,0,0,0,0,0,0,0,0,0,0,0,0,0,
0,0,0,0,0,0,0,0,0,1153,1153,1153,1153,1153,1153,1153,1153,1153,1153,1153,1153,401,403,1153,1153,670,687,687,687,671,1153,1153,1153,0,0,0,0,0,0,0,0,0,0,0,0,0,0,0,0,0,0,0,0,0,
0,0,0,0,0,0,0,0,0,1161,1161,1161,1161,1161,1161,1161,1161,1161,1161,1161,1161,401,403,1161,1161,677,0,0,0,677,1161,1161,1161,0,0,0,0,0,0,0,0,0,0,0,0,0,0,0,0,0,0,0,0,0,
0,0,0,0,0,0,0,0,0,1153,0,0,0,0,0,0,0,0,0,0,0,401,403,0,0,677,0,0,0,677,0,0,0,0,0,0,0,0,0,0,0,0,0,0,0,0,0,0,0,0,0,0,0,0,
0,0,0,0,0,0,0,0,0,1161,0,0,0,0,0,0,0,0,0,0,0,401,403,0,0,677,0,0,0,677,0,0,0,0,0,0,0,0,0,0,0,0,0,0,0,0,0,0,0,0,0,0,0,0,
0,0,0,0,0,0,0,0,0,1153,0,0,0,0,0,0,0,0,0,0,0,401,403,0,0,678,688,394,686,679,0,0,0,0,0,0,0,0,0,0,0,0,0,0,0,0,0,0,0,0,0,0,0,0,
0,0,0,0,0,0,0,0,0,1161,0,0,0,0,0,0,0,0,0,0,0,401,403,0,0,0,401,0,403,0,0,0,0,0,0,0,0,0,0,0,0,0,0,0,1153,0,0,0,0,0,0,0,0,0,
0,0,0,0,0,0,0,0,0,1153,0,0,401,403,967,0,0,0,0,0,0,401,403,0,0,393,396,0,397,395,0,0,0,0,0,0,0,0,0,0,0,0,0,0,1161,0,0,0,0,0,0,0,0,0,
0,0,0,0,0,0,0,0,0,1161,0,0,401,403,975,0,0,0,0,0,0,401,403,0,393,396,0,0,0,397,395,0,0,0,0,0,0,0,0,0,0,0,0,0,0,0,0,0,0,0,0,0,0,0,
0,0,0,0,0,0,0,0,0,1153,0,0,401,403,0,0,0,0,0,0,0,401,397,394,396,0,0,0,0,0,397,395,0,0,0,0,0,0,0,0,0,0,0,0,0,0,0,0,0,0,0,0,0,0,
0,0,0,0,0,0,0,0,0,1161,0,0,401,403,0,0,0,0,0,0,0,401,402,402,0,0,0,0,0,0,0,397,395,0,0,0,0,0,0,0,0,0,0,0,0,0,0,0,0,0,0,0,0,0,
0,0,0,0,0,0,0,0,0,1153,0,0,401,403,0,0,0,0,0,0,0,401,402,0,0,0,0,0,0,0,0,0,397,395,0,0,0,0,0,0,0,0,0,0,0,0,0,0,0,0,0,0,0,0,
0,0,0,0,0,0,0,0,0,1161,0,0,401,397,394,394,394,394,394,394,394,396,0,0,0,0,0,0,0,0,0,0,0,397,395,0,0,0,0,0,0,0,0,0,0,0,0,0,0,0,0,0,0,0,
0,0,0,0,0,0,0,0,0,1153,0,0,409,410,410,410,410,410,410,404,402,0,0,0,0,0,0,0,0,0,0,0,0,0,397,395,0,0,0,0,0,0,0,0,1153,0,0,0,0,0,0,0,0,0,
0,0,0,0,0,0,0,0,0,1161,0,0,687,687,687,0,0,0,393,396,0,0,0,0,0,0,0,0,0,0,0,0,0,0,0,397,395,0,0,670,687,687,687,671,1161,0,0,0,0,0,0,0,0,0,
0,0,0,0,0,0,0,0,0,1153,0,677,0,0,0,685,0,393,396,0,0,0,0,0,0,0,0,0,0,0,0,0,0,0,0,0,397,395,0,685,0,0,0,677,1153,0,0,0,0,0,0,0,0,0,
0,0,0,0,0,0,0,0,0,1161,0,677,0,0,0,393,394,396,0,0,0,0,0,0,0,0,0,0,0,0,0,0,0,0,0,0,0,397,394,395,0,0,0,677,1161,0,0,0,0,0,0,0,0,0,
0,0,0,0,0,0,0,0,0,1153,0,677,0,0,0,409,410,404,0,0,0,0,0,0,0,0,0,0,0,0,0,0,0,0,0,0,0,405,410,411,0,0,0,677,1153,0,0,0,0,0,0,0,0,0,
0,0,0,0,0,0,0,0,0,1161,0,0,687,687,687,0,0,409,404,0,0,0,0,0,0,0,0,0,0,0,0,0,0,0,0,0,405,411,0,678,687,687,687,679,1161,0,0,0,0,0,0,0,0,0,
0,0,0,0,0,0,0,0,0,0,0,0,0,0,0,0,0,0,409,404,0,0,0,0,0,0,0,0,0,0,0,0,0,0,0,405,411,0,0,0,0,0,0,0,0,0,0,0,0,0,0,0,0,0,
0,0,0,0,0,0,0,0,0,0,0,0,0,0,0,0,0,0,0,409,404,0,0,0,0,0,0,0,0,0,0,0,0,0,405,411,0,0,0,0,0,0,0,0,0,0,0,0,0,0,0,0,0,0,
0,0,0,0,0,0,0,0,0,0,0,0,0,0,0,0,0,0,0,0,409,404,0,0,0,0,0,0,0,0,0,0,0,405,411,0,0,0,0,0,0,0,0,0,0,0,0,0,0,0,0,0,0,0,
0,0,0,0,0,0,0,0,0,0,0,0,0,0,0,0,0,0,0,0,0,409,410,410,410,410,404,0,405,410,410,410,410,411,0,0,0,0,0,0,0,0,0,0,0,0,0,0,0,0,0,0,0,0,
0,0,0,0,0,0,0,0,0,0,0,0,0,0,0,0,0,0,0,0,0,0,0,0,0,0,401,0,403,0,0,0,0,0,0,0,0,0,0,0,0,0,0,0,0,0,0,0,0,0,0,0,0,0,
0,0,0,0,0,0,0,0,0,1153,0,0,0,0,0,0,0,0,0,0,0,0,0,0,0,0,0,0,0,0,0,0,0,0,0,0,0,0,0,0,0,0,0,0,0,0,0,0,0,0,0,0,0,0,
0,0,0,0,0,0,0,0,0,1161,0,0,0,0,0,0,0,0,0,0,0,0,0,0,0,0,0,0,0,0,0,0,0,0,0,0,0,0,0,0,0,0,0,0,0,0,0,0,0,0,0,0,0,0,
0,0,0,0,0,0,0,0,0,1153,0,0,0,0,0,0,0,0,0,0,0,0,0,0,0,0,0,0,0,0,0,0,0,0,0,0,0,0,0,0,0,0,0,0,0,0,0,0,0,0,0,0,0,0,
0,0,0,0,0,0,0,0,0,1161,0,0,0,0,0,0,0,0,0,0,0,0,0,0,0,0,0,0,0,0,0,0,0,0,0,0,0,0,0,0,0,0,0,0,0,0,0,0,0,0,0,0,0,0,
0,0,0,0,0,0,0,0,0,1153,0,0,0,0,0,0,0,0,0,0,0,0,0,0,0,0,0,0,0,0,0,0,0,0,0,0,0,0,0,0,0,0,0,0,0,0,0,0,0,0,0,0,0,0,
0,0,0,0,0,0,0,0,0,1161,0,0,0,0,0,0,0,0,0,0,0,0,0,0,0,0,0,0,0,0,0,0,0,0,0,0,0,0,0,0,0,0,0,0,0,0,0,0,0,0,0,0,0,0,
0,0,0,0,0,0,0,0,0,0,0,0,0,0,0,0,0,0,0,0,0,0,0,0,0,0,0,0,0,0,0,0,0,0,0,0,0,0,0,0,0,0,0,0,0,0,0,0,0,0,0,0,0,0,
0,0,0,0,0,0,0,0,0,0,0,0,0,0,0,0,0,0,0,0,0,0,0,0,0,0,0,0,0,0,0,0,0,0,0,0,0,0,0,0,0,0,0,0,1153,0,0,0,0,0,0,0,0,0,
0,0,0,0,0,0,0,0,0,0,0,0,0,0,0,0,0,0,0,0,0,0,0,0,0,0,0,0,0,0,0,0,0,0,0,0,0,0,0,0,0,0,0,0,0,0,0,0,0,0,0,0,0,0,
0,0,0,0,0,0,0,0,0,0,0,0,0,0,0,0,0,0,0,0,0,0,0,0,1153,0,0,0,0,0,1153,1153,1153,1153,0,0,0,0,0,0,0,0,0,0,0,0,0,0,0,0,0,0,0,0,
0,0,0,0,0,0,0,0,0,0,0,0,0,0,0,0,0,0,0,0,0,0,0,0,1161,0,0,0,0,0,1161,1161,1161,1161,0,0,0,0,0,0,0,0,0,0,0,0,0,0,0,0,0,0,0,0,
0,0,0,0,0,0,0,0,0,0,0,0,0,0,0,0,0,0,0,0,0,0,0,0,0,0,0,0,0,0,0,0,0,0,0,0,0,0,0,0,0,0,0,0,0,0,0,0,0,0,0,0,0,0,
0,0,0,0,0,0,0,0,0,0,0,0,0,0,0,0,0,0,0,0,0,0,0,0,0,0,0,0,0,0,0,0,0,0,0,0,0,0,0,0,0,0,0,0,0,0,0,0,0,0,0,0,0,0,
0,0,0,0,0,0,0,0,0,0,0,0,0,0,0,0,0,0,0,0,0,0,0,0,0,0,0,0,0,0,0,0,0,0,0,0,0,0,0,0,0,0,0,0,0,0,0,0,0,0,0,0,0,0,
0,0,0,0,0,0,0,0,0,0,0,0,0,0,0,0,0,0,0,0,0,0,0,0,0,0,0,0,0,0,0,0,0,0,0,0,0,0,0,0,0,0,0,0,0,0,0,0,0,0,0,0,0,0,
0,0,0,0,0,0,0,0,0,0,0,0,0,0,0,0,0,0,0,0,0,0,0,0,0,0,0,0,0,0,0,0,0,0,0,0,0,0,0,0,0,0,0,0,0,0,0,0,0,0,0,0,0,0,
0,0,0,0,0,0,0,0,0,0,0,0,0,0,0,0,0,0,0,0,0,0,0,0,0,0,0,0,0,0,0,0,0,0,0,0,0,0,0,0,0,0,0,0,0,0,0,0,0,0,0,0,0,0,
0,0,0,0,0,0,0,0,0,0,0,0,0,0,0,0,0,0,0,0,0,0,0,0,0,0,0,0,0,0,0,0,0,0,0,0,0,0,0,0,0,0,0,0,0,0,0,0,0,0,0,0,0,0,
0,0,0,0,0,0,0,0,0,0,0,0,0,0,0,0,0,0,0,0,0,0,0,0,0,0,0,0,0,0,0,0,0,0,0,0,0,0,0,0,0,10049,10053,10053,10053,10053,10053,10053,10053,10053,10053,10053,10053,10051,
0,0,0,0,0,0,0,0,0,0,0,0,0,0,0,0,0,0,0,0,0,0,0,0,0,0,0,0,0,0,0,10049,10050,10050,10050,10050,10050,10050,10050,10050,10050,10061,10052,10053,10053,10053,10053,10053,10053,10053,10053,10053,10054,10062,
0,0,0,0,0,0,0,0,0,0,0,0,0,0,0,0,0,0,0,0,0,0,0,0,0,0,0,0,0,0,0,10057,10061,10061,10061,10061,10061,10061,10061,10061,10061,10061,10060,10052,10053,10053,10053,10053,10053,10053,10053,10054,10062,10062,
0,0,0,0,0,0,0,0,0,0,0,0,0,0,0,0,0,0,0,0,0,0,0,0,0,0,0,0,0,0,0,10071,10061,10061,10061,10061,10061,10061,10061,10061,10061,10061,10060,10060,10052,10053,10053,10053,10053,10053,10054,10062,10062,10062,
0,0,0,0,0,0,0,0,0,0,0,0,0,0,0,0,0,0,0,0,0,0,0,0,0,0,0,0,0,0,0,10057,10061,10061,10061,10061,10061,10061,10061,10061,10061,10061,10060,10060,10060,10052,10053,10053,10053,10054,10062,10062,10062,10062,
0,0,0,0,0,0,0,0,0,0,0,0,0,0,0,0,0,0,0,0,0,0,0,0,0,0,0,0,0,0,0,10057,10061,10061,10061,10061,10061,10061,10061,10061,10061,10061,10060,10060,10060,10060,10052,10053,10054,10062,10062,10062,10062,10062,
0,0,0,0,0,0,0,0,0,0,0,0,0,0,0,0,0,0,0,0,0,0,0,0,0,0,0,0,0,0,0,10057,10053,10053,10053,10053,10053,10053,10053,10053,10053,10053,10060,10060,10060,10060,10060,0,10062,10062,10062,10062,10062,10062,
0,0,0,0,0,0,0,0,0,0,0,0,0,0,0,0,0,0,0,0,0,0,0,0,0,0,0,0,0,0,0,10057,10053,10053,10053,10053,10053,10053,10053,10053,10053,10053,10060,10060,10060,10060,10060,0,10062,10062,10062,10062,10062,10062,
0,0,0,0,0,0,0,0,0,0,0,0,0,0,0,0,0,0,0,0,0,0,0,0,0,0,0,0,0,0,0,10057,10053,10053,10053,10053,10053,10053,10053,10053,10053,10053,10060,10060,10060,10060,10060,0,10062,10062,10062,10062,10062,10062,
0,0,0,0,0,0,0,0,0,0,0,0,0,0,0,0,0,0,0,0,0,0,0,0,0,0,0,0,0,0,0,10057,10053,10053,10053,10053,10053,10053,10053,10053,10053,10053,10060,10060,10060,10060,10068,0,10062,10062,10062,10062,10062,10062,
0,0,0,0,0,0,0,0,0,0,0,0,0,0,0,0,0,0,0,0,0,0,0,0,0,0,0,0,0,0,0,10057,10053,10053,10053,10053,10053,10053,10053,10053,10053,10053,10060,10060,10060,10068,10069,10069,10070,10062,10062,10062,10062,10062,
0,0,0,0,0,0,0,0,0,0,0,0,0,0,0,0,0,0,0,0,0,0,0,0,0,0,0,0,0,0,0,10057,10053,10053,10053,10053,10053,10053,10053,10053,10053,10053,10060,10060,10068,10069,10069,10069,10069,10070,10062,10062,10062,10062,
0,0,0,0,0,0,0,0,0,0,0,0,0,0,0,0,0,0,0,0,0,0,0,0,0,0,0,0,0,0,0,10057,10053,10053,10053,10053,10053,10053,10053,10053,10053,10053,10060,10068,10069,10069,10069,10069,10069,10069,10070,10062,10062,10062,
0,0,0,0,0,0,0,0,0,0,0,0,0,0,0,0,0,0,0,0,0,0,0,0,0,0,0,0,0,0,0,10057,10053,10053,10053,10053,10053,10053,10053,10053,10053,10053,10068,10069,10069,10069,10069,10069,10069,10069,10069,10070,10062,10062,
0,0,0,0,0,0,0,0,0,0,0,0,0,0,0,0,0,0,0,0,0,0,0,0,0,0,0,0,0,0,0,10057,10053,10053,10053,10053,10053,10053,10053,10053,10053,10053,10069,10069,10069,10069,10069,10069,10069,10069,10069,10069,10070,10062,
0,0,0,0,0,0,0,0,0,0,0,0,0,0,0,0,0,0,0,0,0,0,0,0,0,0,0,0,0,0,0,10065,10066,10066,10069,10069,10069,10069,10069,10069,10069,10069,10069,10069,10069,10069,10069,10069,10069,10069,10069,10069,10069,10070
</data>
 </layer>
 <layer id="3" name="edifici" width="54" height="72">
  <data encoding="csv">
0,0,0,0,0,0,0,0,0,0,0,0,0,0,0,0,0,0,0,0,0,0,0,0,0,0,0,0,0,0,0,0,0,0,0,0,0,0,9370,9372,0,0,0,0,0,0,0,0,0,0,0,0,0,0,
9685,9686,9685,9686,9685,9686,9685,9686,9685,9686,9685,9686,9685,9686,9685,9686,9685,9686,9685,9686,0,0,0,0,9685,9686,9685,9686,9685,9686,9685,9686,9685,9686,9685,9686,9685,9686,9370,9372,9685,9686,9685,9686,9685,9686,9685,9686,9685,9686,9685,9686,9685,9686,
9693,9694,9693,9694,9693,9694,9693,9694,9693,9694,9693,9694,9693,9694,9693,9694,9693,9694,9693,9694,0,0,0,0,9693,9694,9693,9694,9693,9694,9693,9694,9693,9694,9693,9694,9693,9694,9370,9372,9693,9694,9693,9694,9693,9694,9693,9694,9693,9694,9693,9694,9693,9694,
9701,9702,9701,9702,9701,9702,9701,9702,9701,9702,9701,9702,9701,9702,9701,9702,9701,9702,9701,9702,0,0,0,0,9701,9702,9701,9702,9701,9702,9701,9702,9701,9702,9701,9702,9701,9702,9370,9372,9701,9702,9701,9702,9701,9702,9701,9702,9701,9702,9701,9702,9701,9702,
9685,9686,9685,9686,9685,9686,9685,9686,9685,9686,9685,9686,9685,9686,9685,9686,9685,9686,9685,9686,0,0,0,0,9685,9686,9685,9686,9685,9686,9685,9686,9685,9686,9685,9686,9685,9686,9370,9372,9685,9686,9685,9686,9685,9686,9685,9686,9685,9686,9685,9686,9685,9686,
9693,9694,9693,9694,9693,9694,9693,9694,9693,9694,9693,9694,9693,9694,9693,9694,9693,9694,9693,9694,0,0,0,0,9693,9694,9693,9694,9693,9694,9693,9694,9693,9694,9693,9694,9693,9694,9370,9372,9693,9694,9693,9694,9693,9694,9693,9694,9693,9694,9693,9694,9693,9694,
9701,9702,9701,9702,9701,9702,9701,9702,9701,9702,9701,9702,9701,9702,9701,9702,9701,9702,9701,9702,0,0,0,0,9701,9702,9701,9702,9701,9702,9701,9702,9701,9702,9701,9702,9701,9702,9370,9372,9701,9702,9701,9702,9701,9702,9701,9702,9701,9702,9701,9702,9701,9702,
9685,9686,9685,9686,9685,9686,9685,9686,9685,9686,9685,9686,9685,9686,9685,9686,9685,9686,9685,9686,0,0,0,0,9685,9686,9685,9686,9685,9686,9685,9686,9685,9686,9685,9686,9685,9686,9370,9372,9685,9686,9685,9686,9685,9686,9685,9686,9685,9686,9685,9686,9685,9686,
9693,9694,9693,9694,9693,9694,9693,9694,9693,9694,9693,9694,9693,9694,9693,9694,9693,9694,9693,9694,12170,12171,12173,12174,9693,9694,9693,9694,9693,9694,9693,9694,9693,9694,9693,9694,9693,9694,9370,9372,9693,9694,9693,9694,9693,9694,9693,9694,9693,9694,9693,9694,9693,9694,
9701,9702,9701,9702,9701,9702,9701,9702,9701,9702,9701,9702,9701,9702,9701,9702,9701,9702,9701,9702,12178,12179,12181,12182,9701,9702,9701,9702,9701,9702,9701,9702,9701,9702,9701,9702,9701,9702,9370,9372,9701,9702,9701,9702,9701,9702,9701,9702,9701,9702,9701,9702,9701,9702,
9685,9686,9685,9686,9685,9686,9685,9686,9685,9686,9685,9686,9685,9686,9685,9686,9685,9686,9685,9686,12186,12187,12189,12190,9685,9686,9685,9686,9685,9686,9685,9686,9685,9686,9685,9686,9685,9686,9370,9372,9685,9686,9685,9686,9685,9686,9685,9686,9685,9686,9685,9686,9685,9686,
9693,9694,9693,9694,9693,9694,9693,9694,9693,9694,9693,9694,9693,9694,9693,9694,9693,9694,9693,9694,12194,12195,12197,12198,9693,9694,9693,9694,9693,9694,9693,9694,9693,9694,9693,9694,9693,9694,9370,9372,9693,9694,9693,9694,9693,9694,9693,9694,9693,9694,9693,9694,9693,9694,
9701,9702,9701,9702,9701,9702,9701,9702,9701,9702,9701,9702,9701,9702,9701,9702,9701,9702,9701,9702,12202,12203,12205,12206,9701,9702,9701,9702,9701,9702,9701,9702,9701,9702,9701,9702,9701,9702,9370,9372,9701,9702,9701,9702,9701,9702,9701,9702,9701,9702,9701,9702,9701,9702,
9685,9686,9685,9686,9685,9686,9685,9686,0,0,0,0,0,0,0,0,0,0,0,9740,0,12211,12213,0,9740,0,0,0,0,0,0,0,0,0,0,0,9740,0,9370,9372,0,9740,0,0,0,0,9685,9686,9685,9686,9685,9686,9685,9686,
9693,9694,9693,9694,9693,9694,9693,9694,0,0,0,0,0,0,0,0,0,0,0,9740,0,0,0,0,9740,0,0,0,0,0,0,0,0,0,0,9740,0,0,9370,9372,0,0,9740,0,0,0,9693,9694,9693,9694,9693,9694,9693,9694,
9701,9702,9701,9702,9701,9702,9701,9702,0,0,0,0,0,0,0,0,0,0,0,0,0,0,0,0,0,0,0,0,0,0,0,0,0,1714,1715,1716,1717,1718,0,0,1714,1715,1716,1717,1718,0,9701,9702,9701,9702,9701,9702,9701,9702,
9685,9686,9685,9686,9685,9686,9685,9686,0,0,2801,2802,2803,2804,2805,2806,2807,0,0,0,0,0,0,0,0,0,785,786,787,0,0,0,0,1722,1723,1724,1725,1726,0,0,1722,1723,1724,1725,1726,0,9685,9686,9685,9686,9685,9686,9685,9686,
9693,9694,9693,9694,9693,9694,9693,9694,0,0,2809,2810,2811,2812,2813,2814,2815,0,0,0,0,0,0,0,0,0,793,794,795,0,0,0,0,1730,1731,1732,1733,1734,0,0,1730,1731,1732,1733,1734,0,9693,9694,9693,9694,9693,9694,9693,9694,
9701,9702,9701,9702,9701,9702,9701,9702,0,0,2817,2818,2819,2820,2821,2822,2823,0,0,0,0,0,0,0,0,0,801,799,803,0,0,0,0,1738,1739,1740,1741,1742,0,0,1738,1739,1740,1741,1742,0,9701,9702,9701,9702,9701,9702,9701,9702,
9685,9686,9685,9686,9685,9686,9685,9686,0,0,2825,2826,2827,2828,2829,2830,2831,0,0,0,0,0,0,0,0,0,0,0,0,0,0,0,0,1746,1747,1748,1749,1750,0,848,1746,1747,1748,1749,1750,0,9685,9686,9685,9686,9685,9686,9685,9686,
9693,9694,9693,9694,9693,9694,9693,9694,0,0,2833,2834,2835,2836,2837,2838,2839,0,0,0,0,0,0,0,0,0,0,0,0,0,0,0,0,0,0,0,0,0,0,0,955,0,0,0,0,0,9693,9694,9693,9694,9693,9694,9693,9694,
9701,9702,9701,9702,9701,9702,9701,9702,0,0,0,955,0,0,0,0,0,0,0,0,0,0,0,0,0,0,0,0,0,0,0,0,0,0,0,0,0,0,0,0,0,0,0,0,0,0,9701,9702,9701,9702,9701,9702,9701,9702,
9685,9686,9685,9686,9685,9686,9685,9686,0,0,0,0,0,0,0,0,0,0,0,0,0,0,0,0,0,0,0,0,0,0,0,0,0,0,0,0,0,0,0,0,1714,1715,1716,1717,1718,0,9685,9686,9685,9686,9685,9686,9685,9686,
9693,9694,9693,9694,9693,9694,9693,9694,0,0,0,0,0,0,0,0,0,0,0,0,0,0,0,0,0,0,0,0,0,0,0,0,0,0,0,0,0,0,0,0,1722,1723,1724,1725,1726,0,9693,9694,9693,9694,9693,9694,9693,9694,
9701,9702,9701,9702,9701,9702,9701,9702,0,0,0,0,0,0,0,0,0,0,0,0,0,0,0,0,0,0,0,0,0,0,0,0,0,0,0,0,0,0,0,0,1730,1731,1732,1733,1734,0,9701,9702,9701,9702,9701,9702,9701,9702,
9685,9686,9685,9686,9685,9686,9685,9686,0,0,0,0,0,0,0,0,0,0,0,0,0,0,0,0,0,0,0,0,0,0,0,0,0,0,0,0,0,0,0,0,1738,1739,1740,1741,1742,0,9685,9686,9685,9686,9685,9686,9685,9686,
9693,9694,9693,9694,9693,9694,9693,9694,0,0,0,0,0,0,0,0,0,0,0,0,0,0,0,0,0,0,0,0,0,0,0,0,0,0,0,0,0,0,0,0,1746,1747,1748,1749,1750,0,9693,9694,9693,9694,9693,9694,9693,9694,
9701,9702,9701,9702,9701,9702,9701,9702,0,0,0,0,0,0,0,0,0,0,0,0,0,0,0,0,0,0,0,1015,1016,0,0,0,0,0,0,0,0,0,0,0,0,0,0,0,0,0,9701,9702,9701,9702,9701,9702,9701,9702,
9685,9686,9685,9686,9685,9686,9685,9686,0,0,0,670,0,485,0,671,0,0,0,0,0,0,0,0,0,0,0,1023,1024,0,0,0,0,0,0,0,0,0,0,0,0,485,0,0,0,0,9685,9686,9685,9686,9685,9686,9685,9686,
9693,9694,9693,9694,9693,9694,9693,9694,0,0,0,0,492,493,494,0,1063,1064,0,0,0,0,0,0,0,0,0,1031,1032,0,0,0,0,0,0,0,0,1063,1064,0,492,493,494,0,0,0,9693,9694,9693,9694,9693,9694,9693,9694,
9701,9702,9701,9702,9701,9702,9701,9702,0,0,0,0,500,501,502,0,1071,1072,0,0,0,0,0,0,0,0,0,1039,1040,0,0,0,0,0,0,0,0,1071,1072,0,500,501,502,0,0,0,9701,9702,9701,9702,9701,9702,9701,9702,
9685,9686,9685,9686,9685,9686,9685,9686,0,0,0,0,508,509,510,0,0,0,0,0,0,0,0,0,0,0,0,0,0,0,0,0,0,0,0,0,0,0,0,0,508,509,510,0,0,0,9685,9686,9685,9686,9685,9686,9685,9686,
9693,9694,9693,9694,9693,9694,9693,9694,0,0,0,678,0,0,0,679,0,0,0,0,0,0,0,0,0,0,0,0,0,0,0,0,0,0,0,0,0,0,0,0,0,0,0,0,0,0,9693,9694,9693,9694,9693,9694,9693,9694,
9701,9702,9701,9702,9701,9702,9701,9702,0,1714,1715,1716,1717,1718,1714,1715,1716,1717,1718,0,0,0,0,0,0,0,0,0,0,0,0,0,0,0,0,0,0,0,0,0,0,1669,1670,1671,1672,0,9701,9702,9701,9702,9701,9702,9701,9702,
9685,9686,9685,9686,9685,9686,9685,9686,0,1722,1723,1724,1725,1726,1722,1723,1724,1725,1726,0,0,0,0,0,0,0,0,0,0,0,0,0,0,0,0,0,0,0,0,0,0,1677,1678,1679,1680,0,9685,9686,9685,9686,9685,9686,9685,9686,
9693,9694,9693,9694,9693,9694,9693,9694,0,1730,1731,1732,1733,1734,1730,1731,1732,1733,1734,0,0,0,0,0,0,0,0,0,0,0,0,0,0,0,0,0,0,0,0,0,0,1685,1686,1687,1688,0,9693,9694,9693,9694,9693,9694,9693,9694,
9701,9702,9701,9702,9701,9702,9701,9702,0,1738,1739,1740,1741,1742,1738,1739,1740,1741,1742,0,0,0,0,0,0,0,0,0,0,0,0,0,0,0,0,0,0,0,0,0,0,1669,1670,1671,1672,0,9701,9702,9701,9702,9701,9702,9701,9702,
9685,9686,9685,9686,9685,9686,9685,9686,0,1746,1747,1748,1749,1750,1746,1747,1748,1749,1750,0,0,0,0,0,0,0,0,0,0,0,0,0,0,0,0,0,0,0,0,0,0,1677,1678,1679,1680,0,9685,9686,9685,9686,9685,9686,9685,9686,
9693,9694,9693,9694,9693,9694,9693,9694,0,0,0,2649,2650,2651,2652,0,0,0,0,0,0,0,0,0,0,0,0,0,0,0,0,0,0,0,0,2609,2610,2611,2612,2613,0,1685,1686,1687,1688,0,9693,9694,9693,9694,9693,9694,9693,9694,
9701,9702,9701,9702,9701,9702,9701,9702,0,0,0,2657,2658,2659,2660,0,0,0,0,0,0,0,0,0,0,0,0,0,0,0,0,0,0,0,0,2617,2618,2619,2620,2621,0,1669,1670,1671,1672,0,9701,9702,9701,9702,9701,9702,9701,9702,
9685,9686,9685,9686,9685,9686,9685,9686,0,0,0,2665,2666,2667,2668,0,0,0,0,0,0,0,0,0,0,0,0,0,0,0,0,0,0,0,0,2625,2626,2627,2628,2629,0,1677,1678,1679,1680,0,9685,9686,9685,9686,9685,9686,9685,9686,
9693,9694,9693,9694,9693,9694,9693,9694,0,0,0,2673,2674,2675,2676,0,0,0,0,0,0,0,0,0,0,0,0,0,0,0,0,0,0,0,0,2633,2634,2635,2636,2637,0,1685,1686,1687,1688,0,9693,9694,9693,9694,9693,9694,9693,9694,
9701,9702,9701,9702,9701,9702,9701,9702,0,0,0,0,0,0,0,0,0,0,0,0,0,0,0,0,0,0,0,0,0,0,0,0,0,0,0,2641,2642,2643,2644,2645,0,1669,1670,1671,1672,0,9701,9702,9701,9702,9701,9702,9701,9702,
9685,9686,9685,9686,9685,9686,9685,9686,0,0,0,0,0,0,0,0,0,0,0,0,0,0,0,0,0,0,0,0,0,0,0,0,0,0,0,0,0,0,0,0,0,1677,1678,1679,1680,0,9685,9686,9685,9686,9685,9686,9685,9686,
9693,9694,9693,9694,9693,9694,9693,9694,0,1714,1715,1716,1717,1718,1714,1715,1716,1717,1718,1714,1715,1716,1717,1718,0,0,0,0,0,0,0,0,0,0,0,0,0,0,0,0,0,1685,1686,1687,1688,0,9693,9694,9693,9694,9693,9694,9693,9694,
9701,9702,9701,9702,9701,9702,9701,9702,0,1722,1723,1724,1725,1726,1722,1723,1724,1725,1726,1722,1723,1724,1725,1726,0,0,0,0,955,0,0,0,0,0,0,0,0,0,0,0,0,0,0,0,0,0,9701,9702,9701,9702,9701,9702,9701,9702,
9685,9686,9685,9686,9685,9686,9685,9686,0,1730,1731,1732,1733,1734,1730,1731,1732,1733,1734,1730,1731,1732,1733,1734,0,0,0,0,0,0,0,0,0,0,1669,1670,1671,1672,1669,1670,1671,1672,1669,1670,1671,0,9685,9686,9685,9686,9685,9686,9685,9686,
9693,9694,9693,9694,9693,9694,9693,9694,0,1738,1739,1740,1741,1742,1738,1739,1740,1741,1742,1738,1739,1740,1741,1742,0,0,0,0,0,0,0,0,0,0,1677,1678,1679,1680,1677,1678,1679,1680,1677,1678,1679,0,9693,9694,9693,9694,9693,9694,9693,9694,
9701,9702,9701,9702,9701,9702,9701,9702,0,1746,1747,1748,1749,1750,1746,1747,1748,1749,1750,1746,1747,1748,1749,1750,0,0,0,0,0,0,0,0,0,0,1685,1686,1687,1688,1685,1686,1687,1688,1685,1686,1687,0,9701,9702,9701,9702,9701,9702,9701,9702,
9685,9686,9685,9686,9685,9686,9685,9686,9685,9686,9685,9686,9685,9686,9685,9686,0,0,0,0,0,0,0,0,0,0,0,0,0,0,9685,9686,9685,9686,9685,9686,9685,9686,9685,9686,9685,9686,9685,9686,9685,9686,9685,9686,9685,9686,9685,9686,9685,9686,
9693,9694,9693,9694,9693,9694,9693,9694,9693,9694,9693,9694,9693,9694,9693,9694,0,0,0,0,0,0,0,0,0,0,0,0,0,0,9693,9694,9693,9694,9693,9694,9693,9694,9693,9694,9693,9694,9693,9694,9693,9694,9693,9694,9693,9694,9693,9694,9693,9694,
9701,9702,9701,9702,9701,9702,9701,9702,9701,9702,9701,9702,9701,9702,9701,9702,0,0,0,0,0,0,0,0,0,0,0,0,0,0,9701,9702,9701,9702,9701,9702,9701,9702,9701,9702,9701,9702,9701,9702,9701,9702,9701,9702,9701,9702,9701,9702,9701,9702,
9685,9686,9685,9686,9685,9686,9685,9686,9685,9686,9685,9686,9685,9686,9685,9686,0,0,9685,9686,9685,9686,9685,9686,0,0,0,0,0,0,9685,9686,9685,9686,9685,9686,9685,9686,9685,9686,9685,9686,9685,9686,9685,9686,9685,9686,9685,9686,9685,9686,9685,9686,
9693,9694,9693,9694,9693,9694,9693,9694,9693,9694,9693,9694,9693,9694,9693,9694,0,0,9693,9694,9693,9694,9693,9694,0,0,0,0,0,0,9693,9694,9693,9694,9693,9694,9693,9694,9693,9694,9693,9694,9693,9694,9693,9694,9693,9694,9693,9694,9693,9694,9693,9694,
9701,9702,9701,9702,9701,9702,9701,9702,9701,9702,9701,9702,9701,9702,9701,9702,0,0,9701,9702,9701,9702,9701,9702,0,0,0,0,0,0,9701,9702,9701,9702,9701,9702,9701,9702,9701,9702,9701,9702,9701,9702,9701,9702,9701,9702,9701,9702,9701,9702,9701,9702,
9685,9686,9685,9686,9685,9686,9685,9686,9685,9686,9685,9686,9685,9686,0,0,0,0,9685,9686,9685,9686,9685,9686,9685,9686,9685,9686,0,0,0,0,10080,0,0,0,0,0,0,0,0,0,0,0,0,0,0,0,0,0,0,0,0,0,
9693,9694,9693,9694,9693,9694,9693,9694,9693,9694,9693,9694,9693,9694,0,0,0,0,9693,9694,9693,9694,9693,9694,9693,9694,9693,9694,0,0,0,0,10080,0,0,0,0,0,0,0,0,0,0,0,0,0,0,0,0,0,0,0,0,0,
9701,9702,9701,9702,9701,9702,9701,9702,9701,9702,9701,9702,9701,9702,0,0,0,0,9701,9702,9701,9702,9701,9702,9701,9702,9701,9702,13281,0,0,0,0,0,0,0,0,0,0,0,0,0,0,0,0,0,0,0,0,0,0,0,0,0,
9685,9686,9685,9686,9685,9686,9685,9686,9685,9686,9685,9686,0,12170,12163,12164,12165,12174,9685,9686,9685,9686,9685,9686,9685,9686,9685,9686,0,0,0,0,0,0,0,0,0,0,0,0,0,0,0,0,0,0,0,0,0,0,0,0,0,0,
9693,9694,9693,9694,9693,9694,9693,9694,9693,9694,9693,9694,10160,12178,12180,12180,12180,12182,9693,9694,9693,9694,9693,9694,9693,9694,9693,9694,0,0,0,0,0,0,0,0,0,0,0,0,0,0,0,0,0,0,0,0,0,0,0,0,0,0,
9701,9702,9701,9702,9701,9702,9701,9702,9701,9702,9701,9702,0,12241,12242,12242,12242,12243,9701,9702,9701,9702,9701,9702,9701,9702,9701,9702,13281,13281,13281,0,0,0,0,0,0,0,0,0,0,0,0,0,0,0,0,0,0,0,0,0,0,0,
9685,9686,9685,9686,9685,9686,9685,9686,9685,9686,9685,9686,0,12249,12250,12250,12250,12251,9685,9686,9685,9686,9685,9686,9685,9686,9685,9686,9685,9686,9740,0,0,0,0,0,0,0,0,0,0,0,0,0,0,0,0,0,0,0,0,0,0,0,
9693,9694,9693,9694,9693,9694,9693,9694,9693,9694,9693,9694,0,12257,12258,12258,12258,12259,9693,9694,9693,9694,9693,9694,9693,9694,9693,9694,9693,9694,9740,0,0,0,0,0,0,0,0,0,0,0,0,0,0,0,0,13281,0,0,0,0,0,0,
9701,9702,9701,9702,9701,9702,9701,9702,9701,9702,9701,9702,0,12265,12266,12266,12266,12267,9701,9702,9701,9702,9701,9702,9701,9702,9701,9702,9701,9702,9740,0,0,0,0,0,0,0,0,0,0,0,0,0,0,0,0,13281,0,0,0,0,0,0,
9685,9686,9685,9686,9685,9686,9685,9686,9685,9686,9685,9686,9685,9686,9685,9686,9685,9686,9685,9686,9685,9686,9685,9686,9685,9686,9685,9686,9685,9686,9740,0,0,0,0,0,0,0,0,0,0,0,0,0,0,0,0,13281,0,0,0,0,0,0,
9693,9694,9693,9694,9693,9694,9693,9694,9693,9694,9693,9694,9693,9694,9693,9694,9693,9694,9693,9694,9693,9694,9693,9694,9693,9694,9693,9694,9693,9694,9740,0,0,0,0,0,0,0,0,0,0,0,0,0,0,0,0,10069,10070,0,0,0,0,0,
9701,9702,9701,9702,9701,9702,9701,9702,9701,9702,9701,9702,9701,9702,9701,9702,9701,9702,9701,9702,9701,9702,9701,9702,9701,9702,9701,9702,9701,9702,9740,0,0,0,0,0,0,0,0,0,0,0,0,0,0,0,0,0,0,0,0,0,0,0,
9685,9686,9685,9686,9685,9686,9685,9686,9685,9686,9685,9686,9685,9686,9685,9686,9685,9686,9685,9686,9685,9686,9685,9686,9685,9686,9685,9686,9685,9686,9740,0,0,0,0,0,0,0,0,0,0,0,0,0,0,0,0,0,0,0,0,0,0,0,
9693,9694,9693,9694,9693,9694,9693,9694,9693,9694,9693,9694,9693,9694,9693,9694,9693,9694,9693,9694,9693,9694,9693,9694,9693,9694,9693,9694,9693,9694,9740,0,0,0,0,0,0,0,0,0,0,0,0,0,0,0,0,0,0,0,0,0,0,0,
9701,9702,9701,9702,9701,9702,9701,9702,9701,9702,9701,9702,9701,9702,9701,9702,9701,9702,9701,9702,9701,9702,9701,9702,9701,9702,9701,9702,9701,9702,9740,0,0,0,0,0,0,0,0,0,0,0,0,0,0,0,0,0,0,0,0,0,0,0,
9685,9686,9685,9686,9685,9686,9685,9686,9685,9686,9685,9686,9685,9686,9685,9686,9685,9686,9685,9686,9685,9686,9685,9686,9685,9686,9685,9686,9685,9686,9740,0,0,0,0,0,0,0,0,0,0,0,0,0,0,0,0,0,0,0,0,0,0,0,
9693,9694,9693,9694,9693,9694,9693,9694,9693,9694,9693,9694,9693,9694,9693,9694,9693,9694,9693,9694,9693,9694,9693,9694,9693,9694,9693,9694,9693,9694,9740,0,0,0,0,0,0,0,0,0,0,0,0,0,0,0,0,0,0,0,0,0,0,0
</data>
 </layer>
 <layer id="4" name="sopra_testa" width="54" height="72">
  <data encoding="csv">
0,0,0,0,0,0,0,0,0,0,0,0,0,0,0,0,0,0,0,0,0,0,0,0,0,0,0,0,0,0,0,0,0,0,0,0,0,0,0,0,0,0,0,0,0,0,0,0,0,0,0,0,0,0,
0,0,0,0,0,0,0,0,0,0,0,0,0,0,0,0,0,0,0,0,0,0,0,0,0,0,0,0,0,0,0,0,0,0,0,0,0,0,0,0,0,0,0,0,0,0,0,0,0,0,0,0,0,0,
0,0,0,0,0,0,0,0,0,0,0,0,0,0,0,0,0,0,0,0,0,0,0,0,0,0,0,0,0,0,0,0,0,0,0,0,0,0,0,0,0,0,0,0,0,0,0,0,0,0,0,0,0,0,
0,0,0,0,0,0,0,0,0,0,0,0,0,0,0,0,0,0,0,0,0,0,0,0,0,0,0,0,0,0,0,0,0,0,0,0,0,0,0,0,0,0,0,0,0,0,0,0,0,0,0,0,0,0,
0,0,0,0,0,0,0,0,0,0,0,0,0,0,0,0,0,0,0,0,0,0,0,0,0,0,0,0,0,0,0,0,0,0,0,0,0,0,0,0,0,0,0,0,0,0,0,0,0,0,0,0,0,0,
0,0,0,0,0,0,0,0,0,0,0,0,0,0,0,0,0,0,0,0,0,0,0,0,0,0,0,0,0,0,0,0,0,0,0,0,0,0,0,0,0,0,0,0,0,0,0,0,0,0,0,0,0,0,
0,0,0,0,0,0,0,0,0,0,0,0,0,0,0,0,0,0,0,0,0,0,0,0,0,0,0,0,0,0,0,0,0,0,0,0,0,0,0,0,0,0,0,0,0,0,0,0,0,0,0,0,0,0,
0,0,0,0,0,0,0,0,0,0,0,0,0,0,0,0,0,0,0,0,0,0,0,0,0,0,0,0,0,0,0,0,0,0,0,0,0,0,0,0,0,0,0,0,0,0,0,0,0,0,0,0,0,0,
0,0,0,0,0,0,0,0,0,0,0,0,0,0,0,0,0,0,0,0,0,0,0,0,0,0,0,0,0,0,0,0,0,0,0,0,0,0,0,0,0,0,0,0,0,0,0,0,0,0,0,0,0,0,
0,0,0,0,0,0,0,0,0,0,0,0,0,0,0,0,0,0,0,0,0,0,0,0,0,0,0,0,0,0,0,0,0,0,0,0,0,0,0,0,0,0,0,0,0,0,0,0,0,0,0,0,0,0,
0,0,0,0,0,0,0,0,0,0,0,0,0,0,0,0,0,0,0,0,0,0,0,0,0,0,0,0,0,0,0,0,0,0,0,0,0,0,0,0,0,0,0,0,0,0,0,0,0,0,0,0,0,0,
0,0,0,0,0,0,0,0,0,0,0,0,0,0,0,0,0,0,0,0,0,0,0,0,0,0,0,0,0,0,0,0,0,0,0,0,0,0,0,0,0,0,0,0,0,0,0,0,0,0,0,0,0,0,
0,0,0,0,0,0,0,0,0,0,0,0,0,0,0,0,0,0,0,0,0,0,0,0,0,0,0,0,0,0,0,0,0,0,0,0,0,0,0,0,0,0,0,0,0,0,0,0,0,0,0,0,0,0,
0,0,0,0,0,0,0,0,0,0,0,0,0,0,0,0,0,0,0,0,0,0,0,0,0,0,0,0,0,0,0,0,0,0,0,0,0,0,0,0,0,0,0,0,0,0,0,0,0,0,0,0,0,0,
0,0,0,0,0,0,0,0,0,0,0,0,0,0,0,0,0,0,0,0,0,0,0,0,0,0,0,0,0,0,0,0,0,0,0,0,0,0,0,0,0,0,0,0,0,0,0,0,0,0,0,0,0,0,
0,0,0,0,0,0,0,0,0,0,0,0,0,0,0,0,0,0,0,0,0,0,0,0,0,0,0,0,0,0,0,0,0,0,0,0,0,0,0,0,0,0,0,0,0,0,0,0,0,0,0,0,0,0,
0,0,0,0,0,0,0,0,0,0,0,0,0,0,0,0,0,0,0,0,0,0,0,0,0,0,0,0,0,0,0,0,0,0,0,0,0,0,0,0,0,0,0,0,0,0,0,0,0,0,0,0,0,0,
0,0,0,0,0,0,0,0,0,0,0,0,0,0,0,0,0,0,0,0,0,0,0,0,0,0,0,0,0,0,0,0,0,0,0,0,0,0,0,0,0,0,0,0,0,0,0,0,0,0,0,0,0,0,
0,0,0,0,0,0,0,0,0,0,0,0,0,0,0,0,0,0,0,0,0,0,0,0,0,0,0,0,0,0,0,0,0,0,0,0,0,0,0,0,0,0,0,0,0,0,0,0,0,0,0,0,0,0,
0,0,0,0,0,0,0,0,0,0,0,0,0,0,0,0,0,0,0,0,0,0,0,0,0,0,0,0,0,0,0,0,0,0,0,0,0,0,0,0,0,0,0,0,0,0,0,0,0,0,0,0,0,0,
0,0,0,0,0,0,0,0,0,0,0,0,0,0,0,0,0,0,0,0,0,0,0,0,0,0,0,0,0,0,0,0,0,0,0,0,0,0,0,0,0,0,0,0,0,0,0,0,0,0,0,0,0,0,
0,0,0,0,0,0,0,0,0,0,0,0,0,0,0,0,0,0,0,0,0,0,0,0,0,0,0,0,0,0,0,0,0,0,0,0,0,0,0,0,0,0,0,0,0,0,0,0,0,0,0,0,0,0,
0,0,0,0,0,0,0,0,0,0,0,0,0,0,0,0,0,0,0,0,0,0,0,0,0,0,0,0,0,0,0,0,0,0,0,0,0,0,0,0,0,0,0,0,0,0,0,0,0,0,0,0,0,0,
0,0,0,0,0,0,0,0,0,0,0,0,0,0,0,0,0,0,0,0,0,0,0,0,0,0,0,0,0,0,0,0,0,0,0,0,0,0,0,0,0,0,0,0,0,0,0,0,0,0,0,0,0,0,
0,0,0,0,0,0,0,0,0,0,0,0,0,0,0,0,0,0,0,0,0,0,0,0,0,0,0,0,0,0,0,0,0,0,0,0,0,0,0,0,0,0,0,0,0,0,0,0,0,0,0,0,0,0,
0,0,0,0,0,0,0,0,0,0,0,0,0,0,0,0,0,0,0,0,0,0,0,0,0,0,0,0,0,0,0,0,0,0,0,0,0,0,0,0,0,0,0,0,0,0,0,0,0,0,0,0,0,0,
0,0,0,0,0,0,0,0,0,0,0,0,0,0,0,0,0,0,0,0,0,0,0,0,0,0,0,0,0,0,0,0,0,0,0,0,0,0,0,0,0,0,0,0,0,0,0,0,0,0,0,0,0,0,
0,0,0,0,0,0,0,0,0,0,0,0,0,0,0,0,0,0,0,0,0,0,0,0,0,0,0,0,0,0,0,0,0,0,0,0,0,0,0,0,0,0,0,0,0,0,0,0,0,0,0,0,0,0,
0,0,0,0,0,0,0,0,0,0,0,0,0,0,0,0,0,0,0,0,0,0,0,0,0,0,0,0,0,0,0,0,0,0,0,0,0,0,0,0,0,0,0,0,0,0,0,0,0,0,0,0,0,0,
0,0,0,0,0,0,0,0,0,0,0,0,0,0,0,0,0,0,0,0,0,0,0,0,0,0,0,0,0,0,0,0,0,0,0,0,0,0,0,0,0,0,0,0,0,0,0,0,0,0,0,0,0,0,
0,0,0,0,0,0,0,0,0,0,0,0,0,0,0,0,0,0,0,0,0,0,0,0,0,0,0,0,0,0,0,0,0,0,0,0,0,0,0,0,0,0,0,0,0,0,0,0,0,0,0,0,0,0,
0,0,0,0,0,0,0,0,0,0,0,0,0,0,0,0,0,0,0,0,0,0,0,0,0,0,0,0,0,0,0,0,0,0,0,0,0,0,0,0,0,0,0,0,0,0,0,0,0,0,0,0,0,0,
0,0,0,0,0,0,0,0,0,0,0,0,0,0,0,0,0,0,0,0,0,0,0,0,0,0,0,0,0,0,0,0,0,0,0,0,0,0,0,0,0,0,0,0,0,0,0,0,0,0,0,0,0,0,
0,0,0,0,0,0,0,0,0,0,0,0,0,0,0,0,0,0,0,0,0,0,0,0,0,0,0,0,0,0,0,0,0,0,0,0,0,0,0,0,0,0,0,0,0,0,0,0,0,0,0,0,0,0,
0,0,0,0,0,0,0,0,0,0,0,0,0,0,0,0,0,0,0,0,0,0,0,0,0,0,0,0,0,0,0,0,0,0,0,0,0,0,0,0,0,0,0,0,0,0,0,0,0,0,0,0,0,0,
0,0,0,0,0,0,0,0,0,0,0,0,0,0,0,0,0,0,0,0,0,0,0,0,0,1025,1026,0,1027,1028,0,0,0,0,0,0,0,0,0,0,0,0,0,0,0,0,0,0,0,0,0,0,0,0,
0,0,0,0,0,0,0,0,0,0,0,0,0,0,0,0,0,0,0,0,0,0,0,0,0,1033,0,0,0,1036,0,0,0,0,0,0,0,0,0,0,0,0,0,0,0,0,0,0,0,0,0,0,0,0,
0,0,0,0,0,0,0,0,0,0,0,0,0,0,0,0,0,0,0,0,0,0,0,0,0,1041,0,0,0,1044,0,0,0,0,0,0,0,0,0,0,0,0,0,0,0,0,0,0,0,0,0,0,0,0,
0,0,0,0,0,0,0,0,0,0,0,0,0,0,0,0,0,0,0,0,0,0,0,0,0,0,0,0,0,0,0,0,0,0,0,0,0,0,0,0,0,0,0,0,0,0,0,0,0,0,0,0,0,0,
0,0,0,0,0,0,0,0,0,0,0,0,0,0,0,0,0,0,0,0,0,0,0,0,0,1025,1026,0,1027,1028,0,0,0,0,0,0,0,0,0,0,0,0,0,0,0,0,0,0,0,0,0,0,0,0,
0,0,0,0,0,0,0,0,0,0,0,0,0,0,0,0,0,0,0,0,0,0,0,0,0,1033,0,0,0,1036,0,0,0,0,0,0,0,0,0,0,0,0,0,0,0,0,0,0,0,0,0,0,0,0,
0,0,0,0,0,0,0,0,0,0,0,0,0,0,0,0,0,0,0,0,0,0,0,0,0,1041,0,0,0,1044,0,0,0,0,0,0,0,0,0,0,0,0,0,0,0,0,0,0,0,0,0,0,0,0,
0,0,0,0,0,0,0,0,0,0,0,0,0,0,0,0,0,0,0,0,0,0,0,0,0,0,0,0,0,0,0,0,0,0,0,0,0,0,0,0,0,0,0,0,0,0,0,0,0,0,0,0,0,0,
0,0,0,0,0,0,0,0,0,0,0,0,0,0,0,0,0,0,0,0,0,0,0,0,0,1025,1026,0,1027,1028,0,0,0,0,0,0,0,0,0,0,0,0,0,0,0,0,0,0,0,0,0,0,0,0,
0,0,0,0,0,0,0,0,0,0,0,0,0,0,0,0,0,0,0,0,0,0,0,0,0,1033,0,0,0,1036,0,0,0,0,0,0,0,0,0,0,0,0,0,0,0,0,0,0,0,0,0,0,0,0,
0,0,0,0,0,0,0,0,0,0,0,0,0,0,0,0,0,0,0,0,0,0,0,0,0,1041,0,0,0,1044,0,0,0,0,0,0,0,0,0,0,0,0,0,0,0,0,0,0,0,0,0,0,0,0,
0,0,0,0,0,0,0,0,0,0,0,0,0,0,0,0,0,0,0,0,0,0,0,0,0,1025,1026,0,1027,1028,0,0,0,0,0,0,0,0,0,0,0,0,0,0,0,0,0,0,0,0,0,0,0,0,
0,0,0,0,0,0,0,0,0,0,0,0,0,0,0,0,0,0,0,0,0,0,0,0,0,1033,0,0,0,1036,0,0,0,0,0,0,0,0,0,0,0,0,0,0,0,0,0,0,0,0,0,0,0,0,
0,0,0,0,0,0,0,0,0,0,0,0,0,0,0,0,0,0,0,0,0,0,0,0,0,1041,0,0,0,1044,0,0,0,0,0,0,0,0,0,0,0,0,0,0,0,0,0,0,0,0,0,0,0,0,
0,0,0,0,0,0,0,0,0,0,0,0,0,0,0,0,0,0,0,0,0,0,0,0,0,0,0,0,0,0,0,0,0,0,0,0,0,0,0,0,0,0,0,0,0,0,0,0,0,0,0,0,0,0,
0,0,0,0,0,0,0,0,0,0,0,0,0,0,0,0,0,0,0,0,0,0,0,0,0,0,0,0,0,0,0,0,0,0,0,0,0,0,0,0,0,0,0,0,0,0,0,0,0,0,0,0,0,0,
0,0,0,0,0,0,0,0,0,0,0,0,0,0,0,0,0,0,0,0,0,0,0,0,0,0,0,0,0,0,0,0,0,0,0,0,0,0,0,0,0,0,0,0,0,0,0,0,0,0,0,0,0,0,
0,0,0,0,0,0,0,0,0,0,0,0,0,0,0,0,0,0,0,0,0,0,0,0,0,0,0,0,0,0,0,0,0,0,0,0,0,0,0,0,0,0,0,0,0,0,0,0,0,0,0,0,0,0,
0,0,0,0,0,0,0,0,0,0,0,0,0,0,0,0,0,0,0,0,0,0,0,0,0,0,0,0,0,0,0,0,0,0,0,0,0,0,0,0,0,0,0,0,0,0,0,0,0,0,0,0,0,0,
0,0,0,0,0,0,0,0,0,0,0,0,0,0,0,0,0,0,0,0,0,0,0,0,0,0,0,0,0,0,0,0,0,0,0,0,0,0,0,0,0,0,0,0,0,0,0,0,0,0,0,0,0,0,
0,0,0,0,0,0,0,0,0,0,0,0,0,0,0,0,0,0,0,0,0,0,0,0,0,0,0,0,0,0,0,0,0,0,0,0,0,0,0,0,0,0,0,0,0,0,0,0,0,0,0,0,0,0,
0,0,0,0,0,0,0,0,0,0,0,0,0,0,0,0,0,0,0,0,0,0,0,0,0,0,0,0,0,0,0,0,0,0,0,0,0,0,0,0,0,0,0,0,0,0,0,0,0,0,0,0,0,0,
0,0,0,0,0,0,0,0,0,0,0,0,0,0,0,0,0,0,0,0,0,0,0,0,0,0,0,0,0,0,0,0,0,0,0,0,0,0,0,0,0,0,0,0,0,0,0,0,0,0,0,0,0,0,
0,0,0,0,0,0,0,0,0,0,0,0,0,0,0,0,0,0,0,0,0,0,0,0,0,0,0,0,0,0,0,0,0,0,0,0,0,0,0,0,0,0,0,0,0,0,0,0,0,0,0,0,0,0,
0,0,0,0,0,0,0,0,0,0,0,0,0,0,0,0,0,0,0,0,0,0,0,0,0,0,0,0,0,0,0,0,0,0,0,0,0,0,0,0,0,0,0,0,0,0,0,0,0,0,0,0,0,0,
0,0,0,0,0,0,0,0,0,0,0,0,0,0,0,0,0,0,0,0,0,0,0,0,0,0,0,0,0,0,0,0,0,0,0,0,0,0,0,0,0,0,0,0,0,0,0,0,0,0,0,0,0,0,
0,0,0,0,0,0,0,0,0,0,0,0,0,0,0,0,0,0,0,0,0,0,0,0,0,0,0,0,0,0,0,0,0,0,0,0,0,0,0,0,0,0,0,0,0,0,0,0,0,0,0,0,0,0,
0,0,0,0,0,0,0,0,0,0,0,0,0,0,0,0,0,0,0,0,0,0,0,0,0,0,0,0,0,0,0,0,0,0,0,0,0,0,0,0,0,0,0,0,0,0,0,0,0,0,0,0,0,0,
0,0,0,0,0,0,0,0,0,0,0,0,0,0,0,0,0,0,0,0,0,0,0,0,0,0,0,0,0,0,0,0,0,0,0,0,0,0,0,0,0,0,0,0,0,0,0,0,0,0,0,0,0,0,
0,0,0,0,0,0,0,0,0,0,0,0,0,0,0,0,0,0,0,0,0,0,0,0,0,0,0,0,0,0,0,0,0,0,0,0,0,0,0,0,0,0,0,0,0,0,0,0,0,0,0,0,0,0,
0,0,0,0,0,0,0,0,0,0,0,0,0,0,0,0,0,0,0,0,0,0,0,0,0,0,0,0,0,0,0,0,0,0,0,0,0,0,0,0,0,0,0,0,0,0,0,0,0,0,0,0,0,0,
0,0,0,0,0,0,0,0,0,0,0,0,0,0,0,0,0,0,0,0,0,0,0,0,0,0,0,0,0,0,0,0,0,0,0,0,0,0,0,0,0,0,0,0,0,0,0,0,0,0,0,0,0,0,
0,0,0,0,0,0,0,0,0,0,0,0,0,0,0,0,0,0,0,0,0,0,0,0,0,0,0,0,0,0,0,0,0,0,0,0,0,0,0,0,0,0,0,0,0,0,0,0,0,0,0,0,0,0,
0,0,0,0,0,0,0,0,0,0,0,0,0,0,0,0,0,0,0,0,0,0,0,0,0,0,0,0,0,0,0,0,0,0,0,0,0,0,0,0,0,0,0,0,0,0,0,0,0,0,0,0,0,0,
0,0,0,0,0,0,0,0,0,0,0,0,0,0,0,0,0,0,0,0,0,0,0,0,0,0,0,0,0,0,0,0,0,0,0,0,0,0,0,0,0,0,0,0,0,0,0,0,0,0,0,0,0,0,
0,0,0,0,0,0,0,0,0,0,0,0,0,0,0,0,0,0,0,0,0,0,0,0,0,0,0,0,0,0,0,0,0,0,0,0,0,0,0,0,0,0,0,0,0,0,0,0,0,0,0,0,0,0,
0,0,0,0,0,0,0,0,0,0,0,0,0,0,0,0,0,0,0,0,0,0,0,0,0,0,0,0,0,0,0,0,0,0,0,0,0,0,0,0,0,0,0,0,0,0,0,0,0,0,0,0,0,0
</data>
 </layer>
 <objectgroup id="20" name="collisioni">
  <object id="99" x="292" y="479" width="15" height="1083"/>
  <object id="100" x="292" y="1417" width="459" height="140"/>
  <object id="101" x="774" y="1517" width="48" height="40"/>
  <object id="102" x="968" y="1515"/>
  <object id="103" x="934" y="1511" width="506" height="54"/>
  <object id="104" x="1421" y="488" width="14" height="1071"/>
  <object id="105" x="1332" y="1042" width="107" height="385"/>
  <object id="106" x="1298" y="490" width="133" height="136"/>
  <object id="107" x="1295" y="718" width="130" height="133"/>
  <object id="108" x="1264" y="907" width="128" height="10"/>
  <object id="109" x="1389" y="916" width="6" height="116"/>
  <object id="110" x="1265" y="1036" width="141" height="7"/>
  <object id="111" x="1263" y="909" width="7" height="27"/>
  <object id="112" x="1298" y="933" width="63" height="78"/>
  <object id="113" x="1068" y="486" width="135" height="140"/>
  <object id="114" x="960" y="482" width="99" height="34"/>
  <object id="115" x="742" y="484" width="308" height="24"/>
  <object id="116" x="812" y="496" width="10" height="120"/>
  <object id="117" x="939" y="486" width="10" height="133"/>
  <object id="118" x="806" y="611" width="41" height="13"/>
  <object id="119" x="910" y="621" width="32" height="2"/>
  <object id="120" x="291" y="490" width="367" height="24"/>
  <object id="121" x="324" y="506" width="203" height="115"/>
  <object id="122" x="328" y="579" width="71" height="63"/>
  <object id="123" x="467" y="579" width="58" height="66"/>
  <object id="124" x="459" y="682" width="7" height="31"/>
  <object id="125" x="361" y="905" width="136" height="7"/>
  <object id="126" x="488" y="905" width="7" height="29"/>
  <object id="127" x="365" y="909" width="8" height="132"/>
  <object id="128" x="367" y="1029" width="127" height="10"/>
  <object id="129" x="294" y="1065" width="303" height="139"/>
  <object id="130" x="360" y="1229" width="46" height="103"/>
  <object id="131" x="387" y="1235" width="76" height="50"/>
  <object id="132" x="455" y="1264" width="10" height="69"/>
  <object id="133" x="410" y="1277" width="44" height="26"/>
  <object id="134" x="1130" y="1244" width="140" height="90"/>
  <object id="135" x="1136" y="1321" width="42" height="45"/>
  <object id="136" x="1221" y="1310" width="44" height="54"/>
  <object id="137" x="935" y="1422" width="4" height="26"/>
  <object id="138" x="933" y="1296" width="4" height="26"/>
  <object id="139" x="934" y="1171" width="4" height="26"/>
  <object id="140" x="823" y="1176" width="4" height="26"/>
  <object id="141" x="819" y="1301" width="4" height="26"/>
  <object id="142" x="821" y="1427" width="4" height="26"/>
  <object id="148" x="1258" y="617.333333333333" width="13.3333333333333" height="14"/>
  <object id="154" x="301" y="1530" width="461" height="23"/>
  <object id="155" x="965" y="1568" width="724" height="187"/>
  <object id="156" x="1037" y="1734" width="8" height="96"/>
  <object id="157" x="584" y="1673" width="180" height="464"/>
  <object id="158" x="773" y="1776" width="102" height="526"/>
  <object id="159" x="876" y="2004" width="119" height="297"/>
  <object id="160" x="972" y="1963" width="17" height="67"/>
  <object id="161" x="1033" y="1836" width="685" height="453"/>
  <object id="162" x="1005" y="1937" width="26" height="365"/>
  <object id="163" x="1003" y="1836" width="34" height="46"/>
  <object id="164" x="235" y="1562" width="274" height="189"/>
  <object id="165" x="53" y="1762" width="378" height="87"/>
  <object id="166" x="396" y="1892" width="7" height="18"/>
  <object id="167" x="420" y="1872" width="153" height="177"/>
  <object id="168" x="1588" y="1489"/>
  <object id="169" x="148" y="7" width="479" height="466"/>
  <object id="170" x="779" y="6" width="359" height="475"/>
  <object id="171" x="1165" y="66" width="6" height="370"/>
  <object id="172" x="1159" y="12" width="46" height="388"/>
  <object id="173" x="1289" y="8" width="426" height="391"/>
  <object id="174" x="1332" y="390" width="11" height="44"/>
  <object id="175" x="1365" y="372" width="350" height="115"/>
  <object id="182" x="377" y="917" width="104" height="105"/>
  <object id="183" x="828" y="496" width="102" height="80"/>
 </objectgroup>
 <objectgroup id="6" name="eventi">
  <object id="2" name="gate_npc" type="npc" x="1220.8367071525" y="617.408906882591" width="27" height="26">
   <properties>
    <property name="condizione" value="medaglie&gt;=4"/>
    <property name="direzione" value="sud"/>
    <property name="gate" type="bool" value="true"/>
    <property name="id" value="scienziato osservatorio"/>
    <property name="sprite" value="scienziato"/>
    <property name="type" value="npc"/>
   </properties>
  </object>
  <object id="3" name="trainer" type="trainer" x="482.470985155196" y="995.789473684211" width="26" height="22">
   <properties>
    <property name="direzione" value="est"/>
    <property name="id" value="trainer monteporzio 1"/>
    <property name="sprite" value="trainer_HIKER"/>
    <property name="team_gdf" type="bool" value="false"/>
    <property name="trigger" value="avvicinamento"/>
    <property name="type" value="trainer"/>
    <property name="vista" type="int" value="3"/>
   </properties>
  </object>
  <object id="5" name="trainer" type="trainer" x="1345.17004048583" y="868.075573549258" width="23" height="24">
   <properties>
    <property name="direzione" value="ovest"/>
    <property name="id" value="trainer monteporzio 2"/>
    <property name="sprite" value="trainer_POKEMONRANGER_F"/>
    <property name="team_gdf" type="bool" value="false"/>
    <property name="trigger" value="avvicinamento"/>
    <property name="type" value="trainer"/>
    <property name="vista" type="int" value="7"/>
   </properties>
  </object>
  <object id="6" name="trigger_rivale" type="trigger_rivale" x="933.952091767881" y="900.06342780027" width="23" height="24.5">
   <properties>
    <property name="tappa" type="int" value="4"/>
    <property name="type" value="trigger_rivale"/>
   </properties>
  </object>
  <object id="14" name="npc" type="npc" x="581.93657219973" y="618.620782726046" width="22" height="22.5">
   <properties>
    <property name="dialogo" value="&quot;Ciao so Cesare, pizza o pangocciolo?&quot;"/>
    <property name="direzione" value="nord"/>
    <property name="id" value="grotta_npc1"/>
    <property name="sprite" value="NPC_50"/>
    <property name="type" value="npc"/>
   </properties>
  </object>
  <object id="15" name="npc" type="npc" x="718.929824561404" y="1136.83400809717" width="32" height="32">
   <properties>
    <property name="direzione" value="est"/>
    <property name="id" value="monteporzio_npc2"/>
    <property name="movimento" value="random"/>
    <property name="raggio" type="int" value="3"/>
    <property name="sprite" value="NPC_51"/>
    <property name="type" value="npc"/>
   </properties>
  </object>
  <object id="16" name="npc" type="npc" x="515.520917678813" y="1249.74628879892" width="32" height="32">
   <properties>
    <property name="direzione" value="est"/>
    <property name="id" value="monteporzio_npc3"/>
    <property name="sprite" value="NPC_52"/>
    <property name="type" value="npc"/>
   </properties>
  </object>
  <object id="17" name="npc" type="npc" x="577" y="936" width="32" height="32">
   <properties>
    <property name="direzione" value="sud"/>
    <property name="id" value="monteporzio_npc4"/>
    <property name="movimento" value="random"/>
    <property name="raggio" type="int" value="3"/>
    <property name="sprite" value="NPC_53"/>
    <property name="type" value="npc"/>
   </properties>
  </object>
  <object id="21" name="warp" type="warp" x="464.704453441295" y="1864.18286099865" width="64" height="9">
   <properties>
    <property name="destinazione" value="percorso_5"/>
    <property name="spawn_id" value="da_monteporzio"/>
    <property name="type" value="warp"/>
   </properties>
  </object>
  <object id="27" name="warp" type="warp" x="419.418353576248" y="643.666666666667" width="22.5" height="17.5">
   <properties>
    <property name="destinazione" value="palestra_monteporzio_interno"/>
    <property name="spawn_id" value="entrata_principale"/>
    <property name="type" value="warp"/>
   </properties>
  </object>
  <object id="28" name="warp" type="warp" x="1186.87314439946" y="1341.86099865047" width="22.1538461538462" height="32">
   <properties>
    <property name="destinazione" value="pokecenter_monteporzio"/>
    <property name="spawn_id" value="da_monteporzio"/>
    <property name="type" value="warp"/>
   </properties>
  </object>
  <object id="29" name="warp" type="warp" x="417.352226720648" y="1314.10391363023" width="24.7611336032389" height="25">
   <properties>
    <property name="destinazione" value="mart_monteporzio"/>
    <property name="spawn_id" value="da_monteporzio"/>
    <property name="type" value="warp"/>
   </properties>
  </object>
  <object id="34" name="spawn" type="spawn" x="479.333333333333" y="1801" width="32" height="21">
   <properties>
    <property name="id" value="da_percorso_5"/>
    <property name="type" value="spawn"/>
   </properties>
  </object>
  <object id="36" name="spawn" type="spawn" x="417.503373819164" y="1346.74224021592" width="23.3333333333333" height="24">
   <properties>
    <property name="id" value="da pokemarket monteporzio"/>
    <property name="type" value="spawn"/>
   </properties>
  </object>
  <object id="37" name="cartello" type="cartello" x="901.704453441295" y="1445.68286099865" width="23.3333333333334" height="18.6666666666666">
   <properties>
    <property name="testo" value="← Percorso 4 — Marino"/>
    <property name="type" value="cartello"/>
   </properties>
  </object>
  <object id="40" name="cartello" type="cartello" x="358" y="674" width="20" height="17.3333333333333">
   <properties>
    <property name="testo" value="→ Palestra di Monteporzio"/>
    <property name="type" value="cartello"/>
   </properties>
  </object>
  <object id="52" name="cartello" type="cartello" x="1289" y="645.333333333333" width="17.3333333333333" height="19.3333333333334">
   <properties>
    <property name="testo" value="Osservatoio -- Qui si studiano eventi climatici"/>
    <property name="type" value="cartello"/>
   </properties>
  </object>
  <object id="93" name="spawn" type="spawn" x="1187.33335" y="1385.33333333333" width="17.3333" height="16">
   <properties>
    <property name="id" value="da pokecenter monteporzio"/>
    <property name="type" value="spawn"/>
   </properties>
  </object>
  <object id="94" name="spawn" type="spawn" x="420.33335" y="666.5" width="19.3333" height="17">
   <properties>
    <property name="id" value="da palestra monteporzio"/>
    <property name="type" value="spawn"/>
   </properties>
  </object>
  <object id="95" name="npc_1" type="npc" x="508.5" y="801.5" width="32" height="32">
   <properties>
    <property name="direzione" value="est"/>
    <property name="id" value="monteporzio_ruggero"/>
    <property name="note" value="Ruggero il meteorologo: parla dei temporali sul colle (hint Zapdos)"/>
    <property name="type" value="npc"/>
   </properties>
  </object>
  <object id="97" name="warp" type="warp" x="673" y="480" width="58" height="32">
   <properties>
    <property name="destinazione" value="Percorso_6"/>
    <property name="spawn_id" value="da_monteporzio"/>
    <property name="type" value="warp"/>
   </properties>
  </object>
  <object id="98" name="spawn" type="spawn" x="692" y="518.5" width="24" height="23">
   <properties>
    <property name="id" value="da_percorso_6"/>
    <property name="type" value="spawn"/>
   </properties>
  </object>
  <object id="143" name="cartello" type="cartello" x="836.33335" y="647.33335" width="17.3333" height="19.3333">
   <properties>
    <property name="testo" value="Via Vittoria"/>
    <property name="type" value="cartello"/>
   </properties>
  </object>
  <object id="144" name="gate_npc" type="npc" x="868.5" y="617" width="27" height="26">
   <properties>
    <property name="condizione" value="medaglie&gt;=8"/>
    <property name="direzione" value="sud"/>
    <property name="gate" type="bool" value="true"/>
    <property name="id" value="controllore"/>
    <property name="sprite" value="controllore"/>
    <property name="type" value="npc"/>
   </properties>
  </object>
  <object id="145" name="warp" type="warp" x="869.666666666667" y="581.928473333333" width="18.6666666666666" height="17.3333333333334">
   <properties>
    <property name="destinazione" value="Via Vittoria"/>
    <property name="spawn_id" value="da_monteporzio"/>
    <property name="type" value="warp"/>
   </properties>
  </object>
  <object id="146" name="spawn" type="spawn" x="870.427" y="601.738193333333" width="21.3333" height="19">
   <properties>
    <property name="id" value="da Via Vittoria"/>
    <property name="type" value="spawn"/>
   </properties>
  </object>
  <object id="151" name="erba_alta" type="erba_alta" x="117.333333333333" y="287.333333333333" width="192" height="192">
   <properties>
    <property name="id" value="incontri monteporzio"/>
    <property name="type" value="erba_alta"/>
   </properties>
  </object>
  <object id="152" name="warp_tunnel_roccioso" type="warp" x="1005" y="1893" width="16" height="27">
   <properties>
    <property name="destinazione" value="tunnel_roccioso_1f"/>
    <property name="spawn_id" value="da_monteporzio"/>
    <property name="type" value="warp"/>
   </properties>
  </object>
  <object id="180" name="spawn" type="spawn" x="966.129" y="1890.91" width="32" height="29">
   <properties>
    <property name="id" value="da_tunnel_roccioso"/>
    <property name="type" value="spawn"/>
   </properties>
  </object>
 </objectgroup>
</map>
