<?xml version="1.0" encoding="UTF-8"?>
<map version="1.10" tiledversion="1.12.2" orientation="orthogonal" renderorder="right-down" width="36" height="32" tilewidth="32" tileheight="32" infinite="0" nextlayerid="7" nextobjectid="11">
 <tileset firstgid="1" source="../Interior_general_32.tsj"/>
 <tileset firstgid="2009" source="../../outside.tsx"/>
 <layer id="1" name="ground" width="36" height="32">
  <data encoding="csv">
281,281,281,281,281,281,281,281,281,281,281,281,281,281,281,281,281,281,281,281,281,281,281,281,281,281,281,281,281,281,281,281,281,281,281,281,
281,281,281,281,281,281,281,281,281,281,281,281,281,281,281,281,281,281,281,281,281,281,281,281,281,281,281,281,281,281,281,281,281,281,281,281,
290,290,290,290,290,290,290,290,290,290,290,290,290,290,290,290,290,290,290,290,290,290,290,290,290,290,290,290,290,290,290,290,290,290,290,290,
290,290,281,281,281,281,281,281,281,281,281,290,281,281,281,281,281,281,281,281,281,290,281,281,281,281,281,281,281,281,281,281,281,281,281,281,
290,290,281,281,281,281,281,281,281,281,281,290,281,281,281,281,281,281,281,281,281,290,281,281,281,281,281,281,281,281,281,281,281,281,281,281,
290,290,281,281,281,281,281,281,281,281,281,290,281,281,281,281,281,281,281,281,281,290,281,281,281,281,281,281,281,281,281,281,281,281,281,281,
290,290,281,281,281,281,281,281,281,281,281,290,281,281,281,281,281,281,281,281,281,290,281,281,281,281,281,281,281,281,281,281,281,281,281,281,
290,290,281,281,281,281,281,281,281,281,281,290,281,281,281,281,281,281,281,281,281,290,281,281,281,281,281,281,281,281,281,281,281,281,281,281,
290,290,281,281,281,281,281,281,281,281,281,290,281,281,281,281,281,281,281,281,281,290,281,281,281,281,281,281,281,281,281,281,281,281,281,281,
290,290,281,281,281,281,281,281,281,281,281,290,281,281,281,281,281,281,281,281,281,290,281,281,281,281,281,281,281,281,281,281,281,281,281,281,
290,290,281,281,281,281,281,281,281,281,281,290,281,281,281,281,281,281,281,281,281,290,281,281,281,281,281,281,281,281,281,281,281,281,281,281,
290,290,281,281,281,281,281,281,281,281,281,290,281,281,281,281,281,281,281,281,281,290,281,281,281,281,281,281,281,281,281,281,281,281,281,281,
290,290,281,281,281,281,281,281,281,281,281,290,281,281,281,281,281,281,281,281,281,290,281,281,281,281,281,281,281,281,281,281,281,281,281,281,
290,290,281,281,281,281,281,281,281,281,281,290,281,281,281,281,281,281,281,281,281,281,281,281,281,281,281,281,281,281,281,281,281,290,281,281,
290,290,281,281,281,281,281,281,281,281,281,290,281,281,281,281,281,281,281,281,281,281,281,281,281,281,281,281,281,281,281,281,281,290,281,281,
290,290,281,281,281,281,281,281,281,281,281,290,281,281,281,281,281,281,281,281,281,281,281,281,281,281,281,281,281,281,281,281,281,281,281,281,
290,290,281,281,281,281,281,281,281,281,281,290,281,281,281,281,281,281,281,281,281,281,281,281,281,281,281,281,281,281,281,281,281,281,281,281,
290,290,281,281,281,281,281,281,281,281,281,290,281,281,281,281,281,281,281,281,281,281,281,281,281,281,281,281,281,281,281,281,281,281,281,281,
290,290,281,281,281,281,281,281,281,281,281,290,281,281,281,281,281,281,281,281,281,281,281,281,281,281,281,281,281,281,281,281,281,281,281,281,
290,290,281,281,281,281,281,281,281,281,281,290,281,281,281,281,281,281,281,281,281,281,281,281,281,281,281,281,281,281,281,281,281,281,281,281,
290,290,281,281,281,281,281,281,281,281,281,290,281,281,281,281,281,281,281,281,281,281,281,281,281,281,281,281,281,281,281,281,281,281,281,281,
290,290,281,281,281,281,281,281,281,281,281,290,281,281,281,281,281,281,281,281,281,281,281,281,281,281,281,281,281,281,281,281,281,281,281,281,
290,290,281,281,281,281,281,281,281,281,281,290,281,281,281,281,281,281,281,281,281,281,281,281,281,281,281,281,281,281,281,281,281,281,281,281,
290,290,281,281,281,281,281,281,281,281,281,290,281,281,281,281,281,281,281,281,281,281,281,281,281,281,281,281,281,281,281,281,281,281,281,281,
290,290,281,281,281,281,281,281,281,281,281,290,281,281,281,281,281,281,281,281,281,281,281,281,281,281,281,281,281,281,281,281,281,281,281,281,
290,290,281,281,281,281,281,281,281,281,281,290,281,281,281,281,281,281,281,281,281,281,281,281,281,281,281,281,281,281,281,281,281,281,281,281,
290,290,281,281,281,281,281,281,281,281,281,290,281,281,281,281,281,281,281,281,281,281,281,281,281,281,281,281,281,290,281,281,281,281,281,281,
290,290,281,281,281,281,281,281,281,281,281,290,281,281,281,281,281,281,281,281,281,281,281,281,281,281,281,281,281,290,281,281,281,281,281,281,
290,290,281,281,281,281,281,281,281,281,281,290,281,281,281,281,281,281,281,281,281,281,281,281,281,281,281,281,281,290,281,281,281,281,281,281,
290,290,281,281,281,281,281,281,281,281,281,281,281,281,281,281,281,281,281,281,281,281,281,281,281,281,281,281,281,290,281,281,281,281,281,281,
290,290,281,281,281,281,281,281,281,281,281,281,281,281,281,281,281,281,281,281,281,281,281,281,281,281,281,281,281,290,281,281,281,281,281,281,
290,290,281,281,281,281,281,281,281,281,281,281,281,281,281,281,281,281,281,281,281,281,281,281,281,281,281,281,281,290,281,281,281,281,281,281
</data>
 </layer>
 <layer id="2" name="deco_sotto" width="36" height="32">
  <data encoding="csv">
168,164,164,164,164,164,164,164,164,164,164,164,164,164,164,164,164,164,164,164,164,164,164,164,164,164,164,164,164,164,164,164,164,164,164,164,
168,172,172,172,172,172,172,172,172,172,172,172,172,172,172,172,172,172,172,172,172,172,172,172,172,172,172,172,172,172,172,172,172,172,172,172,
168,0,0,0,0,0,0,0,0,0,0,1383,0,0,0,0,0,0,1383,0,0,0,0,0,0,0,0,0,0,0,0,0,0,0,0,0,
168,0,0,0,0,0,0,0,0,0,0,1391,0,785,786,786,787,0,1391,0,0,0,0,0,0,0,0,0,0,0,0,0,0,0,0,0,
168,0,0,0,0,0,0,0,0,0,0,1399,0,793,794,794,795,0,1399,0,0,0,0,0,0,0,0,0,0,0,0,0,0,0,0,0,
168,0,0,0,0,0,0,0,0,0,0,1383,0,793,794,794,795,0,1383,0,0,0,1775,1776,0,0,1745,1746,1747,0,0,0,1759,1760,0,0,
168,0,0,0,0,0,0,0,0,0,0,1391,0,793,794,794,795,0,1391,0,0,0,1783,1784,0,0,1753,1754,1755,0,0,0,1767,1768,0,0,
168,0,0,0,0,0,0,0,0,0,0,1399,0,793,794,794,795,0,1399,0,0,0,1791,1792,0,0,1761,1762,1763,0,0,0,1791,1792,0,0,
168,0,0,0,0,0,0,0,0,0,0,0,0,793,794,794,795,0,0,0,0,0,0,0,0,0,1769,1770,1771,0,0,0,0,0,0,0,
168,0,0,0,0,0,0,0,0,0,0,0,0,793,794,794,795,0,0,0,0,0,0,0,0,0,0,0,0,0,0,0,0,0,0,0,
168,0,0,0,0,0,0,0,0,0,0,1383,0,793,794,794,795,0,1383,0,0,0,0,0,0,0,0,0,0,0,0,0,0,0,0,0,
168,0,0,0,0,0,0,0,0,0,0,1391,0,793,794,794,795,0,1391,0,0,0,0,0,0,0,0,0,0,0,0,0,0,0,0,0,
168,0,0,0,0,0,0,0,0,0,0,1399,0,793,794,794,795,0,1399,0,0,0,0,0,0,0,0,0,0,0,0,0,0,0,0,0,
168,0,0,0,0,0,0,0,0,0,0,0,0,793,794,794,795,0,0,0,0,0,0,0,0,0,0,0,0,0,0,0,0,0,0,0,
168,0,0,0,0,0,0,0,0,0,0,0,0,793,794,794,795,0,0,0,0,0,0,0,0,0,0,0,0,0,0,0,0,0,0,0,
168,0,0,0,0,0,0,0,0,0,0,0,0,793,794,794,795,0,0,0,0,0,0,0,0,0,0,0,0,0,0,0,0,0,0,0,
168,0,0,0,0,0,0,0,0,0,0,1383,0,793,794,794,795,0,0,0,0,0,0,0,0,0,0,0,0,0,0,0,0,0,0,0,
168,0,0,0,0,0,0,0,0,0,0,1391,0,793,794,794,795,0,0,0,0,0,0,0,0,0,0,0,0,0,0,0,0,0,0,0,
168,0,0,0,0,0,0,0,0,0,0,1399,0,793,794,794,795,0,0,0,0,0,0,0,0,0,0,0,0,0,0,0,0,0,0,0,
168,0,0,0,0,0,0,0,0,0,0,0,0,793,794,794,795,0,0,0,0,0,0,0,0,0,0,0,0,0,0,0,0,0,0,0,
168,0,0,0,0,0,0,0,0,0,0,0,0,793,794,794,795,0,0,0,0,0,0,0,0,0,0,0,0,0,0,0,0,0,0,0,
168,0,0,0,0,0,0,0,0,0,0,1383,0,793,794,794,795,0,0,0,0,0,0,0,0,0,0,0,0,0,0,0,0,0,0,0,
168,0,0,0,0,0,0,0,0,0,0,1391,0,793,794,794,795,0,0,0,0,0,0,0,0,0,0,0,0,0,0,0,0,0,0,0,
168,0,0,0,0,0,0,0,0,0,0,1399,0,801,802,802,803,0,0,0,0,0,0,0,0,0,0,0,0,0,0,0,0,0,0,0,
168,0,0,0,0,0,0,0,0,0,0,0,0,0,0,0,0,0,0,0,0,0,0,0,0,0,0,0,0,0,0,0,0,0,0,0,
168,0,0,0,0,0,0,0,0,0,0,1383,0,0,0,0,0,0,0,0,0,0,0,0,0,0,0,0,0,0,0,0,0,0,0,0,
168,0,0,0,0,0,0,0,0,0,0,1391,0,0,0,0,0,0,0,1304,1687,1688,1296,0,0,0,0,0,0,0,0,0,0,0,0,0,
168,0,0,0,0,0,0,0,0,163,165,1399,0,0,0,0,0,0,0,1296,1695,1696,1304,0,0,0,0,0,0,0,0,0,0,0,0,0,
168,0,0,0,0,0,0,0,0,171,173,0,0,0,0,0,0,0,0,0,0,0,0,0,0,0,0,0,0,0,0,0,0,0,0,0,
168,0,0,0,0,0,0,0,0,0,0,0,0,0,0,0,0,0,0,1296,1687,1688,1304,0,0,1383,0,0,0,0,0,0,0,0,0,0,
168,0,0,0,0,0,0,0,0,0,0,0,0,0,0,0,0,0,0,1304,1695,1696,1296,0,0,1391,0,0,0,0,0,0,0,0,0,0,
168,0,0,0,0,0,0,0,0,0,0,0,0,0,0,0,0,0,0,0,0,0,0,0,0,1399,0,0,0,0,0,0,0,0,0,0
</data>
 </layer>
 <layer id="3" name="edifici" width="36" height="32">
  <data encoding="csv">
0,1804,1805,1058,1059,0,1804,1805,0,166,168,0,0,1106,0,0,1106,0,0,166,168,0,0,1804,1805,0,0,0,0,0,0,1804,1805,0,0,0,
0,1812,1813,1066,1067,0,1812,1813,0,166,168,0,0,1114,0,0,1114,0,0,166,168,0,0,1812,1813,0,0,0,0,0,0,1812,1813,0,0,0,
0,1828,0,0,0,0,0,1828,0,166,168,0,0,0,0,0,0,0,0,166,168,0,0,0,1828,0,0,0,0,0,0,1828,0,0,0,2957,
0,1836,0,1745,1746,1747,0,1836,0,166,168,0,0,0,0,0,0,0,0,166,168,0,0,0,1836,0,0,0,0,0,0,1836,0,0,0,0,
0,0,0,1753,1754,1755,0,0,1389,166,168,0,0,0,0,0,0,0,0,166,168,0,0,0,0,0,0,0,0,0,0,0,0,0,0,0,
0,2957,0,1753,1754,1755,0,0,1397,166,168,0,0,0,0,0,0,0,0,166,168,0,0,0,0,0,0,0,0,0,0,0,0,0,0,0,
0,0,0,1753,1754,1755,0,0,0,166,168,0,0,0,0,0,0,0,0,166,168,0,0,0,0,0,0,0,0,0,0,0,0,0,0,0,
0,0,0,1753,1754,1755,0,0,0,166,168,0,0,0,0,0,0,0,0,166,168,0,0,0,0,0,0,0,0,0,0,0,0,0,0,0,
0,0,0,1753,1754,1755,0,0,0,166,168,0,0,0,0,0,0,0,0,166,168,0,0,0,0,0,0,0,0,0,0,0,0,0,0,0,
0,0,0,1753,1754,1755,0,0,1389,166,168,0,0,0,0,0,0,0,0,166,168,0,0,0,0,0,0,0,0,0,0,0,0,0,0,0,
0,0,0,1753,1754,1755,0,0,1397,166,168,0,0,0,0,0,0,0,0,166,168,0,0,0,0,0,0,0,1361,0,0,0,0,0,0,0,
0,0,0,1753,1754,1755,0,0,0,166,168,0,0,0,0,0,0,0,0,166,168,0,1361,0,0,0,1361,0,0,0,0,0,0,0,0,0,
0,0,0,1753,1754,1755,0,0,0,166,168,0,0,0,0,0,0,0,0,166,157,151,151,151,151,151,151,151,151,151,151,151,152,0,0,0,
0,0,0,1753,1754,1755,0,0,0,166,168,0,0,0,0,0,0,0,0,163,164,164,164,164,164,164,164,164,164,164,164,164,165,0,0,0,
0,0,0,1753,1754,1755,0,0,1389,166,168,0,0,0,0,0,0,0,0,171,172,172,172,172,172,172,172,172,172,172,172,172,173,0,0,0,
0,0,0,1753,1754,1755,0,0,1397,166,168,0,0,0,0,0,0,0,0,0,0,0,0,0,0,0,0,0,0,0,0,0,0,0,0,0,
0,0,0,1753,1754,1755,0,0,0,166,168,0,0,0,0,0,0,0,0,0,0,0,0,0,0,0,0,0,0,0,0,0,0,0,0,0,
0,0,0,1761,1762,1763,0,0,0,166,168,0,0,0,0,0,0,0,0,0,0,0,0,0,0,0,0,0,0,0,0,0,0,0,0,0,
0,0,0,1769,1770,1771,0,0,0,166,168,0,0,0,0,0,0,0,0,0,0,0,0,0,0,0,0,0,0,0,0,0,0,0,0,0,
0,0,0,0,0,0,0,0,0,166,168,0,0,0,0,0,0,0,0,0,0,0,0,0,0,0,0,0,0,0,0,0,0,0,0,0,
0,1361,0,0,0,0,0,0,0,166,168,0,0,0,0,0,0,0,0,0,0,0,0,0,0,0,0,0,0,0,0,0,0,0,0,0,
0,0,0,1361,0,0,0,0,1389,166,168,0,0,0,0,0,0,0,0,0,0,0,0,0,0,0,0,0,0,0,0,0,0,0,0,0,
0,0,0,1361,0,0,0,0,1397,166,168,0,0,0,0,0,0,0,0,0,0,0,0,0,0,0,0,0,0,0,0,0,0,0,0,0,
0,1361,0,0,0,0,0,0,0,166,168,0,0,0,0,0,0,0,0,0,0,0,0,0,0,0,0,0,0,0,0,0,0,0,0,0,
0,0,0,1361,0,0,0,0,0,166,168,0,0,0,0,0,0,0,0,0,0,0,0,0,0,0,0,150,151,151,151,151,151,152,0,0,
0,1361,1361,0,0,0,0,0,0,166,168,0,0,0,0,0,0,0,0,0,0,0,0,0,0,0,0,166,159,159,159,159,159,168,0,0,
0,0,0,0,0,0,0,0,0,166,168,0,0,0,0,0,0,0,0,0,0,0,0,0,0,0,0,166,168,164,164,164,164,165,0,0,
0,0,0,1361,0,0,0,0,0,163,165,0,0,0,0,0,0,0,0,0,0,0,0,0,0,0,0,166,168,172,172,172,172,173,0,0,
0,0,0,0,0,0,0,0,0,161,162,0,0,0,0,0,0,0,0,0,0,0,0,0,0,0,0,166,168,932,933,0,0,0,0,0,
0,1355,0,1361,0,0,0,0,0,169,170,0,0,0,0,0,0,0,0,0,0,0,0,0,0,0,0,166,168,940,941,942,0,0,0,0,
0,1363,0,0,1361,1361,0,0,0,161,162,0,0,0,0,0,0,0,0,0,0,0,0,0,0,0,0,166,168,0,0,0,0,0,0,0,
0,1355,0,0,0,0,0,0,0,169,170,0,0,0,0,0,0,0,0,0,0,0,0,0,0,0,0,166,168,0,0,0,0,0,0,0
</data>
 </layer>
 <layer id="4" name="sopra_testa" width="36" height="32">
  <data encoding="csv">
0,0,0,0,0,0,0,0,0,0,0,0,0,0,0,0,0,0,0,0,0,0,0,0,0,0,0,0,0,0,0,0,0,0,0,0,
0,0,0,0,0,0,0,0,0,0,0,0,0,0,0,0,0,0,0,0,0,0,0,0,0,0,0,0,0,0,0,0,0,0,0,0,
0,0,0,0,0,0,0,0,0,0,0,0,0,0,0,0,0,0,0,0,0,0,0,0,0,0,0,0,0,0,0,0,0,0,0,0,
0,0,0,0,0,0,0,0,0,0,0,0,0,0,0,0,0,0,0,0,0,0,0,0,0,0,0,0,0,0,0,0,0,0,0,0,
0,0,0,0,0,0,0,0,0,0,0,0,0,0,0,0,0,0,0,0,0,0,0,0,0,0,0,0,0,0,0,0,0,0,0,0,
0,0,0,0,0,0,0,0,0,0,0,0,0,0,0,0,0,0,0,0,0,0,0,0,0,0,0,0,0,0,0,0,0,0,0,0,
0,0,0,0,0,0,0,0,0,0,0,0,0,0,0,0,0,0,0,0,0,0,0,0,0,0,0,0,0,0,0,0,0,0,0,0,
0,0,0,0,0,0,0,0,0,0,0,0,0,0,0,0,0,0,0,0,0,0,0,0,0,0,0,0,0,0,0,0,0,0,0,0,
0,0,0,0,0,0,0,0,0,0,0,0,0,0,0,0,0,0,0,0,0,0,0,0,0,0,0,0,0,0,0,0,0,0,0,0,
0,0,0,0,0,0,0,0,0,0,0,0,0,0,0,0,0,0,0,0,0,0,0,0,0,0,0,0,0,0,0,0,0,0,0,0,
0,0,0,0,0,0,0,0,0,0,0,0,0,0,0,0,0,0,0,0,0,0,0,0,0,0,0,0,0,0,0,0,0,0,0,0,
0,0,0,0,0,0,0,0,0,0,0,0,0,0,0,0,0,0,0,0,0,0,0,0,0,0,0,0,0,0,0,0,0,0,0,0,
0,0,0,0,0,0,0,0,0,0,0,0,0,0,0,0,0,0,0,0,0,0,0,0,0,0,0,0,0,0,0,0,0,0,0,0,
0,0,0,0,0,0,0,0,0,0,0,0,0,0,0,0,0,0,0,0,0,0,0,0,0,0,0,0,0,0,0,0,0,0,0,0,
0,0,0,0,0,0,0,0,0,0,0,0,0,0,0,0,0,0,0,0,0,0,0,0,0,0,0,0,0,0,0,0,0,0,0,0,
0,0,0,0,0,0,0,0,0,0,0,0,0,0,0,0,0,0,0,0,0,0,0,0,0,0,0,0,0,0,0,0,0,0,0,0,
0,0,0,0,0,0,0,0,0,0,0,0,0,0,0,0,0,0,0,0,0,0,0,0,0,0,0,0,0,0,0,0,0,0,0,0,
0,0,0,0,0,0,0,0,0,0,0,0,0,0,0,0,0,0,0,0,0,0,0,0,0,0,0,0,0,0,0,0,0,0,0,0,
0,0,0,0,0,0,0,0,0,0,0,0,0,0,0,0,0,0,0,0,0,0,0,0,0,0,0,0,0,0,0,0,0,0,0,0,
0,0,0,0,0,0,0,0,0,0,0,0,0,0,0,0,0,0,0,0,0,0,0,0,0,0,0,0,0,0,0,0,0,0,0,0,
0,0,0,0,0,0,0,0,0,0,0,0,0,0,0,0,0,0,0,0,0,0,0,0,0,0,0,0,0,0,0,0,0,0,0,0,
0,0,0,0,0,0,0,0,0,0,0,0,0,0,0,0,0,0,0,0,0,0,0,0,0,0,0,0,0,0,0,0,0,0,0,0,
0,0,0,0,0,0,0,0,0,0,0,0,0,0,0,0,0,0,0,0,0,0,0,0,0,0,0,0,0,0,0,0,0,0,0,0,
0,0,0,0,0,0,0,0,0,0,0,0,0,0,0,0,0,0,0,0,0,0,0,0,0,0,0,0,0,0,0,0,0,0,0,0,
0,0,0,0,0,0,0,0,0,0,0,0,0,0,0,0,0,0,0,0,0,0,0,0,0,0,0,0,0,0,0,0,0,0,0,0,
0,0,0,0,0,0,0,0,0,0,0,0,0,0,0,0,0,0,0,0,0,0,0,0,0,0,0,0,0,0,0,0,0,0,0,0,
0,0,0,0,0,0,0,0,0,0,0,0,0,0,0,0,0,0,0,0,0,0,0,0,0,0,0,0,0,0,0,0,0,0,0,0,
0,0,0,0,0,0,0,0,0,0,0,0,0,0,0,0,0,0,0,0,0,0,0,0,0,0,0,0,0,0,0,0,0,0,0,0,
0,0,0,0,0,0,0,0,0,0,0,0,0,0,0,0,0,0,0,0,0,0,0,0,0,0,0,0,0,0,0,0,0,0,0,0,
0,0,0,0,0,0,0,0,0,0,0,0,0,0,0,0,0,0,0,0,0,0,0,0,0,0,0,0,0,0,0,0,0,0,0,0,
0,0,0,0,0,0,0,0,0,0,0,0,0,0,0,0,0,0,0,0,0,0,0,0,0,0,0,0,0,0,0,0,0,0,0,0,
0,0,0,0,0,0,0,0,0,0,0,0,0,0,0,0,0,0,0,0,0,0,0,0,0,0,0,0,0,0,0,0,0,0,0,0
</data>
 </layer>
 <objectgroup id="5" name="collisioni">
  <object id="1" x="2" y="3" width="1149" height="54"/>
  <object id="2" x="2" y="6" width="24" height="1008"/>
  <object id="3" x="293" y="1" width="51" height="915"/>
  <object id="4" x="98" y="101" width="89" height="484"/>
  <object id="5" x="238" y="58" width="1" height="43"/>
  <object id="6" x="41" y="65" width="12" height="39"/>
  <object id="7" x="613" y="45" width="53" height="416"/>
  <object id="8" x="633" y="408" width="411" height="60"/>
  <object id="9" x="840" y="179" width="80" height="76"/>
  <object id="10" x="708" y="189" width="55" height="41"/>
  <object id="11" x="782" y="51" width="5" height="47"/>
  <object id="12" x="1000" y="59" width="13" height="30"/>
  <object id="13" x="1029" y="176" width="49" height="53"/>
  <object id="14" x="869" y="788" width="54" height="237"/>
  <object id="15" x="928" y="785" width="156" height="102"/>
  <object id="16" x="933" y="895" width="1" height="50"/>
  <object id="17" x="930" y="938" width="54" height="13"/>
  <object id="18" x="650" y="844" width="40" height="42"/>
  <object id="19" x="648" y="938" width="41" height="37"/>
  <object id="20" x="810" y="967" width="11" height="25"/>
  <object id="21" x="363" y="838" width="8" height="30"/>
  <object id="22" x="365" y="702" height="44"/>
  <object id="23" x="359" y="545" width="9" height="26"/>
  <object id="24" x="364" y="357" width="8" height="32"/>
  <object id="25" x="363" y="200" width="6" height="27"/>
  <object id="26" x="362" y="111" width="13" height="18"/>
  <object id="27" x="581" y="111" width="16" height="18"/>
  <object id="28" x="586" y="208" width="9" height="25"/>
  <object id="29" x="590" y="365" width="5" height="29"/>
  <object id="30" x="900" y="330" width="13" height="7"/>
  <object id="31" x="842" y="360" width="10" height="12"/>
  <object id="32" x="714" y="362" width="12" height="25"/>
  <object id="33" x="42" y="648" width="10" height="11"/>
  <object id="34" x="104" y="680" width="13" height="43"/>
  <object id="35" x="42" y="742" width="15" height="14"/>
  <object id="36" x="44" y="806" width="41" height="8"/>
  <object id="37" x="109" y="774" width="10" height="19"/>
  <object id="38" x="102" y="866" width="11" height="15"/>
  <object id="39" x="106" y="932" width="9" height="17"/>
  <object id="40" x="37" y="933" width="19" height="90"/>
  <object id="41" x="134" y="971" width="54" height="13"/>
 </objectgroup>
 <objectgroup id="6" name="eventi">
  <object id="1" name="scale_giu_1f" x="977" y="923">
   <properties>
    <property name="destinazione" value="osservatorio_interno"/>
    <property name="spawn_id" value="da_3f_a_1f"/>
    <property name="type" value="warp"/>
   </properties>
   <point/>
  </object>
  <object id="2" name="spawn_da_1f" x="1036" y="926">
   <properties>
    <property name="id" value="da_1f_a_3f"/>
    <property name="type" value="spawn"/>
   </properties>
   <point/>
  </object>
  <object id="3" name="ricercatore_ignaro_3f" x="1094" y="369">
   <properties>
    <property name="direzione" value="sud"/>
    <property name="id" value="osservatorio_ricercatore_ignaro_3f"/>
    <property name="movimento" value="random"/>
    <property name="raggio" type="int" value="5"/>
    <property name="type" value="npc"/>
   </properties>
   <point/>
  </object>
  <object id="4" name="ricercatore_3f_a" x="703" y="801">
   <properties>
    <property name="condizione" value="osservatorio_cotral_scoperto"/>
    <property name="direzione" value="sud"/>
    <property name="gate" type="bool" value="true"/>
    <property name="id" value="osservatorio_ricercatore_3f_a"/>
    <property name="movimento" value="random"/>
    <property name="raggio" type="int" value="6"/>
    <property name="type" value="npc"/>
   </properties>
   <point/>
  </object>
  <object id="5" name="grunt_3f_a" x="703" y="801">
   <properties>
    <property name="condizione" value="grunt_attivo_cotral_osservatorio_3f_a"/>
    <property name="direzione" value="sud"/>
    <property name="id" value="cotral_osservatorio_3f_a"/>
    <property name="movimento" value="random"/>
    <property name="raggio" type="int" value="6"/>
    <property name="type" value="npc"/>
   </properties>
   <point/>
  </object>
  <object id="6" name="ricercatore_luogotenente" x="479" y="153">
   <properties>
    <property name="condizione" value="osservatorio_cotral_scoperto"/>
    <property name="direzione" value="sud"/>
    <property name="gate" type="bool" value="true"/>
    <property name="id" value="osservatorio_ricercatore_luogotenente"/>
    <property name="movimento" value="random"/>
    <property name="raggio" type="int" value="5"/>
    <property name="type" value="npc"/>
   </properties>
   <point/>
  </object>
  <object id="7" name="luogotenente" x="479" y="147">
   <properties>
    <property name="condizione" value="grunt_attivo_cotral_osservatorio_luogotenente"/>
    <property name="direzione" value="sud"/>
    <property name="id" value="cotral_osservatorio_luogotenente"/>
    <property name="movimento" value="random"/>
    <property name="raggio" type="int" value="5"/>
    <property name="type" value="npc"/>
   </properties>
   <point/>
  </object>
  <object id="8" name="porta_3f_chiave" x="288" y="896" width="64" height="128">
   <properties>
    <property name="chiave" value="chiave_segreta_cotral"/>
    <property name="id" value="3f_chiave"/>
    <property name="type" value="porta_scomparsa"/>
   </properties>
  </object>
  <object id="9" name="oggetto_3f_endgame_1" x="47" y="185">
   <properties>
    <property name="contenuto" value="maxpozione"/>
    <property name="id" value="oggetto_3f_endgame_1"/>
    <property name="quantita" type="int" value="1"/>
    <property name="type" value="oggetto"/>
   </properties>
   <point/>
  </object>
  <object id="10" name="oggetto_3f_mid_1" x="1134" y="90">
   <properties>
    <property name="contenuto" value="superrepellente"/>
    <property name="id" value="oggetto_3f_mid_1"/>
    <property name="quantita" type="int" value="1"/>
    <property name="type" value="oggetto"/>
   </properties>
   <point/>
  </object>
 </objectgroup>
</map>
