<?xml version="1.0" encoding="UTF-8"?>
<map version="1.10" tiledversion="1.12.2" orientation="orthogonal" renderorder="right-down" width="44" height="44" tilewidth="32" tileheight="32" infinite="0" nextlayerid="7" nextobjectid="24">
 <tileset firstgid="1" source="../Interior_general_32.tsj"/>
 <tileset firstgid="2009" source="../../outside.tsx"/>
 <layer id="1" name="ground" width="44" height="44">
  <data encoding="csv">
74,74,74,74,74,74,164,164,164,164,164,164,164,164,164,164,164,164,164,164,164,164,164,164,164,164,164,164,164,164,164,164,164,164,164,164,164,164,164,164,164,164,164,164,
82,82,82,82,82,82,172,172,172,172,172,172,172,172,172,172,172,172,172,172,172,172,172,172,172,172,172,172,172,172,172,172,172,172,172,172,172,172,172,172,172,172,172,172,
290,290,290,290,290,290,290,290,290,290,290,290,290,290,290,290,290,290,290,290,290,290,290,290,290,290,290,290,290,290,290,290,290,290,290,290,290,290,290,290,290,290,290,290,
290,281,281,281,281,281,281,281,281,281,281,281,281,281,281,281,281,281,281,281,290,281,281,281,281,281,281,281,281,281,281,281,281,281,281,281,281,281,281,281,281,281,281,281,
290,281,281,281,281,281,290,290,281,281,281,281,281,281,281,281,281,281,281,281,290,281,281,281,281,281,281,281,281,281,281,281,281,281,281,281,281,281,281,281,281,281,281,281,
290,281,281,281,281,281,290,281,281,281,281,281,281,281,281,281,281,281,281,281,290,281,281,281,281,281,281,281,281,281,281,281,281,281,281,281,281,281,281,281,281,281,281,281,
290,290,290,290,290,290,290,281,281,281,281,281,281,281,281,281,281,281,281,281,290,281,281,281,281,281,281,281,281,281,281,281,281,281,281,281,281,281,281,281,281,281,281,281,
290,281,281,281,281,281,281,281,281,281,281,281,281,281,281,281,281,281,281,281,290,281,281,281,281,281,281,281,281,281,281,281,281,281,281,281,281,281,281,281,281,281,281,281,
290,281,281,281,281,281,281,281,281,281,281,281,281,281,281,281,281,281,281,281,290,281,281,281,281,281,281,281,281,281,281,281,281,281,281,281,281,281,281,281,281,281,281,281,
290,281,281,281,281,281,281,281,281,281,281,281,281,281,281,281,281,281,281,281,290,281,281,281,281,281,281,281,281,281,281,281,281,281,281,281,281,281,281,281,281,281,281,281,
290,281,281,281,281,281,281,281,281,281,281,281,281,281,281,281,281,281,281,281,290,281,281,281,281,281,281,281,281,281,281,281,281,281,281,281,281,281,281,281,281,281,281,281,
290,281,281,281,281,281,281,281,281,281,281,281,281,281,281,281,281,281,281,281,290,281,281,281,281,281,281,281,281,281,281,281,281,281,281,281,281,281,281,281,281,281,281,281,
290,281,281,281,281,281,281,281,281,281,281,281,281,281,281,281,281,281,281,290,290,281,281,281,281,281,281,281,281,281,281,281,281,281,281,281,281,281,281,281,281,281,281,281,
290,281,281,281,281,281,281,281,281,281,281,281,281,281,281,281,281,281,281,290,290,281,281,281,281,281,281,281,281,281,281,281,281,281,281,281,281,281,281,281,281,281,281,281,
290,281,281,281,281,281,281,281,281,281,281,281,281,281,281,281,281,281,281,290,290,281,281,281,281,281,281,281,281,281,281,281,281,281,281,281,281,281,281,281,281,281,281,281,
290,281,281,281,281,281,281,281,281,281,281,281,281,281,281,281,281,281,281,281,290,281,281,281,281,281,281,281,281,281,281,281,281,281,281,281,281,281,281,281,281,281,281,281,
290,281,281,281,281,281,281,281,281,281,281,281,281,281,281,281,281,290,290,290,290,281,281,281,281,281,281,281,281,281,281,281,281,281,281,281,281,281,281,281,281,281,281,281,
290,290,290,290,290,290,290,290,290,290,281,281,281,281,281,281,281,281,281,281,281,281,281,281,281,281,281,281,281,281,281,281,281,281,281,281,281,281,281,281,281,281,281,281,
290,281,281,281,281,281,281,281,281,290,281,281,281,281,281,281,281,281,281,281,281,281,281,281,281,281,281,281,281,281,281,281,281,281,281,281,281,281,281,281,281,281,281,281,
290,281,281,281,281,281,281,281,281,290,281,281,281,281,281,281,281,281,281,281,281,281,281,281,281,281,281,281,281,281,281,281,281,281,281,281,281,281,281,281,281,281,281,281,
290,290,290,290,290,290,290,281,281,290,281,281,281,281,281,281,281,281,281,281,281,281,281,281,281,281,281,281,281,281,281,281,281,281,281,281,281,281,281,281,281,281,281,281,
290,281,281,281,281,281,281,281,281,290,281,281,281,281,281,281,281,281,281,281,281,281,281,281,281,281,281,281,281,281,281,281,281,281,281,281,281,281,281,281,281,281,281,281,
290,281,281,281,281,281,281,281,281,290,281,281,281,281,281,281,281,281,281,281,281,281,281,281,281,281,281,281,281,281,281,281,281,281,281,281,281,281,281,281,281,281,281,281,
290,281,281,281,281,281,281,281,281,290,281,281,281,281,281,281,281,281,281,281,281,281,281,281,281,281,281,281,281,281,281,281,281,281,281,281,281,281,281,281,281,281,281,281,
290,281,281,281,281,281,281,281,281,281,281,281,281,281,281,281,281,281,281,281,281,281,281,281,281,281,281,281,281,281,281,281,281,281,281,281,281,281,281,281,281,281,281,281,
290,281,281,281,281,281,281,281,281,281,281,281,281,281,281,281,281,281,281,281,281,281,281,281,281,281,281,281,281,281,281,281,281,281,281,281,281,281,281,281,281,281,281,281,
290,281,281,281,281,281,281,281,281,281,281,281,281,281,281,281,281,281,281,281,281,281,281,281,281,281,281,281,281,281,281,281,281,281,281,281,281,281,281,281,281,281,281,281,
290,281,281,281,281,281,281,281,281,290,281,281,281,281,281,281,281,281,281,281,281,281,281,281,281,281,281,281,281,281,281,281,281,281,281,281,281,281,281,281,281,281,281,281,
290,281,281,281,281,281,281,281,281,290,281,281,281,281,281,281,281,281,281,281,281,281,281,281,281,281,281,281,281,281,281,281,281,281,281,281,281,281,281,281,281,281,281,281,
290,281,281,281,281,281,281,281,281,290,281,281,281,281,281,281,281,281,281,281,281,281,281,281,281,281,281,281,281,281,281,281,281,281,281,281,281,281,281,281,281,281,281,281,
290,281,281,281,281,281,281,281,281,290,281,281,281,281,281,281,281,281,281,281,281,281,281,281,281,281,281,281,281,281,281,281,281,281,281,281,281,281,281,281,281,281,281,281,
290,281,281,281,281,281,281,281,281,290,281,281,281,281,281,281,281,281,281,281,281,281,281,281,281,281,281,281,281,281,281,281,281,281,281,281,281,281,281,281,281,281,281,281,
290,281,281,281,281,281,281,281,281,290,281,281,281,281,281,281,281,281,281,281,281,281,281,281,281,281,281,281,281,281,281,281,281,281,281,281,281,281,281,281,281,281,281,281,
290,281,281,281,281,281,281,281,281,290,281,281,281,281,281,281,281,281,281,281,281,281,281,281,281,281,281,281,281,281,281,281,281,281,281,281,281,281,281,281,281,281,281,281,
290,281,281,281,281,281,281,281,281,290,281,281,281,281,281,281,281,281,281,281,281,281,281,281,281,281,281,281,281,281,281,281,281,281,281,281,281,281,281,281,281,281,281,281,
290,281,281,281,281,281,281,281,281,290,281,281,281,281,281,281,281,281,281,281,281,281,281,281,281,281,281,281,281,281,281,281,281,281,281,281,281,281,281,281,281,281,281,281,
290,281,281,281,281,281,281,281,281,290,281,281,281,281,281,281,281,281,281,281,281,281,281,281,281,281,281,281,281,281,281,281,281,281,281,281,281,281,281,281,281,281,281,281,
290,281,281,281,281,281,281,281,281,290,281,281,281,281,281,281,281,281,281,281,281,281,281,281,281,281,281,281,281,281,281,281,281,281,281,281,281,281,281,281,281,281,281,281,
290,290,290,290,290,290,290,290,290,290,281,281,281,281,166,168,290,281,281,281,281,166,168,290,281,281,281,281,290,281,281,281,281,281,281,281,281,281,281,281,281,281,281,281,
290,281,281,281,281,281,281,281,281,281,281,281,281,281,166,168,290,281,281,281,281,166,168,290,281,281,281,281,281,281,281,281,281,281,281,281,281,281,281,281,281,281,281,281,
290,281,281,281,281,281,281,281,281,281,281,281,281,281,166,168,290,281,281,281,281,166,168,290,281,281,281,281,281,281,281,281,281,281,281,281,281,281,281,281,281,281,281,281,
290,281,281,281,281,281,281,281,281,281,281,281,281,281,166,168,290,281,281,281,281,166,168,290,281,281,281,281,281,281,281,281,281,281,281,281,281,281,281,281,281,281,281,281,
290,281,281,281,281,281,281,281,281,281,281,281,281,281,166,168,290,281,281,281,281,166,168,290,281,281,281,281,281,281,281,281,281,281,281,281,281,281,281,281,281,281,281,281,
290,281,281,281,281,281,281,281,281,281,281,281,281,281,166,168,290,281,281,281,281,166,168,290,281,281,281,281,281,281,281,281,281,281,281,281,281,281,281,281,281,281,281,281
</data>
 </layer>
 <layer id="2" name="deco_sotto" width="44" height="44">
  <data encoding="csv">
159,159,159,159,159,168,0,0,0,0,0,0,0,0,0,0,0,166,159,168,0,0,0,0,0,0,0,0,0,0,0,0,0,0,0,0,0,0,0,0,0,0,0,0,
159,159,159,159,159,168,900,901,0,0,0,0,0,133,134,0,0,166,159,168,0,0,0,0,0,0,0,0,0,0,0,0,0,0,0,0,133,134,0,0,0,0,0,0,
159,159,159,159,159,168,908,909,786,787,0,0,0,0,0,0,0,166,159,168,0,0,0,0,0,0,0,0,0,0,0,0,0,0,0,0,0,0,0,0,0,0,0,0,
159,159,159,159,159,168,916,917,802,803,0,0,0,0,0,0,0,166,159,168,0,0,0,0,0,0,0,0,0,0,0,0,0,0,0,0,0,0,0,0,0,0,0,0,
164,164,164,164,164,165,0,0,0,0,0,0,0,0,0,0,0,166,159,168,0,0,0,0,0,0,0,0,0,0,0,0,0,0,0,0,0,0,785,786,787,0,0,0,
172,172,172,172,172,173,0,0,0,0,0,0,0,0,0,0,0,166,159,168,0,0,0,0,0,0,0,0,0,0,0,0,0,0,0,0,0,0,793,794,795,0,0,0,
0,0,0,0,0,0,0,0,0,0,0,0,0,0,0,0,0,166,159,168,0,0,0,0,0,0,0,0,0,0,0,0,0,0,0,0,0,0,801,802,803,0,0,0,
0,0,0,0,0,0,0,0,0,0,0,0,0,0,0,0,0,166,159,168,0,0,0,0,0,0,0,0,0,0,0,0,0,0,0,0,0,0,0,0,0,0,0,0,
0,0,0,0,0,0,0,0,0,0,0,0,0,0,0,0,0,166,159,168,0,0,0,0,0,0,0,0,0,0,0,0,0,0,0,0,0,0,0,0,0,0,0,0,
0,0,0,0,0,0,0,0,0,0,0,0,0,0,0,0,0,166,159,168,0,0,0,0,0,0,0,0,0,0,0,0,0,0,0,0,0,0,0,0,0,0,0,0,
0,0,0,0,0,0,0,0,0,0,0,0,0,0,0,0,0,166,159,168,0,0,0,0,0,0,0,0,0,0,0,0,0,0,0,0,0,0,0,0,0,0,0,0,
0,0,0,0,0,0,0,0,0,0,0,0,0,0,0,0,0,166,159,168,0,0,0,0,0,0,0,0,0,0,0,0,0,0,0,0,0,0,0,0,0,0,0,0,
0,0,0,0,0,0,0,0,0,0,0,0,0,0,0,0,0,166,159,168,0,0,0,0,0,0,0,0,0,0,0,0,0,0,0,0,0,0,0,0,0,0,0,0,
0,0,0,0,0,0,0,0,0,0,0,0,0,0,0,0,0,166,159,168,0,0,0,0,0,151,151,151,151,151,151,151,151,151,151,151,151,151,151,151,151,151,151,151,
0,0,0,0,0,0,0,0,0,0,0,0,0,0,0,0,0,163,164,165,0,0,0,0,0,163,164,164,164,164,164,164,164,164,164,164,164,164,164,164,164,164,164,164,
0,0,0,0,0,0,0,0,0,0,0,0,0,0,0,0,0,171,172,173,0,0,0,0,0,171,172,172,172,172,172,172,172,172,172,172,172,172,172,172,172,172,172,172,
0,0,0,0,0,0,0,0,0,0,0,0,0,0,0,0,0,0,0,0,0,0,0,0,0,290,290,290,290,290,290,290,290,290,290,290,290,290,290,290,290,290,290,290,
151,151,151,151,151,151,151,151,151,0,0,0,0,0,0,0,0,0,0,0,0,0,0,0,0,0,0,0,0,0,0,0,0,0,0,0,0,0,0,0,0,0,0,0,
164,164,164,164,164,164,164,158,168,0,0,0,0,0,0,0,0,0,0,0,0,0,0,0,0,0,0,0,0,0,0,0,0,0,0,0,0,0,0,0,0,0,0,0,
172,172,172,172,172,172,172,166,168,0,0,0,0,0,0,0,0,0,0,0,0,0,0,0,0,0,0,0,0,0,0,0,0,0,0,0,0,0,0,0,0,0,0,0,
0,0,0,0,0,0,0,166,168,0,0,0,0,0,0,0,0,0,0,0,0,0,0,0,0,0,0,0,0,0,0,0,0,0,0,0,0,0,0,0,0,0,0,0,
0,0,0,0,0,0,0,166,168,0,0,0,0,0,0,0,0,0,0,0,0,0,0,0,0,0,0,0,0,0,0,0,0,0,0,0,0,0,0,0,0,0,0,0,
0,0,0,0,0,0,0,166,168,0,0,0,0,0,0,0,0,0,0,0,0,0,0,0,0,0,151,151,151,151,151,151,151,151,0,0,151,151,151,151,151,151,151,151,
0,0,0,0,0,0,0,166,168,0,0,0,0,0,0,0,0,0,0,0,0,0,0,0,0,0,166,168,164,164,164,164,164,165,186,186,163,164,164,164,164,164,164,164,
0,0,0,0,0,0,0,161,162,0,0,0,0,0,0,0,0,0,0,0,0,0,0,0,0,0,166,168,172,172,172,172,172,173,194,194,171,172,172,172,172,172,172,172,
0,0,1717,1718,1719,0,0,169,170,0,0,0,0,0,0,0,0,0,0,0,0,0,0,0,0,0,166,168,290,290,290,290,290,290,0,0,290,290,290,290,290,290,290,290,
0,0,1725,1726,1727,0,0,161,162,0,0,0,0,0,0,0,0,0,0,0,0,0,0,0,0,0,166,168,290,0,0,0,0,0,0,0,0,0,0,0,0,0,0,0,
0,0,1733,1734,1735,0,0,166,168,0,0,0,0,0,0,0,0,0,0,0,0,0,0,0,0,0,166,168,290,0,0,0,0,0,0,0,0,0,0,0,0,0,0,0,
0,0,1741,1742,1743,0,0,166,168,0,0,0,0,0,0,0,0,0,0,0,0,0,0,0,0,0,166,168,290,0,0,0,0,0,0,0,0,0,0,0,0,0,0,0,
0,0,0,0,0,0,0,166,168,0,0,0,0,0,0,0,0,0,0,0,0,0,0,0,0,0,166,168,290,0,0,0,0,0,0,0,0,0,0,0,0,0,0,0,
0,0,0,0,0,0,0,166,168,0,0,0,0,0,0,0,0,0,0,0,0,0,0,0,0,0,166,168,290,0,0,0,0,0,0,0,0,0,0,0,0,0,0,0,
0,0,0,0,0,0,0,166,168,0,0,0,0,0,0,0,0,0,0,0,0,0,0,0,0,0,166,168,290,0,0,0,0,0,0,0,0,0,0,0,0,0,0,0,
0,0,0,0,0,0,0,166,168,0,0,0,0,0,0,0,0,0,0,0,0,0,0,0,0,0,166,168,290,0,0,0,0,0,0,0,0,0,0,0,0,0,0,0,
0,0,0,0,0,0,0,166,168,0,0,0,0,0,0,0,0,0,0,0,0,0,0,0,0,0,166,168,290,0,0,0,0,0,0,0,0,0,0,0,0,0,0,0,
0,0,0,0,0,0,0,166,168,0,0,0,0,0,0,0,0,0,0,0,0,0,0,0,0,0,166,168,290,0,0,0,0,0,0,0,0,0,0,0,0,0,0,0,
151,151,151,151,151,151,151,149,168,0,0,0,0,0,0,0,0,0,0,0,0,0,0,0,0,0,166,168,290,0,0,0,0,0,0,0,0,0,0,0,0,0,0,0,
164,164,164,164,164,164,164,164,165,0,0,0,0,0,0,0,0,0,0,0,0,0,0,0,0,0,166,168,290,0,0,0,0,0,0,0,0,0,0,0,0,0,0,0,
172,172,172,172,172,172,172,172,173,0,0,0,0,0,0,0,0,785,786,787,0,0,0,0,0,0,166,168,290,0,0,0,0,0,0,0,0,0,0,0,0,0,0,0,
0,0,0,0,0,0,0,0,0,0,0,0,0,0,0,0,0,793,794,795,0,0,0,0,0,0,166,157,151,151,151,151,151,151,151,151,151,151,151,151,151,151,151,151,
0,0,0,0,0,0,0,0,0,0,0,0,0,0,0,0,0,793,794,795,0,0,0,0,0,0,163,164,164,164,164,164,164,164,164,164,164,164,164,164,164,164,164,164,
0,0,0,0,0,0,0,0,0,0,0,0,0,0,0,0,0,793,794,795,0,0,0,0,0,0,171,172,172,172,172,172,172,172,172,172,172,172,172,172,172,172,172,172,
0,0,0,0,0,0,0,0,0,0,0,0,0,0,0,0,0,793,794,795,0,0,0,0,0,0,290,290,290,290,290,290,290,290,290,290,290,290,290,290,290,290,290,290,
0,0,0,0,0,0,0,0,0,0,0,0,0,0,0,0,0,793,794,795,0,0,0,0,0,0,0,0,0,0,0,0,0,0,0,0,0,0,0,0,0,0,0,0,
0,0,0,0,0,0,0,0,0,0,0,0,0,0,0,0,0,793,794,795,0,0,0,0,0,0,0,0,0,0,0,0,0,0,0,0,0,0,0,0,0,0,0,0
</data>
 </layer>
 <layer id="3" name="edifici" width="44" height="44">
  <data encoding="csv">
0,0,0,0,0,0,0,0,0,1105,0,0,0,0,0,0,0,0,0,0,0,1124,1125,0,0,1105,0,0,1124,1125,0,0,1105,0,0,0,0,0,0,0,0,0,1105,0,
0,0,0,0,0,0,0,0,0,1113,0,0,0,0,0,0,0,0,0,0,0,1132,1133,0,1382,1113,0,0,1132,1133,0,0,1113,0,1382,0,0,0,1262,1263,1264,0,1113,0,
0,0,0,0,0,0,0,0,0,0,0,0,0,0,0,0,0,0,0,0,0,1140,1141,0,1390,0,0,0,1140,1141,0,0,0,0,1390,0,0,0,1270,1271,1272,0,2957,1355,
0,0,0,0,0,0,0,0,0,0,0,0,0,0,0,0,0,0,0,0,0,1279,0,0,1398,0,0,0,0,0,0,0,0,0,1398,0,0,1275,0,0,0,1276,0,1363,
0,0,0,0,0,0,0,0,0,0,0,0,0,0,0,0,0,0,0,0,0,0,0,0,0,0,0,0,0,0,0,0,0,0,0,0,0,1283,0,0,0,1284,0,0,
0,0,1382,1382,1382,1382,1382,1382,1382,1382,1382,0,0,0,0,0,0,0,0,0,0,0,0,0,0,0,0,1371,1372,0,0,0,0,1371,1372,0,0,0,0,0,0,0,0,1355,
2957,0,1390,1390,1390,1390,1390,1390,1390,1390,1390,0,0,0,0,0,0,0,0,0,0,0,0,0,0,0,0,1379,1380,1371,1372,1371,1372,1379,1380,0,0,0,0,0,0,0,0,1363,
0,0,1398,1398,1398,1398,1398,1398,1398,1398,1398,0,0,0,0,0,0,0,0,0,0,0,0,0,0,0,0,0,0,1379,1380,1379,1380,0,0,0,0,0,0,0,0,0,0,0,
0,0,0,0,0,0,0,0,0,0,0,0,0,0,0,0,0,0,0,0,0,0,0,0,0,0,0,0,0,1371,1372,1371,1372,0,0,0,0,0,0,0,0,0,0,0,
1382,1382,1382,1382,1382,1382,1382,1382,1382,1382,1382,1382,1382,1382,1382,0,0,0,0,0,0,0,0,0,0,0,0,1371,1372,1379,1380,1379,1380,1371,1372,0,0,0,0,0,0,0,0,1355,
1390,1390,1390,1390,1390,1390,1390,1390,1390,1390,1390,1390,1390,1390,1390,0,0,0,0,0,0,0,0,0,0,0,0,1379,1380,0,0,0,0,1379,1380,0,0,0,0,0,0,0,0,1363,
1398,1398,1398,1398,1398,1398,1398,1398,1398,1398,1398,1398,1398,1398,1398,0,0,0,0,0,0,0,0,0,0,0,0,0,0,0,0,0,0,0,0,0,0,0,0,0,0,0,0,0,
0,0,0,0,0,0,0,0,0,0,0,0,0,0,0,0,0,0,0,0,0,0,0,0,0,0,0,0,0,0,0,0,0,0,0,0,0,0,0,0,0,0,0,0,
0,0,1382,1382,1382,1382,1382,1382,1382,1382,1382,1382,1382,1382,1382,1382,1382,0,0,0,0,0,0,0,0,0,0,0,0,0,0,0,0,0,0,0,0,0,0,0,0,0,0,0,
0,0,1390,1390,1390,1390,1390,1390,1390,1390,1390,1390,1390,1390,1390,1390,1390,0,0,0,0,0,0,0,0,0,0,0,0,0,0,0,0,0,0,0,0,0,0,0,0,0,0,0,
0,0,1398,1398,1398,1398,1398,1398,1398,1398,1398,1398,1398,1398,1398,1398,1398,0,0,0,0,0,0,0,0,0,0,0,0,0,0,0,0,0,0,0,0,0,0,0,0,0,0,0,
0,0,0,0,0,0,0,0,0,0,0,0,0,0,0,0,0,0,0,0,0,0,0,0,0,0,0,0,0,0,0,0,0,0,0,0,0,0,0,0,0,0,0,0,
0,0,0,0,0,0,0,0,0,0,0,0,0,0,0,0,0,0,0,0,0,0,0,0,0,0,0,0,0,0,0,0,0,0,0,0,0,0,0,0,0,0,0,0,
0,0,1124,1125,0,0,0,0,0,0,0,0,0,0,0,0,0,0,0,0,0,0,0,0,0,0,0,0,0,0,0,0,0,0,0,0,0,0,0,0,0,0,0,0,
0,0,1132,1133,0,1382,0,0,0,0,0,0,0,0,0,0,0,0,0,0,0,0,0,0,0,0,0,0,0,0,0,0,0,0,0,0,0,0,0,0,0,0,0,0,
1274,2957,1140,1141,0,1390,1355,0,0,0,0,0,0,0,0,0,0,0,0,0,0,0,0,0,0,0,0,0,0,0,0,0,0,0,0,0,0,0,0,0,0,0,0,0,
1282,0,0,0,0,1398,1363,0,0,0,0,0,0,0,0,0,0,0,0,0,0,0,0,0,0,0,0,0,0,0,0,0,0,0,0,0,0,0,0,0,0,0,0,0,
1290,0,0,0,0,0,0,0,0,0,0,0,0,0,0,0,0,0,0,0,0,0,0,0,0,0,0,0,0,0,0,0,0,0,0,0,0,0,0,0,0,0,0,0,
0,0,0,0,0,0,0,0,0,0,0,0,0,0,150,151,151,151,151,151,152,0,0,0,0,0,0,0,0,0,0,0,0,0,0,0,0,0,0,0,0,1124,1125,0,
0,0,0,0,0,0,0,0,0,0,0,0,0,0,163,164,164,164,164,164,165,0,0,0,0,0,0,0,900,901,0,0,0,0,0,0,0,0,0,0,0,1132,1133,0,
1274,0,0,0,0,0,0,0,0,0,0,0,0,0,171,172,172,172,172,172,173,0,0,0,0,0,0,0,908,909,0,0,0,0,0,0,0,0,0,0,0,1140,1141,0,
1282,0,0,0,0,0,0,0,0,0,0,0,0,0,1626,0,0,0,0,0,1628,0,0,0,0,0,0,0,916,917,918,0,0,0,0,0,0,0,0,0,0,0,0,0,
1290,0,0,0,0,0,0,0,0,0,0,0,0,0,1633,0,0,0,0,0,1633,0,0,0,0,0,0,0,0,0,0,0,0,0,0,0,0,0,0,0,0,0,0,0,
0,0,0,0,0,0,0,0,0,0,0,0,0,0,1633,0,0,0,0,0,1633,0,0,0,0,0,0,0,0,0,0,0,0,1293,1293,0,1293,0,1293,0,0,0,0,0,
0,0,0,0,0,0,0,0,0,0,0,0,0,0,1633,0,0,0,0,0,1633,0,0,0,0,0,0,0,0,0,0,0,1525,1526,1526,1526,1526,1526,1526,1527,0,0,0,0,
1274,0,0,0,0,0,0,0,0,0,0,0,0,0,1633,0,0,0,0,0,1633,0,0,0,0,0,0,0,0,0,0,1291,1549,1550,1550,1550,1550,1550,1550,1551,1292,0,0,0,
1282,0,0,0,0,0,0,0,0,0,0,0,0,0,1642,1643,1643,1643,1643,1643,1644,0,0,0,0,0,0,0,0,0,0,1291,1549,1550,1550,1550,1550,1550,1550,1551,1292,0,0,0,
1290,0,0,0,0,0,0,0,0,0,0,0,0,0,0,0,0,0,0,0,0,0,0,0,0,0,0,0,0,0,0,0,1549,1550,1550,1550,1550,1550,1550,1551,0,0,0,0,
0,1355,0,0,0,1382,0,0,0,0,0,0,0,0,0,0,0,0,0,0,0,0,0,0,0,0,0,0,0,0,0,1291,1549,1550,1550,1550,1550,1550,1550,1551,1292,0,0,0,
0,1363,2957,0,0,1390,0,0,0,0,0,0,0,0,0,0,0,0,0,0,0,0,0,0,0,0,0,0,0,0,0,1291,1549,1550,1550,1550,1550,1550,1550,1551,1292,0,0,0,
0,0,0,0,0,1398,0,0,0,0,0,0,0,0,0,0,0,0,0,0,0,0,0,0,0,0,0,0,0,0,0,0,1533,1534,1534,1534,1534,1534,1534,1535,0,0,0,0,
0,0,0,0,0,0,0,0,0,0,0,0,0,0,0,0,0,0,0,0,0,0,0,0,0,0,0,0,0,0,0,0,0,0,0,0,0,0,0,0,0,0,0,1355,
0,0,1382,0,0,1382,0,0,0,0,0,0,0,0,0,0,0,0,0,0,0,0,0,0,0,0,0,0,0,0,0,0,0,0,0,0,0,0,0,0,0,0,2957,1363,
0,0,1390,0,0,1390,0,0,0,0,0,0,0,0,0,0,1382,0,0,0,1382,0,0,0,0,0,0,0,0,0,0,0,0,0,0,0,0,0,0,0,0,0,0,0,
0,0,1398,0,0,1398,0,0,0,0,0,0,0,0,0,0,1390,0,0,0,1390,0,0,0,0,0,0,0,0,0,0,0,0,0,0,0,0,0,0,0,0,0,0,0,
0,0,0,0,0,0,0,0,0,0,0,0,0,0,0,0,1398,0,0,0,1398,0,0,0,0,0,0,0,0,1382,0,0,0,1382,0,0,0,1382,0,0,0,1382,0,0,
0,0,0,0,0,0,0,0,0,0,0,0,0,0,0,0,1382,0,0,0,1382,0,0,0,0,0,0,0,0,1390,0,0,0,1390,0,0,0,1390,0,0,0,1390,0,2957,
0,0,0,0,0,0,0,0,0,0,0,0,0,0,0,0,1390,0,0,0,1390,0,0,0,0,0,0,0,0,1398,0,0,0,1398,0,0,0,1398,0,0,0,1398,0,0,
0,0,0,0,0,0,0,0,0,0,0,0,0,0,0,0,1398,0,0,0,1398,0,0,0,0,0,0,0,0,0,0,0,0,0,0,0,0,0,0,0,0,0,0,0
</data>
 </layer>
 <layer id="4" name="sopra_testa" width="44" height="44">
  <data encoding="csv">
0,0,0,0,0,0,0,0,0,0,0,0,0,0,0,0,0,0,0,0,0,0,0,0,0,0,0,0,0,0,0,0,0,0,0,0,0,0,0,0,0,0,0,0,
0,0,0,0,0,0,0,0,0,0,0,0,0,0,0,0,0,0,0,0,0,0,0,0,0,0,0,0,0,0,0,0,0,0,0,0,0,0,0,0,0,0,0,0,
0,0,0,0,0,0,0,0,0,0,0,0,0,0,0,0,0,0,0,0,0,0,0,0,0,0,0,0,0,0,0,0,0,0,0,0,0,0,0,0,0,0,0,0,
0,0,0,0,0,0,0,0,0,0,0,0,0,0,0,0,0,0,0,0,0,0,0,0,0,0,0,0,0,0,0,0,0,0,0,0,0,0,0,0,0,0,0,0,
0,0,0,0,0,0,0,0,0,0,0,0,0,0,0,0,0,0,0,0,0,0,0,0,0,0,0,0,0,0,0,0,0,0,0,0,0,0,0,0,0,0,0,0,
0,0,0,0,0,0,0,0,0,0,0,0,0,0,0,0,0,0,0,0,0,0,1537,1539,0,0,0,0,0,0,0,0,0,0,0,0,0,0,0,0,0,0,0,0,
0,0,0,0,0,0,0,0,0,0,0,0,0,0,0,0,0,0,0,0,0,0,1545,1547,0,0,0,0,0,0,0,0,0,0,0,0,0,0,0,0,0,0,0,0,
0,0,0,0,0,0,0,0,0,0,0,0,0,0,0,0,0,0,0,0,0,0,1565,1566,0,0,0,0,0,0,0,0,0,0,0,0,0,0,0,0,0,0,0,0,
0,0,0,0,0,0,0,0,0,0,0,0,0,0,0,0,0,0,0,0,0,0,1291,0,0,0,0,0,0,0,0,0,0,0,0,0,0,0,0,0,0,0,0,0,
0,0,0,0,0,0,0,0,0,0,0,0,0,0,0,0,0,0,0,0,0,0,0,0,0,0,0,0,0,0,0,0,0,0,0,0,0,0,0,0,0,0,0,0,
0,0,0,0,0,0,0,0,0,0,0,0,0,0,0,0,0,0,0,0,0,0,0,0,0,0,0,0,0,0,0,0,0,0,0,0,0,0,0,0,0,0,0,0,
0,0,0,0,0,0,0,0,0,0,0,0,0,0,0,0,0,0,0,0,0,0,0,0,0,0,0,0,0,0,0,0,0,0,0,0,0,0,0,0,0,0,0,0,
0,0,0,0,0,0,0,0,0,0,0,0,0,0,0,0,0,0,0,0,0,0,0,0,0,0,0,0,0,0,0,0,0,0,0,0,0,0,0,0,0,0,0,0,
0,0,0,0,0,0,0,0,0,0,0,0,0,0,0,0,0,0,0,0,0,0,0,0,0,0,0,0,0,0,0,0,0,0,0,0,0,0,0,0,0,0,0,0,
0,0,0,0,0,0,0,0,0,0,0,0,0,0,0,0,0,0,0,0,0,0,0,0,0,0,0,0,0,0,0,0,0,0,0,0,0,0,0,0,0,0,0,0,
0,0,0,0,0,0,0,0,0,0,0,0,0,0,0,0,0,0,0,0,0,0,0,0,0,0,0,0,0,0,0,0,0,0,0,0,0,0,0,0,0,0,0,0,
0,0,0,0,0,0,0,0,0,0,0,0,0,0,0,0,0,0,0,0,0,0,0,0,0,0,0,0,0,0,0,0,0,0,0,0,0,0,0,0,0,0,0,0,
0,0,0,0,0,0,0,0,0,0,0,0,0,0,0,0,0,0,0,0,0,0,0,0,0,0,0,0,0,0,0,0,0,0,0,0,0,0,0,0,0,0,0,0,
0,0,0,0,0,0,0,0,0,0,0,0,0,0,0,0,0,0,0,0,0,0,0,0,0,0,0,0,0,0,0,0,0,0,0,0,0,0,0,0,0,0,0,0,
0,0,0,0,0,0,0,0,0,0,0,0,0,0,0,0,0,0,0,0,0,0,0,0,0,0,0,0,0,0,0,0,0,0,0,0,0,0,0,0,0,0,0,0,
0,0,0,0,0,0,0,0,0,0,0,0,0,0,0,0,0,0,0,0,0,0,0,0,0,0,0,0,0,0,0,0,0,0,0,0,0,0,0,0,0,0,0,0,
0,0,0,0,0,0,0,0,0,0,0,0,0,0,0,0,0,0,0,0,0,0,0,0,0,0,0,0,0,0,0,0,0,0,0,0,0,0,0,0,0,0,0,0,
0,0,0,0,0,0,0,0,0,0,0,0,0,0,0,0,0,0,0,0,0,0,0,0,0,0,0,0,0,0,0,0,0,0,0,0,0,0,0,0,0,0,0,0,
0,0,0,0,0,0,0,0,0,0,0,0,0,0,0,0,0,0,0,0,0,0,0,0,0,0,0,0,0,0,0,0,0,0,0,0,0,0,0,0,0,0,0,0,
0,0,0,0,0,0,0,0,0,0,0,0,0,0,0,0,0,0,0,0,0,0,0,0,0,0,0,0,0,0,0,0,0,0,0,0,0,0,0,0,0,0,0,0,
0,0,0,0,0,0,0,0,0,0,0,0,0,0,0,1384,0,0,0,1384,0,0,0,0,0,0,0,0,0,0,0,0,0,0,0,0,0,0,0,0,0,0,0,0,
0,0,0,0,0,0,0,0,0,0,0,0,0,0,0,1392,0,0,0,1392,0,0,0,0,0,0,0,0,0,0,0,0,0,0,0,0,0,0,0,0,0,0,0,0,
0,0,0,0,0,0,0,0,0,0,0,0,0,0,0,1400,0,0,0,1400,0,0,0,0,0,0,0,0,0,0,0,0,0,0,0,0,0,0,0,0,0,0,0,0,
0,0,0,0,0,0,0,0,0,0,0,0,0,0,1514,1384,0,0,0,1384,0,0,0,0,0,0,0,0,0,0,0,0,0,0,0,0,0,0,0,0,0,0,0,0,
0,0,0,0,0,0,0,0,0,0,0,0,0,0,0,1392,0,0,0,1392,0,0,0,0,0,0,0,0,0,0,0,0,0,0,0,0,0,0,0,0,0,0,0,0,
0,0,0,0,0,0,0,0,0,0,0,0,0,0,0,1400,0,0,0,1400,0,0,0,0,0,0,0,0,0,0,0,0,0,0,0,0,0,0,0,1488,0,0,0,0,
0,0,0,0,0,0,0,0,0,0,0,0,0,0,0,0,0,0,0,0,0,0,0,0,0,0,0,0,0,0,0,0,1513,0,0,0,0,0,0,1514,0,0,0,0,
0,0,0,0,0,0,0,0,0,0,0,0,0,0,0,0,0,0,0,0,0,0,0,0,0,0,0,0,0,0,0,0,0,0,0,0,0,0,0,0,0,0,0,0,
0,0,0,0,0,0,0,0,0,0,0,0,0,0,0,0,0,0,0,0,0,0,0,0,0,0,0,0,0,0,0,0,1488,0,0,0,0,0,0,1488,0,0,0,0,
0,0,0,0,0,0,0,0,0,0,0,0,0,0,0,0,0,0,0,0,0,0,0,0,0,0,0,0,0,0,0,0,1513,0,0,0,0,0,0,1514,0,0,0,0,
0,0,0,0,0,0,0,0,0,0,0,0,0,0,0,0,0,0,0,0,0,0,0,0,0,0,0,0,0,0,0,0,0,0,0,0,0,0,0,0,0,0,0,0,
0,0,0,0,0,0,0,0,0,0,0,0,0,0,0,0,0,0,0,0,0,0,0,0,0,0,0,0,0,0,0,0,0,0,0,0,0,0,0,0,0,0,0,0,
0,0,0,0,0,0,0,0,0,0,0,0,0,0,0,0,0,0,0,0,0,0,0,0,0,0,0,0,0,0,0,0,0,0,0,0,0,0,0,0,0,0,0,0,
0,0,0,0,0,0,0,0,0,0,0,0,0,0,0,0,0,0,0,0,0,0,0,0,0,0,0,0,0,0,0,0,0,0,0,0,0,0,0,0,0,0,0,0,
0,0,0,0,0,0,0,0,0,0,0,0,0,0,0,0,0,0,0,0,0,0,0,0,0,0,0,0,0,0,0,0,0,0,0,0,0,0,0,0,0,0,0,0,
0,0,0,0,0,0,0,0,0,0,0,0,0,0,0,0,0,0,0,0,0,0,0,0,0,0,0,0,0,0,0,0,0,0,0,0,0,0,0,0,0,0,0,0,
0,0,0,0,0,0,0,0,0,0,0,0,0,0,0,0,0,0,0,0,0,0,0,0,0,0,0,0,0,0,0,0,0,0,0,0,0,0,0,0,0,0,0,0,
0,0,0,0,0,0,0,0,0,0,0,0,0,0,0,0,0,0,0,0,0,0,0,0,0,0,0,0,0,0,0,0,0,0,0,0,0,0,0,0,0,0,0,0,
0,0,0,0,0,0,0,0,0,0,0,0,0,0,0,0,0,0,0,0,0,0,0,0,0,0,0,0,0,0,0,0,0,0,0,0,0,0,0,0,0,0,0,0
</data>
 </layer>
 <objectgroup id="5" name="collisioni">
  <object id="1" x="-9" y="-2" width="194" height="184"/>
  <object id="2" x="193" y="1" width="58" height="30"/>
  <object id="3" x="211" y="14" width="82" height="27"/>
  <object id="4" x="242" y="24" width="79" height="34"/>
  <object id="5" x="252" y="0" width="1152" height="59"/>
  <object id="6" x="546" y="6" width="88" height="500"/>
  <object id="7" x="673" y="39" width="56" height="38"/>
  <object id="8" x="896" y="55" width="58" height="15"/>
  <object id="9" x="868" y="164" width="54" height="48"/>
  <object id="10" x="934" y="198" width="117" height="118"/>
  <object id="11" x="1061" y="159" width="54" height="59"/>
  <object id="12" x="869" y="293" width="53" height="52"/>
  <object id="13" x="1059" y="293" width="55" height="52"/>
  <object id="14" x="1388" y="22" width="19" height="99"/>
  <object id="15" x="1383" y="163" width="17" height="60"/>
  <object id="16" x="1383" y="292" width="25" height="52"/>
  <object id="17" x="803" y="434" width="602" height="73"/>
  <object id="21" x="1186" y="103" width="6" height="46"/>
  <object id="22" x="1192" y="143" width="13" height="5"/>
  <object id="23" x="1199" y="105" width="10"/>
  <object id="24" x="1222" y="61" width="4" height="21"/>
  <object id="25" x="1304" y="59" width="2" height="27"/>
  <object id="26" x="1333" y="100" width="11" height="46"/>
  <object id="27" x="1320" y="144" width="14" height="9"/>
  <object id="28" x="1315" y="102" width="20" height="5"/>
  <object id="29" x="1094" y="59" width="15" height="39"/>
  <object id="30" x="775" y="62" width="18" height="40"/>
  <object id="31" x="679" y="99" width="15" height="20"/>
  <object id="32" x="706" y="189" width="60" height="60"/>
  <object id="33" x="708" y="263" width="18" height="16"/>
  <object id="35" x="76" y="203" width="265" height="30"/>
  <object id="36" x="1377" y="1158" width="30" height="51"/>
  <object id="37" x="1030" y="938" width="241" height="196"/>
  <object id="38" x="837" y="1237" width="569" height="68"/>
  <object id="39" x="933" y="1301" width="20" height="47"/>
  <object id="40" x="1061" y="1313" width="15" height="32"/>
  <object id="41" x="678" y="1218" width="52" height="186"/>
  <object id="42" x="644" y="1248" width="24" height="43"/>
  <object id="43" x="650" y="1342" width="9" height="39"/>
  <object id="44" x="525" y="1253" width="11" height="30"/>
  <object id="45" x="518" y="1341" width="19" height="44"/>
  <object id="46" x="-2" y="1140" width="278" height="68"/>
  <object id="47" x="227" y="871" width="51" height="318"/>
  <object id="48" x="228" y="566" width="49" height="189"/>
  <object id="49" x="-4" y="564" width="270" height="68"/>
  <object id="50" x="10" y="665" width="11" height="52"/>
  <object id="51" x="9" y="832" width="17" height="52"/>
  <object id="52" x="7" y="995" width="10" height="50"/>
  <object id="53" x="40" y="1063" width="12" height="36"/>
  <object id="54" x="172" y="1086" width="7" height="35"/>
  <object id="55" x="75" y="828" width="69" height="74"/>
  <object id="56" x="168" y="627" width="56" height="70"/>
  <object id="57" x="64" y="620" width="61" height="28"/>
  <object id="58" x="449" y="1218" width="57" height="184"/>
  <object id="59" x="833" y="723" width="58" height="526"/>
  <object id="60" x="897" y="729" width="185" height="40"/>
  <object id="61" x="1154" y="725" width="247" height="71"/>
  <object id="62" x="1310" y="796" width="60" height="13"/>
  <object id="63" x="895" y="843" width="69" height="11"/>
  <object id="64" x="995" y="966" width="13" height="11"/>
  <object id="65" x="998" y="1002" width="11" height="8"/>
  <object id="66" x="1000" y="1068" width="13" height="7"/>
  <object id="67" x="1000" y="1096" width="8" height="9"/>
  <object id="68" x="1070" y="906" width="5" height="12"/>
  <object id="69" x="1104.5" y="906" width="5" height="12"/>
  <object id="70" x="1169.5" y="908" width="5" height="12"/>
  <object id="71" x="1232.5" y="906" width="5" height="12"/>
  <object id="72" x="1295.5" y="972" width="5" height="12"/>
  <object id="73" x="1298.5" y="1003" width="5" height="12"/>
  <object id="74" x="1296.5" y="1068" width="5" height="12"/>
  <object id="75" x="1295.5" y="1101" width="5" height="12"/>
  <object id="76" x="872.5" y="829.5" width="69" height="11"/>
  <object id="77" x="844.5" y="817.5" width="69" height="11"/>
  <object id="78" x="945.5" y="746" width="132" height="40"/>
  <object id="79" x="926" y="749" width="118" height="26"/>
  <object id="23" x="452" y="758" width="214" height="255"/>
  <object id="22" x="6" y="326" width="459" height="39"/>
  <object id="21" x="74" y="449" width="485" height="37"/>
 </objectgroup>
 <objectgroup id="6" name="eventi">
  <object id="1" name="spawn_entrata_principale" x="597" y="1365">
   <properties>
    <property name="id" value="entrata_principale"/>
    <property name="type" value="spawn"/>
   </properties>
   <point/>
  </object>
  <object id="2" name="warp_uscita" x="593" y="1407">
   <properties>
    <property name="destinazione" value="osservatorio"/>
    <property name="spawn_id" value="da osservatorio_interno"/>
    <property name="type" value="warp"/>
   </properties>
   <point/>
  </object>
  <object id="3" name="scale_su_2f" x="242.333" y="79">
   <properties>
    <property name="destinazione" value="osservatorio_interno_2f"/>
    <property name="spawn_id" value="da_1f"/>
    <property name="type" value="warp"/>
   </properties>
   <point/>
  </object>
  <object id="4" name="spawn_da_2f" x="278" y="85">
   <properties>
    <property name="id" value="da_2f"/>
    <property name="type" value="spawn"/>
   </properties>
   <point/>
  </object>
  <object id="5" name="scale_su_3f" x="928" y="805">
   <properties>
    <property name="destinazione" value="osservatorio_interno_3f"/>
    <property name="spawn_id" value="da_1f_a_3f"/>
    <property name="type" value="warp"/>
   </properties>
   <point/>
  </object>
  <object id="6" name="spawn_da_3f" x="982" y="831">
   <properties>
    <property name="id" value="da_3f_a_1f"/>
    <property name="type" value="spawn"/>
   </properties>
   <point/>
  </object>
  <object id="7" name="receptionist" x="545" y="972">
   <properties>
    <property name="condizione" value="osservatorio_cotral_scoperto"/>
    <property name="direzione" value="sud"/>
    <property name="gate" type="bool" value="true"/>
    <property name="id" value="osservatorio_receptionist"/>
    <property name="noTestBypass" type="bool" value="true"/>
    <property name="type" value="npc"/>
   </properties>
   <point/>
  </object>
  <object id="8" name="ricercatore_ignaro_1f" x="766" y="602">
   <properties>
    <property name="direzione" value="sud"/>
    <property name="id" value="osservatorio_ricercatore_ignaro_1f"/>
    <property name="movimento" value="random"/>
    <property name="raggio" type="int" value="6"/>
    <property name="type" value="npc"/>
   </properties>
   <point/>
  </object>
  <object id="9" name="ricercatore_1f_a" x="490" y="147">
   <properties>
    <property name="condizione" value="osservatorio_cotral_scoperto"/>
    <property name="direzione" value="sud"/>
    <property name="gate" type="bool" value="true"/>
    <property name="id" value="osservatorio_ricercatore_1f_a"/>
    <property name="movimento" value="random"/>
    <property name="noTestBypass" type="bool" value="true"/>
    <property name="raggio" type="int" value="6"/>
    <property name="type" value="npc"/>
   </properties>
   <point/>
  </object>
  <object id="10" name="grunt_1f_a" x="487" y="145">
   <properties>
    <property name="condizione" value="grunt_attivo_cotral_osservatorio_1f_a"/>
    <property name="direzione" value="sud"/>
    <property name="id" value="cotral_osservatorio_1f_a"/>
    <property name="movimento" value="random"/>
    <property name="raggio" type="int" value="6"/>
    <property name="type" value="npc"/>
   </properties>
   <point/>
  </object>
  <object id="11" name="ricercatore_1f_b" x="1024" y="480">
   <properties>
    <property name="condizione" value="osservatorio_cotral_scoperto"/>
    <property name="direzione" value="sud"/>
    <property name="gate" type="bool" value="true"/>
    <property name="id" value="osservatorio_ricercatore_1f_b"/>
    <property name="movimento" value="random"/>
    <property name="noTestBypass" type="bool" value="true"/>
    <property name="raggio" type="int" value="6"/>
    <property name="type" value="npc"/>
   </properties>
   <point/>
  </object>
  <object id="12" name="grunt_1f_b" x="1024" y="480">
   <properties>
    <property name="condizione" value="grunt_attivo_cotral_osservatorio_1f_b"/>
    <property name="direzione" value="sud"/>
    <property name="id" value="cotral_osservatorio_1f_b"/>
    <property name="movimento" value="random"/>
    <property name="raggio" type="int" value="6"/>
    <property name="type" value="npc"/>
   </properties>
   <point/>
  </object>
  <object id="13" name="ricercatore_1f_c" x="409" y="1108">
   <properties>
    <property name="condizione" value="osservatorio_cotral_scoperto"/>
    <property name="direzione" value="sud"/>
    <property name="gate" type="bool" value="true"/>
    <property name="id" value="osservatorio_ricercatore_1f_c"/>
    <property name="movimento" value="random"/>
    <property name="noTestBypass" type="bool" value="true"/>
    <property name="raggio" type="int" value="6"/>
    <property name="type" value="npc"/>
   </properties>
   <point/>
  </object>
  <object id="14" name="grunt_1f_c" x="410" y="1106">
   <properties>
    <property name="condizione" value="grunt_attivo_cotral_osservatorio_1f_c"/>
    <property name="direzione" value="sud"/>
    <property name="id" value="cotral_osservatorio_1f_c"/>
    <property name="movimento" value="random"/>
    <property name="raggio" type="int" value="6"/>
    <property name="type" value="npc"/>
   </properties>
   <point/>
  </object>
  <object id="15" name="porta_1f_chiave" x="224" y="768" width="64" height="96">
   <properties>
    <property name="chiave" value="chiave_segreta_cotral"/>
    <property name="id" value="1f_chiave"/>
    <property name="type" value="porta_scomparsa"/>
   </properties>
  </object>
  <object id="16" name="porta_1f_switch" x="1088" y="736" width="64" height="64">
   <properties>
    <property name="controllata_da_interruttore" type="bool" value="true"/>
    <property name="id" value="1f_switch"/>
    <property name="type" value="porta_scomparsa"/>
   </properties>
  </object>
  <object id="17" name="oggetto_1f_endgame_1" x="69" y="1112">
   <properties>
    <property name="contenuto" value="revitalizzantemax"/>
    <property name="id" value="oggetto_1f_endgame_1"/>
    <property name="quantita" type="int" value="1"/>
    <property name="type" value="oggetto"/>
   </properties>
   <point/>
  </object>
  <object id="18" name="oggetto_1f_endgame_2" x="1357" y="1210">
   <properties>
    <property name="contenuto" value="curatotale"/>
    <property name="id" value="oggetto_1f_endgame_2"/>
    <property name="quantita" type="int" value="1"/>
    <property name="type" value="oggetto"/>
   </properties>
   <point/>
  </object>
  <object id="19" name="oggetto_1f_mid_1" x="1359" y="89">
   <properties>
    <property name="contenuto" value="iperpozione"/>
    <property name="id" value="oggetto_1f_mid_1"/>
    <property name="quantita" type="int" value="1"/>
    <property name="type" value="oggetto"/>
   </properties>
   <point/>
  </object>
  <object id="20" name="oggetto_1f_mid_2" x="1385" y="1338">
   <properties>
    <property name="contenuto" value="superpozione"/>
    <property name="id" value="oggetto_1f_mid_2"/>
    <property name="quantita" type="int" value="1"/>
    <property name="type" value="oggetto"/>
   </properties>
   <point/>
  </object>
 </objectgroup>
</map>
