<?xml version="1.0" encoding="UTF-8"?>
<map version="1.10" tiledversion="1.12.2" orientation="orthogonal" renderorder="right-down" width="44" height="44" tilewidth="32" tileheight="32" infinite="0" nextlayerid="7" nextobjectid="24">
 <tileset firstgid="1" source="../Interior_general_32.tsj"/>
 <tileset firstgid="2009" source="../outside.tsx"/>
 <layer id="1" name="ground" width="44" height="44">
  <data encoding="csv">
281,281,281,281,281,281,281,281,281,281,281,281,281,281,281,281,281,281,281,281,281,281,281,281,281,281,281,281,281,281,281,281,281,281,281,281,281,281,281,281,281,281,281,281,
281,281,281,281,281,281,281,281,281,281,281,281,281,281,281,281,281,281,281,281,281,281,281,281,281,281,281,281,281,281,281,281,281,281,281,281,281,281,281,281,281,281,281,281,
290,290,290,290,290,290,290,290,290,290,290,290,290,290,290,290,290,290,290,290,290,290,281,281,281,290,290,290,290,290,290,290,290,290,290,290,290,290,290,290,290,290,290,290,
290,281,281,290,281,290,281,281,281,281,281,281,281,281,281,281,281,281,281,281,290,281,281,281,281,290,281,281,281,281,281,281,281,281,281,281,281,281,281,281,281,281,281,281,
290,281,281,290,281,290,281,281,281,281,281,281,281,281,281,281,281,281,281,281,290,281,281,281,281,290,281,281,281,281,281,281,281,281,281,281,281,281,281,281,281,281,281,281,
290,281,281,290,281,281,281,290,290,290,281,281,281,281,281,281,281,281,281,281,281,281,281,281,281,290,281,281,281,281,281,281,281,281,281,281,281,281,281,281,281,281,281,281,
290,281,281,290,281,281,281,290,290,290,281,281,281,281,281,281,281,281,281,281,281,281,281,281,281,290,281,281,281,281,281,281,281,281,281,281,281,281,281,281,281,281,281,281,
290,281,281,281,281,281,281,281,281,281,281,281,281,281,281,281,281,281,281,281,281,281,281,281,281,290,281,281,281,281,281,281,281,281,281,281,281,281,281,281,281,281,281,281,
290,281,281,290,281,281,281,281,281,281,281,281,281,281,290,281,281,281,290,290,290,281,281,281,281,290,281,281,281,281,281,281,281,281,281,281,281,281,281,281,281,281,281,281,
290,281,281,290,281,281,281,281,281,281,281,281,281,281,290,281,281,281,290,290,290,281,281,281,281,290,281,281,281,281,281,281,281,281,281,281,281,281,281,281,281,281,281,281,
290,281,281,281,290,281,281,281,281,281,281,281,281,281,290,281,281,281,281,281,281,281,281,281,281,290,281,281,281,281,281,281,281,281,281,281,281,281,281,281,281,281,281,281,
290,281,281,281,290,281,281,281,281,281,281,281,281,281,290,281,281,281,281,281,281,281,281,281,281,290,281,281,281,281,281,281,281,281,281,281,281,281,281,281,281,281,281,281,
290,281,281,281,281,281,281,281,281,281,281,281,281,281,290,281,281,281,281,281,281,281,281,281,281,290,281,281,281,281,281,281,281,281,281,281,281,281,281,281,281,281,281,281,
290,281,281,281,281,281,281,290,290,290,290,290,290,290,290,281,281,281,281,281,281,281,281,281,281,290,281,281,281,281,281,281,281,281,281,281,281,281,281,281,281,281,290,281,
290,281,281,281,281,281,281,281,281,281,281,281,281,281,281,281,281,281,281,281,281,281,281,281,281,290,281,281,281,281,281,281,281,281,281,281,281,281,281,281,281,281,281,281,
290,281,281,281,281,281,281,281,281,281,281,281,281,281,281,281,281,281,281,281,281,281,281,281,281,290,281,281,281,281,281,281,281,281,281,281,281,281,281,281,281,281,281,281,
290,281,281,281,281,281,281,281,281,281,281,281,281,281,281,281,281,281,281,281,281,281,281,281,281,290,281,281,281,281,281,290,290,290,290,290,290,290,290,290,290,290,281,281,
290,281,281,281,281,281,290,281,281,281,281,281,290,281,281,281,281,281,281,281,281,281,281,281,281,290,281,281,281,281,281,281,281,281,281,281,281,281,281,281,281,281,281,281,
290,281,281,281,281,281,290,281,281,281,281,281,290,281,281,281,281,281,281,281,281,281,281,281,281,290,281,281,281,281,281,281,281,281,281,281,281,281,281,281,281,281,281,281,
290,281,281,281,281,281,290,281,281,281,281,281,290,281,281,281,281,281,281,281,281,281,281,281,281,290,281,281,281,281,281,281,281,281,281,281,281,281,281,281,281,281,281,281,
281,281,281,281,281,281,281,281,281,281,281,281,281,281,281,281,281,290,281,281,281,281,281,281,281,290,281,281,281,281,281,281,281,281,281,281,281,281,281,281,281,281,281,281,
281,281,281,281,281,281,281,281,281,281,281,281,281,281,281,281,281,290,281,281,281,281,290,290,290,290,281,281,281,281,281,281,281,281,281,281,281,281,281,281,281,281,281,281,
281,281,281,281,281,281,281,281,281,281,281,281,281,281,281,281,281,290,281,281,281,281,281,281,281,281,281,281,281,281,281,281,281,281,281,281,281,281,281,281,281,281,281,281,
281,281,281,281,281,281,281,281,281,281,281,281,281,281,281,281,281,290,281,281,281,281,281,281,281,281,281,281,281,281,281,281,281,281,281,281,281,281,281,281,281,281,281,281,
281,281,281,281,281,281,281,281,281,281,281,281,281,281,281,281,281,290,281,281,281,281,281,281,281,281,281,281,281,281,281,281,281,281,281,281,281,281,281,281,281,281,281,281,
290,290,290,290,290,290,290,290,290,290,290,290,290,290,290,290,290,290,281,281,281,281,281,281,281,281,281,281,281,281,281,281,281,281,281,281,281,281,281,281,281,281,281,281,
290,281,281,281,281,281,281,281,281,281,281,281,281,281,281,281,281,281,281,281,281,281,281,281,281,281,281,281,281,281,281,281,281,281,281,281,281,281,281,281,281,281,281,281,
290,281,281,281,281,281,281,281,281,281,281,281,281,281,281,281,281,281,281,281,281,281,281,281,281,281,281,281,281,281,281,281,281,281,281,281,281,281,281,281,281,281,281,281,
290,281,281,281,281,281,281,281,281,281,281,281,281,281,281,281,281,281,281,281,281,281,281,281,281,281,281,281,281,281,281,281,281,281,281,281,281,281,281,281,281,281,281,281,
290,281,281,281,281,281,281,281,281,281,281,281,281,281,281,281,281,281,281,281,281,281,281,281,281,281,281,281,281,281,281,281,281,281,281,281,281,281,281,281,281,281,281,281,
290,281,281,281,281,281,281,281,281,281,281,281,281,281,281,281,281,281,281,281,281,281,281,281,281,281,281,281,281,281,281,281,281,281,281,281,281,281,281,281,281,281,281,281,
290,281,281,281,281,281,281,281,281,281,281,281,281,281,281,281,281,281,281,281,281,281,281,281,281,281,281,281,281,281,281,281,281,281,281,281,281,281,281,281,281,281,281,281,
290,281,281,281,281,281,281,281,281,281,281,281,281,290,290,290,290,290,290,281,281,290,281,281,281,281,281,281,281,281,281,281,281,281,281,281,281,281,281,281,281,281,281,281,
290,281,281,281,281,281,281,281,281,281,281,281,281,290,281,281,281,281,281,281,281,281,281,281,281,281,281,281,281,281,281,281,281,281,281,281,281,281,281,281,281,281,281,281,
290,281,281,281,281,281,281,281,281,281,281,281,281,290,281,281,281,281,281,281,281,281,281,281,281,281,281,281,281,281,281,281,281,281,281,281,281,281,281,281,281,281,281,281,
290,281,281,281,281,281,281,281,281,281,281,281,281,290,281,281,281,281,281,281,281,281,281,281,281,281,281,281,281,281,281,281,281,281,281,281,281,281,281,281,281,281,281,281,
290,281,281,281,281,281,281,281,281,281,281,281,281,290,281,281,281,281,281,281,281,281,281,281,281,281,281,281,281,281,281,281,281,281,281,281,281,281,281,281,281,281,281,281,
290,281,281,281,281,281,281,281,281,281,281,281,281,290,281,281,281,281,281,281,281,281,281,281,281,281,281,281,281,281,281,281,281,281,281,281,281,281,281,281,281,281,281,281,
290,281,281,281,281,281,281,281,281,281,281,281,281,290,281,281,281,281,281,281,281,281,281,281,281,281,281,281,281,281,281,281,281,281,281,281,281,281,281,281,281,281,281,281,
290,281,281,281,281,281,281,281,281,281,281,281,281,290,281,281,281,281,281,281,281,281,290,290,290,290,290,290,290,290,290,290,290,290,290,290,290,290,290,290,290,290,290,290,
290,281,281,281,281,281,281,281,281,281,281,281,281,290,281,281,281,281,281,281,281,281,281,281,281,281,281,281,281,281,281,281,281,281,281,281,281,281,281,281,281,281,281,281,
290,281,281,281,281,281,281,281,281,281,281,281,281,290,281,281,281,281,281,281,281,281,281,281,281,281,281,281,281,281,281,281,281,281,281,281,281,281,281,281,281,281,281,281,
290,281,281,281,281,281,281,281,281,281,281,281,281,290,281,281,281,281,281,281,281,281,281,281,281,281,281,281,281,281,281,281,281,281,281,281,281,281,281,281,281,281,281,281,
290,281,281,281,281,281,281,281,281,281,281,281,281,290,281,281,281,281,281,281,281,281,281,281,281,281,281,281,281,281,281,281,281,281,281,281,281,281,281,281,281,281,281,281
</data>
 </layer>
 <layer id="2" name="deco_sotto" width="44" height="44">
  <data encoding="csv">
164,164,164,164,164,164,164,164,164,164,164,164,164,164,164,164,164,164,164,164,164,164,166,159,168,164,164,164,164,164,164,164,164,164,164,164,164,164,164,164,164,164,164,164,
172,172,172,172,172,172,172,172,172,172,172,172,172,172,172,172,172,172,172,172,172,172,166,159,168,172,172,172,172,172,172,172,172,172,172,172,172,172,172,172,172,172,172,172,
0,0,0,0,0,0,0,0,0,0,0,0,0,0,0,0,0,0,0,0,0,0,166,159,168,0,0,0,0,0,0,0,0,0,0,0,0,0,0,0,0,0,0,0,
2957,0,0,0,0,0,0,0,0,0,0,0,0,0,0,0,0,0,0,0,0,0,166,159,168,0,0,0,0,0,0,0,0,0,0,0,0,0,0,0,0,0,0,0,
0,0,0,0,0,0,0,0,0,0,0,0,0,0,0,0,0,0,0,0,0,0,166,159,168,0,0,0,0,0,0,0,0,0,0,0,0,0,0,0,0,0,0,0,
0,0,0,0,0,0,0,0,0,0,0,0,0,0,0,0,0,0,0,0,0,0,166,159,168,0,0,0,0,0,0,0,0,0,0,0,0,0,0,0,0,0,0,0,
0,0,0,0,0,0,0,0,0,0,0,0,0,0,0,0,0,0,0,0,0,0,166,159,168,0,0,0,0,0,0,0,0,0,0,0,0,0,0,0,0,0,0,0,
0,0,0,0,0,150,151,151,151,151,151,151,151,152,0,0,0,0,0,0,0,0,166,159,168,0,0,0,0,0,0,0,0,0,0,0,0,0,0,0,0,0,0,0,
0,0,0,0,0,166,159,159,159,159,159,159,159,168,0,0,0,0,0,0,0,0,166,159,168,0,0,0,0,0,0,0,0,0,0,0,0,0,0,0,0,0,0,0,
0,0,0,0,0,166,159,159,159,159,159,159,159,168,0,0,0,0,0,0,0,0,166,159,168,0,0,0,0,0,0,0,0,0,0,0,0,0,0,0,0,0,0,0,
0,0,0,0,0,166,159,159,159,159,159,159,159,168,0,0,0,0,0,0,0,0,166,159,168,0,0,0,0,0,0,150,151,151,151,151,151,151,151,151,151,152,0,0,
0,0,0,0,0,163,164,164,164,164,164,164,164,165,0,0,0,0,0,0,0,0,166,159,168,0,0,0,0,0,0,166,159,159,159,159,159,159,159,159,159,168,0,0,
0,0,0,0,0,171,172,172,172,172,172,172,172,173,0,0,0,0,0,0,0,0,166,159,168,0,0,0,0,0,0,166,159,159,159,159,159,159,159,159,159,168,0,0,
0,0,0,0,0,0,0,0,0,0,0,0,0,0,0,0,0,0,0,0,0,0,166,159,168,0,0,0,0,0,0,166,159,159,159,159,159,159,159,159,159,168,2957,0,
0,0,0,0,0,0,0,0,0,0,0,0,0,0,0,0,0,0,0,0,0,0,166,159,168,0,0,0,0,0,0,163,164,164,164,164,164,164,164,164,164,165,0,0,
0,0,0,0,0,0,0,0,0,0,0,0,0,0,0,0,0,0,0,0,0,0,166,159,168,0,0,0,0,0,0,171,172,172,172,172,172,172,172,172,172,173,0,0,
0,0,150,151,151,152,0,0,150,151,151,152,0,0,0,0,0,0,0,0,0,0,166,159,168,0,0,0,0,0,0,0,0,0,0,0,0,0,0,0,0,0,0,0,
0,0,166,159,159,168,0,0,166,159,159,168,0,0,0,150,152,0,0,0,0,0,166,159,168,0,0,0,0,0,0,0,0,0,0,0,0,0,0,0,0,0,0,0,
0,0,166,159,159,168,0,0,166,159,159,168,0,0,0,166,168,185,185,185,185,185,166,159,168,0,0,0,0,0,0,0,0,0,0,0,0,0,0,0,0,0,0,0,
0,0,166,159,159,168,0,0,166,159,159,168,0,0,0,166,168,193,193,193,193,193,163,164,165,0,0,0,0,0,0,0,0,0,0,0,0,0,0,0,0,0,0,0,
159,159,159,159,159,159,159,159,159,159,159,159,159,159,159,159,168,0,0,0,0,0,171,172,173,0,0,0,0,0,0,0,0,0,0,0,0,0,0,0,0,0,0,0,
159,159,159,159,159,159,159,159,159,159,159,159,159,159,159,159,168,0,0,0,0,0,0,0,0,0,0,0,0,0,0,0,0,0,0,0,0,0,0,0,0,0,0,0,
159,159,159,159,159,159,159,159,159,159,159,159,159,159,159,159,168,0,0,0,0,0,0,0,0,0,0,0,0,0,0,0,0,0,0,0,0,0,0,0,0,0,0,0,
164,164,164,164,164,164,164,164,164,164,164,164,164,164,164,164,165,0,0,0,0,0,0,0,0,0,0,0,0,0,0,0,0,0,0,0,0,0,0,0,0,0,0,0,
172,172,172,172,172,172,172,172,172,172,172,172,172,172,172,172,173,0,0,0,0,0,0,0,0,0,0,0,0,0,0,0,0,0,0,0,0,0,0,0,0,0,0,0,
0,0,0,0,0,0,0,0,0,0,0,0,0,0,0,0,0,0,0,0,0,0,0,0,0,0,0,0,0,0,0,0,0,0,0,0,0,0,0,0,0,0,0,0,
0,0,0,0,0,0,0,0,0,150,151,151,151,151,151,151,151,151,151,151,151,152,0,0,0,0,0,0,0,0,0,0,0,0,0,0,0,0,0,0,0,0,0,0,
0,0,0,0,0,0,0,0,0,166,159,159,159,159,159,159,159,159,159,159,159,168,0,0,0,0,0,0,0,0,0,0,0,0,0,0,0,0,0,0,0,0,0,0,
0,0,0,0,0,0,0,0,0,166,159,159,159,159,159,159,159,159,159,159,159,168,0,0,0,0,0,0,0,0,0,0,0,0,0,0,0,0,0,0,0,0,0,0,
0,0,0,0,0,0,0,0,0,166,159,159,159,159,159,159,159,159,159,159,159,168,0,0,0,0,0,0,0,0,0,0,0,0,0,0,0,0,0,0,0,0,0,0,
0,0,0,0,0,0,0,0,0,166,159,159,160,164,164,164,164,164,164,164,164,165,0,0,0,0,0,0,0,0,0,0,0,0,0,0,0,0,0,0,0,0,0,0,
0,0,0,0,0,0,0,0,0,166,159,159,168,172,172,172,172,172,172,172,172,173,0,0,0,0,0,0,0,0,0,0,0,0,0,0,0,0,0,0,0,0,0,0,
0,0,0,0,0,0,0,0,0,166,159,159,168,0,0,0,0,0,0,932,933,787,0,0,0,0,0,0,0,0,0,0,0,0,0,0,0,0,0,0,0,0,0,0,
0,0,0,0,0,0,0,0,0,166,159,159,168,0,0,0,0,0,0,940,941,803,0,0,0,0,0,0,0,0,0,0,0,0,0,0,0,0,0,0,0,0,0,0,
0,0,0,0,0,0,0,0,0,166,159,159,168,0,0,0,0,0,0,0,0,0,0,151,151,151,151,151,151,151,151,151,151,151,151,151,151,151,151,151,151,151,151,151,
0,0,0,0,0,0,0,0,0,166,159,159,168,0,0,0,0,0,0,0,0,0,0,159,159,159,159,159,159,159,159,159,159,159,159,159,159,159,159,159,159,159,159,159,
0,0,0,0,0,0,0,0,0,166,159,159,168,0,0,0,0,0,0,0,0,0,0,159,159,159,159,159,159,159,159,159,159,159,159,159,159,159,159,159,159,159,159,159,
0,0,0,0,0,0,0,0,0,166,159,159,168,0,0,0,0,0,0,0,0,0,163,164,164,164,164,164,164,164,164,164,164,164,164,164,164,164,164,164,164,164,164,164,
0,0,0,0,0,0,0,0,0,166,159,159,168,0,0,0,0,0,0,0,0,0,171,172,172,172,172,172,172,172,172,172,172,172,172,172,172,172,172,172,172,172,172,172,
1259,1260,1261,0,0,0,1259,1260,1261,166,159,159,168,0,0,0,0,0,0,0,0,0,0,0,0,0,0,0,0,0,0,0,0,0,0,0,0,0,0,0,0,2957,0,0,
1267,1268,1269,0,0,0,1267,1268,1269,166,159,159,168,0,0,0,0,0,0,0,0,0,0,0,0,0,0,0,0,0,0,0,0,0,0,0,0,0,0,0,0,0,0,0,
0,0,0,0,0,0,0,0,0,166,159,159,168,0,0,0,0,0,0,0,0,785,786,786,786,786,786,786,786,786,786,786,786,786,786,786,786,786,786,786,786,786,786,787,
0,2957,0,0,0,0,0,0,0,166,159,159,168,0,0,0,0,0,0,0,0,793,794,794,794,794,794,794,794,794,794,794,794,794,794,794,794,794,794,794,794,794,794,795,
0,0,0,0,0,0,0,0,0,166,159,159,168,0,0,0,0,0,0,0,0,801,802,802,802,802,802,802,802,802,802,802,802,802,802,802,802,802,802,802,802,802,802,803
</data>
 </layer>
 <layer id="3" name="edifici" width="44" height="44">
  <data encoding="csv">
1425,1426,0,0,1107,0,0,0,0,0,0,1107,0,0,0,0,0,0,1107,0,0,0,0,0,0,0,1107,0,0,1107,0,0,0,1107,0,0,0,1107,0,0,0,1107,0,0,
1433,1434,1435,0,1115,0,0,0,0,0,0,1115,0,0,0,0,0,0,1115,0,0,1411,0,0,0,0,1115,0,0,1115,0,0,0,1115,0,0,0,1115,0,0,0,1115,0,0,
1441,1442,1443,1428,1429,1430,1431,1431,1431,1431,1431,1431,1431,1431,1431,1431,1431,1431,1447,1429,1448,1419,0,0,0,0,0,0,0,0,0,0,0,0,0,0,0,0,0,0,0,0,0,0,
0,0,1355,1436,1437,1438,1439,1439,1439,1439,1439,1439,1439,1439,1439,1439,1439,1439,1455,1437,1456,0,0,0,0,0,0,1305,0,0,0,0,1305,0,0,0,0,1305,0,0,0,1305,0,0,
0,0,1355,1444,1445,1446,0,1521,1522,1523,0,0,0,0,0,0,0,0,1444,1445,1446,0,0,0,0,0,0,1313,0,0,0,0,1313,0,0,0,0,1313,0,0,0,1313,0,0,
0,1425,1363,0,0,0,0,1529,1530,1531,0,0,0,0,0,0,0,0,0,0,0,0,0,0,0,0,0,1321,0,1316,0,0,1321,0,0,0,0,1321,0,1317,0,1321,0,0,
0,1433,1434,1435,0,0,0,0,0,0,0,0,0,0,0,0,0,0,0,0,0,0,0,0,0,0,0,0,0,1324,0,0,0,0,0,0,0,0,0,1325,0,0,0,0,
0,1441,1442,1443,0,0,0,0,0,0,0,0,0,0,0,0,0,0,1521,1522,1523,0,0,0,0,0,0,0,0,0,0,0,0,0,0,0,0,0,0,0,0,0,0,0,
0,0,1355,0,1355,0,0,0,0,0,0,0,0,0,0,0,0,0,1529,1530,1531,0,0,0,0,0,0,0,0,0,0,0,0,0,0,0,0,0,0,0,0,0,0,0,
0,0,1363,0,1363,0,0,0,0,0,0,0,0,0,0,0,0,0,0,0,0,0,0,0,0,0,0,0,0,0,0,0,0,0,0,0,0,0,0,0,0,0,0,0,
1355,0,0,1355,0,0,0,0,0,0,0,0,0,0,0,0,0,0,0,0,0,0,0,0,0,0,0,0,0,0,0,0,0,0,0,0,0,0,0,0,0,0,0,0,
1363,1355,0,1363,0,0,0,1092,0,0,1092,0,1079,0,0,0,0,0,0,0,0,0,0,0,0,0,0,0,0,0,0,0,0,0,0,0,0,0,0,0,0,0,1355,0,
0,1363,0,0,0,1401,1402,1100,0,0,1100,0,1087,0,0,0,0,0,0,0,0,0,0,0,0,0,0,0,0,0,0,0,0,0,0,0,0,0,0,0,0,0,1363,0,
0,0,0,0,0,1409,1410,0,0,0,0,0,0,0,0,0,0,0,0,0,0,0,0,0,0,0,0,0,0,0,0,0,0,0,0,0,0,0,0,0,0,0,0,0,
0,0,0,0,0,1417,1418,0,0,0,0,0,0,0,0,0,0,0,0,0,0,0,0,0,0,0,0,0,0,0,0,0,0,1124,1125,0,1382,0,1124,1125,0,0,1355,1355,
0,0,0,0,0,0,0,0,0,0,0,0,0,0,0,0,0,0,0,0,0,0,0,0,0,0,0,0,0,0,0,0,0,1132,1133,0,1390,0,1132,1133,0,0,1363,1363,
0,0,0,0,0,0,0,0,0,0,0,0,0,0,0,0,0,0,0,0,0,0,0,0,0,0,0,0,0,0,0,0,0,1140,1141,0,1398,0,1140,1141,0,0,0,0,
0,0,0,0,0,0,0,0,0,0,0,0,0,0,0,0,0,0,0,0,0,0,0,0,0,0,0,0,0,0,0,0,0,0,0,0,0,0,0,0,0,0,0,0,
0,0,0,0,0,0,0,0,0,0,0,0,0,0,0,0,0,0,0,0,0,0,0,0,0,0,0,0,0,0,0,0,0,0,0,0,0,1717,1718,1719,0,0,0,0,
0,0,0,0,0,0,0,0,0,0,0,0,0,0,0,0,0,0,0,0,0,0,0,0,0,0,0,0,0,0,0,0,0,0,0,0,1291,1725,1726,1727,1295,0,0,0,
0,0,0,0,0,0,0,0,0,0,0,0,0,0,0,0,0,0,0,0,0,0,0,0,0,0,0,0,0,0,0,0,0,0,0,0,1294,1733,1734,1735,1303,0,0,0,
0,0,0,0,0,0,0,0,0,0,0,0,0,0,0,0,0,0,0,0,0,0,0,0,0,0,0,0,0,0,0,0,0,0,0,0,1302,1741,1742,1743,0,0,0,0,
0,0,0,0,0,0,0,0,0,0,0,0,0,0,0,0,0,0,0,0,0,0,0,0,0,0,0,0,0,0,1304,1687,1688,1296,0,0,0,0,0,0,0,0,0,0,
0,0,1124,1125,0,0,0,0,0,0,0,0,0,0,0,0,0,0,0,0,0,0,0,0,0,0,0,0,0,0,1296,1695,1696,1304,0,0,0,0,0,0,0,0,0,0,
0,0,1132,1133,0,0,0,0,0,0,0,161,162,0,0,0,0,0,0,0,0,0,0,0,0,0,0,0,0,0,0,0,0,0,0,0,0,0,0,0,0,0,0,0,
0,0,1140,1141,0,0,0,0,0,0,0,169,170,0,0,0,0,0,0,0,0,0,0,0,0,0,0,0,0,0,0,0,0,0,0,0,0,0,0,0,0,0,0,0,
0,0,0,0,0,0,0,0,0,0,0,177,178,0,0,0,0,0,0,0,0,0,0,0,0,0,0,0,0,0,0,0,0,0,0,0,0,1304,1687,1688,1296,0,0,0,
0,0,0,785,786,787,0,0,0,0,0,0,0,0,0,0,0,0,0,0,0,0,0,0,0,0,0,0,0,0,0,0,0,0,0,0,0,1296,1695,1696,1304,0,0,0,
0,0,0,793,794,795,0,0,0,0,0,0,0,0,0,0,0,0,0,0,0,0,0,0,0,0,0,0,0,0,0,0,0,0,0,0,0,0,0,0,0,0,0,0,
0,0,0,793,794,795,0,0,0,0,0,0,0,0,0,0,0,0,0,0,0,0,0,0,0,0,0,0,0,1296,1687,1688,1304,0,0,0,0,0,0,0,0,0,0,0,
0,0,0,793,794,795,0,0,0,0,0,0,0,0,0,0,0,0,0,0,0,0,0,0,0,0,0,0,0,1304,1695,1696,1296,0,0,0,0,0,0,0,0,0,0,0,
1717,1718,1719,793,794,795,0,0,0,0,0,0,0,0,1382,0,0,1382,0,0,0,0,0,0,0,0,0,0,0,0,0,0,0,0,0,0,0,0,0,0,0,0,0,0,
1725,1726,1727,793,794,795,0,0,0,0,0,0,0,0,1390,0,0,1390,0,0,0,0,0,0,0,0,0,0,0,0,0,0,0,0,0,0,0,0,0,0,0,0,0,0,
1733,1734,1735,793,794,795,0,0,0,0,0,0,0,0,1398,0,0,1398,0,0,0,0,0,0,0,0,0,0,0,0,0,0,0,0,0,0,0,0,0,0,0,0,0,0,
1741,1742,1743,793,794,795,0,0,0,0,0,0,0,0,0,0,0,0,0,0,0,0,150,151,151,151,151,151,151,151,151,151,151,151,151,151,151,151,151,151,151,151,151,151,
0,0,0,793,794,795,0,0,0,0,0,0,0,0,0,0,0,0,0,0,0,0,166,0,0,0,0,0,0,0,0,0,0,0,0,0,0,0,0,0,0,0,0,0,
0,0,0,793,794,795,0,0,0,0,0,0,0,0,0,0,0,0,0,0,0,0,166,0,0,0,0,0,0,0,0,0,0,0,0,0,0,0,0,0,0,0,0,0,
0,0,0,793,794,795,0,0,0,0,0,0,0,0,0,0,0,0,0,0,0,0,0,0,0,0,0,0,1079,0,0,0,0,0,0,0,0,0,0,1079,0,0,0,0,
0,0,0,793,794,795,0,0,0,0,0,0,0,0,0,0,0,0,0,0,0,0,0,0,1382,0,0,0,1087,0,0,0,0,1382,0,0,0,0,0,1087,0,0,1382,0,
0,0,0,793,794,795,0,0,0,0,0,0,0,0,0,0,0,0,0,0,0,0,0,0,1390,0,0,0,0,0,0,0,0,1390,0,0,0,0,0,0,0,0,1390,0,
0,0,0,793,794,795,0,0,0,0,0,0,0,0,0,0,0,0,0,0,0,0,0,0,1398,0,0,0,0,0,0,0,0,1398,0,0,0,0,0,0,0,0,1398,0,
0,0,0,793,794,795,0,0,0,0,0,0,0,0,0,0,0,0,0,0,0,0,0,0,0,0,0,0,0,0,0,0,0,0,0,0,0,0,0,0,0,0,0,0,
0,0,0,801,802,803,0,0,0,0,0,0,0,0,0,0,0,0,0,0,0,0,0,0,0,0,0,0,0,0,0,0,0,0,0,0,0,0,0,0,0,0,0,0,
0,0,0,0,0,0,0,0,0,0,0,0,0,0,0,0,0,0,0,0,0,0,0,0,0,0,0,0,0,0,0,0,0,0,0,0,0,0,0,0,0,0,0,0
</data>
 </layer>
 <layer id="4" name="sopra_testa" width="44" height="44">
  <data encoding="csv">
0,0,0,0,0,0,0,0,0,0,0,0,0,0,0,0,0,0,0,0,0,0,0,0,0,0,0,0,0,0,0,0,0,0,0,0,0,0,0,0,0,0,0,0,
0,0,0,0,0,0,0,0,0,0,0,0,0,0,0,0,0,0,0,0,0,0,0,0,0,0,0,0,0,0,0,0,0,0,0,0,0,0,0,0,0,0,0,0,
0,0,0,0,0,0,0,0,0,0,0,0,0,0,0,0,0,0,0,0,0,0,0,0,0,0,0,0,0,0,0,0,0,0,0,0,0,0,0,0,0,0,0,0,
0,0,0,0,0,0,0,0,0,1458,0,0,0,0,0,0,0,0,0,0,0,0,0,0,0,0,0,0,0,0,0,0,0,0,0,0,0,0,0,0,0,0,0,0,
0,0,0,0,0,0,0,0,1465,1466,0,0,0,0,0,0,0,0,0,0,0,0,0,0,0,0,0,0,0,0,0,0,0,0,0,0,0,0,0,0,0,0,0,0,
0,0,0,0,0,0,0,1565,0,0,0,0,0,0,0,0,0,0,0,0,0,0,0,0,0,0,0,0,0,0,0,0,0,0,0,0,0,0,0,0,0,0,0,0,
0,0,0,0,0,0,0,0,0,0,0,0,0,0,0,0,0,0,0,1458,0,0,0,0,0,0,0,0,0,0,0,0,0,0,0,0,0,0,0,0,0,0,0,0,
0,0,0,0,0,0,0,0,0,0,0,0,0,0,0,0,0,0,1465,1466,0,0,0,0,0,0,0,0,0,0,0,0,0,0,0,0,0,0,0,0,0,0,0,0,
0,0,0,0,0,0,0,0,0,0,0,0,0,0,0,0,0,0,1565,0,0,0,0,0,0,0,0,0,0,0,0,0,0,0,0,0,0,0,0,0,0,0,0,0,
0,0,0,0,0,0,0,0,0,0,0,0,0,0,0,0,0,0,0,0,0,0,0,0,0,0,0,0,0,0,0,0,0,0,0,0,0,0,0,0,0,0,0,0,
0,0,0,0,0,0,0,0,0,0,0,0,0,0,0,0,0,0,0,0,0,0,0,0,0,0,0,0,0,0,0,0,0,0,0,0,0,0,0,0,0,0,0,0,
0,0,0,0,0,0,0,0,0,0,0,0,0,0,0,0,0,0,0,0,0,0,0,0,0,0,0,0,0,0,0,0,0,0,0,0,0,0,0,0,0,0,0,0,
0,0,0,0,0,0,0,0,0,0,0,0,0,0,0,0,0,0,0,0,0,0,0,0,0,0,0,0,0,0,0,0,0,0,0,0,0,0,0,0,0,0,0,0,
0,0,0,0,0,0,0,0,0,0,0,0,0,0,0,0,0,0,0,0,0,0,0,0,0,0,0,0,0,0,0,0,0,0,0,0,0,0,0,0,0,0,0,0,
0,0,0,0,0,0,0,0,0,0,0,0,0,0,0,0,0,0,0,0,0,0,0,0,0,0,0,0,0,0,0,0,0,0,0,0,0,0,0,0,0,0,0,0,
0,0,0,0,0,0,0,0,0,0,0,0,0,0,0,0,0,0,0,0,0,0,0,0,0,0,0,0,0,0,0,0,0,0,0,0,0,0,0,0,0,0,0,0,
0,0,0,0,0,0,0,0,0,0,0,0,0,0,0,0,0,0,0,0,0,0,0,0,0,0,0,0,0,0,0,0,0,0,0,0,0,0,0,0,0,0,0,0,
0,0,0,0,0,0,0,0,0,0,0,0,0,0,0,0,0,0,0,0,0,0,0,0,0,0,0,0,0,0,0,0,0,0,0,0,0,0,0,0,0,0,0,0,
0,0,0,0,0,0,0,0,0,0,0,0,0,0,0,0,0,0,0,0,0,0,0,0,0,0,0,0,0,0,0,0,0,0,0,0,0,0,0,0,0,0,0,0,
0,0,0,0,0,0,0,0,0,0,0,0,0,0,0,0,0,0,0,0,0,0,0,0,0,0,0,0,0,0,0,0,0,0,0,0,0,0,0,0,0,0,0,0,
0,0,0,0,0,0,0,0,0,0,0,0,0,0,0,0,0,0,0,0,0,0,0,0,0,0,0,0,0,0,0,0,0,0,0,0,0,0,0,0,0,0,0,0,
0,0,0,0,0,0,0,0,0,0,0,0,0,0,0,0,0,0,0,0,0,0,0,0,0,0,0,0,0,0,0,0,0,0,0,0,0,0,0,0,0,0,0,0,
0,0,0,0,0,0,0,0,0,0,0,0,0,0,0,0,0,0,0,0,0,0,0,0,0,0,0,0,0,0,0,0,0,0,0,0,0,0,0,0,0,0,0,0,
0,0,0,0,0,0,0,0,0,0,0,0,0,0,0,0,0,0,0,0,0,0,0,0,0,0,0,0,0,0,0,0,0,0,0,0,0,0,0,0,0,0,0,0,
0,0,0,0,0,0,0,0,0,0,0,0,0,0,0,0,0,0,0,0,0,0,0,0,0,0,0,0,0,0,0,0,0,0,0,0,0,0,0,0,0,0,0,0,
0,0,0,0,0,0,0,0,0,0,0,0,0,0,0,0,0,0,0,0,0,0,0,0,0,0,0,0,0,0,0,0,0,0,0,0,0,0,0,0,0,0,0,0,
0,0,0,0,0,0,0,0,0,0,0,0,0,0,0,0,0,0,0,0,0,0,0,0,0,0,0,0,0,0,0,0,0,0,0,0,0,0,0,0,0,0,0,0,
0,0,0,0,0,0,0,0,0,0,0,0,0,0,0,0,0,0,0,0,0,0,0,0,0,0,0,0,0,0,0,0,0,0,0,0,0,0,0,0,0,0,0,0,
0,0,0,0,0,0,0,0,0,0,0,0,0,0,0,0,0,0,0,0,0,0,0,0,0,0,0,0,0,0,0,0,0,0,0,0,0,0,0,0,0,0,0,0,
0,0,0,0,0,0,0,0,0,0,0,0,0,0,0,0,0,0,0,0,0,0,0,0,0,0,0,0,0,0,0,0,0,0,0,0,0,0,0,0,0,0,0,0,
0,0,0,0,0,0,0,0,0,0,0,0,0,0,0,0,0,0,0,0,0,0,0,0,0,0,0,0,0,0,0,0,0,0,0,0,0,0,0,0,0,0,0,0,
0,0,0,0,0,0,0,0,0,0,0,0,0,0,0,0,0,0,0,0,0,0,0,0,0,0,0,0,0,0,0,0,0,0,0,0,0,0,0,0,0,0,0,0,
0,0,0,0,0,0,0,0,0,0,0,0,0,0,0,0,0,0,0,0,0,0,0,0,0,0,0,0,0,0,0,0,0,0,0,0,0,0,0,0,0,0,0,0,
0,0,0,0,0,0,0,0,0,0,0,0,0,0,0,0,0,0,0,0,0,0,0,0,0,0,0,0,0,0,0,0,0,0,0,0,0,0,0,0,0,0,0,0,
0,0,0,0,0,0,0,0,0,0,0,0,0,0,0,0,0,0,0,0,0,0,0,0,0,0,0,0,0,0,0,0,0,0,0,0,0,0,0,0,0,0,0,0,
0,0,0,0,0,0,0,0,0,0,0,0,0,0,0,0,0,0,0,0,0,0,0,0,0,0,0,0,0,0,0,0,0,0,0,0,0,0,0,0,0,0,0,0,
0,0,0,0,0,0,0,0,0,0,0,0,0,0,0,0,0,0,0,0,0,0,0,0,0,0,0,0,0,0,0,0,0,0,0,0,0,0,0,0,0,0,0,0,
0,0,0,0,0,0,0,0,0,0,0,0,0,0,0,0,0,0,0,0,0,0,0,0,0,0,0,0,0,0,0,0,0,0,0,0,0,0,0,0,0,0,0,0,
0,0,0,0,0,0,0,0,0,0,0,0,0,0,0,0,0,0,0,0,0,0,0,0,0,0,0,0,0,0,0,0,0,0,0,0,0,0,0,0,0,0,0,0,
0,0,0,0,0,0,0,0,0,0,0,0,0,0,0,0,0,0,0,0,0,0,0,0,0,0,0,0,0,0,0,0,0,0,0,0,0,0,0,0,0,0,0,0,
0,0,0,0,0,0,0,0,0,0,0,0,0,0,0,0,0,0,0,0,0,0,0,0,0,0,0,0,0,0,0,0,0,0,0,0,0,0,0,0,0,0,0,0,
0,0,0,0,0,0,0,0,0,0,0,0,0,0,0,0,0,0,0,0,0,0,0,0,0,0,0,0,0,0,0,0,0,0,0,0,0,0,0,0,0,0,0,0,
0,0,0,0,0,0,0,0,0,0,0,0,0,0,0,0,0,0,0,0,0,0,0,0,0,0,0,0,0,0,0,0,0,0,0,0,0,0,0,0,0,0,0,0,
0,0,0,0,0,0,0,0,0,0,0,0,0,0,0,0,0,0,0,0,0,0,0,0,0,0,0,0,0,0,0,0,0,0,0,0,0,0,0,0,0,0,0,0
</data>
 </layer>
 <objectgroup id="5" name="collisioni">
  <object id="1" x="6" y="4" width="1413" height="48"/>
  <object id="2" x="712" y="8" width="73" height="650"/>
  <object id="3" x="166" y="244" width="270" height="157"/>
  <object id="4" x="171" y="390" width="38" height="79"/>
  <object id="5" x="75" y="101" width="21" height="205"/>
  <object id="6" x="49" y="202" width="32" height="40"/>
  <object id="7" x="8" y="329" width="15" height="29"/>
  <object id="8" x="34" y="362" width="18" height="35"/>
  <object id="9" x="106" y="332" width="3" height="28"/>
  <object id="10" x="142" y="263" width="12" height="29"/>
  <object id="11" x="4" y="662" width="527" height="127"/>
  <object id="12" x="66" y="778" width="58" height="30"/>
  <object id="13" x="295" y="850" width="405" height="166"/>
  <object id="14" x="303" y="1011" width="98" height="389"/>
  <object id="15" x="709" y="1111" width="689" height="123"/>
  <object id="16" x="455" y="1013" width="9" height="52"/>
  <object id="17" x="556" y="1012" width="9" height="58"/>
  <object id="18" x="783" y="1248" width="4" height="39"/>
  <object id="19" x="1071" y="1245" width="4" height="41"/>
  <object id="20" x="1356" y="1248" width="12" height="44"/>
  <object id="21" x="1006" y="715" width="35" height="35"/>
  <object id="22" x="971" y="941" width="34" height="33"/>
  <object id="23" x="1232" y="850" width="43" height="29"/>
  <object id="24" x="997" y="346" width="341" height="156"/>
  <object id="25" x="1059" y="496" width="62" height="21"/>
  <object id="26" x="1224" y="493" width="47" height="24"/>
  <object id="27" x="1347" y="459" width="58" height="43"/>
  <object id="28" x="1349" y="350" width="20" height="51"/>
  <object id="29" x="1325" y="122" width="8" height="51"/>
  <object id="30" x="1191" y="124" width="14" height="51"/>
  <object id="31" x="1032" y="125" width="16" height="50"/>
  <object id="32" x="878" y="129" width="14" height="48"/>
  <object id="33" x="938" y="173" width="13" height="25"/>
  <object id="34" x="1256" y="174" width="15" height="38"/>
  <object id="35" x="938" y="172" width="16" height="42"/>
  <object id="36" x="118" y="66" width="51" height="82"/>
  <object id="37" x="234" y="144" width="81" height="41"/>
  <object id="38" x="581" y="237" width="84" height="40"/>
  <object id="39" x="192" y="83" width="397" height="12"/>
  <object id="40" x="592" y="82" width="57" height="63"/>
  <object id="41" x="675" y="34" width="28" height="42"/>
  <object id="42" x="609" y="1022" width="1" height="56"/>
  <object id="43" x="613" y="1075" width="57" height="3"/>
  <object id="44" x="12" y="1017" width="75" height="86"/>
  <object id="45" x="0" y="1275" width="90" height="27"/>
  <object id="46" x="198" y="1272" width="86" height="29"/>
  <object id="47" x="1192" y="607" width="81" height="75"/>
  <object id="48" x="1294" y="619" width="8" height="36"/>
  <object id="49" x="1160" y="617" width="17" height="79"/>
  <object id="50" x="1165" y="490" width="11" height="26"/>
  <object id="51" x="3" y="48" width="72" height="37"/>
  <object id="52" x="54" y="197" width="7" height="55"/>
  <object id="53" x="38" y="208" width="24" height="37"/>
  <object id="54" x="51" y="185" width="12" height="25"/>
  <object id="16" x="603" y="1001" width="8" height="73"/>
 </objectgroup>
 <objectgroup id="6" name="eventi">
  <object id="2" name="spawn_da_1f" x="689.5" y="1049">
   <properties>
    <property name="id" value="da_1f"/>
    <property name="type" value="spawn"/>
   </properties>
   <point/>
  </object>
  <object id="3" name="statua_mewtwo_interruttore" x="945" y="201">
   <properties>
    <property name="id" value="statua_mewtwo_2f"/>
    <property name="type" value="statua_interruttore"/>
   </properties>
   <point/>
  </object>
  <object id="4" name="ricercatore_ignaro_2f" x="533" y="1283">
   <properties>
    <property name="direzione" value="sud"/>
    <property name="id" value="osservatorio_ricercatore_ignaro_2f"/>
    <property name="movimento" value="random"/>
    <property name="raggio" type="int" value="6"/>
    <property name="type" value="npc"/>
   </properties>
   <point/>
  </object>
  <object id="5" name="ricercatore_2f_a" x="1308" y="795">
   <properties>
    <property name="condizione" value="osservatorio_cotral_scoperto"/>
    <property name="direzione" value="sud"/>
    <property name="gate" type="bool" value="true"/>
    <property name="id" value="osservatorio_ricercatore_2f_a"/>
    <property name="movimento" value="random"/>
    <property name="noTestBypass" type="bool" value="true"/>
    <property name="raggio" type="int" value="6"/>
    <property name="type" value="npc"/>
   </properties>
   <point/>
  </object>
  <object id="6" name="grunt_2f_a" x="1308" y="796">
   <properties>
    <property name="condizione" value="grunt_attivo_cotral_osservatorio_2f_a"/>
    <property name="direzione" value="sud"/>
    <property name="id" value="cotral_osservatorio_2f_a"/>
    <property name="movimento" value="random"/>
    <property name="raggio" type="int" value="6"/>
    <property name="type" value="npc"/>
   </properties>
   <point/>
  </object>
  <object id="7" name="ricercatore_2f_b" x="800" y="960">
   <properties>
    <property name="condizione" value="osservatorio_cotral_scoperto"/>
    <property name="direzione" value="sud"/>
    <property name="gate" type="bool" value="true"/>
    <property name="id" value="osservatorio_ricercatore_2f_b"/>
    <property name="movimento" value="random"/>
    <property name="noTestBypass" type="bool" value="true"/>
    <property name="raggio" type="int" value="6"/>
    <property name="type" value="npc"/>
   </properties>
   <point/>
  </object>
  <object id="8" name="grunt_2f_b" x="800" y="960">
   <properties>
    <property name="condizione" value="grunt_attivo_cotral_osservatorio_2f_b"/>
    <property name="direzione" value="sud"/>
    <property name="id" value="cotral_osservatorio_2f_b"/>
    <property name="movimento" value="random"/>
    <property name="raggio" type="int" value="6"/>
    <property name="type" value="npc"/>
   </properties>
   <point/>
  </object>
  <object id="9" name="porta_2f_chiave_a" x="352" y="768" width="64" height="96">
   <properties>
    <property name="chiave" value="chiave_segreta_cotral"/>
    <property name="id" value="2f_chiave_a"/>
    <property name="type" value="porta_scomparsa"/>
   </properties>
  </object>
  <object id="10" name="porta_2f_chiave_b" x="544" y="576" width="160" height="64">
   <properties>
    <property name="chiave" value="chiave_segreta_cotral"/>
    <property name="id" value="2f_chiave_b"/>
    <property name="type" value="porta_scomparsa"/>
   </properties>
  </object>
  <object id="11" name="boss_cotral_2f" x="512" y="224">
   <properties>
    <property name="condizione" value="osservatorio_boss_area_attiva"/>
    <property name="direzione" value="nord"/>
    <property name="id" value="cotral_boss_osservatorio"/>
    <property name="type" value="npc"/>
   </properties>
   <point/>
  </object>
  <object id="12" name="oggetto_2f_endgame_1" x="46" y="1362">
   <properties>
    <property name="contenuto" value="elisir"/>
    <property name="id" value="oggetto_2f_endgame_1"/>
    <property name="quantita" type="int" value="1"/>
    <property name="type" value="oggetto"/>
   </properties>
   <point/>
  </object>
  <object id="13" name="oggetto_2f_endgame_2" x="9" y="119">
   <properties>
    <property name="contenuto" value="ultraball"/>
    <property name="id" value="oggetto_2f_endgame_2"/>
    <property name="quantita" type="int" value="1"/>
    <property name="type" value="oggetto"/>
   </properties>
   <point/>
  </object>
  <object id="14" name="oggetto_2f_mid_1" x="1362" y="439">
   <properties>
    <property name="contenuto" value="antidototot"/>
    <property name="id" value="oggetto_2f_mid_1"/>
    <property name="quantita" type="int" value="1"/>
    <property name="type" value="oggetto"/>
   </properties>
   <point/>
  </object>
  <object id="15" name="oggetto_2f_mid_2" x="1328" y="1268">
   <properties>
    <property name="contenuto" value="etere"/>
    <property name="id" value="oggetto_2f_mid_2"/>
    <property name="quantita" type="int" value="1"/>
    <property name="type" value="oggetto"/>
   </properties>
   <point/>
  </object>
  <object id="17" x="619" y="1027.5" width="47.5" height="40.5">
   <properties>
    <property name="destinazione" value="osservatorio_interno"/>
    <property name="spawn_id" value="da_2f"/>
    <property name="type" value="warp"/>
   </properties>
  </object>
  <object id="18" name="trigger_boss_finale_osservatorio" x="458.5" y="398" width="235" height="12.5">
   <properties>
    <property name="type" value="trigger_boss_finale_osservatorio"/>
   </properties>
  </object>
  <object id="19" name="osservatorio_boss_ricercatore_1" x="386.5" y="168.5">
   <properties>
    <property name="condizione" value="osservatorio_boss_area_attiva"/>
    <property name="direzione" value="sud"/>
    <property name="id" value="osservatorio_boss_ricercatore_1"/>
    <property name="type" value="npc"/>
   </properties>
   <point/>
  </object>
  <object id="20" name="osservatorio_boss_ricercatore_2" x="490" y="163.5">
   <properties>
    <property name="condizione" value="osservatorio_boss_area_attiva"/>
    <property name="direzione" value="sud"/>
    <property name="id" value="osservatorio_boss_ricercatore_2"/>
    <property name="type" value="npc"/>
   </properties>
   <point/>
  </object>
  <object id="21" name="osservatorio_boss_grunt_1" x="611" y="191.5">
   <properties>
    <property name="condizione" value="osservatorio_boss_area_attiva"/>
    <property name="direzione" value="sud"/>
    <property name="id" value="osservatorio_boss_grunt_1"/>
    <property name="type" value="npc"/>
   </properties>
   <point/>
  </object>
  <object id="22" name="osservatorio_boss_grunt_2" x="435.5" y="163.5">
   <properties>
    <property name="condizione" value="osservatorio_boss_area_attiva"/>
    <property name="direzione" value="sud"/>
    <property name="id" value="osservatorio_boss_grunt_2"/>
    <property name="type" value="npc"/>
   </properties>
   <point/>
  </object>
  <object id="23" name="osservatorio_boss_ricercatore_3" x="562.5" y="169">
   <properties>
    <property name="condizione" value="osservatorio_boss_area_attiva"/>
    <property name="direzione" value="sud"/>
    <property name="id" value="osservatorio_boss_ricercatore_3"/>
    <property name="type" value="npc"/>
   </properties>
   <point/>
  </object>
 </objectgroup>
</map>
