<?xml version="1.0" encoding="UTF-8"?>
<map version="1.10" tiledversion="1.12.2" orientation="orthogonal" renderorder="right-down" width="90" height="46" tilewidth="32" tileheight="32" infinite="0" nextlayerid="6" nextobjectid="78">
 <tileset firstgid="1" source="../outside.tsx"/>
 <tileset firstgid="4017" source="../../outside.tsx"/>
 <layer id="3" name="ground" width="90" height="46">
  <data encoding="csv">
798,798,809,805,805,805,805,805,805,805,805,805,805,805,805,805,805,805,805,805,805,805,805,805,805,805,805,805,805,805,805,805,805,805,805,805,4821,4821,4821,4821,4821,4821,4821,4821,4821,4821,4821,4821,4821,4821,4821,4821,4821,4821,4821,4821,4821,4821,4821,4821,4821,4821,4821,4821,4821,4821,4821,4821,4821,4821,4821,4821,4821,4821,4821,4821,4821,4821,4821,4821,4821,4821,4821,4821,4821,4821,4821,4821,4821,4821,
798,798,798,809,805,805,805,805,805,805,805,805,805,805,805,805,805,805,805,805,805,805,805,805,805,805,805,805,805,805,805,805,805,805,805,805,4821,4821,4821,4821,4821,4821,4821,4821,4821,4821,4821,4821,4821,4821,4821,4821,4821,4821,4821,4821,4821,4821,4821,4821,4821,4821,4821,4821,4821,4821,4821,4821,4821,4821,4821,4821,4821,4821,4821,4821,4821,4821,4821,4821,4821,4821,4821,4821,4821,4821,4821,4821,4821,4821,
798,798,798,798,809,805,805,805,805,805,805,805,805,805,805,805,805,805,805,805,805,805,805,805,805,805,805,805,805,805,805,805,805,805,805,805,4821,4821,4821,4821,4821,4821,4821,4821,4821,4821,4821,4821,4821,4821,4821,4821,4821,4821,4821,4821,4821,4821,4821,4821,4821,4821,4821,4821,4821,4821,4821,4821,4821,4821,4821,4821,4821,4821,4821,4821,4821,4821,4821,4821,4821,4821,4821,4821,4821,4821,4821,4821,4821,4821,
798,798,798,798,798,809,805,805,805,805,805,805,805,805,805,805,805,805,805,805,805,805,805,805,805,805,805,805,805,805,805,805,805,805,805,805,4821,4821,4821,4821,4821,4821,4821,4821,4821,4821,4821,4821,4821,4821,4821,4821,4821,4821,4821,4821,4821,4821,4821,4821,4821,4821,4821,4821,4821,4821,4821,4821,4821,4821,4821,4821,4821,4821,4821,4821,4821,4821,4821,4821,4821,4821,4821,4821,4821,4821,4821,4821,4821,4821,
798,798,798,798,798,798,809,805,805,805,805,805,805,805,805,805,805,805,805,805,805,805,805,805,805,805,805,805,805,805,805,805,805,805,805,805,4821,4821,4821,4821,4821,4821,4821,4821,4821,4821,4821,4821,4821,4821,4821,4821,4821,4821,4821,4821,4821,4821,4821,4821,4821,4821,4821,4821,4821,4821,4821,4821,4821,4821,4821,4821,4821,4821,4821,4821,4821,4821,4821,4821,4821,4821,4821,4821,4821,4821,4821,4821,4821,4821,
798,798,798,798,798,798,798,809,805,805,805,805,805,805,805,805,805,805,805,805,805,805,805,805,805,805,805,805,805,805,805,805,805,805,805,805,4821,4821,4821,4821,4821,4821,4821,4821,4821,4821,4821,4821,4821,4821,4821,4821,4821,4821,4821,4821,4821,4821,4821,4821,4821,4821,4821,4821,4821,4821,4821,4821,4821,4821,4821,4821,4821,4821,4821,4821,4821,4821,4821,4821,4821,4821,4821,4821,4821,4818,4818,4818,4818,4826,
798,798,798,798,798,798,798,798,809,805,805,805,805,805,805,805,805,805,805,805,805,805,805,805,805,805,805,805,805,805,805,805,805,805,805,805,4821,4821,4821,4821,4821,4821,4821,4821,4821,4821,4821,4821,4821,4821,4821,4821,4821,4821,4821,4821,4821,4821,4821,4821,4821,4821,4821,4821,4821,4821,4821,4821,4821,4821,4821,4821,4821,4821,4821,4821,4821,4821,4821,4821,4821,4821,4821,4821,4821,4818,4818,4818,4826,4812,
798,798,798,798,798,798,798,798,798,809,805,805,805,805,805,805,805,805,805,805,805,805,805,805,805,805,805,805,805,805,805,805,805,805,805,805,4821,4821,4821,4821,4821,4821,4821,4821,4821,4821,4821,4821,4821,4821,4821,4821,4821,4821,4821,4821,4821,4821,4821,4821,4821,4821,4821,4821,4821,4821,4821,4821,4821,4821,4821,4821,4821,4821,4821,4821,4821,4821,4821,4821,4821,4821,4821,4821,4821,4818,4818,4826,4812,4812,
798,798,798,798,798,798,798,798,798,798,809,805,805,805,805,805,805,805,805,805,805,805,805,805,805,805,805,805,805,805,805,805,805,805,805,805,4821,4821,4821,4821,4821,4821,4821,4821,4821,4821,4821,4821,4821,4821,4821,4821,4821,4821,4821,4821,4821,4821,4821,4821,4821,4821,4821,4821,4821,4821,4821,4821,4821,4821,4821,4821,4821,4821,4821,4821,4821,4821,4821,4821,4821,4821,4821,4821,4821,4818,4826,4812,4812,4812,
798,798,798,798,798,798,798,798,798,798,798,809,805,805,805,805,805,805,805,805,805,805,805,805,805,805,805,805,805,805,805,805,805,805,805,805,4821,4821,4821,4821,4821,4821,4821,4821,4821,4821,4821,4821,4821,4821,4821,4821,4821,4821,4821,4821,4821,4821,4821,4821,4821,4821,4821,4821,4821,4821,4821,4821,4821,4821,4821,4821,4821,4821,4821,4821,4821,4821,4821,4821,4821,4821,4821,4821,4821,4826,4812,4812,4812,4812,
798,798,798,798,798,798,798,798,798,798,798,798,107,107,107,107,107,107,107,107,107,107,107,107,107,107,107,107,107,107,107,107,107,107,107,107,107,4123,4123,4123,4123,4123,4123,4123,4123,4123,4123,4123,4123,4123,4123,4123,4123,4123,4123,4123,4123,4123,4123,4123,4123,4123,4123,4123,4123,4123,4123,4123,4123,4123,4123,4123,4123,4123,4123,4123,4123,4123,4123,4123,4123,4123,4123,4123,4123,4812,4812,4812,4812,4812,
798,798,798,798,798,798,798,798,798,798,798,798,107,107,107,107,107,107,107,107,107,107,107,107,107,107,107,107,107,107,107,107,107,107,107,107,107,4123,4123,4123,4123,4123,4123,4123,4123,4123,4123,4123,4123,4123,4123,4123,4123,4123,4123,4123,4123,4123,4123,4123,4123,4123,4123,4123,4123,4123,4123,4123,4123,4123,4123,4123,4123,4123,4123,4123,4123,4123,4123,4123,4123,4123,4123,4123,4123,4812,4812,4812,4812,4812,
798,798,798,798,798,798,798,798,798,798,798,798,107,107,107,107,107,107,107,107,107,107,107,107,107,107,107,107,107,107,107,107,107,107,107,107,107,4123,4123,4123,4123,4123,4123,4123,4123,4123,4123,4123,4123,4123,4123,4123,4123,4123,4123,4123,4123,4123,4123,4123,4123,4123,4123,4123,4123,4123,4123,4123,4123,4123,4123,4123,4123,4123,4123,4123,4123,4123,4123,4123,4123,4123,4123,4123,4123,4812,4812,4812,4812,4812,
798,798,798,798,798,798,798,798,798,798,798,798,107,107,107,107,107,107,107,107,107,107,107,107,107,107,107,107,107,107,107,107,107,107,107,107,107,4123,4123,4123,4123,4123,4123,4123,4123,4123,4123,4123,4123,4123,4123,4123,4123,4123,4123,4123,4123,4123,4123,4123,4123,4123,4123,4123,4123,4123,4123,4123,4123,4123,4123,4123,4123,4123,4123,4123,4123,4123,4123,4123,4123,4123,4123,4123,4123,4812,4812,4812,4812,4812,
798,798,798,798,798,798,798,798,798,798,798,798,107,107,107,107,107,107,107,107,107,107,107,107,107,107,107,107,107,107,107,107,107,107,107,107,107,4123,4123,4123,4123,4123,4123,4123,4123,4123,4123,4123,4123,4123,4123,4123,4123,4123,4123,4123,4123,4123,4123,4123,4123,4123,4123,4123,4123,4123,4123,4123,4123,4123,4123,4123,4123,4123,4123,4123,4123,4123,4123,4123,4123,4123,4123,4123,4123,4812,4812,4812,4812,4812,
798,798,798,798,798,798,798,798,798,798,798,798,107,107,107,107,107,107,107,107,107,107,107,107,107,107,107,107,107,107,107,107,107,107,107,107,107,4123,4123,4123,4123,4123,4123,4123,4123,4123,4123,4123,4123,4123,4123,4123,4123,4123,4123,4123,4123,4123,4123,4123,4123,4123,4123,4123,4123,4123,4123,4123,4123,4123,4123,4123,4123,4123,4123,4123,4123,4123,4123,4123,4123,4123,4123,4123,4123,4812,4812,4812,4812,4812,
798,798,798,798,798,798,798,798,798,798,798,798,107,107,107,107,107,107,107,107,107,107,107,107,107,107,107,107,107,107,107,107,107,107,107,107,107,4123,4123,4123,4123,4123,4123,4123,4123,4123,4123,4123,4123,4123,4123,4123,4123,4123,4123,4123,4123,4123,4123,4123,4123,4123,4123,4123,4123,4123,4123,4123,4123,4123,4123,4123,4123,4123,4123,4123,4123,4123,4123,4123,4123,4123,4123,4123,4123,4812,4812,4812,4812,4812,
798,798,798,798,798,798,798,798,798,798,798,798,107,107,107,107,107,107,107,107,107,107,107,107,107,107,107,107,107,107,107,107,107,107,107,107,107,4123,4123,4123,4123,4123,4123,4123,4123,4123,4123,4123,4123,4123,4123,4123,4123,4123,4123,4123,4123,4123,4123,4123,4123,4123,4123,4123,4123,4123,4123,4123,4123,4123,4123,4123,4123,4123,4123,4123,4123,4123,4123,4123,4123,4123,4123,4123,4123,4812,4812,4812,4812,4812,
798,798,798,798,798,798,798,798,798,798,798,798,107,107,107,107,107,107,107,107,107,107,107,107,107,107,107,107,107,107,107,107,107,107,107,107,107,4123,4123,4123,4123,4123,4123,4123,4123,4123,4123,4123,4123,4123,4123,4123,4123,4123,4123,4123,4123,4123,4123,4123,4123,4123,4123,4123,4123,4123,4123,4123,4123,4123,4123,4123,4123,4123,4123,4123,4123,4123,4123,4123,4123,4123,4123,4123,4123,4812,4812,4812,4812,4812,
798,798,798,798,798,798,798,798,798,798,798,798,107,107,107,107,107,107,107,107,107,107,107,107,107,107,107,107,107,107,107,107,107,107,107,107,107,4123,4123,4123,4123,4123,4123,4123,4123,4123,4123,4123,4123,4123,4123,4123,4123,4123,4123,4123,4123,4123,4123,4123,4123,4123,4123,4123,4123,4123,4123,4123,4123,4123,4123,4123,4123,4123,4123,4123,4123,4123,4123,4123,4123,4123,4123,4123,4123,4812,4812,4812,4812,4812,
798,798,798,798,798,798,798,798,798,798,798,798,107,107,107,107,107,107,107,107,107,107,107,107,107,107,107,107,107,107,107,107,107,107,107,107,107,4123,4123,4123,4123,4123,4123,4123,4123,4123,4123,4123,4123,4123,4123,4123,4123,4123,4123,4123,4123,4123,4123,4123,4123,4123,4123,4123,4123,4123,4123,4123,4123,4123,4123,4123,4123,4123,4123,4123,4123,4123,4123,4123,4123,4123,4123,4123,4123,4812,4812,4812,4812,4812,
798,798,798,798,798,798,798,798,798,798,798,798,107,107,107,107,107,107,107,107,107,107,107,107,107,107,107,107,107,107,107,107,107,107,107,107,107,4123,4123,4123,4123,4123,4123,4123,4123,4123,4123,4123,4123,4123,4123,4123,4123,4123,4123,4123,4123,4123,4123,4123,4123,4123,4123,4123,4123,4123,4123,4123,4123,4123,4123,4123,4123,4123,4123,4123,4123,4123,4123,4123,4123,4123,4123,4123,4123,4812,4812,4812,4812,4812,
798,798,798,798,798,798,798,798,798,798,798,798,107,107,107,107,107,107,107,107,107,107,107,107,107,107,107,107,107,107,107,107,107,107,107,107,107,4123,4123,4123,4123,4123,4123,4123,4123,4123,4123,4123,4123,4123,4123,4123,4123,4123,4123,4123,4123,4123,4123,4123,4123,4123,4123,4123,4123,4123,4123,4123,4123,4123,4123,4123,4123,4123,4123,4123,4123,4123,4123,4123,4123,4123,4123,4123,4123,4812,4812,4812,4812,4812,
798,798,798,798,798,798,798,798,798,798,798,798,107,107,107,107,107,107,107,107,107,107,107,107,107,107,107,107,107,107,107,107,107,107,107,107,107,4123,4123,4123,4123,4123,4123,4123,4123,4123,4123,4123,4123,4123,4123,4123,4123,4123,4123,4123,4123,4123,4123,4123,4123,4123,4123,4123,4123,4123,4123,4123,4123,4123,4123,4123,4123,4123,4123,4123,4123,4123,4123,4123,4123,4123,4123,4123,4123,4812,4812,4812,4812,4812,
798,798,798,798,798,798,798,798,798,798,798,798,107,107,107,107,107,107,107,107,107,107,107,107,107,107,107,107,107,107,107,107,107,107,107,107,107,4123,4123,4123,4123,4123,4123,4123,4123,4123,4123,4123,4123,4123,4123,4123,4123,4123,4123,4123,4123,4123,4123,4123,4123,4123,4123,4123,4123,4123,4123,4123,4123,4123,4123,4123,4123,4123,4123,4123,4123,4123,4123,4123,4123,4123,4123,4123,4123,4812,4812,4812,4812,4812,
798,798,798,798,798,798,798,798,798,798,798,798,107,107,107,107,107,107,107,107,107,107,107,107,107,107,107,107,107,107,107,107,107,107,107,107,107,4123,4123,4123,4123,4123,4123,4123,4123,4123,4123,4123,4123,4123,4123,4123,4123,4123,4123,4123,4123,4123,4123,4123,4123,4123,4123,4123,4123,4123,4123,4123,4123,4123,4123,4123,4123,4123,4123,4123,4123,4123,4123,4123,4123,4123,4123,4123,4123,4812,4812,4812,4812,4812,
798,798,798,798,798,798,798,798,798,798,798,798,107,107,107,107,107,107,107,107,107,107,107,107,107,107,107,107,107,107,107,107,107,107,107,107,107,4123,4123,4123,4123,4123,4123,4123,4123,4123,4123,4123,4123,4123,4123,4123,4123,4123,4123,4123,4123,4123,4123,4123,4123,4123,4123,4123,4123,4123,4123,4123,4123,4123,4123,4123,4123,4123,4123,4123,4123,4123,4123,4123,4123,4123,4123,4123,4123,4812,4812,4812,4812,4812,
798,798,798,798,798,798,798,798,798,798,798,798,107,107,107,107,107,107,107,107,107,107,107,107,107,107,107,107,107,107,107,107,107,107,107,107,107,4123,4123,4123,4123,4123,4123,4123,4123,4123,4123,4123,4123,4123,4123,4123,4123,4123,4123,4123,4123,4123,4123,4123,4123,4123,4123,4123,4123,4123,4123,4123,4123,4123,4123,4123,4123,4123,4123,4123,4123,4123,4123,4123,4123,4123,4123,4123,4123,4812,4812,4812,4812,4812,
798,798,798,798,798,798,798,798,798,798,798,798,107,107,107,107,107,107,107,107,107,107,107,107,107,107,107,107,107,107,107,107,107,107,107,107,107,4123,4123,4123,4123,4123,4123,4123,4123,4123,4123,4123,4123,4123,4123,4123,4123,4123,4123,4123,4123,4123,4123,4123,4123,4123,4123,4123,4123,4123,4123,4123,4123,4123,4123,4123,4123,4123,4123,4123,4123,4123,4123,4123,4123,4123,4123,4123,4123,4812,4812,4812,4812,4812,
798,798,798,798,798,798,798,798,798,798,798,798,107,107,107,107,107,107,107,107,107,107,107,107,107,107,107,107,107,107,107,107,107,107,107,107,107,4123,4123,4123,4123,4123,4123,4123,4123,4123,4123,4123,4123,4123,4123,4123,4123,4123,4123,4123,4123,4123,4123,4123,4123,4123,4123,4123,4123,4123,4123,4123,4123,4123,4123,4123,4123,4123,4123,4123,4123,4123,4123,4123,4123,4123,4123,4123,4123,4812,4812,4812,4812,4812,
798,798,798,798,798,798,798,798,798,798,798,798,107,107,107,107,107,107,107,107,107,107,107,107,107,107,107,107,107,107,107,107,107,107,107,107,107,4123,4123,4123,4123,4123,4123,4123,4123,4123,4123,4123,4123,4123,4123,4123,4123,4123,4123,4123,4123,4123,4123,4123,4123,4123,4123,4123,4123,4123,4123,4123,4123,4123,4123,4123,4123,4123,4123,4123,4123,4123,4123,4123,4123,4123,4123,4123,4123,4812,4812,4812,4812,4812,
798,798,798,798,798,798,798,798,798,798,798,798,107,107,107,107,107,107,107,107,107,107,107,107,107,107,107,107,107,107,107,107,107,107,107,107,107,4123,4123,4123,4123,4123,4123,4123,4123,4123,4123,4123,4123,4123,4123,4123,4123,4123,4123,4123,4123,4123,4123,4123,4123,4123,4123,4123,4123,4123,4123,4123,4123,4123,4123,4123,4123,4123,4123,4123,4123,4123,4123,4123,4123,4123,4123,4123,4123,4812,4812,4812,4812,4812,
798,798,798,798,798,798,798,798,798,798,798,798,107,107,107,107,107,107,107,107,107,107,107,107,107,107,107,107,107,107,107,107,107,107,107,107,107,4123,4123,4123,4123,4123,4123,4123,4123,4123,4123,4123,4123,4123,4123,4123,4123,4123,4123,4123,4123,4123,4123,4123,4123,4123,4123,4123,4123,4123,4123,4123,4123,4123,4123,4123,4123,4123,4123,4123,4123,4123,4123,4123,4123,4123,4123,4123,4123,4812,4812,4812,4812,4812,
798,798,798,798,798,798,798,798,798,798,798,798,107,714,714,714,107,107,107,107,107,107,107,107,107,107,107,107,107,107,107,107,107,4123,107,107,107,4123,4123,4123,4123,4123,4123,4123,4123,4123,4123,4123,4123,4123,4123,4123,4123,4123,4123,4123,4123,4123,4123,4123,4123,4123,4123,4123,4123,4123,4123,4123,4123,4123,4123,4123,4123,4123,4123,4123,4123,4123,4123,4123,4123,4123,4123,4123,4123,4812,4812,4812,4812,4812,
798,798,798,798,798,798,798,798,798,798,798,798,107,714,714,714,107,107,107,107,107,107,107,107,107,107,107,107,107,107,107,107,107,4123,107,107,107,4123,4123,4123,4123,4123,4123,4123,4123,4123,4123,4123,4123,4123,4123,4123,4123,4123,4123,4123,4123,4123,4123,4123,4123,4123,4123,4123,4123,4123,4123,4123,4123,4123,4123,4123,4123,4123,4123,4123,4123,4123,4123,4123,4123,4123,4123,4123,4123,4812,4812,4812,4812,4812,
798,798,798,798,798,798,798,798,798,798,798,798,107,714,714,714,107,107,107,107,107,107,107,107,107,107,107,107,107,107,107,107,107,107,107,107,107,4123,4123,4123,4123,4123,4123,4123,4123,4123,4123,4123,4123,4123,4123,4123,4123,4123,4123,4123,4123,4123,4123,4123,4123,4123,4123,4123,4123,4123,4123,4123,4123,4123,4123,4123,4123,4123,4123,4123,4123,4123,4123,4123,4123,4123,4123,4123,4123,4812,4812,4812,4812,4820,
798,798,798,798,798,798,798,798,798,798,798,798,107,107,107,107,107,107,107,107,107,107,107,107,107,107,107,107,107,107,107,107,107,107,107,107,107,4123,4123,4123,4123,4123,4123,4123,4123,4123,4123,4123,4123,4123,4123,4123,4123,4123,4123,4123,4123,4123,4123,4123,4123,4123,4123,4123,4123,4123,4123,4123,4123,4123,4123,4123,4123,4123,4123,4123,4123,4123,4123,4123,4123,4123,4123,4123,4123,4812,4812,4812,4820,4821,
798,798,798,798,798,798,798,798,798,798,798,798,107,107,107,107,107,107,107,107,107,107,107,107,107,107,107,107,107,107,107,107,107,107,107,107,107,4123,4123,4123,4123,4123,4123,4123,4123,4123,4123,4123,4123,4123,4123,4123,4123,4123,4123,4123,4123,4123,4123,4123,4123,4123,4123,4123,4123,4123,4123,4123,4123,4123,4123,4123,4123,4123,4123,4123,4123,4123,4123,4123,4123,4123,4123,4123,4123,4812,4812,4820,4821,4821,
798,798,798,798,798,798,798,798,798,798,798,798,107,107,107,107,107,107,107,107,107,107,107,107,107,107,107,107,107,107,107,107,107,107,107,107,107,4123,4123,4123,4123,4123,4123,4123,4123,4123,4123,4123,4123,4123,4123,4123,4123,4123,4123,4123,4123,4123,4123,4123,4123,4123,4123,4123,4123,4123,4123,4123,4123,4123,4123,4123,4123,4123,4123,4123,4123,4123,4123,4123,4123,4123,4123,4123,4123,4812,4820,4821,4821,4821,
4811,4811,4811,4811,4811,4811,4811,4811,4811,4811,4811,4811,107,107,107,107,107,107,107,107,107,107,107,107,107,107,107,107,107,107,107,107,107,107,107,107,107,4123,4123,4123,4123,4123,4123,4123,4123,4123,4123,4123,4123,4123,4123,4123,4123,4123,4123,4123,4123,4123,4123,4123,4123,4123,4123,4123,4123,4123,4123,4123,4123,4123,4123,4123,4123,4123,4123,4123,4123,4123,4123,4123,4123,4123,4123,4123,4123,4820,4821,4821,4821,4821,
4811,4811,4811,4811,4811,4811,4811,4811,4811,4811,4811,4811,4123,4123,4123,4123,4123,4123,4123,4123,4123,4123,4123,4123,4123,4123,4123,4123,4123,4123,4123,4123,4123,4123,4123,4123,4123,4123,4123,4123,4123,4123,4123,4123,4123,4123,4123,4123,4123,4123,4123,4123,4123,4123,4123,4123,4123,4123,4123,4123,4123,4123,4123,4123,4123,4123,4123,4123,4123,4123,4123,4123,4123,4123,4123,4123,4123,4123,4123,4123,4123,4123,4123,4123,4123,4123,4123,4123,4123,4123,
4811,4811,4811,4811,4811,4811,4811,4811,4811,4811,4811,4811,4123,4123,4123,4123,4123,4123,4123,4123,4123,4123,4123,4123,4123,4123,4123,4123,4123,4123,4123,4123,4123,4123,4123,4123,4123,4123,4123,4123,4123,4123,4123,4123,4123,4123,4123,4123,4123,4123,4123,4123,4123,4123,4123,4123,4123,4123,4123,4123,4123,4123,4123,4123,4123,4123,4123,4123,4123,4123,4123,4123,4123,4123,4123,4123,4123,4123,4123,4123,4123,4123,4123,4123,4123,4123,4123,4123,4123,4123,
4811,4811,4811,4811,4811,4811,4811,4811,4811,4811,4811,4811,4123,4123,4123,4123,4123,4123,4123,4123,4123,4123,4123,4123,4123,4123,4123,4123,4123,4123,4123,4123,4123,4123,4123,4123,4123,4123,4123,4123,4123,4123,4123,4123,4123,4123,4123,4123,4123,4123,4123,4123,4123,4123,4123,4123,4123,4123,4123,4123,4123,4123,4123,4123,4123,4123,4123,4123,4123,4123,4123,4123,4123,4123,4123,4123,4123,4123,4123,4123,4123,4123,4123,4123,4123,4123,4123,4123,4123,4123,
4811,4811,4811,4811,4811,4811,4811,4811,4811,4811,4811,4811,4123,4123,4123,4123,4123,4123,4123,4123,4123,4123,4123,4123,4123,4123,4123,4123,4123,4123,4123,4123,4123,4123,4123,4123,4123,4123,4123,4123,4123,4123,4123,4123,4123,4123,4123,4123,4123,4123,4123,4123,4123,4123,4123,4123,4123,4123,4123,4123,4123,4123,4123,4123,4123,4123,4123,4123,4123,4123,4123,4123,4123,4123,4123,4123,4123,4123,4123,4123,4123,4123,4123,4123,4123,4123,4123,4123,4123,4123,
4811,4811,4811,4811,4811,4811,4811,4811,4811,4811,4811,4811,4123,4123,4123,4123,4123,4123,4123,4123,4123,4123,4123,4123,4123,4123,4123,4123,4123,4123,4123,4123,4123,4123,4123,4123,4123,4123,4123,4123,4123,4123,4123,4123,4123,4123,4123,4123,4123,4123,4123,4123,4123,4123,4123,4123,4123,4123,4123,4123,4123,4123,4123,4123,4123,4123,4123,4123,4123,4123,4123,4123,4123,4123,4123,4123,4123,4123,4123,4123,4123,4123,4123,4123,4123,4123,4123,4123,4123,4123,
4811,4811,4811,4811,4811,4811,4811,4811,4811,4811,4811,4811,4123,4123,4123,4123,4123,4123,4123,4123,4123,4123,4123,4123,4123,4123,4123,4123,4123,4123,4123,4123,4123,4123,4123,4123,4123,4123,4123,4123,4123,4123,4123,4123,4123,4123,4123,4123,4123,4123,4123,4123,4123,4123,4123,4123,4123,4123,4123,4123,4123,4123,4123,4123,4123,4123,4123,4123,4123,4123,4123,4123,4123,4123,4123,4123,4123,4123,4123,4123,4123,4123,4123,4123,4123,4123,4123,4123,4123,4123
</data>
 </layer>
 <layer id="2" name="deco_sotto" width="90" height="46">
  <data encoding="csv">
0,0,0,0,0,0,0,0,0,0,0,0,0,0,0,0,0,0,0,0,0,0,0,0,0,0,0,0,0,0,0,0,0,0,0,0,0,0,0,0,0,0,0,0,0,0,0,0,0,0,0,0,0,0,0,0,0,0,0,0,0,0,0,0,0,0,0,0,0,0,0,0,0,0,0,0,0,0,0,0,0,0,0,0,0,0,0,0,0,0,
0,0,0,0,0,0,0,0,0,0,0,0,0,0,0,0,0,0,0,0,0,0,0,0,0,0,0,0,0,0,0,0,0,0,0,0,0,0,0,0,0,0,0,0,0,0,0,0,0,0,0,0,0,0,0,0,0,0,0,0,0,0,0,0,0,0,0,0,0,0,0,0,0,0,0,0,0,0,0,0,0,0,0,0,0,0,0,0,0,0,
0,0,0,0,0,0,0,0,0,0,0,0,0,0,0,0,0,0,0,0,0,0,0,0,0,0,0,0,0,0,0,0,0,0,0,0,0,0,0,0,0,0,0,0,0,0,0,0,0,0,0,0,0,0,0,0,0,0,0,0,0,0,0,0,0,0,0,0,0,0,0,0,0,0,0,0,0,0,0,0,0,0,0,0,0,0,0,0,0,0,
0,0,0,0,0,0,0,0,0,0,0,0,0,0,0,0,0,0,0,0,0,0,0,0,0,0,0,0,0,0,0,0,0,0,0,0,0,0,0,0,0,0,0,0,0,0,0,0,0,0,0,0,0,0,0,0,0,0,0,0,0,0,0,0,0,0,0,0,0,0,0,0,0,0,0,0,0,0,0,0,0,0,0,0,0,0,0,0,0,0,
0,0,0,0,0,0,0,0,0,0,0,0,0,0,0,0,0,0,0,0,0,0,0,0,0,0,0,0,0,0,0,0,0,0,0,0,0,0,0,0,0,0,0,0,0,0,0,0,0,0,0,0,0,0,0,0,0,0,0,0,0,0,0,0,0,0,0,0,0,0,0,0,0,0,0,0,0,0,0,0,0,0,0,0,0,0,0,0,0,0,
0,0,0,0,0,0,0,0,0,0,0,0,0,0,0,0,0,0,0,0,0,0,0,0,0,0,0,0,0,0,0,0,0,0,0,0,0,0,0,0,0,0,0,0,0,0,0,0,0,0,0,0,0,0,0,0,0,0,0,0,0,0,0,0,0,0,0,0,0,0,0,0,0,0,0,0,0,0,0,0,0,0,0,0,0,0,0,0,0,0,
0,0,0,0,0,0,0,0,0,0,0,0,0,0,0,0,0,0,0,0,0,0,0,0,0,0,0,0,0,0,0,0,0,0,0,0,0,0,0,0,0,0,0,0,0,0,0,0,0,0,0,0,0,0,0,0,0,0,0,0,0,0,0,0,0,0,0,0,0,0,0,0,0,0,0,0,0,0,0,0,0,0,0,0,0,0,0,0,0,0,
0,0,0,0,0,0,0,0,0,0,0,0,0,0,0,0,0,0,0,0,0,0,0,0,0,0,0,0,0,0,0,0,0,0,0,0,0,0,0,0,0,0,0,0,0,0,0,0,0,0,0,0,0,0,0,0,0,0,0,0,0,0,0,0,0,0,0,0,0,0,0,0,0,0,0,0,0,0,0,0,0,0,0,0,0,0,0,0,0,0,
0,0,0,0,0,0,0,0,0,0,0,0,0,0,0,0,0,0,0,0,0,0,0,0,0,0,0,0,0,0,0,0,0,0,0,0,0,0,0,0,0,0,0,0,0,0,0,0,0,0,0,0,0,0,0,0,0,0,0,0,0,0,0,0,0,0,0,0,0,0,0,0,0,0,0,0,0,0,0,0,0,0,0,0,0,0,0,0,0,0,
0,0,0,0,0,0,0,0,0,0,0,0,0,0,0,0,0,0,0,0,0,0,0,0,0,0,0,0,0,0,0,0,0,0,0,0,0,0,0,0,0,0,0,0,0,0,0,0,0,0,0,0,0,0,0,0,0,0,0,0,0,0,0,0,0,0,0,0,0,0,0,0,0,0,0,0,0,0,0,0,0,0,0,0,0,0,0,0,0,0,
0,0,0,0,0,0,0,0,0,0,0,0,0,0,0,793,793,788,786,786,786,786,786,786,786,786,786,786,786,786,786,790,795,795,7,7,7,0,4801,4802,4803,0,0,0,0,0,0,0,0,0,0,0,0,0,0,0,0,0,0,0,0,0,0,0,0,0,0,0,0,0,0,0,0,0,0,0,0,0,0,0,0,0,0,4965,0,0,0,0,0,0,
0,0,0,0,0,0,0,0,0,0,0,0,0,0,0,793,793,793,788,786,786,786,786,786,786,786,786,786,786,786,790,795,795,795,7,107,7,0,4809,4810,4811,0,0,0,0,0,0,0,0,0,0,0,0,0,0,0,0,0,0,0,0,0,0,0,0,0,0,0,0,0,0,0,0,0,0,0,0,0,0,0,5166,5167,5168,0,0,0,0,0,0,0,
0,0,0,0,0,0,0,0,0,0,0,0,0,0,0,793,793,793,793,788,842,842,842,842,842,842,842,842,842,790,795,795,795,795,107,4965,107,0,4809,4810,4811,0,0,0,0,0,0,0,0,0,0,0,0,0,0,0,0,0,0,0,0,0,0,0,0,0,0,0,0,0,0,0,0,0,0,0,0,0,0,0,5174,5175,5176,0,0,0,0,0,0,0,
0,0,0,0,0,0,0,0,0,0,0,0,0,0,0,793,793,793,793,793,0,0,0,0,0,0,0,0,0,795,795,795,795,795,7,107,7,0,4809,4810,4811,0,0,0,0,0,4853,4854,0,0,0,0,0,0,0,0,0,0,0,0,0,0,0,0,0,0,0,0,0,0,0,0,0,0,0,0,0,0,0,0,5182,5183,5184,0,0,0,0,0,0,0,
0,0,0,0,0,0,0,0,0,0,0,0,0,0,0,793,793,793,793,793,0,0,0,0,0,0,0,0,0,795,795,795,795,795,7,7,7,0,4809,4810,4811,0,0,0,0,0,4861,4862,0,0,0,0,0,0,0,0,0,0,0,0,0,0,0,0,0,0,0,0,0,0,0,0,0,0,0,0,0,0,0,0,5190,5191,5192,0,0,0,0,0,0,0,
0,0,0,0,0,0,0,0,0,0,0,0,0,0,0,793,793,793,793,793,0,0,0,0,0,0,0,0,0,795,795,795,795,795,7,7,7,0,4817,4818,4819,0,0,0,0,0,4869,4870,4832,0,0,0,0,0,0,0,0,0,0,0,0,0,0,0,0,0,0,0,0,0,0,0,0,0,0,0,0,0,0,0,0,4832,0,0,0,0,0,0,0,0,
0,0,0,0,0,0,0,0,0,0,0,0,0,0,0,793,793,793,793,793,0,0,0,0,0,0,0,0,0,795,795,795,795,795,7,7,7,0,0,0,0,0,0,0,0,0,4877,4878,4832,4832,4832,4832,4832,4832,4832,4832,0,0,0,0,0,0,0,0,0,0,0,0,0,0,0,0,0,0,0,0,0,0,0,0,0,0,0,0,0,0,0,0,0,0,
0,0,0,0,0,0,0,0,0,0,0,0,0,0,0,793,793,793,793,793,0,0,0,0,0,0,0,0,0,795,795,795,795,795,7,7,7,0,0,0,0,0,0,0,0,0,0,0,0,0,0,0,0,0,0,4832,0,0,0,0,0,0,0,0,0,0,0,0,0,0,0,0,0,0,0,0,0,0,0,0,0,0,0,0,0,0,0,0,0,0,
0,0,0,0,0,0,0,0,0,0,0,0,0,0,0,793,793,793,793,793,0,0,0,0,0,0,0,0,0,795,795,795,795,795,7,7,7,0,0,0,0,0,0,0,0,0,0,0,0,0,0,0,0,0,0,4832,0,0,0,0,0,0,0,0,0,0,0,0,0,0,0,0,0,0,0,0,0,0,0,0,0,0,0,0,0,0,0,0,0,0,
0,0,0,0,0,0,0,0,0,0,0,0,0,0,0,793,793,793,793,793,0,0,0,0,0,0,0,0,0,795,795,795,795,795,7,7,7,0,0,0,0,0,0,0,0,0,0,0,0,0,0,0,0,0,0,4832,0,0,0,0,0,0,0,0,0,0,0,0,0,0,0,0,0,0,0,0,0,0,0,0,0,0,0,0,0,0,0,0,0,0,
0,0,0,0,0,0,0,0,0,0,0,0,0,0,0,793,793,793,793,793,0,0,0,0,0,0,0,0,0,795,795,795,795,795,7,7,7,0,0,0,4832,0,0,0,0,0,0,0,0,0,0,0,0,0,0,4832,0,0,0,0,0,0,0,0,0,0,0,0,0,0,0,0,0,0,0,0,0,0,0,0,0,0,0,0,0,0,0,0,0,0,
0,0,0,0,0,0,0,0,0,0,0,0,0,0,0,793,793,793,793,793,0,0,0,0,0,0,0,0,0,795,795,795,795,795,7,7,7,0,0,0,4832,4832,0,0,0,0,0,0,0,0,0,0,0,0,0,4832,0,0,0,0,0,0,0,0,0,0,0,0,0,0,0,0,0,0,0,0,0,0,0,0,0,0,0,0,0,0,0,0,0,0,
0,0,0,0,0,0,0,0,0,0,0,0,0,0,0,793,793,793,793,793,0,0,0,0,0,0,0,0,0,795,795,795,795,795,7,7,7,0,0,0,4832,0,4832,0,0,0,0,0,0,0,0,0,0,0,0,4832,4801,4802,4802,4802,4802,4802,4802,4802,4802,4802,4802,4802,4802,4802,4802,4802,4802,4802,4802,4802,4802,4802,4802,4802,4802,4802,4803,0,0,0,0,0,0,0,
0,0,0,0,0,0,0,0,0,0,0,0,0,0,0,793,793,793,793,793,0,0,0,0,0,0,0,0,0,795,795,795,795,795,7,7,7,0,0,0,4832,0,0,4832,0,0,0,0,0,0,0,0,0,0,0,4832,4809,4810,4810,4810,4810,4810,4810,4810,4810,4810,4810,4810,4810,4810,4810,4810,4810,4810,4810,4810,4810,4810,4810,4810,4810,4810,4811,0,0,0,0,0,0,0,
0,0,0,0,0,0,0,0,0,0,0,0,0,0,0,793,793,793,793,793,0,0,0,0,0,0,0,0,0,795,795,795,795,795,7,7,7,0,0,0,4832,0,0,0,4832,4832,4832,4832,4832,4832,4832,4832,4832,4832,4832,4832,4817,4818,4818,4818,4818,4818,4818,4818,4818,4818,4818,4818,4818,4818,4818,4818,4818,4818,4818,4818,4818,4818,4818,4818,4818,4818,4819,0,0,0,0,0,0,0,
0,0,0,0,0,0,0,0,0,0,0,0,0,0,0,793,793,793,793,801,805,805,805,778,779,779,805,805,805,803,795,795,795,795,7,7,7,0,0,0,4832,0,0,4832,0,0,0,0,0,0,0,0,0,0,0,4832,0,0,0,0,0,0,0,0,0,0,0,0,0,0,0,0,0,0,0,0,0,0,0,0,0,0,0,0,0,0,0,0,0,0,
0,0,0,0,0,0,0,0,0,0,0,0,617,618,619,793,793,793,801,805,805,805,805,778,779,779,805,805,805,805,803,795,795,795,7,7,7,0,0,0,4832,0,4832,0,0,0,0,0,0,0,0,0,0,0,0,4832,0,0,0,0,0,0,0,0,0,0,0,0,0,0,0,0,0,0,0,0,0,0,0,0,0,0,0,0,0,0,0,0,0,0,
0,0,0,0,0,0,0,0,0,0,0,0,625,626,627,793,793,801,805,805,805,805,805,778,779,779,805,805,805,805,805,803,795,795,7,7,7,0,0,0,4832,4832,0,0,0,0,0,0,0,0,0,0,0,0,4832,4832,0,0,0,0,0,0,0,0,0,0,0,0,0,0,0,0,0,0,0,0,0,0,0,0,0,0,0,0,0,0,0,0,0,0,
0,0,0,0,0,0,0,0,0,0,0,0,0,0,0,793,801,805,805,805,805,805,805,778,779,779,805,805,805,805,805,805,803,795,7,7,7,0,0,0,4832,0,0,0,0,0,0,0,0,0,0,0,0,0,4832,0,0,0,0,0,0,0,0,0,0,0,0,0,0,0,0,0,0,0,0,0,0,0,0,0,0,0,0,0,0,0,0,0,0,0,
0,0,0,0,0,0,0,0,0,0,0,0,0,0,0,801,805,805,805,805,805,805,805,778,779,779,805,805,805,805,805,805,805,803,7,7,7,0,0,0,0,0,0,0,0,0,0,0,0,0,0,0,0,0,4832,0,0,0,0,0,0,0,0,0,0,0,0,0,0,0,0,0,0,0,0,0,0,0,0,0,0,0,0,0,0,0,0,0,0,0,
0,0,0,0,0,0,0,0,0,0,0,0,0,0,0,0,0,0,0,0,0,0,0,0,0,0,0,0,0,0,0,0,0,0,0,0,0,0,0,0,0,0,0,0,0,0,0,0,0,0,0,0,0,0,4832,0,0,0,0,0,0,0,0,0,0,0,0,0,0,0,0,0,0,0,0,0,4853,4854,0,0,0,0,0,0,0,0,0,0,0,0,
0,0,0,0,0,0,0,0,0,0,0,0,617,618,619,0,0,0,0,0,0,0,0,0,0,0,0,0,4123,4123,4123,0,0,4123,4123,4123,0,0,0,0,0,0,0,0,0,0,0,0,0,0,4832,4832,4832,4832,4832,0,0,0,0,0,0,0,0,0,0,0,0,0,0,0,0,0,0,0,0,0,4861,4862,0,0,0,0,0,0,0,0,0,0,0,0,
0,0,0,0,0,0,0,0,0,0,0,0,625,626,627,0,0,0,0,0,0,0,0,0,0,0,0,0,625,626,627,0,0,4123,4123,4123,0,0,4801,4802,4803,0,0,0,0,0,0,0,0,0,4832,0,0,0,0,0,0,0,0,0,0,0,0,0,0,0,0,0,0,0,0,0,0,0,0,0,4869,4870,0,0,0,0,0,0,0,0,0,0,0,0,
0,0,0,0,0,0,0,0,0,0,0,0,0,742,743,744,0,0,0,0,0,0,0,0,0,0,0,0,0,0,0,0,617,4123,4123,0,0,0,4809,4810,4811,0,0,0,0,0,0,4853,4854,0,4832,0,0,0,0,0,0,0,0,0,0,0,0,0,0,0,0,0,0,0,0,0,0,0,0,0,4877,4878,0,0,0,0,0,0,0,0,0,0,0,0,
0,0,0,0,0,0,0,0,0,0,0,0,0,750,714,752,0,0,0,0,0,0,0,0,0,0,0,0,0,0,0,0,625,4123,4123,0,0,0,4809,4810,4811,0,0,0,0,0,0,4861,4862,0,4832,0,0,0,0,0,0,0,0,0,0,0,0,0,0,0,0,0,0,0,0,0,0,0,0,0,0,0,0,0,5166,5167,5168,0,0,0,0,0,0,0,
0,0,0,0,0,0,0,0,0,0,0,0,0,758,759,760,0,0,0,0,0,0,0,0,0,0,0,0,0,0,0,0,0,0,0,0,0,0,4809,4810,4811,0,0,0,0,0,0,4869,4870,0,4832,0,0,0,0,0,0,0,0,0,0,0,0,0,0,0,0,0,0,0,0,0,0,0,0,0,0,0,0,0,5174,5175,5176,0,0,0,0,0,0,0,
0,0,0,0,0,0,0,0,0,0,0,0,0,0,0,4832,0,0,0,0,0,0,0,0,0,0,0,0,0,0,0,617,618,4123,0,0,0,0,4809,4810,4811,0,0,0,0,0,0,4877,4878,4832,0,0,0,0,0,0,0,0,0,0,0,0,0,0,0,0,0,0,0,0,0,0,0,0,0,0,0,0,0,0,5182,5183,5184,0,0,0,0,0,0,0,
0,0,0,0,0,0,0,0,0,0,0,0,0,0,0,0,0,0,0,0,0,0,0,0,0,0,0,0,0,0,0,4135,626,4123,0,0,0,0,4809,4810,4811,0,0,0,0,0,0,0,0,0,0,0,0,0,0,0,0,0,0,0,0,0,0,0,0,0,0,0,0,0,0,0,0,0,0,0,0,0,0,0,5190,5191,5192,0,0,0,0,0,0,0,
0,0,0,0,0,0,0,0,0,0,0,0,0,0,0,4123,618,619,0,0,0,0,0,0,0,0,0,0,617,618,619,0,0,0,0,0,0,0,4809,4810,4811,0,0,0,0,0,0,0,0,0,0,0,0,0,0,0,0,0,0,0,0,0,0,0,0,0,0,0,0,0,0,0,0,0,0,0,0,0,0,0,0,4832,0,4965,0,0,0,0,0,0,
0,0,0,0,0,0,0,0,0,0,0,0,0,0,0,4123,626,627,0,0,0,0,0,0,0,0,0,0,4123,4123,4123,0,0,0,0,0,0,0,4817,4818,4819,0,0,0,0,0,0,0,0,0,0,0,0,0,0,0,0,0,0,0,0,0,0,0,0,0,0,0,0,0,0,0,0,0,0,0,0,0,0,0,0,0,0,0,0,0,0,0,0,0,
0,0,0,0,0,0,0,0,0,0,0,0,0,0,0,0,4122,4124,4801,4802,4802,4802,4802,4802,4802,4802,4802,4802,4802,4802,4802,4802,4802,4802,4802,4802,4802,4802,4802,4802,4802,4802,4802,4802,4802,4802,4802,4802,4802,4802,4802,4802,4802,4802,4802,4802,4802,4802,4802,4802,4802,4802,4802,4802,4802,4802,4802,4802,4802,4802,4802,4802,4802,4802,4802,4802,4802,4802,4802,4802,4802,4802,4802,4802,4802,4802,4802,4802,4802,4803,
0,0,0,0,0,0,0,0,0,0,0,0,0,0,0,0,4122,4124,4809,4810,4810,4810,4810,4810,4810,4810,4810,4810,4810,4810,4810,4810,4810,4810,4810,4810,4810,4810,4810,4810,4810,4810,4810,4810,4810,4810,4810,4810,4810,4810,4810,4810,4810,4810,4810,4810,4810,4810,4810,4810,4810,4810,4810,4810,4810,4810,4810,4810,4810,4810,4810,4810,4810,4810,4810,4810,4810,4810,4810,4810,4810,4810,4810,4810,4810,4810,4810,4810,4810,4811,
0,0,0,0,0,0,0,0,0,0,0,0,0,0,0,0,4122,4124,4809,4810,4810,4810,4810,4810,4810,4810,4810,4810,4810,4810,4810,4810,4810,4810,4810,4810,4810,4810,4810,4810,4810,4810,4810,4810,4810,4810,4810,4810,4810,4810,4810,4810,4810,4810,4810,4810,4810,4810,4810,4810,4810,4810,4810,4810,4810,4810,4810,4810,4810,4810,4810,4810,4810,4810,4810,4810,4810,4810,4810,4810,4810,4810,4810,4810,4810,4810,4810,4810,4810,4811,
0,0,0,0,0,0,0,0,0,0,0,0,0,0,0,0,4122,4124,4809,4810,4810,4810,4810,4810,4810,4810,4810,4810,4810,4810,4810,4810,4810,4810,4810,4810,4810,4810,4810,4810,4810,4810,4810,4810,4810,4810,4810,4810,4810,4810,4810,4810,4810,4810,4810,4810,4810,4810,4810,4810,4810,4810,4810,4810,4810,4810,4810,4810,4810,4810,4810,4810,4810,4810,4810,4810,4810,4810,4810,4810,4810,4810,4810,4810,4810,4810,4810,4810,4810,4811,
0,0,0,0,0,0,0,0,0,0,0,0,0,0,0,0,4122,4124,4809,4810,4810,4810,4810,4810,4810,4810,4810,4810,4810,4810,4810,4810,4810,4810,4810,4810,4810,4810,4810,4810,4810,4810,4810,4810,4810,4810,4810,4810,4810,4810,4810,4810,4810,4810,4810,4810,4810,4810,4810,4810,4810,4810,4810,4810,4810,4810,4810,4810,4810,4810,4810,4810,4810,4810,4810,4810,4810,4810,4810,4810,4810,4810,4810,4810,4810,4810,4810,4810,4810,4811,
0,0,0,0,0,0,0,0,0,0,0,0,0,0,0,0,4122,4124,4817,4818,4818,4818,4818,4818,4818,4818,4818,4818,4818,4818,4818,4818,4818,4818,4818,4818,4818,4818,4818,4818,4818,4818,4818,4818,4818,4818,4818,4818,4818,4818,4818,4818,4818,4818,4818,4818,4818,4818,4818,4818,4818,4818,4818,4818,4818,4818,4818,4818,4818,4818,4818,4818,4818,4818,4818,4818,4818,4818,4818,4818,4818,4818,4818,4818,4818,4818,4818,4818,4818,4819
</data>
 </layer>
 <layer id="1" name="edifici" width="90" height="46">
  <data encoding="csv">
0,0,0,0,0,0,0,0,0,0,0,0,0,0,0,0,0,0,0,0,0,0,0,0,0,0,0,0,0,0,0,0,0,0,0,0,0,0,0,0,0,0,0,0,0,0,0,0,0,0,0,0,0,0,0,0,0,0,0,0,0,0,0,0,0,0,0,0,0,0,0,0,0,0,0,0,0,0,0,0,0,0,0,0,0,0,0,0,0,0,
0,0,0,0,0,0,0,0,0,0,0,0,0,0,0,0,0,0,0,0,0,0,0,0,0,0,0,0,0,0,0,0,0,0,0,0,0,0,0,0,0,0,0,0,0,0,0,0,0,0,0,0,0,0,0,0,0,0,0,0,0,0,0,0,0,0,0,0,0,0,0,0,0,0,0,0,0,0,0,0,0,0,0,0,0,0,0,0,0,0,
0,0,0,0,0,0,0,0,0,0,0,0,0,0,0,0,0,0,0,0,0,0,0,0,0,0,0,0,0,0,0,0,0,0,0,0,0,0,0,0,0,0,0,0,0,0,0,0,0,0,0,0,0,0,0,0,0,0,0,0,0,0,0,0,0,0,0,0,0,0,0,0,0,0,0,0,0,0,0,0,0,0,0,0,0,0,0,0,0,0,
0,0,0,0,0,0,0,0,0,0,0,0,0,0,0,0,0,0,0,0,0,0,0,0,0,0,0,0,0,0,0,0,0,0,0,0,0,0,0,0,0,0,0,0,0,0,0,0,0,0,0,0,0,0,0,0,0,0,0,0,0,0,0,0,0,0,0,0,0,0,0,0,0,0,0,0,0,0,0,0,0,0,0,0,0,0,0,0,0,0,
0,0,0,0,0,0,0,0,0,0,0,0,0,0,0,0,0,0,0,0,0,0,0,0,0,0,0,0,0,0,0,0,0,0,0,0,0,0,0,0,0,0,0,0,0,0,0,0,0,0,0,0,0,0,0,0,0,0,0,0,0,0,0,0,0,0,0,0,0,0,0,0,0,0,0,0,0,0,0,0,0,0,0,0,0,0,0,0,0,0,
0,0,0,0,0,0,0,0,0,0,0,0,0,0,0,0,0,0,0,0,0,0,0,0,0,0,0,0,0,0,0,0,0,0,0,0,0,0,0,0,0,0,0,0,0,0,0,0,0,0,0,0,0,0,0,0,0,0,0,0,0,0,0,0,0,0,0,0,0,0,0,0,0,0,0,0,0,0,0,0,0,0,0,0,0,0,0,0,0,0,
0,0,0,0,0,0,0,0,0,0,0,0,0,0,0,0,0,0,0,0,0,0,0,0,0,0,0,0,0,0,0,0,0,0,0,0,0,0,0,0,0,0,0,0,0,0,0,0,0,0,0,0,0,0,0,0,0,0,0,0,0,0,0,0,0,0,0,0,0,0,0,0,0,0,0,0,0,0,0,0,0,0,0,0,0,0,0,0,0,0,
0,0,0,0,0,0,0,0,0,0,0,0,0,0,0,0,0,0,0,0,0,0,0,0,0,0,0,0,0,0,0,0,0,0,0,0,0,0,0,0,0,0,0,0,0,0,0,0,0,0,0,0,0,0,0,0,0,0,0,0,0,0,0,0,0,0,0,0,0,0,0,0,0,0,0,0,0,0,0,0,0,0,0,0,0,0,0,0,0,0,
0,0,0,0,0,0,0,0,0,0,0,0,0,0,0,0,0,0,0,0,0,0,0,0,0,0,0,0,0,0,0,0,0,0,0,0,0,0,0,0,0,0,0,0,0,0,0,0,0,0,0,0,0,0,0,0,0,0,0,0,0,0,0,0,0,0,0,0,0,0,0,0,0,0,0,0,0,0,0,0,0,0,0,0,0,0,0,0,0,0,
0,0,0,0,0,0,0,0,0,0,0,0,0,0,0,0,0,0,0,0,0,0,0,0,0,0,0,0,0,0,0,0,0,0,0,0,0,0,0,0,0,0,0,0,0,0,0,0,0,0,0,0,0,0,0,0,0,0,0,0,0,0,0,0,0,0,0,0,0,0,0,0,0,0,0,0,0,0,0,0,0,0,0,0,0,0,0,0,0,0,
0,0,0,0,0,0,0,0,0,0,0,0,0,533,0,0,0,0,0,0,0,0,0,0,0,0,0,0,0,0,0,0,0,0,0,0,0,0,0,0,0,0,0,0,0,0,0,0,0,0,0,0,0,0,0,0,0,0,0,0,0,0,0,0,0,4801,4802,4803,0,0,0,0,0,0,0,0,0,0,0,4832,0,0,0,0,0,0,0,0,0,0,
0,0,0,0,0,0,0,0,0,0,0,0,540,541,542,0,0,0,0,0,0,0,0,3451,3452,3453,0,0,0,0,0,0,0,0,0,0,0,0,0,0,0,0,0,0,0,0,0,0,0,0,0,0,0,0,0,0,0,0,0,0,0,0,0,0,0,4809,4810,4811,0,0,0,0,0,0,0,0,0,0,0,4832,0,0,0,0,0,0,0,0,0,0,
0,0,0,0,0,0,0,0,0,0,0,0,548,549,550,0,0,0,0,0,0,3457,3458,3459,3460,3461,3462,3463,0,0,0,0,0,0,0,0,0,0,0,0,0,0,0,0,0,0,0,0,0,0,0,0,0,0,0,0,0,0,0,0,0,0,0,0,0,4809,4810,4811,0,0,0,4832,0,0,0,0,0,0,0,0,0,0,0,0,0,0,0,0,0,0,
0,0,0,0,0,0,0,0,0,0,0,0,556,557,558,0,0,0,0,0,0,3465,3466,3467,3468,3469,3470,3471,0,0,0,0,0,0,0,0,0,0,0,0,0,0,0,0,0,0,0,0,0,0,0,0,0,0,0,0,0,0,0,0,0,0,0,0,0,4809,4810,4811,0,0,0,4832,0,0,0,0,0,0,0,0,0,0,0,0,0,0,0,0,0,0,
0,0,0,0,0,0,0,0,0,0,0,0,0,533,0,0,0,0,0,0,0,3473,3474,3475,3476,3477,3478,3479,0,0,0,0,0,0,0,0,0,0,0,0,0,0,0,0,0,0,0,0,0,0,0,0,0,0,0,0,0,0,0,0,0,0,0,0,0,4809,4810,4811,0,0,0,4832,0,0,0,0,0,0,0,0,0,0,0,0,0,0,0,0,0,0,
0,0,0,0,0,0,0,0,0,0,0,0,540,541,542,0,0,0,0,0,0,3481,3482,3483,3484,3485,3486,3487,0,0,0,0,0,0,0,0,0,0,0,0,0,0,0,0,0,0,0,0,0,0,0,0,0,0,0,0,0,0,0,0,0,0,0,0,0,4809,4810,4811,0,0,0,4832,0,0,0,0,0,0,0,0,0,0,0,0,0,0,0,0,0,0,
0,0,0,0,0,0,0,0,0,0,0,0,548,549,550,0,0,0,0,0,0,3489,3490,3491,3492,3493,3494,3495,0,0,0,0,0,0,0,0,0,0,0,0,0,0,0,0,0,0,0,0,0,0,0,0,0,0,0,0,0,0,0,0,0,0,0,0,0,4809,4810,4811,0,0,0,4832,0,0,0,0,0,0,0,0,0,0,0,0,0,0,0,0,0,0,
0,0,0,0,0,0,0,0,0,0,0,0,556,557,558,0,0,0,0,0,0,3497,3498,3499,3500,3501,3502,3503,0,0,0,0,0,0,0,0,0,0,0,0,0,0,0,0,0,0,0,0,0,0,0,0,0,0,0,0,0,0,0,0,0,0,0,0,0,4809,4810,4811,0,0,0,4832,0,0,0,0,0,0,0,0,0,0,0,0,0,0,0,0,0,0,
0,0,0,0,0,0,0,0,0,0,0,0,0,533,0,0,0,0,0,0,0,3505,3506,3507,3508,3509,3510,3511,0,0,0,0,0,0,0,0,0,0,0,0,0,0,0,0,0,0,0,0,0,0,0,0,0,0,0,0,0,0,0,0,0,0,0,0,0,4809,4810,4811,0,0,0,4832,0,0,0,0,0,0,0,0,0,0,0,0,0,0,0,0,0,0,
0,0,0,0,0,0,0,0,0,0,0,0,540,541,542,0,0,0,0,0,0,3513,3514,3515,3516,3517,3518,3519,0,0,0,0,0,0,0,0,0,0,0,0,0,0,0,0,0,0,0,0,0,0,0,0,0,0,0,0,0,0,0,0,0,0,0,0,0,4817,4818,4819,0,0,0,4832,0,0,0,0,0,0,0,0,0,0,0,0,0,0,0,0,0,0,
0,0,0,0,0,0,0,0,0,0,0,0,548,549,550,0,0,0,0,0,0,3521,3522,3523,3524,3525,3526,3527,0,0,0,0,0,0,0,0,0,0,0,0,0,0,0,0,0,0,0,0,0,0,0,0,0,0,0,0,0,0,0,0,0,0,0,0,0,0,0,0,0,0,0,4832,0,0,0,0,0,0,0,0,0,0,0,0,0,0,0,0,0,0,
0,0,0,0,0,0,0,0,0,0,0,0,556,557,558,0,0,0,0,0,0,3529,3530,3531,3532,3533,3534,3535,0,0,0,0,0,0,0,0,0,0,0,0,0,0,0,0,0,0,0,0,0,0,0,0,0,0,0,0,0,0,0,0,0,0,0,0,0,0,0,0,0,0,0,4832,0,0,0,0,0,0,0,0,0,0,0,4853,4854,0,0,0,0,0,
0,0,0,0,0,0,0,0,0,0,0,0,0,533,0,0,0,0,0,0,0,3537,3538,3539,3540,3541,3542,3543,0,0,0,0,0,0,0,0,0,0,0,0,0,0,0,0,0,0,0,0,0,0,0,0,0,0,0,0,0,4801,4802,4802,4802,4802,4802,4802,4802,4802,4802,4802,4802,4802,4802,4802,4802,4802,4802,4802,4802,4802,4802,4802,4802,4803,0,4861,4862,0,0,0,0,0,
0,0,0,0,0,0,0,0,0,0,0,0,540,541,542,0,0,0,0,0,0,3545,3546,3547,3548,3549,3550,3551,0,0,0,0,0,0,0,0,0,0,0,0,0,0,0,0,0,0,0,0,0,0,0,0,0,0,0,0,0,4817,4818,4818,4818,4818,4818,4818,4818,4818,4818,4818,4818,4818,4818,4818,4818,4818,4818,4818,4818,4818,4818,4818,4818,4819,0,4869,4870,0,0,0,0,0,
0,0,0,0,0,0,0,0,0,0,0,0,548,549,550,0,0,0,0,0,0,0,0,0,0,0,0,0,0,0,0,0,0,0,0,0,0,0,0,0,0,0,0,0,0,0,0,0,0,0,0,0,0,0,0,0,0,0,0,0,0,0,0,0,0,0,0,0,0,0,0,0,0,0,0,0,0,0,0,0,0,0,0,4877,4878,0,0,0,0,0,
0,0,0,0,0,0,0,0,0,0,0,0,556,557,558,0,0,0,0,0,0,0,0,0,0,0,0,0,0,0,0,0,0,0,0,0,0,0,0,0,0,0,0,0,0,0,0,0,0,0,0,0,0,0,0,0,0,0,0,0,0,0,0,0,0,0,0,0,0,0,0,0,4832,0,0,0,0,0,0,0,0,0,0,0,0,0,0,0,0,0,
0,0,0,0,0,0,0,0,0,0,0,0,0,0,0,0,0,0,0,0,0,0,0,0,0,0,0,0,0,0,0,0,0,0,0,0,0,0,0,0,0,0,0,0,0,0,0,0,0,0,0,0,0,0,0,0,0,0,0,0,0,0,0,0,0,0,0,0,0,0,0,0,4832,0,0,0,0,0,0,0,0,0,0,0,0,0,0,0,0,0,
0,0,0,0,0,0,0,0,0,0,0,0,0,533,0,0,0,0,0,0,0,0,0,0,0,0,0,0,0,0,0,0,0,0,0,0,0,0,0,0,0,0,0,0,0,0,0,0,0,0,0,0,0,0,0,0,0,0,0,0,0,0,0,0,0,4801,4802,4803,0,0,0,0,4832,0,0,0,0,0,0,0,0,0,0,0,0,0,0,0,0,0,
0,0,0,0,0,0,0,0,0,0,0,0,540,541,542,0,0,0,0,0,0,0,0,0,0,0,0,0,0,0,0,0,0,0,0,0,0,0,0,0,0,0,0,0,0,0,0,0,0,0,0,0,0,0,0,0,0,0,0,0,0,0,0,0,0,4809,4810,4811,0,0,0,0,4832,0,0,0,0,0,0,0,0,0,0,0,0,0,0,0,0,0,
0,0,0,0,0,0,0,0,0,0,0,0,548,549,550,0,0,0,0,0,0,0,0,0,0,0,0,0,0,0,0,0,0,0,0,0,0,0,0,0,0,0,0,0,0,0,0,0,0,0,0,0,0,0,0,0,0,0,0,0,0,0,0,0,0,4809,4810,4811,0,0,0,0,4832,0,0,0,0,0,0,0,0,0,0,0,0,0,0,0,0,0,
0,0,0,0,0,0,0,0,0,0,0,0,556,557,558,0,98,99,123,123,123,123,123,115,115,116,816,0,0,0,0,0,0,0,0,0,0,0,0,0,0,0,0,0,0,0,0,0,0,0,0,0,0,0,0,0,0,0,0,0,0,0,0,0,0,4809,4810,4811,0,0,0,0,4832,0,0,0,0,0,0,0,0,0,0,0,0,0,0,0,0,0,
0,0,0,0,0,0,0,0,0,0,0,0,0,0,0,0,106,108,816,816,816,816,816,816,816,816,816,0,0,0,0,0,0,0,0,0,0,0,0,0,0,0,0,0,0,0,0,0,0,0,0,0,0,0,0,0,0,0,0,0,0,0,0,0,0,4809,4810,4811,0,0,0,0,4832,0,0,0,0,0,0,0,0,0,0,0,0,0,0,0,0,0,
0,0,0,0,0,0,0,0,0,0,0,0,0,0,0,0,106,117,99,99,99,99,99,99,99,99,99,99,99,99,99,99,100,0,0,533,0,0,0,0,0,0,0,0,0,0,0,0,0,0,0,0,0,0,0,0,0,0,0,0,0,0,0,0,0,4809,4810,4811,0,0,0,0,4832,0,0,0,0,0,0,0,0,0,0,0,0,0,0,0,0,0,
0,0,0,0,0,0,0,0,0,0,0,0,0,0,0,0,114,115,115,115,115,115,115,115,115,115,115,115,115,115,115,103,108,0,540,541,542,0,0,0,0,0,0,0,0,0,0,0,0,0,0,0,0,0,0,0,0,0,0,0,0,0,0,0,0,4809,4810,4811,0,0,0,0,4832,0,0,0,0,0,0,0,0,0,0,0,0,0,0,0,0,0,
0,0,0,0,0,0,0,0,0,0,0,0,0,0,0,0,785,786,786,786,786,786,786,786,786,786,786,786,786,786,787,106,108,0,548,549,550,0,0,0,0,0,0,0,0,0,0,0,0,0,0,0,0,0,0,0,0,0,0,0,0,0,0,0,0,4809,4810,4811,0,0,0,0,4832,0,0,0,0,0,0,0,0,0,0,0,0,0,0,0,0,0,
0,0,0,0,0,0,0,0,0,0,0,0,0,0,0,0,793,794,794,794,794,794,794,794,794,794,794,794,794,794,795,106,108,0,556,557,558,0,0,0,0,0,0,0,0,0,0,0,0,0,0,0,0,0,0,0,0,0,0,0,0,0,0,0,0,4809,4810,4811,0,0,0,0,4832,0,0,0,0,0,0,0,0,0,0,0,0,0,0,0,0,0,
0,0,0,0,0,0,0,0,0,0,0,0,0,533,0,0,801,802,802,802,802,802,802,802,802,802,802,802,802,802,803,106,108,0,0,533,0,0,0,0,0,0,0,0,0,0,0,0,0,0,0,0,0,0,0,0,0,0,0,0,0,0,0,0,0,4809,4810,4811,0,0,0,0,4832,0,0,0,0,0,0,0,0,0,0,0,0,0,0,0,0,0,
0,0,0,0,0,0,0,0,0,0,0,0,540,541,542,0,98,99,99,99,99,99,99,99,99,99,99,99,99,99,99,0,108,0,540,541,542,0,0,0,0,0,0,0,0,0,0,0,0,0,0,0,0,0,0,0,0,0,0,0,0,0,0,0,0,4809,4810,4811,0,0,0,0,4832,0,0,0,0,0,0,0,0,0,0,0,0,0,0,0,0,0,
0,0,0,0,0,0,0,0,0,0,0,0,548,549,550,0,106,101,115,115,115,115,115,115,115,115,115,115,115,115,115,115,116,0,548,549,550,0,0,0,0,0,0,0,0,0,0,0,0,0,0,0,0,0,0,0,0,0,0,0,0,0,0,0,0,4809,4810,4811,0,0,0,0,0,0,0,0,0,0,0,4832,0,0,0,0,0,0,0,0,0,0,
0,0,0,0,0,0,0,0,0,0,0,0,556,557,558,0,106,108,4832,4832,4832,0,4832,4832,4832,0,4832,0,0,4832,0,0,4832,0,556,557,558,0,0,0,0,0,0,0,0,0,0,0,0,0,0,0,0,0,0,0,0,0,0,0,0,0,0,0,0,4817,4818,4819,0,0,0,0,0,0,0,0,0,0,0,4832,0,0,0,0,0,0,0,0,0,0,
0,0,0,0,0,0,0,0,0,0,0,0,0,0,0,0,0,0,0,0,0,0,0,0,0,0,0,0,0,0,0,0,0,0,0,0,0,0,0,0,0,0,0,0,0,0,0,0,0,0,0,0,0,0,0,0,0,0,0,0,0,0,0,0,0,0,0,0,0,0,0,0,0,0,0,0,0,0,0,0,0,0,0,0,0,0,0,0,0,0,
0,0,0,0,0,0,0,0,0,0,0,0,0,0,0,0,0,0,0,0,4804,4804,4805,4805,4805,4805,4805,4805,4805,4805,4805,4805,4805,4805,4805,4805,4805,4805,4805,4805,4805,4805,4805,4805,4805,4805,4805,4805,4805,4805,4805,4805,4805,4805,4805,4805,4805,4805,4805,4805,4805,4805,4805,4805,4805,4805,4805,4805,4805,4805,4805,4805,4805,4805,4805,4805,4805,4805,4805,4805,4805,4805,4805,4805,4805,4805,4806,4806,0,0,
0,0,0,0,0,0,0,0,0,0,0,0,0,0,0,0,0,0,0,0,4812,4820,4821,4821,4821,4821,4821,4821,4821,4821,4821,4821,4821,4821,4821,4821,4821,4821,4821,4821,4821,4821,4821,4821,4821,4821,4821,4821,4821,4821,4821,4821,4821,4821,4821,4821,4821,4821,4821,4821,4821,4821,4821,4821,4821,4821,4821,4821,4821,4821,4821,4821,4821,4821,4821,4821,4821,4821,4821,4821,4821,4821,4821,4821,4821,4821,4822,4814,0,0,
0,0,0,0,0,0,0,0,0,0,0,0,0,0,0,0,0,0,0,0,4820,4821,4821,4821,4821,4821,4821,4821,4821,4821,4821,4821,4821,4821,4821,4821,4821,4821,4821,4821,4821,4821,4821,4821,4821,4821,4821,4821,4821,4821,4821,4821,4821,4821,4821,4821,4821,4821,4821,4821,4821,4821,4821,4821,4821,4821,4821,4821,4821,4821,4821,4821,4821,4821,4821,4821,4821,4821,4821,4821,4821,4821,4821,4821,4821,4821,4821,4822,0,0,
0,0,0,0,0,0,0,0,0,0,0,0,0,0,0,0,0,0,0,0,0,0,0,0,0,0,0,0,0,0,0,0,0,0,0,0,0,0,0,0,0,0,0,0,0,0,0,0,0,0,0,0,0,0,0,0,0,0,0,0,0,0,0,0,0,0,0,0,0,0,0,0,0,0,0,0,0,0,0,0,0,0,0,0,0,0,0,0,0,0,
0,0,0,0,0,0,0,0,0,0,0,0,0,0,0,0,0,0,0,0,0,0,0,0,0,0,0,0,0,0,0,0,0,0,0,0,0,0,0,0,0,0,0,0,0,0,0,0,0,0,0,0,0,0,0,0,0,0,0,0,0,0,0,0,0,0,0,0,0,0,0,0,0,0,0,0,0,0,0,0,0,0,0,0,0,0,0,0,0,0
</data>
 </layer>
 <objectgroup id="4" name="collisioni">
  <object id="1" x="385.281" y="322.562" width="238.223" height="625.015"/>
  <object id="2" x="932.016" y="323.239" width="150.283" height="635.466"/>
  <object id="3" x="621.733" y="325.182" width="325.83" height="53.7652"/>
  <object id="4" x="626.267" y="810.364" width="97.166" height="140.567"/>
  <object id="5" x="845.215" y="807.126" width="84.2105" height="141.215"/>
  <object id="6" x="841.328" y="960.648" width="9.7166" height="45.9919"/>
  <object id="7" x="593.231" y="1005.99" width="257.166" height="7.12551"/>
  <object id="8" x="395.012" y="1178.95" width="68.0162" height="77.085"/>
  <object id="9" x="1104.32" y="1050.69" width="60.2429" height="79.6761"/>
  <object id="10" x="1108.86" y="1187.37" width="55.7085" height="69.9595"/>
  <object id="11" x="516.794" y="1098.62" width="454.089" height="72.5506"/>
  <object id="17" x="685.215" y="393.846" width="68.0162" height="369.231"/>
  <object id="18" x="812.502" y="393.198" width="68.0162" height="369.231"/>
  <object id="19" x="750.964" y="354.98" width="68.0162" height="369.231"/>
  <object id="20" x="582.219" y="1250.2" width="78.3806" height="23.9676"/>
  <object id="21" x="714.688" y="1253.76" width="78.3806" height="23.9676"/>
  <object id="22" x="1036.63" y="1255.06" width="12.9555" height="23.9676"/>
  <object id="23" x="938.494" y="1257" width="12.9555" height="23.9676"/>
  <object id="24" x="840.032" y="1256.36" width="12.9555" height="23.9676"/>
  <object id="26" x="125" y="328" width="238" height="1137"/>
  <object id="42" x="481" y="1164" width="24" height="14"/>
  <object id="44" x="6.5" y="6.5" width="2871" height="302"/>
  <object id="45" x="2736" y="306" width="140" height="970"/>
  <object id="46" x="1222" y="327" width="79" height="185"/>
  <object id="47" x="1227" y="1043" width="74" height="225"/>
  <object id="48" x="1291" y="647" width="14" height="262"/>
  <object id="49" x="1324" y="678" width="14" height="210"/>
  <object id="50" x="1359" y="703" height="148"/>
  <object id="51" x="1395" y="735" width="10" height="83"/>
  <object id="52" x="1413" y="776" width="360" height="16"/>
  <object id="53" x="1770" y="516" width="15" height="374"/>
  <object id="54" x="1737" y="874" width="14" height="130"/>
  <object id="55" x="1619" y="1004" width="125" height="13"/>
  <object id="56" x="1607" y="1005" width="24" height="137"/>
  <object id="57" x="1522" y="1071" width="40" height="99"/>
  <object id="58" x="1573" y="1158" width="11" height="13"/>
  <object id="59" x="1485" y="434" width="40" height="95"/>
  <object id="60" x="1554" y="483" width="13" height="55"/>
  <object id="61" x="1551" y="525" width="224" height="16"/>
  <object id="62" x="2087" y="333" width="81" height="296"/>
  <object id="63" x="1798" y="710" width="958" height="74"/>
  <object id="64" x="2307" y="809" width="17" height="399"/>
  <object id="65" x="2280" y="394" width="12" height="309"/>
  <object id="66" x="2539" y="321" width="14" height="55"/>
  <object id="67" x="2561" y="376" width="86" height="101"/>
  <object id="68" x="2605" y="481" width="7" height="22"/>
  <object id="69" x="2097" y="880" width="60" height="390"/>
  <object id="70" x="2440" y="973" width="47" height="102"/>
  <object id="71" x="2566" y="1102" width="75" height="131"/>
  <object id="72" x="2536" y="1226" width="16" height="47"/>
  <object id="77" x="593.333" y="1292" width="2278.67" height="181.333"/>
 </objectgroup>
 <objectgroup id="5" name="eventi">
  <object id="14" name="warp" type="warp" x="767.879" y="732.446" width="32" height="32">
   <properties>
    <property name="destinazione" value="osservatorio_interno"/>
    <property name="spawn_id" value="entrata_principale"/>
    <property name="type" value="warp"/>
   </properties>
  </object>
  <object id="16" name="spawn" type="spawn" x="769.652" y="774.136" width="29.3333" height="28">
   <properties>
    <property name="id" value="da osservatorio_interno"/>
    <property name="type" value="spawn"/>
   </properties>
  </object>
  <object id="25" name="erba monteporzio" x="1094.8" y="438.775" width="83.1817" height="510.628">
   <properties>
    <property name="id" value="incontri monteporzio"/>
    <property name="type" value="erba_alta"/>
   </properties>
  </object>
  <object id="30" name="oggetto_polvere_stelle" type="oggetto" x="1126" y="396.75" width="23.5" height="18">
   <properties>
    <property name="contenuto" value="polvere_stelle"/>
    <property name="id" value="oggetto_polvere_stelle"/>
    <property name="quantita" type="int" value="1"/>
    <property name="type" value="oggetto"/>
   </properties>
  </object>
  <object id="35" name="grunt_ext_1" x="749.333" y="856">
   <properties>
    <property name="condizione" value="osservatorio_confronto_attivo"/>
    <property name="direzione" value="sud"/>
    <property name="id" value="cotral_osservatorio_grunt_ext_1"/>
    <property name="noTestBypass" type="bool" value="true"/>
    <property name="type" value="npc"/>
   </properties>
   <point/>
  </object>
  <object id="37" name="grunt_ext_2" x="816.667" y="859.333">
   <properties>
    <property name="condizione" value="osservatorio_confronto_attivo"/>
    <property name="direzione" value="sud"/>
    <property name="id" value="cotral_osservatorio_grunt_ext_2"/>
    <property name="noTestBypass" type="bool" value="true"/>
    <property name="type" value="npc"/>
   </properties>
   <point/>
  </object>
  <object id="39" name="camilla_confronto" x="755.167" y="915.167">
   <properties>
    <property name="condizione" value="osservatorio_confronto_attivo"/>
    <property name="direzione" value="nord"/>
    <property name="id" value="camilla_confronto_osservatorio"/>
    <property name="noTestBypass" type="bool" value="true"/>
    <property name="type" value="npc"/>
   </properties>
   <point/>
  </object>
  <object id="41" name="trigger_confronto_osservatorio" x="740" y="940.667" width="90" height="13.3333">
   <properties>
    <property name="type" value="trigger_confronto_osservatorio"/>
   </properties>
  </object>
  <object id="73" name="trainer_hiker" x="2674" y="1012">
   <properties>
    <property name="direzione" value="sud"/>
    <property name="id" value="trainer_osservatorio_1"/>
    <property name="sprite" value="trainer_HIKER"/>
    <property name="team_gdf" type="bool" value="false"/>
    <property name="trigger" value="avvicinamento"/>
    <property name="type" value="trainer"/>
    <property name="vista" type="int" value="4"/>
   </properties>
   <point/>
  </object>
  <object id="74" name="trainer_hiker" x="2413" y="530">
   <properties>
    <property name="direzione" value="sud"/>
    <property name="id" value="trainer_osservatorio_2"/>
    <property name="sprite" value="trainer_HIKER"/>
    <property name="team_gdf" type="bool" value="false"/>
    <property name="trigger" value="avvicinamento"/>
    <property name="type" value="trainer"/>
    <property name="vista" type="int" value="4"/>
   </properties>
   <point/>
  </object>
  <object id="75" name="oggetto_mt_earthquake" x="2674" y="339">
   <properties>
    <property name="contenuto" value="mt_earthquake"/>
    <property name="id" value="oggetto_mt_earthquake_osservatorio"/>
    <property name="quantita" type="int" value="1"/>
    <property name="type" value="oggetto"/>
   </properties>
   <point/>
  </object>
  <object id="76" name="oggetto_sabbia_soffice" x="2675" y="1231">
   <properties>
    <property name="contenuto" value="sabbia_soffice"/>
    <property name="id" value="oggetto_sabbia_soffice_osservatorio"/>
    <property name="quantita" type="int" value="1"/>
    <property name="type" value="oggetto"/>
   </properties>
   <point/>
  </object>
 </objectgroup>
</map>
