<?xml version="1.0" encoding="UTF-8"?>
<map version="1.10" tiledversion="1.12.2" orientation="orthogonal" renderorder="right-down" width="50" height="50" tilewidth="32" tileheight="32" infinite="0" nextlayerid="7" nextobjectid="37">
 <editorsettings>
  <export target="Percorso_8.tmj" format="json"/>
 </editorsettings>
 <tileset firstgid="1" source="../../outside.tsx"/>
 <layer id="1" name="ground" width="50" height="50">
  <data encoding="csv">
6,6,6,6,6,6,6,6,6,6,6,6,6,6,6,6,6,6,6,6,6,6,6,6,6,6,6,6,6,6,6,6,6,6,6,6,6,6,6,6,6,6,6,6,6,6,6,6,6,6,
6,6,6,6,6,6,6,6,6,6,6,6,6,6,6,6,6,6,6,6,6,6,6,6,6,6,6,6,6,6,6,6,6,6,6,6,6,6,6,6,6,6,6,6,6,6,6,6,6,6,
6,6,6,6,6,6,6,6,6,6,6,6,6,6,6,6,6,6,6,6,6,6,6,6,6,6,6,6,6,6,6,6,6,6,6,6,6,6,6,6,6,6,6,6,6,6,6,6,6,6,
6,6,6,6,6,6,6,6,6,6,6,6,6,6,6,6,6,6,6,6,6,6,6,6,6,6,6,6,6,6,6,6,6,6,6,6,6,6,6,6,6,6,6,6,6,6,6,6,6,6,
6,6,6,6,6,6,6,6,6,6,6,6,6,6,6,6,6,6,6,6,6,6,6,6,6,6,6,6,6,6,6,6,6,6,6,6,6,6,6,6,6,6,6,6,6,6,6,6,6,6,
6,6,6,6,6,6,6,6,6,6,6,6,6,6,6,6,6,6,6,6,6,6,6,6,6,6,6,6,6,6,6,6,6,6,6,6,6,6,6,6,6,6,6,6,6,6,6,6,6,6,
6,6,6,6,6,6,6,6,6,6,6,6,6,6,6,6,6,6,6,6,6,6,6,6,6,6,6,6,6,6,6,6,6,6,6,6,6,6,6,6,6,6,6,6,6,6,6,6,6,6,
6,6,6,6,6,6,6,6,32,6,6,6,6,6,6,6,6,6,6,6,6,6,6,6,6,6,6,6,6,6,6,6,6,6,6,6,6,32,32,6,6,6,6,6,6,6,6,6,6,6,
6,6,6,6,6,6,6,6,32,6,6,6,6,6,6,32,32,32,32,6,6,6,6,6,6,6,6,6,6,6,6,6,6,6,6,6,32,32,6,32,6,6,6,6,6,6,6,6,6,6,
6,6,6,6,6,6,6,6,6,32,32,32,32,32,32,6,6,6,32,6,6,6,6,6,6,6,6,6,6,6,6,6,6,6,6,32,32,32,32,32,32,6,6,6,6,6,6,6,6,6,
6,6,6,6,6,6,6,6,6,6,32,32,6,6,6,6,32,6,6,32,6,6,6,6,6,6,6,6,6,6,6,6,6,6,6,32,32,6,32,32,32,6,6,6,6,6,6,6,6,6,
6,6,6,6,6,6,6,6,6,6,32,6,32,32,32,32,32,6,6,32,6,6,6,6,6,6,6,6,6,6,6,6,6,6,32,32,6,6,6,32,32,32,6,6,6,6,6,6,6,6,
6,6,6,6,6,6,6,6,6,6,32,6,32,32,6,6,32,6,6,32,6,6,6,6,6,6,6,6,6,6,6,6,6,6,32,6,6,6,6,6,32,32,6,6,6,6,6,6,6,6,
6,6,6,6,6,6,6,6,6,6,32,32,6,32,6,6,32,6,6,32,6,6,6,6,6,6,6,6,6,6,6,6,6,6,32,6,6,6,6,6,32,32,6,6,6,6,6,6,6,6,
6,6,6,6,6,6,6,6,6,32,32,6,6,32,6,6,6,32,6,32,6,6,6,6,6,6,6,6,6,6,6,6,6,32,32,6,6,6,6,32,32,32,6,6,6,6,6,6,6,6,
6,6,6,6,6,6,6,6,6,32,32,6,6,32,6,6,6,32,6,32,6,6,6,6,6,6,6,6,6,6,6,6,6,32,32,6,6,6,6,32,32,32,6,6,6,6,6,6,6,6,
6,6,6,6,6,6,6,6,6,32,6,6,6,32,6,6,6,32,6,32,6,6,6,6,6,6,6,6,6,6,6,6,6,32,32,6,6,6,6,32,32,32,6,6,6,6,6,6,6,6,
6,6,6,6,6,6,6,6,6,32,6,6,6,32,6,6,6,32,6,32,6,6,6,6,6,6,6,6,6,6,6,6,6,32,32,6,6,6,6,32,6,32,32,6,6,6,6,6,6,6,
6,6,6,6,6,6,6,6,32,32,6,6,6,32,6,6,6,32,6,32,6,6,6,6,6,6,6,6,6,6,6,6,6,32,32,6,6,6,6,32,6,32,32,6,6,6,6,6,6,6,
6,6,6,6,6,6,6,6,32,32,6,6,6,32,6,6,6,32,6,32,6,6,6,6,6,6,6,6,6,6,6,6,6,32,32,6,6,6,6,32,6,32,32,6,6,6,6,6,6,6,
6,6,6,6,6,6,6,6,32,32,6,6,6,32,6,6,6,32,6,32,6,6,6,6,6,6,6,6,6,6,6,6,6,32,32,6,6,6,32,32,6,32,32,6,6,6,6,6,6,6,
6,6,6,6,6,6,6,6,32,32,6,6,6,32,6,6,6,32,32,6,6,6,6,6,6,6,6,6,6,6,6,6,6,32,6,32,6,32,6,32,6,32,6,6,6,6,6,6,6,6,
6,6,6,6,6,6,6,32,6,32,6,6,6,32,6,6,6,32,32,6,6,6,6,6,6,6,6,6,6,6,6,6,6,32,6,32,6,32,6,32,6,32,6,6,6,6,6,6,6,6,
6,6,6,6,6,6,6,32,6,6,32,6,6,32,6,6,6,32,32,6,6,6,6,6,6,6,6,6,6,6,6,6,6,6,32,32,6,32,6,32,6,32,6,6,6,6,6,6,6,6,
6,6,6,6,6,6,6,32,6,6,32,6,6,32,6,6,32,32,6,6,6,6,6,6,6,6,6,6,6,6,6,6,6,6,32,32,32,6,32,32,32,32,6,6,6,6,6,6,6,6,
6,6,6,6,6,6,6,32,32,6,32,32,6,32,6,6,32,32,6,6,6,6,6,6,6,6,6,6,6,6,6,6,6,6,6,32,32,6,6,6,6,32,6,6,6,6,6,6,6,6,
6,6,6,6,6,6,6,6,32,6,6,32,32,32,6,32,32,32,6,6,6,6,6,6,6,6,6,6,6,6,6,6,6,6,6,32,6,6,6,6,32,6,6,6,6,6,6,6,6,6,
6,6,6,6,6,6,6,6,32,6,6,6,6,6,6,32,32,6,6,6,6,6,6,6,6,6,6,6,6,6,6,6,6,6,6,32,32,6,6,6,32,6,6,6,6,6,6,6,6,6,
6,6,6,6,6,6,6,6,32,6,6,6,6,32,32,6,32,6,6,6,6,6,6,6,6,6,6,6,6,6,6,6,6,6,6,6,32,6,6,32,32,6,6,6,6,6,6,6,6,6,
6,6,6,6,6,6,6,6,32,32,32,32,32,32,32,32,32,6,6,6,6,6,6,6,6,6,6,6,6,6,6,6,6,6,6,6,6,32,32,32,6,6,6,6,6,6,6,6,6,6,
6,6,6,6,6,6,6,6,6,6,6,6,6,6,32,6,6,6,6,6,6,6,6,6,6,6,6,6,6,6,6,6,6,6,6,6,6,6,6,6,6,6,6,6,6,6,6,6,6,6,
6,6,6,6,6,6,6,6,6,6,6,6,6,6,6,6,6,6,6,6,6,6,6,6,6,6,6,6,6,6,6,6,6,6,6,6,6,6,6,6,6,6,6,6,6,6,6,6,6,6,
6,6,6,6,6,6,6,6,6,6,6,6,6,6,6,6,6,6,6,6,6,6,6,6,6,6,6,6,6,6,6,6,6,6,6,6,6,6,6,6,6,6,6,6,6,6,6,6,6,6,
6,6,6,6,6,6,6,6,6,6,6,6,6,6,6,6,6,6,6,6,6,6,6,6,6,6,6,6,6,6,6,6,6,6,6,6,6,6,6,6,6,6,6,6,6,6,6,6,6,6,
6,6,6,6,6,6,6,6,6,6,6,6,6,6,6,6,6,6,6,6,6,6,6,6,6,6,6,6,6,6,6,6,6,6,6,6,6,6,6,6,6,6,6,6,6,6,6,6,6,6,
6,6,6,6,6,6,6,6,6,6,6,6,6,6,6,6,6,6,6,6,6,6,6,6,6,6,6,6,6,6,6,6,6,6,6,6,6,6,6,6,6,6,6,6,6,6,6,6,6,6,
6,6,6,6,6,6,6,6,6,6,6,6,6,6,6,6,6,6,6,6,6,6,6,6,6,6,6,6,6,6,6,6,6,6,6,6,6,6,6,6,6,6,6,6,6,6,6,6,6,6,
6,6,6,6,6,6,6,6,6,6,6,6,6,6,6,6,6,6,6,6,6,6,6,6,6,6,6,6,6,6,6,6,6,6,6,6,6,6,6,6,6,6,6,6,6,6,6,6,6,6,
6,6,6,6,6,6,6,6,6,6,6,6,6,6,6,6,6,6,6,6,6,6,6,6,6,6,6,6,6,6,6,6,6,6,6,6,6,6,6,6,6,6,6,6,6,6,6,6,6,6,
6,6,6,6,6,6,6,6,6,6,6,6,6,6,6,6,6,6,6,6,6,6,6,6,6,6,6,6,6,6,6,6,6,6,6,6,6,6,6,6,6,6,6,6,6,6,6,6,6,6,
6,6,6,6,6,6,6,6,6,6,6,6,6,6,6,6,6,6,6,6,6,6,6,6,6,6,6,6,6,6,6,6,6,6,6,6,6,6,6,6,6,6,6,6,6,6,6,6,6,6,
6,6,6,6,6,6,6,6,6,6,6,6,6,6,6,6,6,6,6,6,6,6,6,6,6,6,6,6,6,6,6,6,6,6,6,6,6,6,6,6,6,6,6,6,6,6,6,6,6,6,
6,6,6,6,6,6,6,6,6,6,6,6,6,6,6,6,6,6,6,6,6,6,6,6,6,6,6,6,6,6,6,6,6,6,6,6,6,6,6,6,6,6,6,6,6,6,6,6,6,6,
6,6,6,6,6,6,6,6,6,6,6,6,6,6,6,6,6,6,6,6,6,6,6,6,6,6,6,6,6,6,6,6,6,6,6,6,6,6,6,6,6,6,6,6,6,6,6,6,6,6,
6,6,6,6,6,6,6,6,6,6,6,6,6,6,6,6,6,6,6,6,6,6,6,6,6,6,6,6,6,6,6,6,6,6,6,6,6,6,6,6,6,6,6,6,6,6,6,6,6,6,
6,6,6,6,6,6,6,6,6,6,6,6,6,6,6,6,6,6,6,6,6,6,6,6,6,6,6,6,6,6,6,6,6,6,6,6,6,6,6,6,6,6,6,6,6,6,6,6,6,6,
6,6,6,6,6,6,6,6,6,6,6,6,6,6,6,6,6,6,6,6,6,6,6,6,6,6,6,6,6,6,6,6,6,6,6,6,6,6,6,6,6,6,6,6,6,6,6,6,6,6,
6,6,6,6,6,6,6,6,6,6,6,6,6,6,6,6,6,6,6,6,6,6,6,6,6,6,6,6,6,6,6,6,6,6,6,6,6,6,6,6,6,6,6,6,6,6,6,6,6,6,
6,6,6,6,6,6,6,6,6,6,6,6,6,6,6,6,6,6,6,6,6,6,6,6,6,6,6,6,6,6,6,6,6,6,6,6,6,6,6,6,6,6,6,6,6,6,6,6,6,6,
6,6,6,6,6,6,6,6,6,6,6,6,6,6,6,6,6,6,6,6,6,6,6,6,6,6,6,6,6,6,6,6,6,6,6,6,6,6,6,6,6,6,6,6,6,6,6,6,6,6
</data>
 </layer>
 <layer id="2" name="deco_sotto" width="50" height="50">
  <data encoding="csv">
809,802,802,802,802,802,802,802,802,802,802,802,802,802,802,802,802,802,802,802,802,802,802,802,797,797,797,802,802,802,802,802,802,802,802,802,802,802,802,802,802,802,802,802,802,805,805,805,805,810,
798,809,802,802,802,802,802,802,802,802,802,802,802,802,802,802,802,802,802,802,802,802,802,802,797,797,797,802,802,802,802,802,802,802,802,802,802,802,802,802,802,802,802,802,802,805,805,805,810,796,
798,798,809,809,802,802,802,802,802,802,802,802,802,802,802,802,802,802,802,802,802,802,802,802,802,802,802,802,802,802,802,802,802,802,802,802,802,802,802,802,802,802,802,802,802,805,805,810,796,796,
798,798,798,809,802,802,802,802,802,802,802,802,802,802,802,802,802,802,802,802,802,802,802,802,802,802,802,802,802,802,802,802,802,802,802,802,802,802,802,802,802,802,802,802,802,805,810,796,796,796,
798,798,798,798,809,802,802,802,802,802,802,802,802,802,802,802,802,802,802,802,802,802,802,802,802,802,802,802,802,802,802,802,802,802,802,802,802,802,802,802,802,802,802,802,802,810,796,796,796,796,
798,798,798,798,795,0,0,0,0,0,0,0,0,0,0,0,0,0,0,0,0,0,694,703,703,703,703,703,703,703,696,0,0,0,0,0,0,0,0,0,0,0,0,0,949,796,796,796,796,796,
798,798,798,798,795,0,0,0,0,0,0,0,0,0,949,0,0,0,0,0,0,0,0,703,703,0,703,703,703,703,704,0,0,0,0,0,0,0,0,0,0,0,0,0,0,796,796,796,796,796,
798,798,798,798,795,0,0,0,0,0,0,0,0,0,0,0,0,0,0,0,0,0,0,703,703,703,0,703,703,703,704,0,0,0,0,0,0,0,0,0,0,0,0,0,0,796,796,796,796,796,
798,798,798,798,795,0,0,0,0,0,0,0,7,7,0,0,0,0,0,0,0,0,0,703,0,703,703,703,703,703,704,0,0,0,0,7,7,7,7,0,0,0,0,0,0,796,796,796,796,796,
798,798,798,798,795,0,0,0,0,0,7,7,7,7,0,0,0,0,0,0,0,0,703,703,703,703,703,703,703,703,704,0,0,0,0,7,0,0,7,7,0,0,0,0,0,796,796,796,796,796,
798,798,798,798,795,0,0,0,0,0,7,0,0,7,7,7,0,0,0,0,0,0,703,703,703,703,703,703,703,703,704,0,0,0,0,7,0,0,0,0,7,0,0,0,0,796,796,796,796,796,
798,798,798,798,795,0,0,0,0,7,7,0,7,7,7,7,0,0,0,0,0,0,703,703,703,703,703,703,703,703,704,0,0,0,0,7,7,0,7,7,7,0,0,0,0,796,796,796,796,796,
798,798,798,798,795,0,0,0,0,7,7,7,0,0,7,7,0,0,0,0,0,0,703,703,703,703,703,703,703,703,704,0,0,0,0,0,7,7,7,7,0,0,0,0,0,796,796,796,796,796,
798,798,798,798,795,0,0,0,7,0,7,7,0,0,0,7,7,0,0,0,0,0,703,703,703,703,703,703,703,703,704,0,0,0,0,0,7,7,7,7,0,0,0,0,0,796,796,796,796,796,
798,798,798,798,795,0,0,0,7,7,0,7,0,0,0,7,7,0,0,0,0,0,703,703,703,703,703,703,703,703,704,0,0,0,0,0,7,7,7,0,0,0,0,0,0,796,796,796,796,796,
798,798,798,798,795,0,0,0,7,0,7,0,0,0,0,7,7,0,0,0,0,0,703,703,703,703,703,703,703,703,704,0,0,0,0,7,7,7,7,7,0,0,0,0,0,796,796,796,796,796,
798,798,798,798,795,0,0,0,7,0,7,0,0,0,7,0,7,7,0,0,0,0,703,703,703,703,703,703,703,703,704,0,0,0,7,0,7,7,7,7,7,0,0,0,0,796,796,796,796,796,
798,798,798,798,795,0,0,0,7,0,7,0,0,0,7,0,0,7,0,0,0,0,703,703,703,703,703,703,703,703,704,0,0,0,7,0,7,7,7,7,7,0,0,0,0,796,796,796,796,796,
798,798,798,798,795,0,0,0,7,0,7,7,0,0,7,0,0,7,0,0,0,0,703,703,703,703,703,703,703,703,704,0,0,0,7,0,7,0,7,7,7,0,0,0,0,796,796,796,796,796,
798,798,798,798,795,0,0,0,7,0,0,7,0,0,7,0,0,7,0,0,0,0,703,703,703,703,703,703,703,703,704,0,0,0,7,7,7,7,7,7,7,0,0,0,0,796,796,796,796,796,
798,798,798,798,795,0,0,0,7,0,0,7,7,7,0,0,7,7,0,0,0,0,703,703,703,703,703,703,703,703,704,0,0,0,7,0,0,0,0,7,7,7,0,0,0,796,796,796,796,796,
798,798,798,798,795,0,0,0,7,0,0,7,0,7,7,0,7,7,0,0,0,0,703,703,703,703,703,703,703,703,704,0,0,7,7,0,0,7,7,0,0,7,7,0,0,796,796,796,796,796,
798,798,798,798,795,0,0,0,7,0,0,7,0,7,7,7,7,7,0,0,0,0,703,703,703,703,703,703,703,703,704,0,0,7,0,0,0,7,0,0,0,0,7,0,0,796,796,796,796,796,
798,798,798,798,795,0,0,0,7,0,0,7,7,0,0,0,0,7,0,0,0,0,703,703,703,703,703,703,703,703,704,0,0,7,0,0,7,0,0,0,0,0,7,0,0,796,796,796,796,796,
798,798,798,798,795,0,0,0,7,0,0,7,7,0,0,0,0,7,0,0,0,0,703,703,703,703,703,703,703,703,704,0,0,7,0,0,7,0,0,0,0,7,7,0,0,796,796,796,796,796,
798,798,798,798,795,0,0,0,7,0,0,7,7,0,0,0,7,7,0,0,0,0,703,703,703,703,703,703,703,703,704,0,0,7,0,0,7,0,0,5,0,7,0,0,0,796,796,796,796,796,
798,798,798,798,795,0,0,0,7,0,7,0,7,0,0,0,7,0,0,0,0,0,703,703,703,703,703,703,703,703,704,0,0,7,7,0,7,0,0,7,7,7,0,0,0,796,796,796,796,796,
798,798,798,798,795,0,0,0,0,7,7,0,7,7,0,7,7,0,0,0,0,0,703,703,703,703,703,703,703,703,704,0,0,0,7,7,7,7,7,7,0,0,0,0,0,796,796,796,796,796,
798,798,798,798,795,0,0,0,0,7,0,0,0,7,7,7,0,0,0,0,0,0,703,703,703,703,703,703,703,703,704,0,0,0,0,0,0,0,0,0,0,0,0,0,0,796,796,796,796,796,
798,798,798,798,795,0,0,0,0,0,0,0,0,0,0,0,0,0,0,0,0,0,703,703,703,703,703,703,703,703,704,0,0,0,0,0,0,0,0,0,0,0,0,0,0,796,796,796,796,796,
798,798,798,798,795,0,0,0,0,0,0,0,0,0,0,0,0,0,0,0,0,0,703,703,703,703,703,703,703,703,704,0,0,0,0,0,0,0,0,0,0,0,0,0,0,796,796,796,796,796,
798,798,798,798,795,0,0,0,0,0,0,0,0,0,0,0,0,0,0,0,0,0,703,703,703,703,703,703,703,703,712,0,0,0,0,0,0,0,0,0,0,0,0,0,0,796,796,796,796,796,
798,798,798,798,795,791,791,791,791,791,791,791,791,771,791,791,791,791,791,791,791,791,791,791,791,791,791,791,791,791,791,791,791,791,791,791,791,791,791,791,791,791,791,791,791,791,796,796,796,796,
798,798,798,798,795,791,791,791,791,791,791,791,791,771,791,791,791,791,791,791,791,791,791,791,791,791,791,791,791,791,791,791,791,791,791,791,791,791,791,791,791,791,791,791,791,791,791,796,796,796,
798,798,798,798,795,791,791,791,791,791,791,791,791,771,791,791,791,791,791,791,791,791,791,791,791,791,791,791,791,791,791,791,791,791,791,791,791,791,791,791,791,791,791,791,791,791,791,791,796,796,
798,798,798,798,795,791,791,791,791,791,791,791,791,771,791,791,791,791,791,791,791,791,791,791,791,791,791,791,791,791,791,791,791,791,791,791,791,791,791,791,791,791,791,791,791,791,791,791,791,796,
850,850,850,850,850,850,850,850,850,850,850,850,850,850,850,850,850,850,850,850,850,850,955,850,162,163,164,850,850,850,850,850,850,850,850,850,850,850,850,850,850,850,850,850,850,850,850,850,0,0,
0,0,0,0,0,0,0,0,0,0,0,0,0,0,0,0,0,0,0,0,0,0,0,0,162,163,164,0,0,0,0,0,0,0,0,0,0,0,0,0,0,0,0,0,0,0,0,0,0,0,
0,0,0,0,0,0,0,0,0,0,0,0,0,0,0,0,0,0,0,0,0,0,0,0,162,163,164,0,955,0,0,0,0,0,0,0,0,0,0,0,0,0,0,0,0,0,0,0,0,0,
155,155,155,155,155,155,155,155,155,155,155,155,155,155,155,155,155,155,155,155,155,155,155,155,175,163,164,0,0,0,0,0,0,0,0,0,0,0,0,0,0,0,0,0,0,0,0,0,0,0,
163,163,163,163,163,163,163,163,163,163,163,163,163,163,163,163,163,163,163,163,163,163,163,163,163,163,164,0,0,0,0,0,0,0,0,0,0,0,0,0,0,0,0,0,0,0,0,0,0,0,
171,171,171,171,171,171,171,171,171,171,171,171,171,171,171,171,171,171,171,171,171,171,171,171,171,171,172,0,0,0,0,0,0,0,0,0,0,0,0,0,0,0,0,0,0,0,0,0,0,0,
0,0,0,0,0,0,0,0,0,0,0,0,0,0,0,0,0,0,0,0,0,0,0,0,0,0,0,0,0,0,0,0,0,0,0,0,0,0,0,0,0,0,0,0,0,0,0,0,0,0,
0,0,0,0,0,0,0,0,0,0,0,0,0,0,0,0,0,0,0,0,0,0,0,0,0,0,0,0,0,0,0,0,0,0,0,0,0,0,0,0,0,0,0,0,0,0,0,0,0,0,
0,0,0,0,0,0,0,0,0,0,0,0,0,0,0,0,0,0,0,0,0,0,0,0,0,0,0,0,0,0,0,0,0,0,0,0,0,0,0,0,0,0,0,0,0,0,0,0,0,0,
0,466,0,0,466,0,0,466,0,0,466,0,0,466,0,0,466,0,0,466,0,0,466,0,0,466,0,0,466,0,0,466,0,0,466,0,0,466,0,0,466,0,0,466,0,0,466,0,0,0,
473,474,475,473,474,475,473,474,475,473,474,475,473,474,475,473,474,475,473,474,475,473,474,475,473,474,475,473,474,475,473,474,475,473,474,475,473,474,475,473,474,475,473,474,475,473,474,475,0,0,
481,482,483,481,482,483,481,482,483,481,482,483,481,482,483,481,482,483,481,482,483,481,482,483,481,482,483,481,482,483,481,482,483,481,482,483,481,482,483,481,482,483,481,482,483,481,482,483,0,0,
489,490,491,489,490,491,489,490,491,489,490,491,489,490,491,489,490,491,489,490,491,489,490,491,489,490,491,489,490,491,489,490,491,489,490,491,489,490,491,489,490,491,489,490,491,489,490,491,0,0,
497,498,499,497,498,499,497,498,499,497,498,499,497,498,499,497,498,499,497,498,499,497,498,499,497,498,499,497,498,499,497,498,499,497,498,499,497,498,499,497,498,499,497,498,499,497,498,499,0,0
</data>
 </layer>
 <layer id="3" name="edifici" width="50" height="50">
  <data encoding="csv">
0,0,0,0,0,0,0,0,0,0,0,0,0,0,0,0,0,0,0,0,0,0,0,1201,1202,1203,1204,1205,0,0,0,0,0,0,0,0,0,0,0,0,0,0,0,0,0,0,0,0,0,0,
0,0,0,0,0,0,0,0,0,0,0,0,0,0,0,0,0,0,0,0,0,0,0,1209,1210,1211,1212,1213,0,0,0,0,0,0,0,0,0,0,0,0,0,0,0,0,0,0,0,0,0,0,
0,0,0,0,0,0,0,0,0,0,0,0,0,0,0,0,0,799,0,0,0,0,0,1209,1210,1211,1212,1213,0,0,0,0,0,0,0,0,0,0,0,0,0,0,0,0,0,0,0,0,0,0,
0,0,0,0,0,0,0,0,0,0,0,0,0,0,0,0,0,779,0,0,0,0,0,1209,1210,1211,1212,1213,0,0,0,0,0,0,0,0,0,0,0,0,0,0,0,0,0,0,0,0,0,0,
0,0,0,0,0,0,0,0,0,0,0,0,0,0,0,0,0,779,0,0,0,0,0,1217,1218,1219,1220,1221,0,0,0,0,0,0,0,0,0,0,0,0,0,0,0,0,0,0,0,0,0,0,
0,0,0,0,0,1337,1338,1339,1340,1341,0,0,0,0,0,0,0,0,0,0,0,0,0,1209,1210,1211,1212,1213,0,0,0,0,0,0,0,0,0,0,0,0,0,0,0,0,0,0,0,0,0,0,
0,0,0,0,0,1345,1346,1347,1348,1349,0,0,0,0,0,0,0,0,0,0,0,0,702,1217,1218,1219,1220,1221,0,0,0,0,0,0,0,0,0,0,0,0,0,0,0,0,0,0,0,0,0,0,
0,0,0,0,0,1353,1354,1355,1356,1357,0,0,0,0,0,0,0,0,0,0,0,0,702,1209,1210,1211,1212,1213,0,0,0,0,0,0,0,0,0,0,0,0,0,0,0,0,0,0,0,0,0,0,
0,0,0,0,0,1361,1362,1363,1364,1365,0,0,0,0,0,0,0,0,0,0,0,0,702,1217,1218,1219,1220,1221,0,0,0,0,0,0,0,0,0,0,0,0,0,0,0,0,0,0,0,0,0,0,
0,0,0,0,0,0,0,0,0,0,0,0,0,0,0,0,0,0,0,0,0,0,702,1209,1210,1211,1212,1213,0,0,0,0,0,0,0,0,0,0,0,0,0,0,0,0,0,0,0,0,0,0,
0,0,0,0,0,0,0,0,0,0,0,0,0,0,0,0,0,0,0,0,0,0,702,1217,1218,1219,1220,1221,0,0,0,0,0,0,0,0,0,0,0,0,0,0,0,0,0,0,0,0,0,0,
0,0,0,0,0,0,0,0,0,0,0,0,0,0,0,0,0,0,0,0,0,0,702,1209,1210,1211,1212,1213,0,0,0,0,0,0,0,0,0,0,0,0,0,0,0,0,0,0,0,0,0,0,
0,0,0,0,0,0,0,0,0,0,0,0,0,0,0,0,0,0,0,0,0,0,702,1217,1218,1219,1220,1221,0,0,0,0,0,0,0,0,0,0,0,0,0,0,0,0,0,0,0,0,0,0,
0,0,0,0,0,0,0,0,0,0,0,0,0,0,0,0,0,0,0,0,0,0,702,1209,1210,1211,1212,1213,0,0,0,0,0,0,0,0,0,0,0,0,0,0,0,0,0,0,0,0,0,0,
0,0,0,0,0,0,0,0,0,0,0,0,0,0,0,0,0,0,0,0,0,0,702,1217,1218,1219,1220,1221,0,0,0,0,0,0,0,0,0,0,0,0,0,0,0,0,0,0,0,0,0,0,
0,0,0,0,0,0,0,0,0,0,0,0,0,0,0,0,0,0,0,0,0,0,702,1209,1210,1211,1212,1213,0,0,0,0,0,0,0,0,0,0,0,0,0,0,0,0,0,0,0,0,0,0,
0,0,0,0,0,0,0,0,0,0,0,0,0,0,0,0,0,0,0,0,0,0,702,1217,1218,1219,1220,1221,0,0,0,0,0,0,0,0,0,0,0,0,0,0,0,0,0,0,0,0,0,0,
0,0,0,0,0,0,0,0,0,0,0,0,0,0,0,0,0,0,0,0,0,0,702,1209,1210,1211,1212,1213,0,0,0,0,0,0,0,0,0,0,0,0,0,0,0,0,0,0,0,0,0,0,
0,0,0,0,0,0,0,0,0,0,0,0,0,0,0,0,0,0,0,0,0,0,702,1217,1218,1219,1220,1221,0,0,0,0,0,0,0,0,0,0,0,0,0,0,0,0,0,0,0,0,0,0,
0,0,0,0,0,0,0,0,0,0,0,0,0,0,0,0,0,0,0,0,0,0,702,1209,1210,1211,1212,1213,0,0,0,0,0,0,0,0,0,0,0,0,0,0,0,0,0,0,0,0,0,0,
0,0,0,0,0,0,0,0,0,0,0,0,0,0,0,0,0,0,0,0,0,0,702,1217,1218,1219,1220,1221,0,0,0,0,0,0,0,0,0,0,0,0,0,0,0,0,0,0,0,0,0,0,
0,0,0,0,0,0,0,0,0,0,0,0,0,0,0,0,0,0,0,0,0,0,702,1209,1210,1211,1212,1213,0,0,0,0,0,0,0,0,0,0,0,0,0,0,0,0,0,0,0,0,0,0,
0,0,0,0,0,0,0,0,0,0,0,0,0,0,0,0,0,0,0,0,0,0,702,1217,1218,1219,1220,1221,0,0,0,0,0,0,0,0,0,0,0,0,0,0,0,0,0,0,0,0,0,0,
0,0,0,0,0,0,0,0,0,0,0,0,0,0,0,0,0,0,0,0,0,0,702,1209,1210,1211,1212,1213,0,0,0,0,0,0,0,0,0,0,0,0,0,0,0,0,0,0,0,0,0,0,
0,0,0,0,0,0,0,0,0,0,0,0,0,0,0,0,0,0,0,0,0,0,702,1217,1218,1219,1220,1221,0,0,0,0,0,0,0,0,0,0,0,0,0,0,0,0,0,0,0,0,0,0,
0,0,0,0,0,0,0,0,0,0,0,0,0,0,0,0,0,0,0,0,0,0,702,1209,1210,1211,1212,1213,0,0,0,0,0,0,0,0,0,0,0,0,0,0,0,0,0,0,0,0,0,0,
0,0,0,0,0,0,0,0,0,0,0,0,0,0,0,0,0,0,0,0,0,0,702,1217,1218,1219,1220,1221,0,0,0,0,0,0,0,0,0,0,0,0,0,0,0,0,0,0,0,0,0,0,
0,0,0,0,0,0,0,0,0,0,0,0,0,0,0,0,0,0,0,0,0,0,702,1209,1210,1211,1212,1213,0,0,0,0,0,0,0,0,0,0,0,0,0,0,0,0,0,0,0,0,0,0,
0,0,0,0,0,0,0,0,0,0,0,0,0,0,0,0,0,0,0,0,0,0,702,1217,1218,1219,1220,1221,0,0,0,0,0,0,0,0,0,0,0,0,0,0,0,0,0,0,0,0,0,0,
0,0,0,0,0,0,0,0,0,0,0,0,0,0,0,0,0,0,0,0,0,0,702,1209,1210,1211,1212,1213,0,0,0,0,0,0,0,0,0,0,0,0,0,0,0,0,0,0,0,0,0,0,
0,0,0,0,0,0,0,0,0,0,0,0,0,0,0,0,0,0,0,0,0,0,702,1217,1218,1219,1220,1221,0,0,0,0,0,0,0,0,0,0,0,0,0,0,0,0,0,0,0,0,0,0,
0,0,0,0,0,0,0,0,0,0,0,0,0,0,0,0,0,0,0,0,0,0,710,1209,1210,1211,1212,1213,0,0,0,0,0,0,0,0,0,0,0,0,0,3,0,0,0,0,0,0,0,0,
0,0,0,0,786,0,0,0,0,0,0,0,0,0,0,0,0,0,0,0,0,0,0,1217,1218,1219,1220,1221,0,0,0,0,0,0,0,0,0,0,0,0,0,0,771,771,0,0,0,0,0,0,
0,0,0,786,786,0,0,0,0,0,0,0,0,0,0,0,0,0,0,0,0,0,0,1209,1210,1211,1212,1213,0,0,0,0,0,0,0,0,0,0,0,0,0,0,771,771,0,0,0,0,0,0,
0,0,786,786,786,0,0,0,0,0,0,0,0,0,0,0,0,0,0,0,0,0,0,1217,1218,1219,1220,1221,0,0,0,0,0,0,0,0,0,0,0,0,0,0,771,771,0,0,0,0,485,0,
0,786,786,786,786,0,0,0,0,0,0,0,0,0,0,0,0,0,1073,1074,0,0,0,1225,1226,1227,1228,1229,0,1073,1074,0,0,0,0,0,0,0,0,0,0,0,771,771,0,0,0,492,493,494,
0,0,0,0,0,0,0,0,0,0,0,0,0,0,0,0,0,0,1081,1082,1083,0,0,0,0,0,0,0,0,1081,1082,1083,0,0,0,0,0,0,0,0,0,0,3,3,0,476,0,500,501,502,
0,0,0,0,0,0,0,0,0,0,0,0,0,0,0,0,0,0,1089,1090,1091,0,0,0,0,0,0,0,0,1089,1090,1091,0,0,0,0,0,0,0,0,0,0,0,0,0,476,0,508,509,510,
0,0,0,0,0,0,0,0,0,0,0,0,0,0,0,0,0,0,0,0,0,0,0,0,0,0,0,0,0,0,0,0,0,0,0,0,0,0,0,0,0,0,0,0,0,476,0,0,485,0,
0,0,0,0,0,0,0,0,0,0,0,0,0,0,0,0,0,0,0,0,0,0,0,0,0,0,0,0,0,0,0,0,0,0,0,0,0,0,0,0,0,0,0,0,476,32,476,492,493,494,
0,0,0,0,0,0,0,0,0,0,0,0,0,0,0,0,0,0,0,0,0,0,0,0,0,0,0,0,0,0,0,0,0,0,0,0,0,0,0,0,0,0,0,0,476,0,476,500,501,502,
0,0,0,0,0,0,0,0,0,0,0,0,0,0,0,0,0,0,0,0,0,0,0,0,0,0,0,0,0,0,1337,1338,1339,1340,1341,0,0,0,0,0,0,0,0,0,476,32,476,508,509,510,
0,0,0,0,0,0,0,0,0,0,0,0,0,0,0,0,0,0,0,0,0,0,0,0,0,0,0,0,0,0,1345,1346,1347,1348,1349,0,0,0,0,0,0,0,0,0,0,476,0,0,485,0,
0,0,0,0,0,0,0,0,0,0,0,0,0,0,0,0,0,0,0,0,0,0,0,0,0,0,0,0,0,0,1353,1354,1355,1356,1357,0,0,0,0,0,0,0,0,0,0,476,0,492,493,494,
0,0,0,0,0,0,0,0,0,0,0,0,0,0,0,0,0,0,0,0,0,0,0,0,0,0,0,0,0,0,1361,1362,1363,1364,1365,0,0,0,0,0,0,0,0,0,0,476,0,500,501,502,
0,0,0,0,0,0,0,0,0,0,0,0,0,0,0,0,0,0,0,0,0,0,0,0,0,0,0,0,0,0,0,0,0,0,0,0,0,0,0,0,0,0,0,0,0,476,0,508,509,510,
0,0,0,0,0,0,0,0,0,0,0,0,0,0,0,0,0,0,0,0,0,0,0,0,0,0,0,0,0,0,0,0,0,0,0,0,0,0,0,0,0,0,0,0,0,0,0,0,0,0,
0,0,0,0,0,0,0,0,0,0,0,0,0,0,0,0,0,0,0,0,0,0,0,0,0,0,0,0,0,0,0,0,0,0,0,0,0,0,0,0,0,0,0,0,0,0,0,0,0,0,
0,0,0,0,0,0,0,0,0,0,0,0,0,0,0,0,0,0,0,0,0,0,0,0,0,0,0,0,0,0,0,0,0,0,0,0,0,0,0,0,0,0,0,0,0,0,0,0,0,0,
0,0,0,0,0,0,0,0,0,0,0,0,0,0,0,0,0,0,0,0,0,0,0,0,0,0,0,0,0,0,0,0,0,0,0,0,0,0,0,0,0,0,0,0,0,0,0,0,0,0
</data>
 </layer>
 <layer id="4" name="sopra_testa" width="50" height="50">
  <data encoding="csv">
0,0,0,0,0,0,0,0,0,0,0,0,0,0,0,0,0,0,0,0,0,0,0,0,0,0,0,0,0,0,0,0,0,0,0,0,0,0,0,0,0,0,0,0,0,0,0,0,0,0,
0,0,0,0,0,0,0,0,0,0,0,0,0,0,0,0,0,0,0,0,0,0,0,0,0,0,0,0,0,0,0,0,0,0,0,0,0,0,0,0,0,0,0,0,0,0,0,0,0,0,
0,0,0,0,0,0,0,0,0,0,0,0,0,0,0,0,0,0,0,0,0,0,0,0,0,0,0,0,0,0,0,0,0,0,0,0,0,0,0,0,0,0,0,0,0,0,0,0,0,0,
0,0,0,0,0,0,0,0,0,0,0,0,0,0,0,0,0,0,0,0,0,0,0,0,0,0,0,0,0,0,0,0,0,0,0,0,0,0,0,0,0,0,0,0,0,0,0,0,0,0,
0,0,0,0,0,0,0,0,0,0,0,0,0,0,0,0,0,0,0,0,0,0,0,0,0,0,0,0,0,0,0,0,0,0,0,0,0,0,0,0,0,0,0,0,0,0,0,0,0,0,
0,0,0,0,0,0,0,0,0,0,0,0,0,0,0,0,0,0,0,0,0,0,0,0,0,0,0,0,0,0,0,0,0,0,0,0,0,0,0,0,0,0,0,0,0,0,0,0,0,0,
0,0,0,0,0,0,0,0,0,0,0,0,0,0,0,0,0,0,0,0,0,0,0,0,0,0,0,0,0,0,0,0,0,0,0,0,0,0,0,0,0,0,0,0,0,0,0,0,0,0,
0,0,0,0,0,0,0,0,0,0,0,0,0,0,0,0,0,0,0,0,0,0,0,0,0,0,0,0,0,0,0,0,0,0,0,0,0,0,0,0,0,0,0,0,0,0,0,0,0,0,
0,0,0,0,0,0,0,0,0,0,0,0,0,0,0,0,0,0,0,0,0,0,0,0,0,0,0,0,0,0,0,0,0,0,0,0,0,0,0,0,0,0,0,0,0,0,0,0,0,0,
0,0,0,0,0,0,0,0,0,0,0,0,0,0,0,0,0,0,0,0,0,0,0,0,0,0,0,0,0,0,0,0,0,0,0,0,0,0,0,0,0,0,0,0,0,0,0,0,0,0,
0,0,0,0,0,0,0,0,0,0,0,0,0,0,0,0,0,0,0,0,0,0,0,0,0,0,0,0,0,0,0,0,0,0,0,0,0,0,0,0,0,0,0,0,0,0,0,0,0,0,
0,0,0,0,0,0,0,0,0,0,0,0,0,0,0,0,0,0,0,0,0,0,0,0,0,0,0,0,0,0,0,0,0,0,0,0,0,0,0,0,0,0,0,0,0,0,0,0,0,0,
0,0,0,0,0,0,0,0,0,0,0,0,0,0,0,0,0,0,0,0,0,0,0,0,0,0,0,0,0,0,0,0,0,0,0,0,0,0,0,0,0,0,0,0,0,0,0,0,0,0,
0,0,0,0,0,0,0,0,0,0,0,0,0,0,0,0,0,0,0,0,0,0,0,0,0,0,0,0,0,0,0,0,0,0,0,0,0,0,0,0,0,0,0,0,0,0,0,0,0,0,
0,0,0,0,0,0,0,0,0,0,0,0,0,0,0,0,0,0,0,0,0,0,0,0,0,0,0,0,0,0,0,0,0,0,0,0,0,0,0,0,0,0,0,0,0,0,0,0,0,0,
0,0,0,0,0,0,0,0,0,0,0,0,0,0,0,0,0,0,0,0,0,0,0,0,0,0,0,0,0,0,0,0,0,0,0,0,0,0,0,0,0,0,0,0,0,0,0,0,0,0,
0,0,0,0,0,0,0,0,0,0,0,0,0,0,0,0,0,0,0,0,0,0,0,0,0,0,0,0,0,0,0,0,0,0,0,0,0,0,0,0,0,0,0,0,0,0,0,0,0,0,
0,0,0,0,0,0,0,0,0,0,0,0,0,0,0,0,0,0,0,0,0,0,0,0,0,0,0,0,0,0,0,0,0,0,0,0,0,0,0,0,0,0,0,0,0,0,0,0,0,0,
0,0,0,0,0,0,0,0,0,0,0,0,0,0,0,0,0,0,0,0,0,0,0,0,0,0,0,0,0,0,0,0,0,0,0,0,0,0,0,0,0,0,0,0,0,0,0,0,0,0,
0,0,0,0,0,0,0,0,0,0,0,0,0,0,0,0,0,0,0,0,0,0,0,0,0,0,0,0,0,0,0,0,0,0,0,0,0,0,0,0,0,0,0,0,0,0,0,0,0,0,
0,0,0,0,0,0,0,0,0,0,0,0,0,0,0,0,0,0,0,0,0,0,0,0,0,0,0,0,0,0,0,0,0,0,0,0,0,0,0,0,0,0,0,0,0,0,0,0,0,0,
0,0,0,0,0,0,0,0,0,0,0,0,0,0,0,0,0,0,0,0,0,0,0,0,0,0,0,0,0,0,0,0,0,0,0,0,0,0,0,0,0,0,0,0,0,0,0,0,0,0,
0,0,0,0,0,0,0,0,0,0,0,0,0,0,0,0,0,0,0,0,0,0,0,0,0,0,0,0,0,0,0,0,0,0,0,0,0,0,0,0,0,0,0,0,0,0,0,0,0,0,
0,0,0,0,0,0,0,0,0,0,0,0,0,0,0,0,0,0,0,0,0,0,0,0,0,0,0,0,0,0,0,0,0,0,0,0,0,0,0,0,0,0,0,0,0,0,0,0,0,0,
0,0,0,0,0,0,0,0,0,0,0,0,0,0,0,0,0,0,0,0,0,0,0,0,0,0,0,0,0,0,0,0,0,0,0,0,0,0,0,0,0,0,0,0,0,0,0,0,0,0,
0,0,0,0,0,0,0,0,0,0,0,0,0,0,0,0,0,0,0,0,0,0,0,0,0,0,0,0,0,0,0,0,0,0,0,0,0,0,0,0,0,0,0,0,0,0,0,0,0,0,
0,0,0,0,0,0,0,0,0,0,0,0,0,0,0,0,0,0,0,0,0,0,0,0,0,0,0,0,0,0,0,0,0,0,0,0,0,0,0,0,0,0,0,0,0,0,0,0,0,0,
0,0,0,0,0,0,0,0,0,0,0,0,0,0,0,0,0,0,0,0,0,0,0,0,0,0,0,0,0,0,0,0,0,0,0,0,0,0,0,0,0,0,0,0,0,0,0,0,0,0,
0,0,0,0,0,0,0,0,0,0,0,0,0,0,0,0,0,0,0,0,0,0,0,0,0,0,0,0,0,0,0,0,0,0,0,0,0,0,0,0,0,0,0,0,0,0,0,0,0,0,
0,0,0,0,0,0,0,0,0,0,0,0,0,0,0,0,0,0,0,0,0,0,0,0,0,0,0,0,0,0,0,0,0,0,0,0,0,0,0,0,0,0,0,0,0,0,0,0,0,0,
0,0,0,0,0,0,0,0,0,0,0,0,0,0,0,0,0,0,0,0,0,0,0,0,0,0,0,0,0,0,0,0,0,0,0,0,0,0,0,0,0,0,0,0,0,0,0,0,0,0,
0,0,0,0,0,0,0,0,0,0,0,0,0,0,0,0,0,0,0,0,0,0,0,0,0,0,0,0,0,0,0,0,0,0,0,0,0,0,0,0,0,0,0,0,0,0,0,0,0,0,
0,0,0,0,0,0,0,0,0,0,0,0,0,0,0,0,0,0,0,0,0,0,0,0,0,0,0,0,0,0,0,0,0,0,0,0,0,0,0,0,0,0,0,0,0,0,0,0,0,0,
0,0,0,0,0,0,0,0,0,0,0,0,0,0,0,0,0,0,0,0,0,0,0,0,0,0,0,0,0,0,0,0,0,0,0,0,0,0,0,0,0,0,0,0,0,0,0,0,0,0,
0,0,0,0,0,0,0,0,0,0,0,0,0,0,0,0,0,0,0,0,0,0,0,0,0,0,0,0,0,0,0,0,0,0,0,0,0,0,0,0,0,0,0,0,0,0,0,0,0,0,
0,0,0,0,0,0,0,0,0,0,0,0,0,0,0,0,0,0,0,0,0,0,0,0,0,0,0,0,0,0,0,0,0,0,0,0,0,0,0,0,0,0,0,0,0,0,0,0,0,0,
0,0,0,0,0,0,0,0,0,0,0,0,0,0,0,0,0,0,0,0,0,0,0,0,0,0,0,0,0,0,0,0,0,0,0,0,0,0,0,0,0,0,0,0,0,0,0,0,0,0,
0,0,0,0,0,0,0,0,0,0,0,0,0,0,0,0,0,0,0,0,0,0,0,0,0,0,0,0,0,0,0,0,0,0,0,0,0,0,0,0,0,0,0,0,0,0,0,0,0,0,
0,0,0,0,0,0,0,0,0,0,0,0,0,0,0,0,0,0,0,0,0,0,0,0,0,0,0,0,0,0,0,0,0,0,0,0,0,0,0,0,0,0,0,0,0,0,0,0,0,0,
0,0,0,0,0,0,0,0,0,0,0,0,0,0,0,0,0,0,0,0,0,0,0,0,0,0,0,0,0,0,0,0,0,0,0,0,0,0,0,0,0,0,0,0,0,0,0,0,0,0,
0,0,0,0,0,0,0,0,0,0,0,0,0,0,0,0,0,0,0,0,0,0,0,0,0,0,0,0,0,0,0,0,0,0,0,0,0,0,0,0,0,0,0,0,0,0,0,0,0,0,
0,0,0,0,0,0,0,0,0,0,0,0,0,0,0,0,0,0,0,0,0,0,0,0,0,0,0,0,0,0,0,0,0,0,0,0,0,0,0,0,0,0,0,0,0,0,0,0,0,0,
0,0,0,0,0,0,0,0,0,0,0,0,0,0,0,0,0,0,0,0,0,0,0,0,0,0,0,0,0,0,0,0,0,0,0,0,0,0,0,0,0,0,0,0,0,0,0,0,0,0,
0,0,0,0,0,0,0,0,0,0,0,0,0,0,0,0,0,0,0,0,0,0,0,0,0,0,0,0,0,0,0,0,0,0,0,0,0,0,0,0,0,0,0,0,0,0,0,0,0,0,
0,0,0,0,0,0,0,0,0,0,0,0,0,0,0,0,0,0,0,0,0,0,0,0,0,0,0,0,0,0,0,0,0,0,0,0,0,0,0,0,0,0,0,0,0,0,0,0,0,0,
0,0,0,0,0,0,0,0,0,0,0,0,0,0,0,0,0,0,0,0,0,0,0,0,0,0,0,0,0,0,0,0,0,0,0,0,0,0,0,0,0,0,0,0,0,0,0,0,0,0,
0,0,0,0,0,0,0,0,0,0,0,0,0,0,0,0,0,0,0,0,0,0,0,0,0,0,0,0,0,0,0,0,0,0,0,0,0,0,0,0,0,0,0,0,0,0,0,0,0,0,
0,0,0,0,0,0,0,0,0,0,0,0,0,0,0,0,0,0,0,0,0,0,0,0,0,0,0,0,0,0,0,0,0,0,0,0,0,0,0,0,0,0,0,0,0,0,0,0,0,0,
0,0,0,0,0,0,0,0,0,0,0,0,0,0,0,0,0,0,0,0,0,0,0,0,0,0,0,0,0,0,0,0,0,0,0,0,0,0,0,0,0,0,0,0,0,0,0,0,0,0,
0,0,0,0,0,0,0,0,0,0,0,0,0,0,0,0,0,0,0,0,0,0,0,0,0,0,0,0,0,0,0,0,0,0,0,0,0,0,0,0,0,0,0,0,0,0,0,0,0,0
</data>
 </layer>
 <objectgroup id="6" name="collisioni">
  <object id="10" x="7" y="4" width="139" height="654"/>
  <object id="13" x="146.667" y="9.33333" width="390.667" height="144"/>
  <object id="14" x="541.333" y="5.33333" width="206.667" height="46.6667"/>
  <object id="15" x="585.333" y="37.3333" width="165.333" height="117.333"/>
  <object id="16" x="873.333" y="6.66667" width="721.333" height="148"/>
  <object id="17" x="1446.67" y="148" width="148" height="1442.67"/>
  <object id="18" x="9.33333" y="1469.33" width="1572" height="129.333"/>
  <object id="19" x="962.667" y="1321.33" width="54.6667" height="109.333"/>
  <object id="20" x="997.333" y="1313.33" width="117.333" height="84"/>
  <object id="21" x="1066.67" y="1382.67" width="38.6667" height="44"/>
  <object id="22" x="932" y="1156" width="85.3333" height="54.6667"/>
  <object id="23" x="882.667" y="1029.33" width="454.667" height="114.667"/>
  <object id="24" x="1412" y="1029.33" width="57.3333" height="121.333"/>
  <object id="25" x="1416" y="1253.33" width="17.3333" height="84"/>
  <object id="26" x="584" y="1148" width="81.3333" height="64"/>
  <object id="27" x="8" y="1029.33" width="393.333" height="109.333"/>
  <object id="28" x="10.6667" y="628" width="122.667" height="437.333"/>
  <object id="29" x="154.667" y="126.667" width="65.3333" height="152"/>
  <object id="30" x="210.667" y="138.667" width="76" height="102.667"/>
  <object id="31" x="264" y="150.667" width="45.3333" height="130.667"/>
  <object id="32" x="748" y="156" width="10.6667" height="864"/>
  <object id="33" x="869.333" y="144" width="10.6667" height="876"/>
  <object id="34" x="456.667" y="1030.67" width="280" height="109.333"/>
 </objectgroup>
 <objectgroup color="#ff0000" id="5" name="eventi">
  <object id="1" name="trainer" type="trainer" x="352" y="190.667" width="32" height="32">
   <properties>
    <property name="direzione" value="sud"/>
    <property name="id" value="all-p8-1"/>
    <property name="sprite" value="HIKER"/>
    <property name="type" value="trainer"/>
    <property name="vista" type="int" value="5"/>
   </properties>
  </object>
  <object id="2" name="trainer" type="trainer" x="1032" y="258" width="32" height="32">
   <properties>
    <property name="direzione" value="est"/>
    <property name="id" value="all-p8-2"/>
    <property name="sprite" value="FISHERMAN"/>
    <property name="type" value="trainer"/>
    <property name="vista" type="int" value="6"/>
   </properties>
  </object>
  <object id="3" name="trainer" type="trainer" x="500" y="700" width="32" height="32">
   <properties>
    <property name="direzione" value="ovest"/>
    <property name="id" value="all-p8-3"/>
    <property name="sprite" value="CAMPER"/>
    <property name="type" value="trainer"/>
    <property name="vista" type="int" value="5"/>
   </properties>
  </object>
  <object id="4" name="trainer" type="trainer" x="1100" y="900" width="32" height="32">
   <properties>
    <property name="direzione" value="nord"/>
    <property name="id" value="all-p8-4"/>
    <property name="sprite" value="LADY"/>
    <property name="type" value="trainer"/>
    <property name="vista" type="int" value="5"/>
   </properties>
  </object>
  <object id="5" name="trainer" type="trainer" x="700" y="1200" width="32" height="32">
   <properties>
    <property name="direzione" value="sud"/>
    <property name="id" value="all-p8-5"/>
    <property name="sprite" value="BIKER"/>
    <property name="type" value="trainer"/>
    <property name="vista" type="int" value="6"/>
   </properties>
  </object>
  <object id="6" name="npc" type="npc" x="200" y="1400" width="32" height="32">
   <properties>
    <property name="direzione" value="sud"/>
    <property name="id" value="porchettaro_p8_1"/>
    <property name="type" value="npc"/>
   </properties>
  </object>
  <object id="7" name="npc" type="npc" x="222" y="382" width="32" height="32">
   <properties>
    <property name="direzione" value="ovest"/>
    <property name="id" value="porchettaro_p8_2"/>
    <property name="type" value="npc"/>
   </properties>
  </object>
  <object id="8" name="oggetto" type="oggetto" x="452.667" y="192.667" width="32" height="32">
   <properties>
    <property name="contenuto" value="mt06"/>
    <property name="type" value="oggetto"/>
   </properties>
  </object>
  <object id="9" name="oggetto" type="oggetto" x="1408" y="164" width="32" height="32">
   <properties>
    <property name="contenuto" value="iperpozione"/>
    <property name="quantità" value="2"/>
    <property name="type" value="oggetto"/>
   </properties>
  </object>
  <object id="35" name="erba_alta" type="erba_alta" x="1194" y="474" width="52" height="66">
   <properties>
    <property name="id" value="incontri percorso 8"/>
    <property name="type" value="erba_alta"/>
   </properties>
  </object>
 </objectgroup>
</map>
