<?xml version="1.0" encoding="UTF-8"?>
<map version="1.10" tiledversion="1.12.2" orientation="orthogonal" renderorder="right-down" width="24" height="80" tilewidth="32" tileheight="32" infinite="0" nextlayerid="6" nextobjectid="425">
 <tileset firstgid="1" name="percorso_montepo_1_tileset" tilewidth="32" tileheight="32" tilecount="128" columns="16">
  <image source="../percorso_montepo_1_tileset.png" width="512" height="256"/>
 </tileset>
 <tileset firstgid="129" source="../Sea.tsj"/>
 <tileset firstgid="227" source="../../outside.tsx"/>
 <layer id="1" name="ground" width="24" height="80">
  <data encoding="csv">
228,228,228,228,228,228,228,228,228,228,228,228,228,228,228,228,228,228,228,228,228,228,228,228,
228,228,228,228,228,228,228,228,228,228,228,228,228,228,228,228,228,228,228,228,228,228,228,228,
228,228,228,228,228,228,228,228,228,228,228,228,228,228,228,228,228,228,228,228,228,228,228,228,
228,228,228,228,228,228,228,228,228,228,228,228,228,228,228,228,228,228,228,228,228,228,228,228,
228,228,228,228,228,228,228,228,228,228,228,228,228,228,228,228,228,228,228,228,228,228,228,228,
228,228,228,228,228,228,228,228,228,228,228,228,228,228,228,228,228,228,228,228,228,228,228,228,
228,228,228,228,228,228,228,228,228,228,228,228,228,228,228,228,228,228,228,228,228,228,228,228,
228,228,228,228,228,228,228,228,228,228,228,228,228,228,228,228,228,228,228,228,228,228,228,228,
228,228,228,228,228,228,228,228,228,228,228,228,228,228,228,228,228,228,228,228,228,228,228,228,
228,228,228,228,228,228,228,228,228,228,228,228,228,228,228,228,228,228,228,228,228,228,228,228,
1,3,5,3,5,3,7,178,178,178,178,15,15,15,15,15,15,17,5,3,5,3,5,19,
21,23,21,23,21,25,27,178,178,178,178,29,31,29,31,29,31,33,35,23,21,23,21,23,
1,19,1,19,1,3,27,178,178,178,178,37,39,37,39,37,39,33,5,19,1,19,1,19,
21,23,21,23,21,25,27,178,178,178,178,29,31,29,31,29,31,33,35,23,21,23,21,23,
1,19,1,19,1,3,27,178,178,178,178,37,39,37,39,37,39,33,5,19,1,19,1,19,
21,23,21,23,21,25,27,178,178,178,178,41,41,41,41,41,41,33,35,23,21,23,21,23,
1,19,1,19,1,3,27,178,178,178,178,41,41,41,41,41,41,33,5,19,1,19,1,19,
21,23,21,23,21,25,27,178,178,178,178,41,41,41,41,41,41,33,35,23,21,23,21,23,
1,19,1,19,1,3,27,178,178,178,178,41,41,41,41,41,41,33,5,19,1,19,1,19,
21,23,21,23,21,25,27,178,178,178,178,41,41,41,41,41,41,33,43,45,43,45,43,45,
1,19,1,19,1,3,27,178,178,178,178,41,41,41,41,41,41,47,15,15,15,15,15,15,
21,23,21,23,21,25,27,178,178,178,178,178,178,178,178,178,178,178,178,178,178,178,178,178,
1,19,1,19,1,3,27,178,178,178,178,178,178,178,178,178,178,178,178,178,178,178,178,178,
43,45,43,45,43,65,27,178,178,178,178,178,178,178,178,178,178,178,178,178,178,178,178,178,
15,15,15,15,15,15,71,178,178,178,178,178,178,178,178,178,178,178,178,178,178,178,178,178,
178,178,178,178,178,178,178,178,178,178,178,178,178,178,178,178,178,178,178,178,178,178,178,178,
178,178,178,178,178,178,178,178,178,178,178,178,178,178,178,178,178,178,178,178,178,178,178,178,
178,178,178,178,178,178,178,178,178,178,178,178,178,178,178,178,178,178,178,178,178,178,178,178,
178,178,178,178,178,178,178,178,178,178,178,178,178,178,178,178,178,178,178,178,178,178,178,178,
178,178,178,178,178,178,178,178,178,178,178,178,178,178,178,178,178,178,178,178,178,178,178,178,
178,178,178,178,178,178,178,178,178,178,178,178,178,178,178,178,178,178,178,178,178,178,178,178,
178,178,178,178,178,178,178,178,178,178,178,178,178,178,178,178,178,178,178,178,178,178,178,178,
178,178,178,178,178,178,178,178,178,178,178,178,178,178,178,178,178,178,178,178,178,178,178,178,
178,178,178,178,178,178,178,178,178,178,178,178,178,178,11,97,99,99,101,178,178,178,178,178,
178,178,178,178,178,178,178,178,178,178,178,178,178,178,97,103,105,105,107,178,178,178,178,178,
178,178,178,178,178,178,178,178,178,178,178,178,178,178,109,105,105,111,113,178,178,178,178,178,
178,178,178,178,178,178,178,178,178,178,178,178,178,178,115,117,117,113,11,178,178,178,178,178,
178,178,178,178,178,97,99,99,101,178,178,178,178,178,178,178,178,178,178,178,178,178,178,178,
178,178,178,178,97,103,105,105,119,99,101,178,178,178,178,178,178,178,178,178,178,178,178,178,
178,178,178,178,109,105,105,105,105,105,107,178,178,178,178,178,178,178,178,178,178,178,178,178,
178,178,178,178,109,105,105,105,105,105,107,178,178,178,178,178,178,178,178,178,178,178,178,178,
178,178,178,178,115,117,117,121,105,111,113,178,178,178,178,178,178,178,178,178,178,178,178,178,
178,178,178,178,178,178,178,115,117,113,178,178,178,178,178,178,178,178,178,178,178,178,178,178,
178,178,178,178,178,178,178,178,178,178,178,178,178,178,178,178,178,178,178,178,178,178,178,178,
178,178,178,178,178,178,178,178,178,178,178,178,178,178,178,178,178,178,178,178,178,178,178,178,
178,178,178,178,178,178,178,178,178,178,178,178,178,178,178,178,178,178,178,178,178,178,178,178,
178,178,178,178,178,178,178,178,178,178,178,178,178,178,178,178,178,178,178,178,178,178,178,178,
178,178,178,178,178,178,178,178,178,178,178,178,178,178,178,178,178,178,178,178,178,178,178,178,
178,178,178,178,178,178,178,178,178,178,178,178,178,178,178,178,178,178,178,178,178,178,178,178,
178,178,178,178,178,178,178,178,178,178,178,178,178,178,178,178,178,178,178,178,178,178,178,178,
178,178,178,178,178,178,178,178,178,178,178,178,178,178,178,178,97,99,101,178,178,67,69,77,
178,178,178,178,178,178,178,178,178,178,178,178,178,178,178,97,103,105,119,101,178,57,59,77,
178,178,178,178,178,178,178,178,178,178,178,178,178,178,178,109,105,105,105,107,178,85,87,81,
178,178,178,178,178,178,178,178,178,178,178,178,178,178,178,109,105,105,111,113,178,178,178,178,
178,178,178,178,178,178,178,178,178,178,178,178,178,178,178,115,117,117,113,178,178,178,178,178,
178,178,178,178,178,178,178,178,178,178,178,178,178,178,178,178,178,178,178,178,178,178,178,178,
178,178,178,178,178,178,178,178,178,178,178,178,178,178,178,178,178,178,178,178,178,178,178,178,
178,178,178,178,178,178,178,178,178,178,178,178,178,178,178,178,178,178,178,178,178,178,178,178,
178,178,178,178,178,178,178,178,178,178,178,178,178,178,178,178,178,178,178,178,178,178,178,178,
178,178,178,178,178,178,178,178,178,178,178,178,178,178,178,178,178,178,178,178,178,178,178,178,
178,178,178,178,178,178,178,178,178,178,178,178,178,178,178,178,178,178,178,178,178,178,178,178,
178,178,178,178,178,178,178,178,178,178,178,178,178,178,178,178,178,178,178,178,178,178,178,178,
178,178,178,178,178,178,178,178,178,178,178,178,178,178,178,178,178,178,178,178,178,178,178,178,
178,178,178,178,178,178,178,178,178,178,178,178,178,178,178,178,178,178,178,178,178,178,178,178,
178,178,178,178,178,178,178,178,178,178,178,178,178,178,178,178,178,178,178,178,178,178,178,178,
178,178,178,178,178,178,178,178,178,178,178,178,178,178,178,178,178,178,178,178,178,178,178,178,
178,178,178,178,178,178,178,178,178,178,178,178,178,178,178,178,178,178,178,178,178,178,178,178,
178,178,178,178,178,178,178,178,178,178,178,178,178,178,178,178,178,178,178,178,178,178,178,178,
178,178,178,178,178,178,178,178,178,178,178,178,178,178,178,178,178,178,178,178,178,178,178,178,
178,178,178,178,178,178,178,178,178,178,178,178,178,178,178,178,178,178,178,178,178,178,178,178,
178,178,178,178,178,178,178,178,178,178,178,178,178,178,178,178,178,178,178,178,178,178,178,178,
178,178,178,178,178,178,178,178,178,178,97,99,101,178,178,178,178,178,178,178,178,178,178,178,
178,178,178,178,178,178,178,178,178,97,103,105,119,101,178,178,178,178,178,178,178,178,178,178,
178,178,178,178,178,178,178,178,178,109,105,105,105,107,178,178,178,178,178,178,178,178,178,178,
178,178,178,178,178,178,178,178,178,109,105,105,111,113,178,178,178,178,178,178,178,178,178,178,
178,178,178,178,178,178,178,178,178,115,117,117,113,178,178,178,178,178,178,178,178,178,178,178,
178,178,178,178,178,178,178,178,178,178,178,178,178,178,178,178,178,178,178,178,178,178,178,178,
178,178,178,178,178,178,178,178,178,178,178,178,178,178,178,178,178,178,178,178,178,178,178,178,
178,178,178,178,178,178,178,178,178,178,178,178,178,178,178,178,178,178,178,178,178,178,178,178,
178,178,178,178,178,178,178,178,178,178,178,178,178,178,178,178,178,178,178,178,178,178,178,178
</data>
 </layer>
 <layer id="2" name="deco_sotto" width="24" height="80">
  <data encoding="csv">
647,648,647,648,647,648,647,648,647,648,647,648,647,648,647,648,647,648,647,648,647,648,647,648,
655,656,655,656,655,656,655,656,655,656,655,656,655,656,655,656,655,656,655,656,655,656,655,656,
663,664,663,664,663,664,663,664,663,664,663,664,663,664,663,664,663,664,663,664,663,664,663,664,
647,648,647,648,647,648,0,0,0,0,0,0,0,0,0,0,0,0,647,648,647,648,647,648,
655,656,655,656,655,656,0,0,0,0,0,0,0,0,0,0,0,0,655,656,655,656,655,656,
663,664,663,664,663,664,0,0,0,0,0,0,0,0,0,0,0,0,663,664,663,664,663,664,
647,648,647,648,647,648,0,0,0,0,0,0,0,0,0,0,0,0,647,648,647,648,647,648,
655,656,655,656,655,656,0,0,0,0,0,0,0,0,0,0,0,0,655,656,655,656,655,656,
663,664,663,664,663,664,0,0,0,0,0,0,0,0,0,0,0,0,663,664,663,664,663,664,
647,648,647,648,647,648,0,0,0,0,0,0,0,0,0,0,0,0,647,648,647,648,647,648,
0,0,0,0,0,0,0,0,0,0,0,0,0,0,0,0,0,0,0,0,0,0,0,0,
22,24,22,24,22,26,28,0,0,0,0,30,32,30,32,30,32,34,36,24,22,24,22,24,
0,0,0,0,0,0,28,0,0,0,0,38,40,38,40,38,40,34,0,0,0,0,0,0,
22,24,22,24,22,26,28,0,0,0,0,30,32,30,32,30,32,34,36,24,22,24,22,24,
0,0,0,0,0,0,28,0,0,0,0,38,40,38,40,38,40,34,0,0,0,0,0,0,
22,24,22,24,22,26,28,0,0,0,0,42,42,42,42,42,42,34,36,24,22,24,22,24,
0,0,0,0,0,0,28,0,0,0,0,42,42,42,42,42,42,34,0,0,0,0,0,0,
22,24,22,24,22,26,28,0,0,0,0,42,42,42,42,42,42,34,36,24,22,24,22,24,
0,0,0,0,0,0,28,0,0,0,0,42,42,42,42,42,42,34,0,0,0,0,0,0,
22,24,22,24,22,26,28,0,0,0,0,42,42,42,42,42,42,34,44,46,44,46,44,46,
0,0,0,0,0,0,28,0,0,0,0,42,42,42,42,42,42,0,0,0,0,0,0,0,
22,24,22,24,22,26,28,0,0,0,0,0,0,0,0,0,0,0,0,0,0,0,0,0,
0,0,0,0,0,0,28,0,0,0,0,0,0,0,0,0,0,0,0,0,0,178,0,0,
44,46,44,46,44,66,28,0,0,0,0,0,0,0,0,0,0,0,0,0,0,0,0,0,
0,0,0,0,0,0,0,0,0,0,0,0,0,0,0,0,0,0,0,0,178,0,0,0,
0,0,0,0,0,0,0,0,0,0,0,0,0,0,0,0,0,0,0,0,0,0,0,0,
0,0,0,0,0,0,0,0,0,0,0,0,0,0,0,0,0,0,0,0,0,0,0,0,
0,0,0,0,0,0,0,0,0,0,0,0,0,0,0,0,0,0,0,0,0,0,0,0,
0,0,0,0,0,0,0,0,0,0,0,0,0,0,0,0,0,0,0,0,0,0,0,0,
0,0,0,0,0,0,0,0,0,0,0,0,0,0,0,0,0,0,0,0,0,0,0,0,
0,0,0,0,0,0,0,0,0,0,0,0,0,0,0,0,0,0,0,0,0,0,0,0,
0,0,0,0,0,0,0,0,0,0,0,0,0,0,0,0,0,0,0,0,0,0,0,0,
0,0,0,0,0,0,0,0,0,0,0,0,0,0,0,0,0,0,0,0,0,0,0,0,
0,0,0,0,0,0,0,0,0,0,0,0,0,0,0,98,100,100,102,0,0,0,0,0,
0,0,0,0,0,0,0,0,0,0,0,0,0,0,98,104,106,106,108,0,0,0,0,0,
0,0,0,0,0,0,0,0,0,0,0,0,0,0,110,106,106,112,114,0,0,0,0,0,
0,0,0,0,0,0,0,0,0,0,0,0,0,0,116,118,118,114,0,0,0,0,0,0,
0,0,0,0,0,98,100,100,102,0,0,0,0,0,0,0,0,0,0,0,0,0,0,0,
0,0,0,0,98,104,106,106,120,100,102,0,0,0,0,0,0,0,0,0,0,0,0,0,
0,0,0,0,110,106,106,106,106,106,108,0,0,0,0,0,0,0,0,0,0,0,0,0,
0,0,0,0,110,106,106,106,106,106,108,0,0,0,0,0,0,0,0,0,0,0,0,0,
0,0,0,0,116,118,118,122,106,112,114,0,0,0,0,0,0,0,0,0,0,0,0,0,
0,0,0,0,0,0,0,116,118,114,0,0,0,0,0,0,0,0,0,0,0,0,0,0,
0,0,0,0,0,0,0,0,0,0,0,0,0,0,0,0,0,0,0,0,0,0,0,0,
0,0,0,0,0,0,0,0,0,0,0,0,0,0,0,0,0,0,0,0,0,0,0,0,
0,0,0,0,0,0,0,0,0,0,0,0,0,0,0,0,0,0,0,0,0,0,0,0,
0,0,0,0,0,0,0,0,0,0,0,0,0,0,0,0,0,0,0,0,0,0,0,0,
0,0,0,0,0,0,0,0,0,0,0,0,0,0,0,0,0,0,0,0,0,0,0,0,
0,0,0,0,0,0,0,0,0,0,0,0,0,0,0,0,0,0,0,0,0,0,0,0,
0,0,0,0,0,0,0,0,0,0,0,0,0,0,0,0,0,0,0,0,0,0,0,0,
0,0,0,0,0,0,0,0,0,0,0,0,0,0,0,0,98,100,102,0,0,0,0,0,
0,0,0,0,0,0,0,0,0,0,0,0,0,0,0,98,104,106,120,102,0,0,0,0,
0,0,0,0,0,0,0,0,0,0,0,0,0,0,0,110,106,106,106,108,0,0,0,0,
0,0,0,0,0,0,0,0,0,0,0,0,0,0,0,110,106,106,112,114,0,0,0,0,
0,0,0,0,0,0,0,0,0,0,0,0,0,0,0,116,118,118,114,0,0,0,0,0,
0,0,0,0,0,0,0,0,0,0,0,0,0,0,0,0,0,0,0,0,0,0,0,0,
0,0,0,0,0,0,0,0,0,0,0,0,0,0,0,0,0,0,0,0,0,0,0,0,
0,0,0,0,0,0,0,0,0,0,0,0,0,0,0,0,0,0,0,0,0,0,0,0,
0,0,0,0,0,0,0,0,0,0,0,0,0,0,0,0,0,0,0,0,0,0,0,0,
0,0,0,0,0,0,0,0,0,0,0,0,0,0,0,0,0,0,0,0,0,0,0,0,
0,0,0,0,0,0,0,0,0,0,0,0,0,0,0,0,0,0,0,0,0,0,0,0,
0,0,0,0,0,0,0,0,0,0,0,0,0,0,0,0,0,0,0,0,0,0,0,0,
0,0,0,0,0,0,0,0,0,0,0,0,0,0,0,0,0,0,0,0,0,0,0,0,
0,0,0,0,0,0,0,0,0,0,0,0,0,0,0,0,0,0,0,0,0,0,0,0,
0,0,0,0,0,0,0,0,0,0,0,0,0,0,0,0,0,0,0,0,0,0,0,0,
0,0,0,0,0,0,0,0,0,0,0,0,0,0,0,0,0,0,0,0,0,0,0,0,
0,0,0,0,0,0,0,0,0,0,0,0,0,0,0,0,0,0,0,0,0,0,0,0,
0,0,0,0,0,0,0,0,0,0,0,0,0,0,0,0,0,0,0,0,0,0,0,0,
0,0,0,0,0,0,0,0,0,0,0,0,0,0,0,0,0,0,0,0,0,0,0,0,
0,0,0,0,0,0,0,0,0,0,0,0,0,0,0,0,0,0,0,0,0,0,0,0,
0,0,0,0,0,0,0,0,0,0,0,0,0,0,0,0,0,0,0,0,0,0,0,0,
0,0,0,0,0,0,0,0,0,0,0,0,0,0,0,0,0,0,0,0,0,0,0,0,
0,0,0,0,0,0,0,0,0,0,0,0,0,0,0,0,0,0,0,0,0,0,0,0,
0,0,0,0,0,0,0,0,0,0,0,1175,0,0,0,0,0,0,0,0,0,0,0,0,
0,0,0,0,0,0,0,0,0,0,0,0,0,0,0,0,0,0,0,0,0,0,0,0,
0,0,0,0,0,0,0,0,0,0,0,0,0,0,0,0,0,0,0,0,0,0,0,0,
0,0,0,0,0,0,0,0,0,0,0,0,0,0,0,0,0,0,0,0,0,0,0,0,
0,0,0,0,0,0,0,0,0,0,0,0,0,0,0,0,0,0,0,0,0,0,0,0,
0,0,0,0,0,0,0,0,0,0,0,0,0,0,0,0,0,0,0,0,0,0,0,0,
0,0,0,0,0,0,0,0,0,0,0,0,0,0,0,0,0,0,0,0,0,0,0,0
</data>
 </layer>
 <layer id="3" name="edifici" width="24" height="80">
  <data encoding="csv">
0,0,0,0,0,0,0,0,0,0,0,0,0,0,0,0,0,0,0,0,0,0,0,0,
0,0,0,0,0,0,0,0,0,0,0,0,0,0,0,0,0,0,0,0,0,0,0,0,
0,0,0,0,0,0,0,0,0,0,0,0,0,0,0,0,0,0,0,0,0,0,0,0,
0,0,0,0,0,0,0,0,0,0,0,0,0,0,0,0,0,0,0,0,0,0,0,0,
0,0,0,0,0,0,0,0,0,0,0,0,0,0,0,0,0,0,0,0,0,0,0,0,
0,0,0,0,0,0,0,0,0,0,0,0,0,0,0,0,0,0,0,0,0,0,0,0,
0,0,0,0,0,0,0,0,0,0,0,0,0,0,0,0,0,0,0,0,0,0,0,0,
0,0,0,0,0,0,0,0,0,0,0,0,0,0,0,0,0,0,0,0,0,0,0,0,
0,0,0,0,0,0,0,0,0,0,0,0,0,0,0,0,0,0,0,0,0,0,0,0,
0,0,0,0,0,0,1122,153,154,154,158,1122,0,0,0,0,0,0,0,0,0,0,0,0,
2,4,6,4,6,4,8,10,12,12,14,16,16,16,16,16,16,18,6,4,6,4,6,20,
0,0,0,0,0,0,0,10,12,12,14,0,0,0,0,0,0,0,0,0,0,0,0,0,
2,20,2,20,2,4,0,10,12,12,14,0,0,0,0,0,0,0,6,20,2,20,2,20,
0,0,0,0,0,0,0,10,12,12,14,0,0,0,0,0,0,0,0,0,0,0,0,0,
2,20,2,20,2,4,0,10,12,12,14,0,0,0,0,0,0,0,6,20,2,20,2,20,
0,0,0,0,0,0,0,10,12,12,14,0,0,0,0,0,0,0,0,0,0,0,0,0,
2,20,2,20,2,4,0,10,12,12,14,0,0,0,0,0,0,0,6,20,2,20,2,20,
0,0,0,0,0,0,0,10,12,12,14,0,0,0,0,0,0,0,0,0,0,0,0,0,
2,20,2,20,2,4,0,10,12,12,14,0,0,0,0,0,0,0,6,20,2,20,2,20,
0,0,0,0,0,0,0,10,12,12,14,0,0,0,0,0,0,0,0,0,0,0,0,0,
2,20,2,20,2,4,0,10,12,12,14,0,0,0,0,0,0,48,16,16,16,16,16,16,
0,0,0,0,0,0,0,10,12,12,50,52,52,52,52,52,52,54,56,52,52,52,52,52,
2,20,2,20,2,4,0,10,12,12,12,12,12,12,12,12,12,58,60,12,12,178,64,64,
0,0,0,0,0,0,0,10,12,12,12,12,12,12,12,12,68,70,12,12,12,64,64,64,
16,16,16,16,16,16,72,10,12,12,12,12,12,12,12,12,58,60,12,12,178,74,64,64,
52,52,52,52,52,54,56,76,12,12,12,12,12,12,12,12,12,68,70,12,78,64,64,64,
64,178,12,12,12,58,60,68,70,12,12,12,12,12,12,12,12,58,60,12,178,84,64,64,
64,64,178,86,88,12,12,58,60,12,12,12,12,12,12,12,12,12,12,86,88,64,64,64,
64,64,90,92,94,12,68,70,12,12,12,12,12,12,12,12,12,12,12,92,94,82,84,64,
64,64,178,12,12,12,58,60,12,12,12,12,12,12,12,12,12,12,12,12,68,70,12,64,
64,64,12,68,70,86,88,12,12,12,12,12,12,12,12,12,12,86,88,12,58,60,12,64,
64,178,12,58,60,92,94,12,12,12,12,12,12,12,12,12,12,92,94,12,12,86,88,64,
64,12,86,88,12,12,12,12,12,12,12,12,12,12,12,12,12,12,12,12,12,92,94,82,
178,12,92,94,12,68,70,12,12,12,12,12,12,12,12,0,0,0,0,12,12,12,86,88,
12,68,70,12,12,58,60,12,12,12,12,12,12,12,0,0,0,0,0,12,12,12,92,94,
12,58,60,12,12,12,12,12,12,12,12,12,12,12,0,0,0,0,0,12,12,12,68,70,
68,70,12,12,12,12,12,12,12,12,12,12,12,12,0,0,0,0,12,12,12,12,58,60,
58,60,12,12,12,0,0,0,0,12,12,12,12,12,12,12,12,12,12,12,12,68,70,12,
68,70,12,12,0,0,0,0,0,0,0,12,12,12,12,12,12,12,12,12,12,58,60,12,
58,60,12,12,0,0,0,0,0,0,0,12,12,12,12,12,12,12,12,12,12,12,68,70,
12,86,88,12,0,0,0,0,0,0,0,12,12,12,12,12,12,12,12,12,12,12,58,60,
12,92,94,12,0,0,0,0,0,0,0,12,12,12,12,12,12,12,12,12,12,68,70,12,
12,68,70,12,12,12,12,0,0,0,12,12,12,12,12,12,12,12,12,12,12,58,60,12,
12,58,60,12,12,12,12,12,12,12,12,12,12,12,12,12,12,12,12,12,68,70,12,12,
68,70,12,12,86,88,12,12,12,12,12,12,12,12,12,12,12,12,12,12,58,60,12,12,
58,60,12,12,92,94,12,12,12,12,12,12,12,12,12,12,12,12,12,12,12,12,68,70,
12,86,88,12,12,12,12,12,68,70,12,12,12,12,12,12,12,12,12,12,86,88,58,60,
12,92,94,12,12,12,12,12,58,60,12,12,12,12,12,12,12,12,12,12,92,94,12,12,
178,12,68,70,12,12,12,12,12,12,12,12,12,12,12,12,12,12,12,12,12,68,70,178,
90,12,58,60,12,12,86,88,12,12,12,12,12,12,12,12,12,12,12,12,12,58,60,78,
90,12,86,88,12,12,92,94,12,12,12,12,12,12,12,12,0,0,0,12,12,68,70,178,
90,12,92,94,12,12,12,12,12,12,12,12,12,12,12,0,0,0,0,0,12,58,60,178,
90,68,70,12,12,12,12,12,12,12,12,12,12,12,12,0,0,0,0,0,12,86,88,178,
90,58,60,12,12,12,12,12,12,12,12,12,12,12,12,0,0,0,0,0,12,92,94,12,
90,12,12,86,88,12,12,12,12,12,12,12,12,12,12,0,0,0,0,12,12,12,68,70,
90,12,12,92,94,12,12,12,12,12,12,12,12,12,12,12,12,12,12,12,12,12,58,60,
178,86,88,12,12,12,12,12,12,12,12,12,12,12,12,12,12,12,12,12,12,68,70,12,
12,92,94,12,12,12,12,12,12,12,12,12,12,12,12,12,12,12,12,12,12,58,60,12,
68,70,12,12,12,12,12,12,12,12,12,12,12,12,12,12,12,12,12,12,12,12,68,70,
58,60,12,12,12,12,12,12,12,12,12,12,12,12,12,12,12,12,12,12,12,12,58,60,
0,0,0,0,0,0,0,0,0,0,0,0,0,0,0,0,0,0,0,0,0,0,68,70,
0,0,0,0,0,0,0,0,0,0,0,0,0,0,0,0,0,0,0,0,0,0,58,60,
0,0,0,0,0,0,0,0,0,0,0,0,0,0,0,0,0,0,0,0,0,0,68,70,
0,0,0,0,0,0,0,0,0,0,0,0,0,0,0,0,0,0,0,0,0,0,58,60,
0,0,0,0,0,0,0,0,0,0,0,0,0,0,0,0,0,0,0,0,0,0,68,70,
0,0,0,0,0,0,0,0,0,0,0,0,0,0,0,0,0,0,0,0,0,0,58,60,
68,70,68,70,0,0,0,0,0,0,0,0,0,0,0,0,0,0,0,0,0,0,68,70,
58,60,58,60,0,0,0,0,0,0,0,0,0,0,0,0,0,0,0,0,0,0,58,60,
0,0,68,70,0,0,0,0,0,0,0,0,0,0,0,0,0,0,0,0,0,0,68,70,
0,0,58,60,0,0,0,0,0,0,0,0,0,0,0,0,0,0,0,0,0,0,58,60,
0,0,68,70,0,0,0,0,0,0,0,0,0,0,0,0,0,0,0,0,0,0,68,70,
0,0,58,60,0,0,0,0,0,0,0,0,0,0,0,0,0,0,0,0,0,0,58,60,
0,0,0,0,68,70,0,0,0,0,0,0,0,0,0,0,0,0,0,0,0,0,68,70,
0,0,0,0,58,60,0,0,0,0,0,0,0,0,0,0,0,0,0,0,0,0,58,60,
0,0,0,0,68,70,0,0,0,0,0,0,0,0,0,0,0,0,0,0,0,0,68,70,
0,0,0,0,58,60,0,0,0,0,0,0,0,0,0,0,0,0,0,0,0,0,58,60,
0,0,0,0,68,70,0,0,68,70,68,70,68,70,68,70,68,70,68,70,68,70,68,70,
0,0,0,0,58,60,0,0,58,60,58,60,58,60,58,60,58,60,58,60,58,60,58,60,
0,0,0,0,0,0,68,70,0,0,0,0,0,0,0,0,0,0,0,0,0,0,68,70,
0,0,0,0,0,0,58,60,0,0,0,0,0,0,0,0,0,0,0,0,0,0,58,60
</data>
 </layer>
 <objectgroup id="4" name="collisioni">
  <object id="1000" x="0" y="320" width="32" height="32"/>
  <object id="1001" x="32" y="320" width="32" height="32"/>
  <object id="1002" x="64" y="320" width="32" height="32"/>
  <object id="1003" x="96" y="320" width="32" height="32"/>
  <object id="1004" x="128" y="320" width="32" height="32"/>
  <object id="1005" x="160" y="320" width="32" height="32"/>
  <object id="1006" x="192" y="320" width="32" height="32"/>
  <object id="1007" x="352" y="320" width="32" height="32"/>
  <object id="1008" x="384" y="320" width="32" height="32"/>
  <object id="1009" x="416" y="320" width="32" height="32"/>
  <object id="1010" x="448" y="320" width="32" height="32"/>
  <object id="1011" x="480" y="320" width="32" height="32"/>
  <object id="1012" x="512" y="320" width="32" height="32"/>
  <object id="1013" x="544" y="320" width="32" height="32"/>
  <object id="1014" x="576" y="320" width="32" height="32"/>
  <object id="1015" x="608" y="320" width="32" height="32"/>
  <object id="1016" x="640" y="320" width="32" height="32"/>
  <object id="1017" x="672" y="320" width="32" height="32"/>
  <object id="1018" x="704" y="320" width="32" height="32"/>
  <object id="1019" x="736" y="320" width="32" height="32"/>
  <object id="1020" x="0" y="352" width="32" height="32"/>
  <object id="1021" x="32" y="352" width="32" height="32"/>
  <object id="1022" x="64" y="352" width="32" height="32"/>
  <object id="1023" x="96" y="352" width="32" height="32"/>
  <object id="1024" x="128" y="352" width="32" height="32"/>
  <object id="1025" x="160" y="352" width="32" height="32"/>
  <object id="1026" x="192" y="352" width="32" height="32"/>
  <object id="1027" x="544" y="352" width="32" height="32"/>
  <object id="1028" x="576" y="352" width="32" height="32"/>
  <object id="1029" x="608" y="352" width="32" height="32"/>
  <object id="1030" x="640" y="352" width="32" height="32"/>
  <object id="1031" x="672" y="352" width="32" height="32"/>
  <object id="1032" x="704" y="352" width="32" height="32"/>
  <object id="1033" x="736" y="352" width="32" height="32"/>
  <object id="1034" x="0" y="384" width="32" height="32"/>
  <object id="1035" x="32" y="384" width="32" height="32"/>
  <object id="1036" x="64" y="384" width="32" height="32"/>
  <object id="1037" x="96" y="384" width="32" height="32"/>
  <object id="1038" x="128" y="384" width="32" height="32"/>
  <object id="1039" x="160" y="384" width="32" height="32"/>
  <object id="1040" x="192" y="384" width="32" height="32"/>
  <object id="1041" x="544" y="384" width="32" height="32"/>
  <object id="1042" x="576" y="384" width="32" height="32"/>
  <object id="1043" x="608" y="384" width="32" height="32"/>
  <object id="1044" x="640" y="384" width="32" height="32"/>
  <object id="1045" x="672" y="384" width="32" height="32"/>
  <object id="1046" x="704" y="384" width="32" height="32"/>
  <object id="1047" x="736" y="384" width="32" height="32"/>
  <object id="1048" x="0" y="416" width="32" height="32"/>
  <object id="1049" x="32" y="416" width="32" height="32"/>
  <object id="1050" x="64" y="416" width="32" height="32"/>
  <object id="1051" x="96" y="416" width="32" height="32"/>
  <object id="1052" x="128" y="416" width="32" height="32"/>
  <object id="1053" x="160" y="416" width="32" height="32"/>
  <object id="1054" x="192" y="416" width="32" height="32"/>
  <object id="1055" x="544" y="416" width="32" height="32"/>
  <object id="1056" x="576" y="416" width="32" height="32"/>
  <object id="1057" x="608" y="416" width="32" height="32"/>
  <object id="1058" x="640" y="416" width="32" height="32"/>
  <object id="1059" x="672" y="416" width="32" height="32"/>
  <object id="1060" x="704" y="416" width="32" height="32"/>
  <object id="1061" x="736" y="416" width="32" height="32"/>
  <object id="1062" x="0" y="448" width="32" height="32"/>
  <object id="1063" x="32" y="448" width="32" height="32"/>
  <object id="1064" x="64" y="448" width="32" height="32"/>
  <object id="1065" x="96" y="448" width="32" height="32"/>
  <object id="1066" x="128" y="448" width="32" height="32"/>
  <object id="1067" x="160" y="448" width="32" height="32"/>
  <object id="1068" x="192" y="448" width="32" height="32"/>
  <object id="1069" x="544" y="448" width="32" height="32"/>
  <object id="1070" x="576" y="448" width="32" height="32"/>
  <object id="1071" x="608" y="448" width="32" height="32"/>
  <object id="1072" x="640" y="448" width="32" height="32"/>
  <object id="1073" x="672" y="448" width="32" height="32"/>
  <object id="1074" x="704" y="448" width="32" height="32"/>
  <object id="1075" x="736" y="448" width="32" height="32"/>
  <object id="1076" x="0" y="480" width="32" height="32"/>
  <object id="1077" x="32" y="480" width="32" height="32"/>
  <object id="1078" x="64" y="480" width="32" height="32"/>
  <object id="1079" x="96" y="480" width="32" height="32"/>
  <object id="1080" x="128" y="480" width="32" height="32"/>
  <object id="1081" x="160" y="480" width="32" height="32"/>
  <object id="1082" x="192" y="480" width="32" height="32"/>
  <object id="1083" x="544" y="480" width="32" height="32"/>
  <object id="1084" x="576" y="480" width="32" height="32"/>
  <object id="1085" x="608" y="480" width="32" height="32"/>
  <object id="1086" x="640" y="480" width="32" height="32"/>
  <object id="1087" x="672" y="480" width="32" height="32"/>
  <object id="1088" x="704" y="480" width="32" height="32"/>
  <object id="1089" x="736" y="480" width="32" height="32"/>
  <object id="1090" x="0" y="512" width="32" height="32"/>
  <object id="1091" x="32" y="512" width="32" height="32"/>
  <object id="1092" x="64" y="512" width="32" height="32"/>
  <object id="1093" x="96" y="512" width="32" height="32"/>
  <object id="1094" x="128" y="512" width="32" height="32"/>
  <object id="1095" x="160" y="512" width="32" height="32"/>
  <object id="1096" x="192" y="512" width="32" height="32"/>
  <object id="1097" x="544" y="512" width="32" height="32"/>
  <object id="1098" x="576" y="512" width="32" height="32"/>
  <object id="1099" x="608" y="512" width="32" height="32"/>
  <object id="1100" x="640" y="512" width="32" height="32"/>
  <object id="1101" x="672" y="512" width="32" height="32"/>
  <object id="1102" x="704" y="512" width="32" height="32"/>
  <object id="1103" x="736" y="512" width="32" height="32"/>
  <object id="1104" x="0" y="544" width="32" height="32"/>
  <object id="1105" x="32" y="544" width="32" height="32"/>
  <object id="1106" x="64" y="544" width="32" height="32"/>
  <object id="1107" x="96" y="544" width="32" height="32"/>
  <object id="1108" x="128" y="544" width="32" height="32"/>
  <object id="1109" x="160" y="544" width="32" height="32"/>
  <object id="1110" x="192" y="544" width="32" height="32"/>
  <object id="1111" x="544" y="544" width="32" height="32"/>
  <object id="1112" x="576" y="544" width="32" height="32"/>
  <object id="1113" x="608" y="544" width="32" height="32"/>
  <object id="1114" x="640" y="544" width="32" height="32"/>
  <object id="1115" x="672" y="544" width="32" height="32"/>
  <object id="1116" x="704" y="544" width="32" height="32"/>
  <object id="1117" x="736" y="544" width="32" height="32"/>
  <object id="1118" x="0" y="576" width="32" height="32"/>
  <object id="1119" x="32" y="576" width="32" height="32"/>
  <object id="1120" x="64" y="576" width="32" height="32"/>
  <object id="1121" x="96" y="576" width="32" height="32"/>
  <object id="1122" x="128" y="576" width="32" height="32"/>
  <object id="1123" x="160" y="576" width="32" height="32"/>
  <object id="1124" x="192" y="576" width="32" height="32"/>
  <object id="1125" x="544" y="576" width="32" height="32"/>
  <object id="1126" x="576" y="576" width="32" height="32"/>
  <object id="1127" x="608" y="576" width="32" height="32"/>
  <object id="1128" x="640" y="576" width="32" height="32"/>
  <object id="1129" x="672" y="576" width="32" height="32"/>
  <object id="1130" x="704" y="576" width="32" height="32"/>
  <object id="1131" x="736" y="576" width="32" height="32"/>
  <object id="1132" x="0" y="608" width="32" height="32"/>
  <object id="1133" x="32" y="608" width="32" height="32"/>
  <object id="1134" x="64" y="608" width="32" height="32"/>
  <object id="1135" x="96" y="608" width="32" height="32"/>
  <object id="1136" x="128" y="608" width="32" height="32"/>
  <object id="1137" x="160" y="608" width="32" height="32"/>
  <object id="1138" x="192" y="608" width="32" height="32"/>
  <object id="1139" x="544" y="608" width="32" height="32"/>
  <object id="1140" x="576" y="608" width="32" height="32"/>
  <object id="1141" x="608" y="608" width="32" height="32"/>
  <object id="1142" x="640" y="608" width="32" height="32"/>
  <object id="1143" x="672" y="608" width="32" height="32"/>
  <object id="1144" x="704" y="608" width="32" height="32"/>
  <object id="1145" x="736" y="608" width="32" height="32"/>
  <object id="1146" x="0" y="640" width="32" height="32"/>
  <object id="1147" x="32" y="640" width="32" height="32"/>
  <object id="1148" x="64" y="640" width="32" height="32"/>
  <object id="1149" x="96" y="640" width="32" height="32"/>
  <object id="1150" x="128" y="640" width="32" height="32"/>
  <object id="1151" x="160" y="640" width="32" height="32"/>
  <object id="1152" x="192" y="640" width="32" height="32"/>
  <object id="1153" x="544" y="640" width="32" height="32"/>
  <object id="1154" x="576" y="640" width="32" height="32"/>
  <object id="1155" x="608" y="640" width="32" height="32"/>
  <object id="1156" x="640" y="640" width="32" height="32"/>
  <object id="1157" x="672" y="640" width="32" height="32"/>
  <object id="1158" x="704" y="640" width="32" height="32"/>
  <object id="1159" x="736" y="640" width="32" height="32"/>
  <object id="1160" x="0" y="672" width="32" height="32"/>
  <object id="1161" x="32" y="672" width="32" height="32"/>
  <object id="1162" x="64" y="672" width="32" height="32"/>
  <object id="1163" x="96" y="672" width="32" height="32"/>
  <object id="1164" x="128" y="672" width="32" height="32"/>
  <object id="1165" x="160" y="672" width="32" height="32"/>
  <object id="1166" x="192" y="672" width="32" height="32"/>
  <object id="1167" x="544" y="672" width="32" height="32"/>
  <object id="1168" x="576" y="672" width="32" height="32"/>
  <object id="1169" x="0" y="704" width="32" height="32"/>
  <object id="1170" x="32" y="704" width="32" height="32"/>
  <object id="1171" x="64" y="704" width="32" height="32"/>
  <object id="1172" x="96" y="704" width="32" height="32"/>
  <object id="1173" x="128" y="704" width="32" height="32"/>
  <object id="1174" x="160" y="704" width="32" height="32"/>
  <object id="1175" x="192" y="704" width="32" height="32"/>
  <object id="1176" x="544" y="704" width="32" height="32"/>
  <object id="1177" x="576" y="704" width="32" height="32"/>
  <object id="1178" x="0" y="736" width="32" height="32"/>
  <object id="1179" x="32" y="736" width="32" height="32"/>
  <object id="1180" x="64" y="736" width="32" height="32"/>
  <object id="1181" x="96" y="736" width="32" height="32"/>
  <object id="1182" x="128" y="736" width="32" height="32"/>
  <object id="1183" x="160" y="736" width="32" height="32"/>
  <object id="1184" x="192" y="736" width="32" height="32"/>
  <object id="1185" x="512" y="736" width="32" height="32"/>
  <object id="1186" x="544" y="736" width="32" height="32"/>
  <object id="1187" x="0" y="768" width="32" height="32"/>
  <object id="1188" x="32" y="768" width="32" height="32"/>
  <object id="1189" x="64" y="768" width="32" height="32"/>
  <object id="1190" x="96" y="768" width="32" height="32"/>
  <object id="1191" x="128" y="768" width="32" height="32"/>
  <object id="1192" x="160" y="768" width="32" height="32"/>
  <object id="1193" x="192" y="768" width="32" height="32"/>
  <object id="1194" x="512" y="768" width="32" height="32"/>
  <object id="1195" x="544" y="768" width="32" height="32"/>
  <object id="1196" x="160" y="800" width="32" height="32"/>
  <object id="1197" x="192" y="800" width="32" height="32"/>
  <object id="1198" x="544" y="800" width="32" height="32"/>
  <object id="1199" x="576" y="800" width="32" height="32"/>
  <object id="1200" x="160" y="832" width="32" height="32"/>
  <object id="1201" x="192" y="832" width="32" height="32"/>
  <object id="1202" x="224" y="832" width="32" height="32"/>
  <object id="1203" x="256" y="832" width="32" height="32"/>
  <object id="1204" x="544" y="832" width="32" height="32"/>
  <object id="1205" x="576" y="832" width="32" height="32"/>
  <object id="1206" x="96" y="864" width="32" height="32"/>
  <object id="1207" x="128" y="864" width="32" height="32"/>
  <object id="1208" x="224" y="864" width="32" height="32"/>
  <object id="1209" x="256" y="864" width="32" height="32"/>
  <object id="1210" x="608" y="864" width="32" height="32"/>
  <object id="1211" x="640" y="864" width="32" height="32"/>
  <object id="1212" x="96" y="896" width="32" height="32"/>
  <object id="1213" x="128" y="896" width="32" height="32"/>
  <object id="1214" x="192" y="896" width="32" height="32"/>
  <object id="1215" x="224" y="896" width="32" height="32"/>
  <object id="1216" x="608" y="896" width="32" height="32"/>
  <object id="1217" x="640" y="896" width="32" height="32"/>
  <object id="1218" x="192" y="928" width="32" height="32"/>
  <object id="1219" x="224" y="928" width="32" height="32"/>
  <object id="1220" x="640" y="928" width="32" height="32"/>
  <object id="1221" x="672" y="928" width="32" height="32"/>
  <object id="1222" x="96" y="960" width="32" height="32"/>
  <object id="1223" x="128" y="960" width="32" height="32"/>
  <object id="1224" x="160" y="960" width="32" height="32"/>
  <object id="1225" x="192" y="960" width="32" height="32"/>
  <object id="1226" x="544" y="960" width="32" height="32"/>
  <object id="1227" x="576" y="960" width="32" height="32"/>
  <object id="1228" x="640" y="960" width="32" height="32"/>
  <object id="1229" x="672" y="960" width="32" height="32"/>
  <object id="1230" x="96" y="992" width="32" height="32"/>
  <object id="1231" x="128" y="992" width="32" height="32"/>
  <object id="1232" x="160" y="992" width="32" height="32"/>
  <object id="1233" x="192" y="992" width="32" height="32"/>
  <object id="1234" x="544" y="992" width="32" height="32"/>
  <object id="1235" x="576" y="992" width="32" height="32"/>
  <object id="1236" x="672" y="992" width="32" height="32"/>
  <object id="1237" x="704" y="992" width="32" height="32"/>
  <object id="1238" x="64" y="1024" width="32" height="32"/>
  <object id="1239" x="96" y="1024" width="32" height="32"/>
  <object id="1240" x="672" y="1024" width="32" height="32"/>
  <object id="1241" x="704" y="1024" width="32" height="32"/>
  <object id="1242" x="64" y="1056" width="32" height="32"/>
  <object id="1243" x="96" y="1056" width="32" height="32"/>
  <object id="1244" x="160" y="1056" width="32" height="32"/>
  <object id="1245" x="192" y="1056" width="32" height="32"/>
  <object id="1246" x="704" y="1056" width="32" height="32"/>
  <object id="1247" x="736" y="1056" width="32" height="32"/>
  <object id="1248" x="32" y="1088" width="32" height="32"/>
  <object id="1249" x="64" y="1088" width="32" height="32"/>
  <object id="1250" x="160" y="1088" width="32" height="32"/>
  <object id="1251" x="192" y="1088" width="32" height="32"/>
  <object id="1252" x="704" y="1088" width="32" height="32"/>
  <object id="1253" x="736" y="1088" width="32" height="32"/>
  <object id="1254" x="32" y="1120" width="32" height="32"/>
  <object id="1255" x="64" y="1120" width="32" height="32"/>
  <object id="1256" x="704" y="1120" width="32" height="32"/>
  <object id="1257" x="736" y="1120" width="32" height="32"/>
  <object id="1258" x="0" y="1152" width="32" height="32"/>
  <object id="1259" x="32" y="1152" width="32" height="32"/>
  <object id="1260" x="704" y="1152" width="32" height="32"/>
  <object id="1261" x="736" y="1152" width="32" height="32"/>
  <object id="1262" x="0" y="1184" width="32" height="32"/>
  <object id="1263" x="32" y="1184" width="32" height="32"/>
  <object id="1264" x="672" y="1184" width="32" height="32"/>
  <object id="1265" x="704" y="1184" width="32" height="32"/>
  <object id="1266" x="0" y="1216" width="32" height="32"/>
  <object id="1267" x="32" y="1216" width="32" height="32"/>
  <object id="1268" x="672" y="1216" width="32" height="32"/>
  <object id="1269" x="704" y="1216" width="32" height="32"/>
  <object id="1270" x="0" y="1248" width="32" height="32"/>
  <object id="1271" x="32" y="1248" width="32" height="32"/>
  <object id="1272" x="704" y="1248" width="32" height="32"/>
  <object id="1273" x="736" y="1248" width="32" height="32"/>
  <object id="1274" x="32" y="1280" width="32" height="32"/>
  <object id="1275" x="64" y="1280" width="32" height="32"/>
  <object id="1276" x="704" y="1280" width="32" height="32"/>
  <object id="1277" x="736" y="1280" width="32" height="32"/>
  <object id="1278" x="32" y="1312" width="32" height="32"/>
  <object id="1279" x="64" y="1312" width="32" height="32"/>
  <object id="1280" x="672" y="1312" width="32" height="32"/>
  <object id="1281" x="704" y="1312" width="32" height="32"/>
  <object id="1282" x="32" y="1344" width="32" height="32"/>
  <object id="1283" x="64" y="1344" width="32" height="32"/>
  <object id="1284" x="672" y="1344" width="32" height="32"/>
  <object id="1285" x="704" y="1344" width="32" height="32"/>
  <object id="1286" x="32" y="1376" width="32" height="32"/>
  <object id="1287" x="64" y="1376" width="32" height="32"/>
  <object id="1288" x="640" y="1376" width="32" height="32"/>
  <object id="1289" x="672" y="1376" width="32" height="32"/>
  <object id="1290" x="0" y="1408" width="32" height="32"/>
  <object id="1291" x="32" y="1408" width="32" height="32"/>
  <object id="1292" x="128" y="1408" width="32" height="32"/>
  <object id="1293" x="160" y="1408" width="32" height="32"/>
  <object id="1294" x="640" y="1408" width="32" height="32"/>
  <object id="1295" x="672" y="1408" width="32" height="32"/>
  <object id="1296" x="0" y="1440" width="32" height="32"/>
  <object id="1297" x="32" y="1440" width="32" height="32"/>
  <object id="1298" x="128" y="1440" width="32" height="32"/>
  <object id="1299" x="160" y="1440" width="32" height="32"/>
  <object id="1300" x="704" y="1440" width="32" height="32"/>
  <object id="1301" x="736" y="1440" width="32" height="32"/>
  <object id="1302" x="32" y="1472" width="32" height="32"/>
  <object id="1303" x="64" y="1472" width="32" height="32"/>
  <object id="1304" x="256" y="1472" width="32" height="32"/>
  <object id="1305" x="288" y="1472" width="32" height="32"/>
  <object id="1306" x="640" y="1472" width="32" height="32"/>
  <object id="1307" x="672" y="1472" width="32" height="32"/>
  <object id="1308" x="704" y="1472" width="32" height="32"/>
  <object id="1309" x="736" y="1472" width="32" height="32"/>
  <object id="1310" x="32" y="1504" width="32" height="32"/>
  <object id="1311" x="64" y="1504" width="32" height="32"/>
  <object id="1312" x="256" y="1504" width="32" height="32"/>
  <object id="1313" x="288" y="1504" width="32" height="32"/>
  <object id="1314" x="640" y="1504" width="32" height="32"/>
  <object id="1315" x="672" y="1504" width="32" height="32"/>
  <object id="1316" x="64" y="1536" width="32" height="32"/>
  <object id="1317" x="96" y="1536" width="32" height="32"/>
  <object id="1318" x="672" y="1536" width="32" height="32"/>
  <object id="1319" x="704" y="1536" width="32" height="32"/>
  <object id="1320" x="64" y="1568" width="32" height="32"/>
  <object id="1321" x="96" y="1568" width="32" height="32"/>
  <object id="1322" x="192" y="1568" width="32" height="32"/>
  <object id="1323" x="224" y="1568" width="32" height="32"/>
  <object id="1324" x="672" y="1568" width="32" height="32"/>
  <object id="1325" x="704" y="1568" width="32" height="32"/>
  <object id="1326" x="64" y="1600" width="32" height="32"/>
  <object id="1327" x="96" y="1600" width="32" height="32"/>
  <object id="1328" x="192" y="1600" width="32" height="32"/>
  <object id="1329" x="224" y="1600" width="32" height="32"/>
  <object id="1330" x="672" y="1600" width="32" height="32"/>
  <object id="1331" x="704" y="1600" width="32" height="32"/>
  <object id="1332" x="64" y="1632" width="32" height="32"/>
  <object id="1333" x="96" y="1632" width="32" height="32"/>
  <object id="1334" x="672" y="1632" width="32" height="32"/>
  <object id="1335" x="704" y="1632" width="32" height="32"/>
  <object id="1336" x="32" y="1664" width="32" height="32"/>
  <object id="1337" x="64" y="1664" width="32" height="32"/>
  <object id="1338" x="672" y="1664" width="32" height="32"/>
  <object id="1339" x="704" y="1664" width="32" height="32"/>
  <object id="1340" x="32" y="1696" width="32" height="32"/>
  <object id="1341" x="64" y="1696" width="32" height="32"/>
  <object id="1342" x="672" y="1696" width="32" height="32"/>
  <object id="1343" x="704" y="1696" width="32" height="32"/>
  <object id="1344" x="96" y="1728" width="32" height="32"/>
  <object id="1345" x="128" y="1728" width="32" height="32"/>
  <object id="1346" x="704" y="1728" width="32" height="32"/>
  <object id="1347" x="736" y="1728" width="32" height="32"/>
  <object id="1348" x="96" y="1760" width="32" height="32"/>
  <object id="1349" x="128" y="1760" width="32" height="32"/>
  <object id="1350" x="704" y="1760" width="32" height="32"/>
  <object id="1351" x="736" y="1760" width="32" height="32"/>
  <object id="1352" x="32" y="1792" width="32" height="32"/>
  <object id="1353" x="64" y="1792" width="32" height="32"/>
  <object id="1354" x="672" y="1792" width="32" height="32"/>
  <object id="1355" x="704" y="1792" width="32" height="32"/>
  <object id="1356" x="32" y="1824" width="32" height="32"/>
  <object id="1357" x="64" y="1824" width="32" height="32"/>
  <object id="1358" x="672" y="1824" width="32" height="32"/>
  <object id="1359" x="704" y="1824" width="32" height="32"/>
  <object id="1360" x="0" y="1856" width="32" height="32"/>
  <object id="1361" x="32" y="1856" width="32" height="32"/>
  <object id="1362" x="704" y="1856" width="32" height="32"/>
  <object id="1363" x="736" y="1856" width="32" height="32"/>
  <object id="1364" x="0" y="1888" width="32" height="32"/>
  <object id="1365" x="32" y="1888" width="32" height="32"/>
  <object id="1366" x="704" y="1888" width="32" height="32"/>
  <object id="1367" x="736" y="1888" width="32" height="32"/>
  <object id="387" x="20.6667" y="2125.33" width="91.3333" height="36"/>
  <object id="388" x="82" y="2172" width="32" height="115.333"/>
  <object id="389" x="144.667" y="2318" width="30" height="172"/>
  <object id="390" x="204.667" y="2503.33" width="33.3333" height="52.6667"/>
  <object id="391" x="276" y="2443.33" width="484.667" height="39.3333"/>
  <object id="392" x="717.333" y="1920.67" width="52.6667" height="617.333"/>
  <object id="393" x="6.66667" y="4" width="171.333" height="311.333"/>
  <object id="394" x="182" y="4" width="578" height="73.3333"/>
  <object id="395" x="593.333" y="54.6667" width="165.333" height="283.333"/>
  <object id="398" x="358.667" y="300.667" width="21.3333" height="8"/>
  <object id="399" x="196.667" y="289.333" width="17.3333" height="19.3333"/>
 </objectgroup>
 <objectgroup id="5" name="eventi">
  <object id="375" name="leggendario_zapdos_montepo3" type="pokemon leggendario" x="494.667" y="143.333">
   <properties>
    <property name="condizione" value="maso_montepo3_sconfitto"/>
    <property name="direzione" value="sud"/>
    <property name="id" value="leggendario_zapdos_montepo3"/>
    <property name="livello" value="60"/>
    <property name="pokemon_id" value="145"/>
    <property name="type" value="pokemon leggendario"/>
   </properties>
   <point/>
  </object>
  <object id="376" name="grunt_montepo1_1" type="trainer" x="380.667" y="166.667">
   <properties>
    <property name="direzione" value="sud"/>
    <property name="id" value="grunt_montepo1_1"/>
    <property name="type" value="trainer"/>
   </properties>
   <point/>
  </object>
  <object id="378" name="grunt_montepo1_2" type="trainer" x="258.667" y="153.333">
   <properties>
    <property name="direzione" value="sud"/>
    <property name="id" value="grunt_montepo1_2"/>
    <property name="type" value="trainer"/>
   </properties>
   <point/>
  </object>
  <object id="379" name="grunt_montepo1_3" type="trainer" x="510" y="220">
   <properties>
    <property name="direzione" value="sud"/>
    <property name="id" value="grunt_montepo1_3"/>
    <property name="type" value="trainer"/>
   </properties>
   <point/>
  </object>
  <object id="381" name="grunt_montepo1_4" type="trainer" x="244" y="1289.33">
   <properties>
    <property name="direzione" value="sud"/>
    <property name="id" value="grunt_montepo1_4"/>
    <property name="type" value="trainer"/>
   </properties>
   <point/>
  </object>
  <object id="382" name="grunt_montepo1_5" type="trainer" x="548" y="1102">
   <properties>
    <property name="direzione" value="sud"/>
    <property name="id" value="grunt_montepo1_5"/>
    <property name="type" value="trainer"/>
   </properties>
   <point/>
  </object>
  <object id="383" name="grunt_montepo1_6" type="trainer" x="558.667" y="1688.67">
   <properties>
    <property name="direzione" value="sud"/>
    <property name="id" value="grunt_montepo1_6"/>
    <property name="type" value="trainer"/>
   </properties>
   <point/>
  </object>
  <object id="384" name="grunt_montepo1_7" type="trainer" x="558.667" y="1688.67">
   <properties>
    <property name="direzione" value="sud"/>
    <property name="id" value="grunt_montepo1_7"/>
    <property name="type" value="trainer"/>
   </properties>
   <point/>
  </object>
  <object id="385" name="p_montepo1_magnete" type="oggetto" x="369.333" y="2352">
   <properties>
    <property name="contenuto" value="magnete"/>
    <property name="id" value="p_montepo1_magnete"/>
    <property name="quantita" value="1"/>
    <property name="type" value="oggetto"/>
   </properties>
   <point/>
  </object>
  <object id="400" name="trigger_maso_montepo3" type="trigger_maso_montepo3" x="204.667" y="254.667" width="367.333" height="20.6667">
   <properties>
    <property name="type" value="trigger_maso_montepo3"/>
   </properties>
  </object>
  <object id="401" name="maso_montepo3_finale" type="trainer" x="432.667" y="182">
   <properties>
    <property name="condizione" value="grunt_gate_montepo3_attivo"/>
    <property name="direzione" value="ovest"/>
    <property name="id" value="maso_montepo3_finale"/>
    <property name="speciale" type="bool" value="true"/>
    <property name="type" value="trainer"/>
   </properties>
   <point/>
  </object>
  <object id="404" name="acqua_percorso_montepo3" x="6.42667" y="1924.7" width="755.813" height="330.592">
   <properties>
    <property name="id" value="acqua_percorso_montepo3"/>
    <property name="type" value="acqua surf"/>
   </properties>
  </object>
  <object id="405" name="acqua_percorso_montepo3" x="0.760167" y="2226.7" width="279.146" height="330.592">
   <properties>
    <property name="id" value="acqua_percorso_montepo3"/>
    <property name="type" value="acqua surf"/>
   </properties>
  </object>
  <object id="406" name="acqua_percorso_montepo3" x="39.7603" y="1969.37" width="279.146" height="330.592">
   <properties>
    <property name="id" value="acqua_percorso_montepo3"/>
    <property name="type" value="acqua surf"/>
   </properties>
  </object>
  <object id="407" name="acqua_percorso_montepo3" x="425.76" y="1966.7" width="279.146" height="330.592">
   <properties>
    <property name="id" value="acqua_percorso_montepo3"/>
    <property name="type" value="acqua surf"/>
   </properties>
  </object>
  <object id="408" name="acqua_percorso_montepo3" x="449.094" y="2227.37" width="279.146" height="330.592">
   <properties>
    <property name="id" value="acqua_percorso_montepo3"/>
    <property name="type" value="acqua surf"/>
   </properties>
  </object>
  <object id="409" name="acqua_percorso_montepo3" x="427.76" y="2416.7" width="41.8127" height="15.2587">
   <properties>
    <property name="id" value="acqua_percorso_montepo3"/>
    <property name="type" value="acqua surf"/>
   </properties>
  </object>
  <object id="410" name="acqua_percorso_montepo3" x="19.0937" y="1771.7" width="738.479" height="143.259">
   <properties>
    <property name="id" value="acqua_percorso_montepo3"/>
    <property name="type" value="acqua surf"/>
   </properties>
  </object>
  <object id="411" name="acqua_percorso_montepo3" x="4.7605" y="1382.37" width="738.479" height="202.592">
   <properties>
    <property name="id" value="acqua_percorso_montepo3"/>
    <property name="type" value="acqua surf"/>
   </properties>
  </object>
  <object id="412" name="acqua_percorso_montepo3" x="12.0938" y="1578.7" width="455.146" height="202.592">
   <properties>
    <property name="id" value="acqua_percorso_montepo3"/>
    <property name="type" value="acqua surf"/>
   </properties>
  </object>
  <object id="413" name="acqua_percorso_montepo3" x="367.094" y="1190.7" width="400.479" height="202.592">
   <properties>
    <property name="id" value="acqua_percorso_montepo3"/>
    <property name="type" value="acqua surf"/>
   </properties>
  </object>
  <object id="414" name="acqua_percorso_montepo3" x="8.42717" y="836.704" width="754.479" height="236.592">
   <properties>
    <property name="id" value="acqua_percorso_montepo3"/>
    <property name="type" value="acqua surf"/>
   </properties>
  </object>
  <object id="415" name="acqua_percorso_montepo3" x="239.427" y="304.371" width="95.1457" height="383.925">
   <properties>
    <property name="id" value="acqua_percorso_montepo3"/>
    <property name="type" value="acqua surf"/>
   </properties>
  </object>
  <object id="416" name="acqua_percorso_montepo3" x="6.09383" y="691.704" width="754.479" height="236.592">
   <properties>
    <property name="id" value="acqua_percorso_montepo3"/>
    <property name="type" value="acqua surf"/>
   </properties>
  </object>
  <object id="417" name="acqua_percorso_montepo3" x="297.76" y="884.37" width="95.1457" height="327.259">
   <properties>
    <property name="id" value="acqua_percorso_montepo3"/>
    <property name="type" value="acqua surf"/>
   </properties>
  </object>
  <object id="418" name="acqua_percorso_montepo3" x="25.7605" y="1095.7" width="95.1457" height="327.259">
   <properties>
    <property name="id" value="acqua_percorso_montepo3"/>
    <property name="type" value="acqua surf"/>
   </properties>
  </object>
  <object id="419" name="acqua_percorso_montepo3" x="127.094" y="1087.7" width="307.146" height="95.259">
   <properties>
    <property name="id" value="acqua_percorso_montepo3"/>
    <property name="type" value="acqua surf"/>
   </properties>
  </object>
  <object id="420" name="acqua_percorso_montepo3" x="618.427" y="1071.7" width="143.146" height="121.259">
   <properties>
    <property name="id" value="acqua_percorso_montepo3"/>
    <property name="type" value="acqua surf"/>
   </properties>
  </object>
  <object id="421" name="acqua_percorso_montepo3" x="583.094" y="1157.37" width="143.146" height="121.259">
   <properties>
    <property name="id" value="acqua_percorso_montepo3"/>
    <property name="type" value="acqua surf"/>
   </properties>
  </object>
  <object id="422" name="acqua_percorso_montepo3" x="16.427" y="1089.37" width="143.146" height="121.259">
   <properties>
    <property name="id" value="acqua_percorso_montepo3"/>
    <property name="type" value="acqua surf"/>
   </properties>
  </object>
  <object id="423" name="acqua_percorso_montepo3" x="74.427" y="1353.37" width="143.146" height="121.259">
   <properties>
    <property name="id" value="acqua_percorso_montepo3"/>
    <property name="type" value="acqua surf"/>
   </properties>
  </object>
  <object id="424" name="acqua_percorso_montepo3" x="329.094" y="1355.37" width="143.146" height="121.259">
   <properties>
    <property name="id" value="acqua_percorso_montepo3"/>
    <property name="type" value="acqua surf"/>
   </properties>
  </object>
 </objectgroup>
</map>
