<?xml version="1.0" encoding="UTF-8"?>
<map version="1.10" tiledversion="1.12.2" orientation="orthogonal" renderorder="right-down" width="24" height="175" tilewidth="32" tileheight="32" infinite="0" nextlayerid="7" nextobjectid="2305">
 <tileset firstgid="1" name="percorso_montepo_3_tileset" tilewidth="32" tileheight="32" tilecount="352" columns="16">
  <image source="../percorso_montepo_3_tileset.png" width="512" height="704"/>
 </tileset>
 <tileset firstgid="353" source="../../outside.tsx"/>
 <tileset firstgid="4369" source="../Sea.tsj"/>
 <tileset firstgid="4467" source="../outside.tsx"/>
 <layer id="1" name="ground" width="24" height="175">
  <data encoding="csv">
1146,1146,1146,1146,1146,1146,1146,1146,1146,1146,1146,1146,1146,1146,1146,1146,1146,1146,1146,1146,1146,1146,1146,1146,
1146,1146,1146,1146,1146,1146,1146,1146,1146,1146,1146,1146,1146,1146,1146,1146,1146,1146,1146,1146,1146,1146,1146,1146,
1146,1146,1146,1146,1146,1146,1146,1146,1146,1146,1146,1146,1146,1146,1146,1146,1146,1146,1146,1146,1146,1146,1146,1146,
1146,1146,1146,1146,1146,1146,1146,1146,1146,1146,1146,1146,1146,1146,1146,1146,1146,1146,1146,1146,1146,1146,1146,1146,
1146,1146,1146,1146,1146,1146,1146,1146,1146,1146,1146,1146,1146,1146,1146,1146,1146,1146,1146,1146,1146,1146,1146,1146,
1146,1146,1146,1146,1146,1146,1148,1146,1146,1146,1146,1146,1146,1146,1146,1146,1150,1146,1146,1146,1146,1146,1146,1146,
1146,1146,1146,1146,1146,1146,1148,1146,1146,1146,1146,1146,1146,1146,1146,1146,1150,1146,1146,1146,1146,1146,1146,1146,
1146,1146,1146,1146,1146,1146,1148,1146,1146,1146,1146,1146,1146,1146,1146,1146,1150,1146,1146,1146,1146,1146,1146,1146,
1146,1146,1146,1146,1146,1146,1148,1146,1146,1146,1146,1146,1146,1146,1146,1146,1150,1146,1146,1146,1146,1146,1146,1146,
1146,1146,1146,1146,1146,1146,1148,1146,1146,1146,1146,1146,1146,1146,1146,1146,1150,1146,1146,1146,1146,1146,1146,1146,
1146,1146,1146,1146,1146,1146,1148,1146,1146,1146,1146,1146,1146,1146,1146,1146,1150,1146,1146,1146,1146,1146,1146,1146,
1146,1146,1146,1146,1146,1146,1148,1146,1146,1146,1146,1146,1146,1146,1146,1146,1150,1146,1146,1146,1146,1146,1146,1146,
1146,1146,1146,1146,1146,1146,1148,1146,1146,1146,1146,1146,1146,1146,1146,1146,1150,1146,1146,1146,1146,1146,1146,1146,
1146,1146,1146,1146,1146,1146,1148,1146,1146,1146,1146,1146,1146,1146,1146,1146,1150,1146,1146,1146,1146,1146,1146,1146,
1146,1146,1146,1146,1146,1146,1156,1146,1146,1146,1146,1146,1146,1146,1146,1146,1158,1146,1146,1146,1146,1146,1146,1146,
1,1,1,1,1,1,3,5,5,7,9,11,11,7,5,5,13,1,1,1,1,1,1,1,
15,17,15,17,15,17,19,21,23,25,27,29,29,31,23,33,35,5,15,17,15,17,15,17,
37,39,37,39,37,41,43,45,47,45,45,45,45,45,45,45,23,49,51,39,37,39,37,39,
53,55,53,55,53,57,59,45,47,47,45,45,47,45,47,45,45,61,63,55,53,55,53,55,
37,39,37,39,37,41,65,47,45,47,45,45,47,45,47,45,47,61,51,39,37,39,37,39,
53,57,67,69,71,73,59,45,45,45,47,45,45,47,45,45,47,61,67,69,71,73,63,55,
37,41,75,77,79,75,47,45,45,45,47,45,45,47,45,45,45,47,75,77,79,75,51,39,
53,57,75,77,79,75,45,45,47,45,47,45,47,45,45,45,45,45,75,77,79,75,63,55,
37,41,75,77,79,75,45,45,47,45,47,45,47,45,45,45,47,45,75,77,79,75,51,39,
53,57,75,77,79,75,47,45,45,47,45,47,45,47,45,45,47,45,75,77,79,75,63,55,
37,41,75,77,79,75,47,45,45,47,45,47,45,47,45,45,47,45,75,77,79,75,51,39,
53,57,75,77,79,75,45,47,45,45,47,45,45,47,45,45,45,45,75,77,79,75,63,55,
37,41,75,77,79,75,47,47,47,45,47,45,45,47,45,47,45,45,75,77,79,75,51,39,
53,57,75,77,79,75,47,45,47,45,47,45,45,47,45,47,45,45,75,77,79,75,63,55,
37,41,81,83,85,81,47,45,47,45,47,45,45,47,45,47,45,47,81,83,85,81,51,39,
53,57,87,89,91,87,47,45,47,45,45,45,45,45,45,47,45,47,87,89,91,87,63,55,
37,41,93,65,45,95,45,45,45,45,45,45,45,45,45,45,45,45,93,45,97,95,51,39,
53,57,99,101,103,103,103,103,45,45,45,45,45,45,45,45,45,103,103,103,105,107,63,55,
37,41,109,111,107,99,107,99,101,103,103,103,103,103,103,103,105,99,107,99,107,99,51,39,
53,57,109,113,109,113,109,113,109,113,109,113,109,113,109,113,109,113,109,113,109,113,63,55,
37,41,115,117,117,117,117,117,117,117,117,117,117,117,117,117,117,117,119,107,99,121,51,39,
53,57,123,125,127,127,127,127,127,127,127,127,127,127,127,127,127,129,131,109,113,121,63,55,
37,41,123,133,1,1,1,1,1,1,1,1,1,1,1,1,1,135,131,107,99,121,51,39,
53,57,123,133,1,1,1,1,1,1,1,1,1,1,1,1,1,135,131,107,99,121,63,55,
37,41,123,133,1,1,1,1,1,1,1,1,1,1,1,1,1,135,131,109,113,121,51,39,
53,57,123,133,1,1,1,1,1,1,1,1,1,1,1,1,1,137,137,119,121,121,63,55,
37,41,123,133,1,1,1,1,1,1,1,1,1,1,1,1,1,1,1,135,119,121,51,39,
53,57,123,139,141,1130,141,141,141,141,13,1,1,1,1,3,141,141,1130,143,131,121,63,55,
37,41,35,145,5,1130,5,145,5,13,133,1,1,1,1,135,3,5,1130,5,19,121,51,39,
53,57,111,93,21,23,33,95,149,123,133,1,1,1,1,135,131,113,99,113,99,107,63,55,
37,41,113,99,65,45,97,113,99,123,133,1,1,1,1,135,131,109,113,109,113,109,51,39,
53,57,113,151,65,45,97,109,149,123,133,1,1,1,1,135,131,153,107,109,99,109,63,55,
37,41,99,109,65,45,97,113,99,123,133,1,1,1,1,135,131,113,153,99,153,109,51,39,
53,57,149,109,65,45,97,109,113,123,133,1,1,1,1,135,137,117,117,117,117,119,63,55,
37,41,109,155,65,45,97,155,149,123,133,1,1,1,1,137,127,127,129,1,1,131,51,39,
53,57,149,93,65,45,97,95,109,123,133,1,1,1,1,1,1,1,135,1,1,131,63,55,
37,41,113,99,65,45,97,113,149,123,133,1,1,1,1,1,1,1,135,1,1,131,51,39,
53,57,109,113,65,45,97,109,113,123,139,13,1,1,1,1,1,1,135,1,1,131,63,55,
37,41,113,149,65,45,97,113,149,123,1,133,1,1,1,1,1,1,135,1,1,131,51,39,
53,57,109,113,65,45,97,107,149,123,1,139,141,141,141,141,141,141,143,1,1,131,63,55,
37,41,149,155,65,45,97,155,113,123,1,1,1,1,1,1,1,1,1,1,1,131,51,39,
53,57,107,93,65,45,97,95,99,35,5,5,5,5,5,5,5,5,5,5,5,19,63,55,
37,41,149,99,101,103,105,113,99,113,149,149,149,157,157,157,157,107,99,149,99,99,51,39,
53,57,109,149,113,109,113,109,113,109,99,149,149,157,157,157,107,109,113,109,113,113,63,55,
37,41,159,161,163,159,109,113,99,113,113,149,149,157,157,157,109,113,109,113,109,113,51,39,
53,57,75,77,79,75,107,109,113,109,99,121,149,149,149,107,21,23,23,23,23,33,63,55,
37,41,75,77,79,75,161,163,159,109,113,121,149,149,149,109,65,45,45,45,45,97,51,39,
53,57,75,77,79,75,77,79,75,107,99,121,107,99,121,107,101,103,103,103,103,105,63,55,
37,41,75,77,79,75,77,79,75,21,23,23,23,23,33,109,113,109,153,109,153,109,51,39,
53,57,75,77,79,75,77,79,75,65,45,45,45,45,97,107,99,153,99,153,99,107,63,55,
37,41,81,83,85,81,83,85,81,101,103,103,45,45,97,109,113,109,113,109,113,109,51,39,
53,57,87,89,91,87,89,91,87,113,109,113,65,45,97,159,161,163,159,159,161,159,63,55,
37,41,95,109,113,93,109,113,95,99,107,99,65,45,97,75,77,79,75,75,77,75,51,39,
53,57,109,113,109,113,109,113,109,113,109,113,65,45,97,75,77,79,75,75,77,75,63,55,
37,41,159,161,163,159,161,159,159,161,163,159,101,103,105,75,77,79,75,75,77,75,51,39,
53,57,75,77,79,75,77,75,75,77,79,165,167,169,171,173,77,79,75,75,77,75,63,55,
37,41,75,77,79,75,77,75,75,77,79,175,177,179,181,183,77,79,75,75,77,75,51,39,
53,57,75,77,79,75,77,75,75,77,79,185,187,189,191,193,77,79,75,75,77,75,63,55,
37,41,75,77,79,75,77,75,75,77,79,75,21,23,33,75,77,79,75,75,77,75,51,39,
53,57,75,77,79,75,77,75,81,83,85,81,65,45,97,81,83,85,81,75,77,75,63,55,
37,41,75,77,79,75,77,75,87,89,91,87,65,45,97,87,89,91,87,75,77,75,51,39,
53,57,75,77,79,75,77,75,93,157,157,95,65,45,97,93,153,113,95,75,77,75,63,55,
37,41,75,77,79,75,77,75,157,157,157,157,101,103,105,121,121,107,153,75,77,75,51,39,
53,57,75,77,79,75,77,75,157,157,157,157,157,107,99,107,153,109,121,75,77,75,63,55,
37,41,75,77,79,75,77,75,157,157,157,149,149,109,113,109,121,121,153,75,77,75,51,39,
53,57,75,77,79,75,77,75,157,157,157,149,149,157,157,157,157,157,157,75,77,75,63,55,
37,41,75,77,79,75,77,75,149,113,109,113,149,157,157,157,157,157,157,75,77,75,51,39,
53,57,75,77,79,75,77,75,149,109,111,121,149,157,157,157,157,157,157,75,77,75,63,55,
37,41,75,77,79,75,77,75,149,99,107,109,149,99,107,149,149,99,107,75,77,75,51,39,
53,57,75,77,79,75,77,75,149,113,109,113,149,113,109,149,149,113,109,75,77,75,63,55,
37,41,75,77,79,75,77,75,157,157,157,149,149,99,107,121,149,99,107,75,77,75,51,39,
53,57,75,77,79,75,77,75,157,157,157,149,149,113,109,121,149,113,109,81,195,81,63,55,
37,41,75,77,79,75,77,75,113,109,157,157,157,99,107,149,99,107,109,87,197,87,51,39,
53,57,75,77,79,75,77,75,149,121,157,157,157,113,109,149,113,107,109,93,157,95,63,55,
37,41,75,77,79,75,77,75,149,149,99,107,99,121,153,109,153,99,157,157,157,157,51,39,
53,57,75,77,79,75,77,75,149,149,113,109,113,153,99,153,109,113,157,157,157,157,63,55,
37,41,75,77,79,75,77,75,149,149,99,107,99,121,113,109,121,109,157,157,157,157,51,39,
53,57,75,77,79,75,77,75,199,199,199,199,199,199,199,199,201,99,107,99,107,99,63,55,
37,41,75,77,79,75,77,75,203,205,205,205,205,205,205,207,209,161,159,161,163,159,51,39,
53,57,75,77,79,75,77,75,211,4418,4418,4418,4418,4418,4418,215,75,77,75,77,79,75,63,55,
37,41,75,77,79,75,77,75,211,4418,4418,4418,4418,4418,4418,215,75,77,75,77,79,75,51,39,
53,57,81,83,85,81,195,81,211,4418,4418,4418,4418,4418,4418,215,81,195,81,83,85,81,63,55,
37,41,217,89,91,217,197,217,211,4418,4418,4418,4418,4418,4418,215,217,197,217,89,91,217,51,39,
53,57,219,205,205,221,205,221,223,4418,4418,4418,4418,4418,4418,225,221,205,221,205,205,227,355,355,
37,41,229,4418,4418,4418,4418,4418,4418,4418,4418,4418,4418,4418,4418,4418,4418,4418,4418,4418,4418,225,205,205,
53,57,229,4418,4418,4418,4418,4418,4418,4418,4418,4418,4418,4418,4418,4418,4418,4418,4418,4418,4418,4418,4418,4418,
37,41,229,4418,4418,4418,4418,4418,4418,4418,4418,4418,4418,4418,4418,4418,4418,4418,4418,4418,4418,4418,4418,4418,
53,57,229,4418,4418,4418,4418,4418,4418,4418,4418,4418,4418,4418,4418,4418,4418,4418,4418,4418,4418,4418,4418,4418,
37,41,229,4418,4418,4418,4418,4418,4418,4418,4418,4418,4418,4418,4418,4418,4418,4418,4418,4418,4418,271,273,273,
53,57,233,4418,4418,4418,4418,4418,4418,4418,4418,4418,4418,4418,4418,4418,4418,4418,4418,4418,4418,253,99,99,
37,41,75,77,75,77,175,4418,4418,4418,183,77,79,75,77,79,75,77,79,75,77,75,51,39,
53,57,75,77,75,77,185,4418,4418,4418,193,77,79,75,77,79,75,77,79,75,77,75,63,55,
37,41,75,77,75,195,81,4418,4418,4418,81,83,85,81,83,85,81,83,85,75,77,75,51,39,
53,57,75,77,75,197,87,4418,4418,4418,217,89,91,217,89,91,217,89,91,75,77,75,63,55,
37,41,75,77,75,203,267,4418,4418,4418,269,205,205,221,205,205,221,205,207,75,77,75,51,39,
53,57,75,77,75,211,4418,4418,4418,4418,4418,4418,4418,4418,4418,4418,4418,4418,215,75,77,75,63,55,
37,41,75,77,75,211,4418,4418,4418,4418,4418,4418,4418,4418,4418,4418,4418,4418,215,75,77,75,51,39,
53,57,75,77,75,211,4418,4418,4418,4418,4418,4418,4418,4418,4418,4418,4418,4418,215,75,77,75,63,55,
37,41,75,77,75,211,4418,4418,4418,4418,4418,4418,4418,4418,4418,4418,4418,4418,215,75,77,75,51,39,
53,57,75,77,75,211,4418,4418,271,273,273,273,273,275,4418,4418,4418,4418,215,75,77,75,63,55,
37,41,75,77,75,211,4418,4418,215,277,277,277,277,211,4418,4418,4418,4418,215,75,77,75,51,39,
53,57,81,195,81,211,4418,4418,215,277,277,277,277,211,4418,4418,4418,4418,215,75,77,75,63,55,
37,41,217,197,217,211,4418,4418,215,277,277,277,277,211,4418,4418,4418,4418,215,75,77,75,51,39,
53,57,279,205,221,223,4418,4418,225,205,205,205,205,223,4418,4418,4418,4418,215,75,77,75,63,55,
37,41,281,4418,4418,4418,4418,4418,4418,4418,4418,4418,4418,4418,4418,4418,4418,4418,215,75,77,75,51,39,
53,57,281,4418,4418,4418,4418,4418,4418,4418,4418,4418,4418,4418,4418,4418,4418,4418,215,75,77,75,63,55,
37,41,281,4418,4418,4418,4418,4418,4418,4418,4418,4418,4418,4418,4418,4418,4418,4418,215,75,77,75,51,39,
53,57,233,4418,4418,4418,4418,4418,4418,4418,4418,4418,4418,4418,4418,4418,4418,4418,283,75,77,75,63,55,
37,41,75,77,79,75,75,77,79,75,77,79,175,4418,4418,4418,183,77,79,75,77,75,51,39,
53,57,75,77,79,75,75,77,79,75,77,79,185,4418,4418,4418,193,77,79,75,77,75,63,55,
37,41,81,83,85,81,81,83,85,81,83,85,81,4418,4418,4418,81,83,85,81,195,81,51,39,
53,57,217,89,91,217,217,89,91,217,89,91,87,4418,4418,4418,217,89,91,217,197,217,63,55,
37,41,279,205,205,221,221,205,205,221,205,205,267,4418,4418,4418,269,205,205,221,205,227,51,39,
53,57,281,4418,4418,4418,4418,4418,4418,4418,4418,4418,4418,4418,4418,4418,4418,4418,4418,4418,4418,231,63,55,
37,41,281,4418,4418,4418,4418,4418,4418,4418,4418,4418,4418,4418,4418,4418,4418,4418,4418,4418,4418,231,51,39,
53,57,281,4418,4418,4418,4418,4418,4418,4418,4418,4418,4418,4418,4418,4418,4418,4418,4418,4418,4418,231,63,55,
37,41,281,4418,4418,4418,4418,4418,4418,4418,4418,4418,4418,4418,4418,4418,4418,4418,4418,4418,4418,231,51,39,
53,57,233,4418,4418,4418,4418,4418,4418,4418,4418,4418,4418,4418,4418,4418,4418,4418,4418,4418,4418,253,63,55,
37,41,75,77,79,75,77,79,75,77,79,165,285,287,289,173,77,79,75,77,79,75,51,39,
53,57,75,77,79,75,77,79,75,77,79,175,177,179,181,183,77,79,75,77,79,75,63,55,
37,41,75,77,79,75,77,79,75,77,79,185,187,189,191,193,77,79,75,77,79,75,51,39,
53,57,81,83,85,81,83,85,81,83,85,81,21,23,33,81,83,85,81,83,85,81,63,55,
37,41,217,89,91,217,89,91,217,89,91,87,65,45,97,87,89,91,217,89,91,217,51,39,
53,57,291,21,23,293,23,23,293,23,23,93,65,45,97,95,23,23,293,23,33,291,63,55,
37,41,121,65,45,45,45,45,45,45,45,45,45,45,45,45,45,45,45,45,97,121,51,39,
53,57,121,101,103,103,103,103,103,45,45,45,103,103,103,103,103,103,103,103,105,121,63,55,
37,41,109,113,109,159,161,163,159,65,45,97,159,161,163,159,161,163,159,161,163,159,51,39,
53,57,107,99,107,75,77,79,75,65,45,97,75,77,79,75,77,79,75,77,79,75,63,55,
37,41,109,111,109,75,77,79,75,65,45,97,75,77,79,75,77,79,75,77,79,75,51,39,
53,57,109,113,109,81,83,85,81,65,45,97,81,83,85,81,83,85,81,83,85,81,63,55,
37,41,107,99,107,217,89,91,87,65,45,97,87,89,91,217,89,91,217,89,91,217,51,39,
53,57,295,297,109,291,109,113,93,65,45,97,95,109,113,291,109,113,291,109,113,291,63,55,
37,41,51,41,153,99,107,99,99,101,103,105,107,99,107,153,107,99,153,99,107,153,51,39,
53,55,53,57,109,153,109,113,109,113,109,113,109,113,109,113,109,113,109,113,109,113,63,55,
37,39,37,41,153,99,107,99,107,99,107,109,113,99,107,99,107,153,107,99,153,99,51,39,
53,55,67,69,163,299,167,169,171,301,161,163,159,161,163,159,161,163,159,161,163,159,63,55,
37,41,75,77,79,175,177,179,181,183,77,79,75,77,79,75,77,79,75,77,79,75,51,39,
53,57,75,77,79,185,187,189,191,193,77,79,75,77,79,75,77,79,75,77,79,75,63,55,
37,41,81,83,85,81,21,23,33,81,83,85,81,83,85,81,83,85,81,83,85,81,51,39,
53,57,87,89,91,87,65,45,97,87,89,91,217,89,91,217,89,91,217,89,91,87,63,55,
37,41,95,153,99,93,65,45,97,95,109,113,291,109,113,291,109,113,291,109,113,93,51,39,
53,57,295,297,107,153,101,103,105,99,21,23,23,23,23,23,23,23,23,33,295,297,63,55,
37,41,51,41,153,99,113,109,113,113,65,45,45,45,45,45,45,45,45,97,51,41,51,39,
53,55,53,57,295,297,99,107,99,99,101,103,103,103,103,103,103,103,103,105,63,55,53,55,
37,39,37,41,51,41,159,161,163,159,161,163,299,167,169,171,301,161,163,159,51,39,37,39,
53,55,53,55,53,57,75,77,79,75,77,79,175,177,179,181,183,77,79,75,63,55,53,55,
37,39,37,39,37,41,75,77,79,75,77,79,185,187,189,191,193,77,79,75,51,39,37,39,
53,55,53,55,53,57,81,83,85,81,83,85,81,21,23,33,81,83,85,81,63,55,53,55,
37,39,37,39,37,41,87,89,91,217,89,91,87,65,45,97,87,89,91,87,51,39,37,39,
53,55,53,55,53,57,95,113,109,291,113,109,93,65,45,97,95,99,153,93,63,55,53,55,
37,39,37,39,37,41,303,21,23,23,23,23,23,45,45,97,99,107,99,153,51,39,37,39,
53,55,53,55,305,307,303,65,45,45,45,45,45,45,45,97,107,99,153,99,309,311,53,55,
37,39,37,41,303,303,303,65,45,45,103,103,103,103,103,105,109,153,109,153,109,153,51,39,
313,315,317,307,319,319,321,323,325,327,329,319,319,319,331,117,117,117,117,117,333,319,63,55,
1,1,135,119,335,337,337,339,339,339,337,337,341,115,133,1,1,1,1,1,135,119,51,39,
1,1,135,131,343,345,345,345,345,345,345,345,347,123,133,1,1,1,1,1,135,131,63,55,
1,1,135,131,343,345,345,345,345,345,345,345,347,123,133,1,1,1,1,1,135,131,51,39,
1,1,135,131,343,345,345,345,345,345,345,345,347,123,133,1,1,1,1,1,135,131,309,311,
1,1,135,131,343,345,345,345,345,345,345,345,347,123,133,1,1,1,1,1,137,137,117,117,
1,1,135,131,343,345,345,345,345,345,345,345,347,123,133,1,1,1,1,1,1,1,1,1
</data>
 </layer>
 <layer id="2" name="deco_sotto" width="24" height="175">
  <data encoding="csv">
0,0,0,0,0,0,1148,1148,1148,1148,0,0,0,1150,1150,1150,1150,0,0,0,0,0,0,0,
0,0,0,0,0,0,1148,1148,1148,1148,0,0,0,1150,1150,1150,1150,0,0,0,0,0,0,0,
0,0,0,0,0,0,1148,1148,1148,1148,0,0,0,1150,1150,1150,1150,0,0,0,0,0,0,0,
0,0,0,0,0,0,1148,1148,1148,1148,0,0,0,1150,1150,1150,1150,0,0,0,0,0,0,0,
0,0,0,0,0,0,1148,1148,1148,1148,0,0,0,1150,1150,1150,1150,0,0,0,0,0,0,0,
0,0,0,0,0,0,0,1148,1148,1148,0,0,0,1150,1150,1150,0,0,0,0,0,0,0,0,
0,0,0,0,0,0,0,1148,1148,1148,0,0,0,1150,1150,1150,0,0,0,0,0,0,0,0,
0,0,0,0,0,0,0,1148,1148,1156,1157,1151,1157,1158,1150,1150,0,0,0,0,0,0,0,0,
0,0,0,0,0,0,0,1148,1148,0,0,0,0,0,1150,1150,0,0,0,0,0,0,0,0,
0,0,0,0,0,0,0,1148,1148,0,0,0,0,0,1150,1150,0,0,0,0,0,0,0,0,
0,0,0,0,0,0,0,1148,1156,4305,4306,4307,4308,4309,1158,1150,0,0,0,0,0,0,0,0,
0,0,0,0,0,0,0,1148,0,4313,4314,4315,4316,4317,0,1150,0,0,0,0,0,0,0,0,
0,0,0,0,0,0,0,1156,1157,4321,4322,4323,4324,4325,1157,1158,0,0,0,0,0,0,0,0,
0,0,0,0,0,0,0,0,0,4329,4330,4331,4332,4333,0,0,0,0,0,0,0,0,0,0,
0,0,0,0,0,0,0,1157,1157,4337,4338,4339,4340,4341,1157,1157,0,0,0,0,0,0,0,0,
0,0,0,0,0,0,4,0,0,8,10,12,12,8,0,0,14,0,0,0,0,0,0,0,
16,18,16,18,16,18,0,22,24,0,28,30,30,0,24,34,0,0,16,18,16,18,16,18,
0,0,0,0,0,0,0,46,0,46,46,46,46,46,46,46,24,0,0,0,0,0,0,0,
54,56,54,56,54,58,0,46,0,0,46,46,0,46,0,46,46,0,64,56,54,56,54,56,
0,0,0,0,0,0,66,0,46,0,46,46,0,46,0,46,0,0,0,0,0,0,0,0,
54,58,68,70,72,74,0,46,46,46,0,46,46,0,46,46,0,0,68,70,72,74,64,56,
0,0,76,78,80,76,0,46,46,46,0,46,46,0,46,46,46,0,76,78,80,76,0,0,
54,58,76,78,80,76,46,46,0,46,0,46,0,46,46,46,46,46,76,78,80,76,64,56,
0,0,76,78,80,76,46,46,0,46,0,46,0,46,46,46,0,46,76,78,80,76,0,0,
54,58,76,78,80,76,0,46,46,0,46,0,46,0,46,46,0,46,76,78,80,76,64,56,
0,0,76,78,80,76,0,46,46,0,46,0,46,0,46,46,0,46,76,78,80,76,0,0,
54,58,76,78,80,76,46,0,46,46,0,46,46,0,46,46,46,46,76,78,80,76,64,56,
0,0,76,78,80,76,0,0,0,46,0,46,46,0,46,0,46,46,76,78,80,76,0,0,
54,58,76,78,80,76,0,46,0,46,0,46,46,0,46,0,46,46,76,78,80,76,64,56,
0,0,82,84,86,82,0,46,0,46,0,46,46,0,46,0,46,0,82,84,86,82,0,0,
54,58,88,0,0,88,0,46,0,46,46,46,46,46,46,0,46,0,88,0,0,88,64,56,
0,0,0,66,46,0,46,46,46,46,46,46,46,46,46,46,46,46,0,46,98,0,0,0,
54,58,100,102,104,104,104,104,46,46,46,46,46,46,46,46,46,104,104,104,106,108,64,56,
0,0,110,112,108,100,108,100,102,104,104,104,104,104,104,104,106,100,108,100,108,100,0,0,
54,58,110,114,110,114,110,114,110,114,110,114,110,114,110,114,110,114,110,114,110,114,64,56,
0,0,0,0,0,0,0,0,0,0,0,0,0,0,0,0,0,0,0,108,100,122,0,0,
54,58,0,0,0,0,0,0,0,0,0,0,0,0,0,0,0,0,0,110,114,122,64,56,
0,0,0,134,0,0,0,0,0,0,0,0,0,0,0,0,0,136,0,108,100,122,0,0,
54,58,0,134,0,0,0,0,0,0,0,0,0,0,0,0,0,136,0,108,100,122,64,56,
0,0,0,134,0,0,0,0,0,0,0,0,0,0,0,0,0,136,0,110,114,122,0,0,
54,58,0,134,0,0,0,0,0,0,0,0,0,0,0,0,0,0,0,0,122,122,64,56,
0,0,0,134,0,0,0,0,0,0,0,0,0,0,0,0,0,0,0,136,0,122,0,0,
54,58,0,140,142,142,142,142,142,142,14,0,0,0,0,4,142,142,142,144,0,122,64,56,
0,0,0,146,0,0,0,146,0,14,134,0,0,0,0,136,4,0,0,0,0,122,0,0,
54,58,112,0,22,24,34,0,0,0,134,0,0,0,0,136,0,114,100,114,100,108,64,56,
0,0,114,100,66,46,98,114,100,0,134,0,0,0,0,136,0,110,114,110,114,110,0,0,
54,58,114,0,66,46,98,110,0,0,134,0,0,0,0,136,0,0,108,110,100,110,64,56,
0,0,100,110,66,46,98,114,100,0,134,0,0,0,0,136,0,114,0,100,0,110,0,0,
54,58,0,110,66,46,98,110,114,0,134,0,0,0,0,136,0,0,0,0,0,0,64,56,
0,0,110,156,66,46,98,156,0,0,134,0,0,0,0,0,0,0,0,0,0,0,0,0,
54,58,0,0,66,46,98,0,110,0,134,0,0,0,0,0,0,0,136,0,0,0,64,56,
0,0,114,100,66,46,98,114,0,0,134,0,0,0,0,0,0,0,136,0,0,0,0,0,
54,58,110,114,66,46,98,110,114,0,140,14,0,0,0,0,0,0,136,0,0,0,64,56,
0,0,114,0,66,46,98,114,0,0,0,134,0,0,0,0,0,0,136,0,0,0,0,0,
54,58,110,114,66,46,98,108,0,0,0,140,142,142,142,142,142,142,144,0,0,0,64,56,
0,0,0,156,66,46,98,156,114,0,0,0,0,0,0,0,0,0,0,0,0,0,0,0,
54,58,108,0,66,46,98,0,100,0,0,0,0,0,0,0,0,0,0,0,0,0,64,56,
0,0,0,100,102,104,106,114,100,114,0,0,0,158,158,158,158,108,100,0,100,100,0,0,
54,58,110,0,114,110,114,110,114,110,100,0,0,158,158,158,108,110,114,110,114,114,64,56,
0,0,160,162,164,160,110,114,100,114,114,0,0,158,158,158,110,114,110,114,110,114,0,0,
54,58,76,78,80,76,108,110,114,110,100,122,0,0,0,108,22,24,24,24,24,34,64,56,
0,0,76,78,80,76,162,164,160,110,114,122,0,0,0,110,66,46,46,46,46,98,0,0,
54,58,76,78,80,76,78,80,76,108,100,122,108,100,122,108,102,104,104,104,104,106,64,56,
0,0,76,78,80,76,78,80,76,22,24,24,24,24,34,110,114,110,0,110,0,110,0,0,
54,58,76,78,80,76,78,80,76,66,46,46,46,46,98,108,100,0,100,0,100,108,64,56,
0,0,82,84,86,82,84,86,82,102,104,104,46,46,98,110,114,110,114,110,114,110,0,0,
54,58,88,0,0,88,0,0,88,114,110,114,66,46,98,160,162,164,160,160,162,160,64,56,
0,0,0,110,114,0,110,114,0,100,108,100,66,46,98,76,78,80,76,76,78,76,0,0,
54,58,110,114,110,114,110,114,110,114,110,114,66,46,98,76,78,80,76,76,78,76,64,56,
0,0,160,162,164,160,162,160,160,162,164,160,102,104,106,76,78,80,76,76,78,76,0,0,
54,58,76,78,80,76,78,76,76,78,80,166,168,170,172,174,78,80,76,76,78,76,64,56,
0,0,76,78,80,76,78,76,76,78,80,176,178,180,182,184,78,80,76,76,78,76,0,0,
54,58,76,78,80,76,78,76,76,78,80,186,188,190,192,194,78,80,76,76,78,76,64,56,
0,0,76,78,80,76,78,76,76,78,80,76,22,24,34,76,78,80,76,76,78,76,0,0,
54,58,76,78,80,76,78,76,82,84,86,82,66,46,98,82,84,86,82,76,78,76,64,56,
0,0,76,78,80,76,78,76,88,0,0,88,66,46,98,88,0,0,88,76,78,76,0,0,
54,58,76,78,80,76,78,76,0,158,158,0,66,46,98,0,0,114,0,76,78,76,64,56,
0,0,76,78,80,76,78,76,158,158,158,158,102,104,106,122,122,108,0,76,78,76,0,0,
54,58,76,78,80,76,78,76,158,158,158,158,158,108,100,108,0,110,122,76,78,76,64,56,
0,0,76,78,80,76,78,76,158,158,158,0,0,110,114,110,122,122,0,76,78,76,0,0,
54,58,76,78,80,76,78,76,158,158,158,0,0,158,158,158,158,158,158,76,78,76,64,56,
0,0,76,78,80,76,78,76,0,114,110,114,0,158,158,158,158,158,158,76,78,76,0,0,
54,58,76,78,80,76,78,76,0,110,112,122,0,158,158,158,158,158,158,76,78,76,64,56,
0,0,76,78,80,76,78,76,0,100,108,110,0,100,108,0,0,100,108,76,78,76,0,0,
54,58,76,78,80,76,78,76,0,114,110,114,0,114,110,0,0,114,110,76,78,76,64,56,
0,0,76,78,80,76,78,76,158,158,158,0,0,100,108,122,0,100,108,76,78,76,0,0,
54,58,76,78,80,76,78,76,158,158,158,0,0,114,110,122,0,114,110,82,196,82,64,56,
0,0,76,78,80,76,78,76,114,110,158,158,158,100,108,0,100,108,110,88,0,88,0,0,
54,58,76,78,80,76,78,76,0,122,158,158,158,114,110,0,114,108,110,0,158,0,64,56,
0,0,76,78,80,76,78,76,0,0,100,108,100,122,0,110,0,100,158,158,158,158,0,0,
54,58,76,78,80,76,78,76,0,0,114,110,114,0,100,0,110,114,158,158,158,158,64,56,
0,0,76,78,80,76,78,76,0,0,100,108,100,122,114,110,122,110,158,158,158,158,0,0,
54,58,76,78,80,76,78,76,200,200,200,200,200,200,200,200,202,100,108,100,108,100,64,56,
0,0,76,78,80,76,78,76,204,206,206,206,206,206,206,208,210,162,160,162,164,160,0,0,
54,58,76,78,80,76,78,76,212,0,0,0,0,0,0,216,76,78,76,78,80,76,64,56,
0,0,76,78,80,76,78,76,212,0,0,0,0,0,0,216,76,78,76,78,80,76,0,0,
54,58,82,84,86,82,196,82,212,0,0,0,0,0,0,216,82,196,82,84,86,82,64,56,
0,0,0,0,0,0,0,0,212,0,0,0,0,0,0,216,0,0,0,0,0,0,0,0,
54,58,0,206,206,0,206,0,224,0,0,0,0,0,0,226,0,206,0,206,206,0,4903,4904,
0,0,230,0,0,0,0,0,0,0,0,0,0,0,0,0,0,0,0,0,0,232,0,0,
54,58,230,0,0,0,0,0,0,0,0,0,0,0,0,0,0,0,0,0,0,232,64,0,
0,0,230,0,0,0,0,0,0,0,0,0,0,0,0,0,0,0,0,0,0,232,0,0,
54,58,230,0,0,0,0,0,0,0,0,0,0,0,0,0,0,0,0,0,0,232,64,0,
0,0,230,0,0,0,0,0,0,0,0,0,0,0,0,0,0,0,0,0,0,232,0,0,
54,58,234,236,238,240,242,244,246,248,250,240,236,252,240,236,252,240,236,252,240,254,4887,4888,
0,0,76,78,76,78,176,256,258,260,184,78,80,76,78,80,76,78,80,76,78,76,0,0,
54,58,76,78,76,78,186,262,264,266,194,78,80,76,78,80,76,78,80,76,78,76,64,56,
0,0,76,78,76,196,82,0,0,0,82,84,86,82,84,86,82,84,86,76,78,76,0,0,
54,58,76,78,76,0,88,0,0,0,0,0,0,0,0,0,0,0,0,76,78,76,64,56,
0,0,76,78,76,204,0,0,0,0,0,206,206,0,206,206,0,206,208,76,78,76,0,0,
54,58,76,78,76,212,0,0,0,0,0,0,0,0,0,0,0,0,216,76,78,76,64,56,
0,0,76,78,76,212,0,0,0,0,0,0,0,0,0,0,0,0,216,76,78,76,0,0,
54,58,76,78,76,212,0,0,0,0,0,0,0,0,0,0,0,0,216,76,78,76,64,56,
0,0,76,78,76,212,0,0,0,0,0,0,0,0,0,0,0,0,216,76,78,76,0,0,
54,58,76,78,76,212,0,0,272,274,274,274,274,276,0,0,0,0,216,76,78,76,64,56,
0,0,76,78,76,212,0,0,216,278,278,278,278,212,0,0,0,0,216,76,78,76,0,0,
54,58,82,196,82,212,0,0,216,278,278,278,278,212,0,0,0,0,216,76,78,76,64,56,
0,0,0,0,0,212,0,0,216,278,278,278,278,212,0,0,0,0,216,76,78,76,0,0,
54,58,0,206,0,224,0,0,226,206,206,206,206,224,0,0,0,0,216,76,78,76,64,56,
0,0,282,0,0,0,0,0,0,0,0,0,0,0,0,0,0,0,216,76,78,76,0,0,
54,58,282,0,0,0,0,0,0,0,0,0,0,0,0,0,0,0,216,76,78,76,64,56,
0,0,282,0,0,0,0,0,0,0,0,0,0,0,0,0,0,0,216,76,78,76,0,0,
54,58,234,240,236,238,238,240,236,238,240,236,242,244,246,248,250,240,284,76,78,76,64,56,
0,0,76,78,80,76,76,78,80,76,78,80,176,256,258,260,184,78,80,76,78,76,0,0,
54,58,76,78,80,76,76,78,80,76,78,80,186,262,264,266,194,78,80,76,78,76,64,56,
0,0,82,84,86,82,82,84,86,82,84,86,82,0,0,0,82,84,86,82,196,82,0,0,
54,58,0,0,0,0,0,0,0,0,0,0,88,0,0,0,0,0,0,0,0,0,64,56,
0,0,0,206,206,0,0,206,206,0,206,206,0,0,0,0,0,206,206,0,206,0,0,0,
54,58,282,0,0,0,0,0,0,0,0,0,0,0,0,0,0,0,0,0,0,232,64,56,
0,0,282,0,0,0,0,0,0,0,0,0,0,0,0,0,0,0,0,0,0,232,0,0,
54,58,282,0,0,0,0,0,0,0,0,0,0,0,0,0,0,0,0,0,0,232,64,56,
0,0,282,0,0,0,0,0,0,0,0,0,0,0,0,0,0,0,0,0,0,232,0,0,
54,58,234,240,236,252,240,236,252,240,236,252,0,0,0,252,240,236,252,240,236,254,64,56,
0,0,76,78,80,76,78,80,76,78,80,166,286,288,290,174,78,80,76,78,80,76,0,0,
54,58,76,78,80,76,78,80,76,78,80,176,178,180,182,184,78,80,76,78,80,76,64,56,
0,0,76,78,80,76,78,80,76,78,80,186,188,190,192,194,78,80,76,78,80,76,0,0,
54,58,82,84,86,82,84,86,82,84,86,82,22,24,34,82,84,86,82,84,86,82,64,56,
0,0,0,0,0,0,0,0,0,0,0,88,66,46,98,88,0,0,0,0,0,0,0,0,
54,58,0,22,24,0,24,24,0,24,24,0,66,46,98,0,24,24,0,24,34,0,64,56,
0,0,122,66,46,46,46,46,46,46,46,46,46,46,46,46,46,46,46,46,98,122,0,0,
54,58,122,102,104,104,104,104,104,46,46,46,104,104,104,104,104,104,104,104,106,122,64,56,
0,0,110,114,110,160,162,164,160,66,46,98,160,162,164,160,162,164,160,162,164,160,0,0,
54,58,108,100,108,76,78,80,76,66,46,98,76,78,80,76,78,80,76,78,80,76,64,56,
0,0,110,112,110,76,78,80,76,66,46,98,76,78,80,76,78,80,76,78,80,76,0,0,
54,58,110,114,110,82,84,86,82,66,46,98,82,84,86,82,84,86,82,84,86,82,64,56,
0,0,108,100,108,0,0,0,88,66,46,98,88,0,0,0,0,0,0,0,0,0,0,0,
54,58,296,298,110,0,110,114,0,66,46,98,0,110,114,0,110,114,0,110,114,0,64,56,
0,0,0,0,0,100,108,100,100,102,104,106,108,100,108,0,108,100,0,100,108,0,0,0,
54,56,54,58,110,0,110,114,110,114,110,114,110,114,110,114,110,114,110,114,110,114,64,56,
0,0,0,0,0,100,108,100,108,100,108,110,114,100,108,100,108,0,108,100,0,100,0,0,
54,56,68,70,164,300,168,170,172,302,162,164,160,162,164,160,162,164,160,162,164,160,64,56,
0,0,76,78,80,176,178,180,182,184,78,80,76,78,80,76,78,80,76,78,80,76,0,0,
54,58,76,78,80,186,188,190,192,194,78,80,76,78,80,76,78,80,76,78,80,76,64,56,
0,0,82,84,86,82,22,24,34,82,84,86,82,84,86,82,84,86,82,84,86,82,0,0,
54,58,88,0,0,88,66,46,98,88,0,0,0,0,0,0,0,0,0,0,0,88,64,56,
0,0,0,0,100,0,66,46,98,0,110,114,0,110,114,0,110,114,0,110,114,0,0,0,
54,58,296,298,108,0,102,104,106,100,22,24,24,24,24,24,24,24,24,34,296,298,64,56,
0,0,0,0,0,100,114,110,114,114,66,46,46,46,46,46,46,46,46,98,0,0,0,0,
54,56,54,58,296,298,100,108,100,100,102,104,104,104,104,104,104,104,104,106,64,56,54,56,
0,0,0,0,0,0,160,162,164,160,162,164,300,168,170,172,302,162,164,160,0,0,0,0,
54,56,54,56,54,58,76,78,80,76,78,80,176,178,180,182,184,78,80,76,64,56,54,56,
0,0,0,0,0,0,76,78,80,76,78,80,186,188,190,192,194,78,80,76,0,0,0,0,
54,56,54,56,54,58,82,84,86,82,84,86,82,22,24,34,82,84,86,82,64,56,54,56,
0,0,0,0,0,0,88,0,0,0,0,0,88,66,46,98,88,0,0,88,0,0,0,0,
54,56,54,56,54,58,0,114,110,0,114,110,0,66,46,98,0,100,0,0,64,56,54,56,
0,0,0,0,0,0,0,22,24,24,24,24,24,46,46,98,100,108,100,0,0,0,0,0,
54,56,54,56,306,308,0,66,46,46,46,46,46,46,46,98,108,100,0,100,310,312,54,56,
0,0,0,0,0,0,0,66,46,46,104,104,104,104,104,106,110,0,110,0,110,0,0,0,
314,316,318,308,0,0,0,324,326,328,0,0,0,0,332,0,0,0,0,0,334,0,64,56,
0,0,136,0,336,338,338,340,340,340,338,338,342,0,134,0,0,0,0,0,136,0,0,0,
0,0,136,0,344,346,346,346,346,346,346,346,348,0,134,0,0,0,0,0,136,0,64,56,
0,0,136,0,344,346,346,346,346,346,346,346,348,0,134,0,0,0,0,0,136,0,0,0,
0,0,136,0,344,346,346,346,346,346,346,346,348,0,134,0,0,0,0,0,136,0,310,312,
0,0,136,0,344,346,346,346,346,346,346,346,348,0,134,0,0,0,0,0,0,0,0,0,
0,0,136,0,344,346,346,346,346,346,346,346,348,0,134,0,0,0,0,0,0,0,0,0
</data>
 </layer>
 <layer id="3" name="edifici" width="24" height="175">
  <data encoding="csv">
0,0,0,0,0,0,0,0,0,0,0,0,0,0,0,0,0,0,0,0,0,0,0,0,
0,0,0,0,0,0,0,0,0,0,0,0,0,0,0,0,0,0,0,0,0,0,0,0,
0,0,0,0,0,0,0,0,0,0,0,0,0,0,0,0,0,0,0,0,0,0,0,0,
0,0,0,0,0,0,0,0,0,0,0,0,0,0,0,0,0,0,0,0,0,0,0,0,
0,0,0,0,0,0,0,0,0,0,0,0,0,0,0,0,0,0,0,0,0,0,0,0,
0,0,0,0,0,0,0,0,0,0,0,0,0,0,0,0,0,0,0,0,0,0,0,0,
0,0,0,0,0,0,0,0,0,0,0,0,0,0,0,0,0,0,0,0,0,0,0,0,
0,0,0,0,0,0,0,0,0,0,0,0,0,0,0,0,0,0,0,0,0,0,0,0,
0,0,0,0,0,0,0,0,0,0,0,0,0,0,0,0,0,0,0,0,0,0,0,0,
0,0,0,0,0,0,0,0,0,0,0,0,0,0,0,0,0,0,0,0,0,0,0,0,
0,0,0,0,0,0,0,0,0,0,0,0,0,0,0,0,0,0,0,0,0,0,0,0,
0,0,0,0,0,0,0,0,0,0,0,0,0,0,0,0,0,0,0,0,0,0,0,0,
0,0,0,0,0,0,0,0,0,0,0,0,0,0,0,0,0,0,0,0,0,0,0,0,
0,0,0,0,0,0,0,0,0,0,0,0,0,0,0,0,0,0,0,0,0,0,0,0,
0,0,0,0,0,0,0,0,0,0,0,0,0,0,0,0,0,0,0,0,0,0,0,0,
2,2,2,2,2,2,0,6,6,0,0,0,0,0,6,6,0,2,2,2,2,2,2,2,
0,0,0,0,0,0,20,0,0,26,0,0,0,32,0,0,36,6,0,0,0,0,0,0,
38,40,38,40,38,42,44,0,48,0,0,0,0,0,0,0,0,50,52,40,38,40,38,40,
0,0,0,0,0,0,60,0,48,48,0,0,48,0,48,0,0,62,0,0,0,0,0,0,
38,40,38,40,38,42,0,48,0,48,0,0,48,0,48,0,48,62,52,40,38,40,38,40,
0,0,0,0,0,0,60,0,0,0,48,0,0,48,0,0,48,62,0,0,0,0,0,0,
38,42,0,0,0,0,48,0,0,0,48,0,0,48,0,0,0,48,0,0,0,0,52,40,
0,0,0,0,0,0,0,0,48,0,48,0,48,0,0,0,0,0,0,0,0,0,0,0,
38,42,0,0,0,0,0,0,48,0,48,0,48,0,0,0,48,0,0,0,0,0,52,40,
0,0,0,0,0,0,48,0,0,48,0,48,0,48,0,0,48,0,0,0,0,0,0,0,
38,42,0,0,0,0,48,0,0,48,0,48,0,48,0,0,48,0,0,0,0,0,52,40,
0,0,0,0,0,0,0,48,0,0,48,0,0,48,0,0,0,0,0,0,0,0,0,0,
38,42,0,0,0,0,48,48,48,0,48,0,0,48,0,48,0,0,0,0,0,0,52,40,
0,0,0,0,0,0,48,0,48,0,48,0,0,48,0,48,0,0,0,0,0,0,0,0,
38,42,0,0,0,0,48,0,48,0,48,0,0,48,0,48,0,48,0,0,0,0,52,40,
0,0,0,90,92,0,48,0,48,0,0,0,0,0,0,48,0,48,0,90,92,0,0,0,
38,42,94,0,0,96,0,0,0,0,0,0,0,0,0,0,0,0,94,0,0,96,52,40,
0,0,0,0,0,0,0,0,0,0,0,0,0,0,0,0,0,0,0,0,0,0,0,0,
38,42,0,0,0,0,0,0,0,0,0,0,0,0,0,0,0,0,0,0,0,0,52,40,
0,0,0,0,0,0,0,0,0,0,0,0,0,0,0,0,0,0,0,0,0,0,0,0,
38,42,116,118,118,118,118,118,118,118,118,118,118,118,118,118,118,118,120,0,0,0,52,40,
0,0,124,126,128,128,128,128,128,128,128,128,128,128,128,128,128,130,132,0,0,0,0,0,
38,42,124,0,2,2,2,2,2,2,2,2,2,2,2,2,2,0,132,0,0,0,52,40,
0,0,124,0,2,2,2,2,2,2,2,2,2,2,2,2,2,0,132,0,0,0,0,0,
38,42,124,0,2,2,2,2,2,2,2,2,2,2,2,2,2,0,132,0,0,0,52,40,
0,0,124,0,2,2,2,2,2,2,2,2,2,2,2,2,2,138,138,120,0,0,0,0,
38,42,124,0,2,2,2,2,2,2,2,2,2,2,2,2,2,2,2,0,120,0,52,40,
0,0,124,0,0,0,0,0,0,0,0,2,2,2,2,0,0,0,0,0,132,0,0,0,
38,42,36,0,6,148,6,0,6,0,0,2,2,2,2,0,0,6,148,6,20,0,52,40,
0,0,0,94,0,0,0,96,150,124,0,2,2,2,2,0,132,0,0,0,0,0,0,0,
38,42,0,0,0,0,0,0,0,124,0,2,2,2,2,0,132,0,0,0,0,0,52,40,
0,0,0,152,0,0,0,0,150,124,0,2,2,2,2,0,132,154,0,0,0,0,0,0,
38,42,0,0,0,0,0,0,0,124,0,2,2,2,2,0,132,0,154,0,154,0,52,40,
0,0,150,0,0,0,0,0,0,124,0,2,2,2,2,0,138,118,118,118,118,120,0,0,
38,42,0,0,0,0,0,0,150,124,0,2,2,2,2,138,128,128,130,2,2,132,52,40,
0,0,150,94,0,0,0,96,0,124,0,2,2,2,2,2,2,2,0,2,2,132,0,0,
38,42,0,0,0,0,0,0,150,124,0,2,2,2,2,2,2,2,0,2,2,132,52,40,
0,0,0,0,0,0,0,0,0,124,0,0,2,2,2,2,2,2,0,2,2,132,0,0,
38,42,0,150,0,0,0,0,150,124,2,0,2,2,2,2,2,2,0,2,2,132,52,40,
0,0,0,0,0,0,0,0,150,124,2,0,0,0,0,0,0,0,0,2,2,132,0,0,
38,42,150,0,0,0,0,0,0,124,2,2,2,2,2,2,2,2,2,2,2,132,52,40,
0,0,0,94,0,0,0,96,0,36,6,6,6,6,6,6,6,6,6,6,6,20,0,0,
38,42,150,0,0,0,0,0,0,0,150,150,150,0,0,0,0,0,0,150,0,0,52,40,
0,0,0,150,0,0,0,0,0,0,0,150,150,0,0,0,0,0,0,0,0,0,0,0,
38,42,0,0,0,0,0,0,0,0,0,150,150,0,0,0,0,0,0,0,0,0,52,40,
0,0,0,0,0,0,0,0,0,0,0,0,150,150,150,0,0,0,0,0,0,0,0,0,
38,42,0,0,0,0,0,0,0,0,0,0,150,150,150,0,0,0,0,0,0,0,52,40,
0,0,0,0,0,0,0,0,0,0,0,0,0,0,0,0,0,0,0,0,0,0,0,0,
38,42,0,0,0,0,0,0,0,0,0,0,0,0,0,0,0,0,154,0,154,0,52,40,
0,0,0,0,0,0,0,0,0,0,0,0,0,0,0,0,0,154,0,154,0,0,0,0,
38,42,0,0,0,0,0,0,0,0,0,0,0,0,0,0,0,0,0,0,0,0,52,40,
0,0,0,90,92,0,90,92,0,0,0,0,0,0,0,0,0,0,0,0,0,0,0,0,
38,42,96,0,0,94,0,0,96,0,0,0,0,0,0,0,0,0,0,0,0,0,52,40,
0,0,0,0,0,0,0,0,0,0,0,0,0,0,0,0,0,0,0,0,0,0,0,0,
38,42,0,0,0,0,0,0,0,0,0,0,0,0,0,0,0,0,0,0,0,0,52,40,
0,0,0,0,0,0,0,0,0,0,0,0,0,0,0,0,0,0,0,0,0,0,0,0,
38,42,0,0,0,0,0,0,0,0,0,0,0,0,0,0,0,0,0,0,0,0,52,40,
0,0,0,0,0,0,0,0,0,0,0,0,0,0,0,0,0,0,0,0,0,0,0,0,
38,42,0,0,0,0,0,0,0,0,0,0,0,0,0,0,0,0,0,0,0,0,52,40,
0,0,0,0,0,0,0,0,0,0,0,0,0,0,0,0,0,0,0,0,0,0,0,0,
38,42,0,0,0,0,0,0,0,90,92,0,0,0,0,0,90,92,0,0,0,0,52,40,
0,0,0,0,0,0,0,0,94,0,0,96,0,0,0,94,154,0,96,0,0,0,0,0,
38,42,0,0,0,0,0,0,0,0,0,0,0,0,0,0,0,0,154,0,0,0,52,40,
0,0,0,0,0,0,0,0,0,0,0,0,0,0,0,0,154,0,0,0,0,0,0,0,
38,42,0,0,0,0,0,0,0,0,0,150,150,0,0,0,0,0,154,0,0,0,52,40,
0,0,0,0,0,0,0,0,0,0,0,150,150,0,0,0,0,0,0,0,0,0,0,0,
38,42,0,0,0,0,0,0,150,0,0,0,150,0,0,0,0,0,0,0,0,0,52,40,
0,0,0,0,0,0,0,0,150,0,0,0,150,0,0,0,0,0,0,0,0,0,0,0,
38,42,0,0,0,0,0,0,150,0,0,0,150,0,0,150,150,0,0,0,0,0,52,40,
0,0,0,0,0,0,0,0,150,0,0,0,150,0,0,150,150,0,0,0,0,0,0,0,
38,42,0,0,0,0,0,0,0,0,0,150,150,0,0,0,150,0,0,0,0,0,52,40,
0,0,0,0,0,0,0,0,0,0,0,150,150,0,0,0,150,0,0,0,0,0,0,0,
38,42,0,0,0,0,0,0,0,0,0,0,0,0,0,150,0,0,0,0,198,0,52,40,
0,0,0,0,0,0,0,0,150,0,0,0,0,0,0,150,0,0,0,94,0,96,0,0,
38,42,0,0,0,0,0,0,150,150,0,0,0,0,154,0,154,0,0,0,0,0,52,40,
0,0,0,0,0,0,0,0,150,150,0,0,0,154,0,154,0,0,0,0,0,0,0,0,
38,42,0,0,0,0,0,0,150,150,0,0,0,0,0,0,0,0,0,0,0,0,52,40,
0,0,0,0,0,0,0,0,0,0,0,0,0,0,0,0,0,0,0,0,0,0,0,0,
38,42,0,0,0,0,0,0,0,0,0,0,0,0,0,0,0,0,0,0,0,0,52,40,
0,0,0,0,0,0,0,0,0,214,214,214,214,214,214,0,0,0,0,0,0,0,0,0,
38,42,0,0,0,0,0,0,0,214,214,214,214,214,214,0,0,0,0,0,0,0,52,40,
0,0,0,0,0,0,0,0,0,214,214,214,214,214,214,0,0,0,0,0,0,0,0,0,
38,42,218,90,92,218,198,218,0,214,214,214,214,214,214,0,218,198,218,90,92,218,52,40,
0,0,220,0,0,222,0,222,0,214,214,214,214,214,214,0,222,0,222,0,0,228,0,0,
38,42,0,214,214,214,214,214,214,214,214,214,214,214,214,214,214,214,214,214,214,0,0,0,
0,0,0,214,214,214,214,214,214,214,214,214,214,214,214,214,214,214,214,214,214,0,0,0,
38,42,0,214,214,214,214,214,214,214,214,214,214,214,214,214,214,214,214,214,214,0,0,0,
0,0,0,214,214,214,214,214,214,214,214,214,214,214,214,214,214,214,214,214,214,0,0,0,
38,42,0,214,214,214,214,214,214,214,214,214,214,214,214,214,214,214,214,214,214,0,0,0,
0,0,0,0,0,0,0,0,0,0,0,0,0,0,0,0,0,0,0,0,0,0,0,0,
38,42,0,0,0,0,0,0,0,0,0,0,0,0,0,0,0,0,0,0,0,0,52,40,
0,0,0,0,0,0,0,0,0,0,0,0,0,0,0,0,0,0,0,0,0,0,0,0,
38,42,0,0,0,0,0,214,214,214,0,0,0,0,0,0,0,0,0,0,0,0,52,40,
0,0,0,0,0,198,0,214,214,214,218,90,92,218,90,92,218,90,92,0,0,0,0,0,
38,42,0,0,0,0,268,214,214,214,270,0,0,222,0,0,222,0,0,0,0,0,52,40,
0,0,0,0,0,0,214,214,214,214,214,214,214,214,214,214,214,214,0,0,0,0,0,0,
38,42,0,0,0,0,214,214,214,214,214,214,214,214,214,214,214,214,0,0,0,0,52,40,
0,0,0,0,0,0,214,214,214,214,214,214,214,214,214,214,214,214,0,0,0,0,0,0,
38,42,0,0,0,0,214,214,214,214,214,214,214,214,214,214,214,214,0,0,0,0,52,40,
0,0,0,0,0,0,214,214,0,0,0,0,0,0,214,214,214,214,0,0,0,0,0,0,
38,42,0,0,0,0,214,214,0,0,0,0,0,0,214,214,214,214,0,0,0,0,52,40,
0,0,0,0,0,0,214,214,0,0,0,0,0,0,214,214,214,214,0,0,0,0,0,0,
38,42,218,198,218,0,214,214,0,0,0,0,0,0,214,214,214,214,0,0,0,0,52,40,
0,0,280,0,222,0,214,214,0,0,0,0,0,0,214,214,214,214,0,0,0,0,0,0,
38,42,0,214,214,214,214,214,214,214,214,214,214,214,214,214,214,214,0,0,0,0,52,40,
0,0,0,214,214,214,214,214,214,214,214,214,214,214,214,214,214,214,0,0,0,0,0,0,
38,42,0,214,214,214,214,214,214,214,214,214,214,214,214,214,214,214,0,0,0,0,52,40,
0,0,0,0,0,0,0,0,0,0,0,0,0,0,0,0,0,0,0,0,0,0,0,0,
38,42,0,0,0,0,0,0,0,0,0,0,0,0,0,0,0,0,0,0,0,0,52,40,
0,0,0,0,0,0,0,0,0,0,0,0,0,0,0,0,0,0,0,0,0,0,0,0,
38,42,0,0,0,0,0,0,0,0,0,0,0,214,214,214,0,0,0,0,0,0,52,40,
0,0,218,90,92,218,218,90,92,218,90,92,0,214,214,214,218,90,92,218,198,218,0,0,
38,42,280,0,0,222,222,0,0,222,0,0,268,214,214,214,270,0,0,222,0,228,52,40,
0,0,0,214,214,214,214,214,214,214,214,214,214,214,214,214,214,214,214,214,214,0,0,0,
38,42,0,214,214,214,214,214,214,214,214,214,214,214,214,214,214,214,214,214,214,0,52,40,
0,0,0,214,214,214,214,214,214,214,214,214,214,214,214,214,214,214,214,214,214,0,0,0,
38,42,0,214,214,214,214,214,214,214,214,214,214,214,214,214,214,214,214,214,214,0,52,40,
0,0,0,0,0,0,0,0,0,0,0,0,214,214,214,0,0,0,0,0,0,0,0,0,
38,42,0,0,0,0,0,0,0,0,0,0,0,0,0,0,0,0,0,0,0,0,52,40,
0,0,0,0,0,0,0,0,0,0,0,0,0,0,0,0,0,0,0,0,0,0,0,0,
38,42,0,0,0,0,0,0,0,0,0,0,0,0,0,0,0,0,0,0,0,0,52,40,
0,0,0,0,0,0,0,0,0,0,0,0,0,0,0,0,0,0,0,0,0,0,0,0,
38,42,218,90,92,218,90,92,218,90,92,0,0,0,0,0,90,92,218,90,92,218,52,40,
0,0,292,0,0,294,0,0,294,0,0,94,0,0,0,96,0,0,294,0,0,292,0,0,
38,42,0,0,0,0,0,0,0,0,0,0,0,0,0,0,0,0,0,0,0,0,52,40,
0,0,0,0,0,0,0,0,0,0,0,0,0,0,0,0,0,0,0,0,0,0,0,0,
38,42,0,0,0,0,0,0,0,0,0,0,0,0,0,0,0,0,0,0,0,0,52,40,
0,0,0,0,0,0,0,0,0,0,0,0,0,0,0,0,0,0,0,0,0,0,0,0,
38,42,0,0,0,0,0,0,0,0,0,0,0,0,0,0,0,0,0,0,0,0,52,40,
0,0,0,0,0,0,0,0,0,0,0,0,0,0,0,0,0,0,0,0,0,0,0,0,
38,42,0,0,0,218,90,92,0,0,0,0,0,90,92,218,90,92,218,90,92,218,52,40,
0,0,0,0,0,292,0,0,94,0,0,0,96,0,0,292,0,0,292,0,0,292,0,0,
38,42,52,42,154,0,0,0,0,0,0,0,0,0,0,154,0,0,154,0,0,154,52,40,
0,0,0,0,0,154,0,0,0,0,0,0,0,0,0,0,0,0,0,0,0,0,0,0,
38,40,38,42,154,0,0,0,0,0,0,0,0,0,0,0,0,154,0,0,154,0,52,40,
0,0,0,0,0,0,0,0,0,0,0,0,0,0,0,0,0,0,0,0,0,0,0,0,
38,42,0,0,0,0,0,0,0,0,0,0,0,0,0,0,0,0,0,0,0,0,52,40,
0,0,0,0,0,0,0,0,0,0,0,0,0,0,0,0,0,0,0,0,0,0,0,0,
38,42,0,0,0,0,0,0,0,0,0,0,0,0,0,0,0,0,0,0,0,0,52,40,
0,0,0,90,92,0,0,0,0,0,90,92,218,90,92,218,90,92,218,90,92,0,0,0,
38,42,96,154,0,94,0,0,0,96,0,0,292,0,0,292,0,0,292,0,0,94,52,40,
0,0,0,0,0,154,0,0,0,0,0,0,0,0,0,0,0,0,0,0,0,0,0,0,
38,42,52,42,154,0,0,0,0,0,0,0,0,0,0,0,0,0,0,0,52,42,52,40,
0,0,0,0,0,0,0,0,0,0,0,0,0,0,0,0,0,0,0,0,0,0,0,0,
38,40,38,42,52,42,0,0,0,0,0,0,0,0,0,0,0,0,0,0,52,40,38,40,
0,0,0,0,0,0,0,0,0,0,0,0,0,0,0,0,0,0,0,0,0,0,0,0,
38,40,38,40,38,42,0,0,0,0,0,0,0,0,0,0,0,0,0,0,52,40,38,40,
0,0,0,0,0,0,0,0,0,0,0,0,0,0,0,0,0,0,0,0,0,0,0,0,
38,40,38,40,38,42,0,90,92,218,90,92,0,0,0,0,0,90,92,0,52,40,38,40,
0,0,0,0,0,0,96,0,0,292,0,0,94,0,0,0,96,0,154,94,0,0,0,0,
38,40,38,40,38,42,304,0,0,0,0,0,0,0,0,0,0,0,0,154,52,40,38,40,
0,0,0,0,0,0,304,0,0,0,0,0,0,0,0,0,0,0,154,0,0,0,0,0,
38,40,38,42,304,304,304,0,0,0,0,0,0,0,0,0,0,154,0,154,0,154,52,40,
0,0,0,0,320,320,322,0,0,0,330,320,320,320,0,118,118,118,118,118,0,320,0,0,
2,2,0,120,0,0,0,0,0,0,0,0,0,116,0,2,2,2,2,2,0,120,52,40,
2,2,0,132,0,0,0,0,0,0,0,0,0,124,0,2,2,2,2,2,0,132,0,0,
2,2,0,132,0,0,0,0,0,0,0,0,0,124,0,2,2,2,2,2,0,132,52,40,
2,2,0,132,0,0,0,0,0,0,0,0,0,124,0,2,2,2,2,2,0,132,0,0,
2,2,0,132,0,0,0,0,0,0,0,0,0,124,0,2,2,2,2,2,138,138,118,118,
2,2,0,132,0,0,0,0,0,0,0,0,0,124,0,2,2,2,2,2,2,2,2,2
</data>
 </layer>
 <layer id="6" name="sopra_testa" width="24" height="175">
  <data encoding="csv">
0,0,0,0,0,0,0,0,0,0,0,0,0,0,0,0,0,0,0,0,0,0,0,0,
0,0,0,0,0,0,0,0,0,0,0,0,0,0,0,0,0,0,0,0,0,0,0,0,
0,0,0,0,0,0,0,0,0,0,0,0,0,0,0,0,0,0,0,0,0,0,0,0,
0,0,0,0,0,0,0,0,0,0,0,0,0,0,0,0,0,0,0,0,0,0,0,0,
0,0,0,0,0,0,0,0,0,0,0,0,0,0,0,0,0,0,0,0,0,0,0,0,
0,0,0,0,0,0,0,0,0,0,0,0,0,0,0,0,0,0,0,0,0,0,0,0,
0,0,0,0,0,0,0,0,0,0,0,0,0,0,0,0,0,0,0,0,0,0,0,0,
0,0,0,0,0,0,0,0,0,0,0,0,0,0,0,0,0,0,0,0,0,0,0,0,
0,0,0,0,0,0,0,0,0,0,0,0,0,0,0,0,0,0,0,0,0,0,0,0,
0,0,0,0,0,0,0,0,0,0,0,0,0,0,0,0,0,0,0,0,0,0,0,0,
0,0,0,0,0,0,0,0,0,4289,4290,4291,4292,4293,0,0,0,0,0,0,0,0,0,0,
0,0,0,0,0,0,0,0,0,4313,4298,4299,4300,4317,0,0,0,0,0,0,0,0,0,0,
0,0,0,0,0,0,0,0,0,0,0,0,0,0,0,0,0,0,0,0,0,0,0,0,
0,0,0,0,0,0,0,0,0,0,0,0,0,0,0,0,0,0,0,0,0,0,0,0,
0,0,0,0,0,0,0,0,0,0,0,0,0,0,0,0,0,0,0,0,0,0,0,0,
0,0,0,0,0,0,0,0,0,0,0,0,0,0,0,0,0,0,0,0,0,0,0,0,
0,0,0,0,0,0,0,0,0,0,0,0,0,0,0,0,0,0,0,0,0,0,0,0,
0,0,0,0,0,0,0,0,0,0,0,0,0,0,0,0,0,0,0,0,0,0,0,0,
0,0,0,0,0,0,0,0,0,0,0,0,0,0,0,0,0,0,0,0,0,0,0,0,
0,0,0,0,0,0,0,0,0,0,0,0,0,0,0,0,0,0,0,0,0,0,0,0,
0,0,0,0,0,0,0,0,0,0,0,0,0,0,0,0,0,0,0,0,0,0,0,0,
0,0,0,0,0,0,0,0,0,0,0,0,0,0,0,0,0,0,0,0,0,0,0,0,
0,0,0,0,0,0,0,0,0,0,0,0,0,0,0,0,0,0,0,0,0,0,0,0,
0,0,0,0,0,0,0,0,0,0,0,0,0,0,0,0,0,0,0,0,0,0,0,0,
0,0,0,0,0,0,0,0,0,0,0,0,0,0,0,0,0,0,0,0,0,0,0,0,
0,0,0,0,0,0,0,0,0,0,0,0,0,0,0,0,0,0,0,0,0,0,0,0,
0,0,0,0,0,0,0,0,0,0,0,0,0,0,0,0,0,0,0,0,0,0,0,0,
0,0,0,0,0,0,0,0,0,0,0,0,0,0,0,0,0,0,0,0,0,0,0,0,
0,0,0,0,0,0,0,0,0,0,0,0,0,0,0,0,0,0,0,0,0,0,0,0,
0,0,0,0,0,0,0,0,0,0,0,0,0,0,0,0,0,0,0,0,0,0,0,0,
0,0,0,0,0,0,0,0,0,0,0,0,0,0,0,0,0,0,0,0,0,0,0,0,
0,0,0,0,0,0,0,0,0,0,0,0,0,0,0,0,0,0,0,0,0,0,0,0,
0,0,0,0,0,0,0,0,0,0,0,0,0,0,0,0,0,0,0,0,0,0,0,0,
0,0,0,0,0,0,0,0,0,0,0,0,0,0,0,0,0,0,0,0,0,0,0,0,
0,0,0,0,0,0,0,0,0,0,0,0,0,0,0,0,0,0,0,0,0,0,0,0,
0,0,0,0,0,0,0,0,0,0,0,0,0,0,0,0,0,0,0,0,0,0,0,0,
0,0,0,0,0,0,0,0,0,0,0,0,0,0,0,0,0,0,0,0,0,0,0,0,
0,0,0,0,0,0,0,0,0,0,0,0,0,0,0,0,0,0,0,0,0,0,0,0,
0,0,0,0,0,0,0,0,0,0,0,0,0,0,0,0,0,0,0,0,0,0,0,0,
0,0,0,0,0,0,0,0,0,0,0,0,0,0,0,0,0,0,0,0,0,0,0,0,
0,0,0,0,0,0,0,0,0,0,0,0,0,0,0,0,0,0,0,0,0,0,0,0,
0,0,0,0,0,0,0,0,0,0,0,0,0,0,0,0,0,0,0,0,0,0,0,0,
0,0,0,0,0,0,0,0,0,0,0,0,0,0,0,0,0,0,0,0,0,0,0,0,
0,0,0,0,0,0,0,0,0,0,0,0,0,0,0,0,0,0,0,0,0,0,0,0,
0,0,0,0,0,0,0,0,0,0,0,0,0,0,0,0,0,0,0,0,0,0,0,0,
0,0,0,0,0,0,0,0,0,0,0,0,0,0,0,0,0,0,0,0,0,0,0,0,
0,0,0,0,0,0,0,0,0,0,0,0,0,0,0,0,0,0,0,0,0,0,0,0,
0,0,0,0,0,0,0,0,0,0,0,0,0,0,0,0,0,0,0,0,0,0,0,0,
0,0,0,0,0,0,0,0,0,0,0,0,0,0,0,0,0,0,0,0,0,0,0,0,
0,0,0,0,0,0,0,0,0,0,0,0,0,0,0,0,0,0,0,0,0,0,0,0,
0,0,0,0,0,0,0,0,0,0,0,0,0,0,0,0,0,0,0,0,0,0,0,0,
0,0,0,0,0,0,0,0,0,0,0,0,0,0,0,0,0,0,0,0,0,0,0,0,
0,0,0,0,0,0,0,0,0,0,0,0,0,0,0,0,0,0,0,0,0,0,0,0,
0,0,0,0,0,0,0,0,0,0,0,0,0,0,0,0,0,0,0,0,0,0,0,0,
0,0,0,0,0,0,0,0,0,0,0,0,0,0,0,0,0,0,0,0,0,0,0,0,
0,0,0,0,0,0,0,0,0,0,0,0,0,0,0,0,0,0,0,0,0,0,0,0,
0,0,0,0,0,0,0,0,0,0,0,0,0,0,0,0,0,0,0,0,0,0,0,0,
0,0,0,0,0,0,0,0,0,0,0,0,0,0,0,0,0,0,0,0,0,0,0,0,
0,0,0,0,0,0,0,0,0,0,0,0,0,0,0,0,0,0,0,0,0,0,0,0,
0,0,0,0,0,0,0,0,0,0,0,0,0,0,0,0,0,0,0,0,0,0,0,0,
0,0,0,0,0,0,0,0,0,0,0,0,0,0,0,0,0,0,0,0,0,0,0,0,
0,0,0,0,0,0,0,0,0,0,0,0,0,0,0,0,0,0,0,0,0,0,0,0,
0,0,0,0,0,0,0,0,0,0,0,0,0,0,0,0,0,0,0,0,0,0,0,0,
0,0,0,0,0,0,0,0,0,0,0,0,0,0,0,0,0,0,0,0,0,0,0,0,
0,0,0,0,0,0,0,0,0,0,0,0,0,0,0,0,0,0,0,0,0,0,0,0,
0,0,0,0,0,0,0,0,0,0,0,0,0,0,0,0,0,0,0,0,0,0,0,0,
0,0,0,0,0,0,0,0,0,0,0,0,0,0,0,0,0,0,0,0,0,0,0,0,
0,0,0,0,0,0,0,0,0,0,0,0,0,0,0,0,0,0,0,0,0,0,0,0,
0,0,0,0,0,0,0,0,0,0,0,0,0,0,0,0,0,0,0,0,0,0,0,0,
0,0,0,0,0,0,0,0,0,0,0,0,0,0,0,0,0,0,0,0,0,0,0,0,
0,0,0,0,0,0,0,0,0,0,0,0,0,0,0,0,0,0,0,0,0,0,0,0,
0,0,0,0,0,0,0,0,0,0,0,0,0,0,0,0,0,0,0,0,0,0,0,0,
0,0,0,0,0,0,0,0,0,0,0,0,0,0,0,0,0,0,0,0,0,0,0,0,
0,0,0,0,0,0,0,0,0,0,0,0,0,0,0,0,0,0,0,0,0,0,0,0,
0,0,0,0,0,0,0,0,0,0,0,0,0,0,0,0,0,0,0,0,0,0,0,0,
0,0,0,0,0,0,0,0,0,0,0,0,0,0,0,0,0,0,0,0,0,0,0,0,
0,0,0,0,0,0,0,0,0,0,0,0,0,0,0,0,0,0,0,0,0,0,0,0,
0,0,0,0,0,0,0,0,0,0,0,0,0,0,0,0,0,0,0,0,0,0,0,0,
0,0,0,0,0,0,0,0,0,0,0,0,0,0,0,0,0,0,0,0,0,0,0,0,
0,0,0,0,0,0,0,0,0,0,0,0,0,0,0,0,0,0,0,0,0,0,0,0,
0,0,0,0,0,0,0,0,0,0,0,0,0,0,0,0,0,0,0,0,0,0,0,0,
0,0,0,0,0,0,0,0,0,0,0,0,0,0,0,0,0,0,0,0,0,0,0,0,
0,0,0,0,0,0,0,0,0,0,0,0,0,0,0,0,0,0,0,0,0,0,0,0,
0,0,0,0,0,0,0,0,0,0,0,0,0,0,0,0,0,0,0,0,0,0,0,0,
0,0,0,0,0,0,0,0,0,0,0,0,0,0,0,0,0,0,0,0,0,0,0,0,
0,0,0,0,0,0,0,0,0,0,0,0,0,0,0,0,0,0,0,0,0,0,0,0,
0,0,0,0,0,0,0,0,0,0,0,0,0,0,0,0,0,0,0,0,0,0,0,0,
0,0,0,0,0,0,0,0,0,0,0,0,0,0,0,0,0,0,0,0,0,0,0,0,
0,0,0,0,0,0,0,0,0,0,0,0,0,0,0,0,0,0,0,0,0,0,0,0,
0,0,0,0,0,0,0,0,0,0,0,0,0,0,0,0,0,0,0,0,0,0,0,0,
0,0,0,0,0,0,0,0,0,0,0,0,0,0,0,0,0,0,0,0,0,0,0,0,
0,0,0,0,0,0,0,0,0,0,0,0,0,0,0,0,0,0,0,0,0,0,0,0,
0,0,0,0,0,0,0,0,0,0,0,0,0,0,0,0,0,0,0,0,0,0,0,0,
0,0,0,0,0,0,0,0,0,0,0,0,0,0,0,0,0,0,0,0,0,0,0,0,
0,0,0,0,0,0,0,0,0,0,0,0,0,0,0,0,0,0,0,0,0,0,0,0,
0,0,0,0,0,0,0,0,0,0,0,0,0,0,0,0,0,0,0,0,0,0,0,0,
0,0,0,0,0,0,0,0,0,0,0,0,0,0,0,0,0,0,0,0,0,0,0,0,
0,0,0,0,0,0,0,0,0,0,0,0,0,0,0,0,0,0,0,0,0,0,0,0,
0,0,0,0,0,0,0,0,0,0,0,0,0,0,0,0,0,0,0,0,0,0,0,0,
0,0,0,0,0,0,0,0,0,0,0,0,0,0,0,0,0,0,0,0,0,0,0,0,
0,0,0,0,0,0,0,0,0,0,0,0,0,0,0,0,0,0,0,0,0,0,0,0,
0,0,0,0,0,0,0,0,0,0,0,0,0,0,0,0,0,0,0,0,0,0,0,0,
0,0,0,0,0,0,0,0,0,0,0,0,0,0,0,0,0,0,0,0,0,0,0,0,
0,0,0,0,0,0,0,0,0,0,0,0,0,0,0,0,0,0,0,0,0,0,0,0,
0,0,0,0,0,0,0,0,0,0,0,0,0,0,0,0,0,0,0,0,0,0,0,0,
0,0,0,0,0,0,0,0,0,0,0,0,0,0,0,0,0,0,0,0,0,0,0,0,
0,0,0,0,0,0,0,0,0,0,0,0,0,0,0,0,0,0,0,0,0,0,0,0,
0,0,0,0,0,0,0,0,0,0,0,0,0,0,0,0,0,0,0,0,0,0,0,0,
0,0,0,0,0,0,0,0,0,0,0,0,0,0,0,0,0,0,0,0,0,0,0,0,
0,0,0,0,0,0,0,0,0,0,0,0,0,0,0,0,0,0,0,0,0,0,0,0,
0,0,0,0,0,0,0,0,0,0,0,0,0,0,0,0,0,0,0,0,0,0,0,0,
0,0,0,0,0,0,0,0,0,0,0,0,0,0,0,0,0,0,0,0,0,0,0,0,
0,0,0,0,0,0,0,0,0,0,0,0,0,0,0,0,0,0,0,0,0,0,0,0,
0,0,0,0,0,0,0,0,0,0,0,0,0,0,0,0,0,0,0,0,0,0,0,0,
0,0,0,0,0,0,0,0,0,0,0,0,0,0,0,0,0,0,0,0,0,0,0,0,
0,0,0,0,0,0,0,0,0,0,0,0,0,0,0,0,0,0,0,0,0,0,0,0,
0,0,0,0,0,0,0,0,0,0,0,0,0,0,0,0,0,0,0,0,0,0,0,0,
0,0,0,0,0,0,0,0,0,0,0,0,0,0,0,0,0,0,0,0,0,0,0,0,
0,0,0,0,0,0,0,0,0,0,0,0,0,0,0,0,0,0,0,0,0,0,0,0,
0,0,0,0,0,0,0,0,0,0,0,0,0,0,0,0,0,0,0,0,0,0,0,0,
0,0,0,0,0,0,0,0,0,0,0,0,0,0,0,0,0,0,0,0,0,0,0,0,
0,0,0,0,0,0,0,0,0,0,0,0,0,0,0,0,0,0,0,0,0,0,0,0,
0,0,0,0,0,0,0,0,0,0,0,0,0,0,0,0,0,0,0,0,0,0,0,0,
0,0,0,0,0,0,0,0,0,0,0,0,0,0,0,0,0,0,0,0,0,0,0,0,
0,0,0,0,0,0,0,0,0,0,0,0,0,0,0,0,0,0,0,0,0,0,0,0,
0,0,0,0,0,0,0,0,0,0,0,0,0,0,0,0,0,0,0,0,0,0,0,0,
0,0,0,0,0,0,0,0,0,0,0,0,0,0,0,0,0,0,0,0,0,0,0,0,
0,0,0,0,0,0,0,0,0,0,0,0,0,0,0,0,0,0,0,0,0,0,0,0,
0,0,0,0,0,0,0,0,0,0,0,0,0,0,0,0,0,0,0,0,0,0,0,0,
0,0,0,0,0,0,0,0,0,0,0,0,0,0,0,0,0,0,0,0,0,0,0,0,
0,0,0,0,0,0,0,0,0,0,0,0,0,0,0,0,0,0,0,0,0,0,0,0,
0,0,0,0,0,0,0,0,0,0,0,0,0,0,0,0,0,0,0,0,0,0,0,0,
0,0,0,0,0,0,0,0,0,0,0,0,0,0,0,0,0,0,0,0,0,0,0,0,
0,0,0,0,0,0,0,0,0,0,0,0,0,0,0,0,0,0,0,0,0,0,0,0,
0,0,0,0,0,0,0,0,0,0,0,0,0,0,0,0,0,0,0,0,0,0,0,0,
0,0,0,0,0,0,0,0,0,0,0,0,0,0,0,0,0,0,0,0,0,0,0,0,
0,0,0,0,0,0,0,0,0,0,0,0,0,0,0,0,0,0,0,0,0,0,0,0,
0,0,0,0,0,0,0,0,0,0,0,0,0,0,0,0,0,0,0,0,0,0,0,0,
0,0,0,0,0,0,0,0,0,0,0,0,0,0,0,0,0,0,0,0,0,0,0,0,
0,0,0,0,0,0,0,0,0,0,0,0,0,0,0,0,0,0,0,0,0,0,0,0,
0,0,0,0,0,0,0,0,0,0,0,0,0,0,0,0,0,0,0,0,0,0,0,0,
0,0,0,0,0,0,0,0,0,0,0,0,0,0,0,0,0,0,0,0,0,0,0,0,
0,0,0,0,0,0,0,0,0,0,0,0,0,0,0,0,0,0,0,0,0,0,0,0,
0,0,0,0,0,0,0,0,0,0,0,0,0,0,0,0,0,0,0,0,0,0,0,0,
0,0,0,0,0,0,0,0,0,0,0,0,0,0,0,0,0,0,0,0,0,0,0,0,
0,0,0,0,0,0,0,0,0,0,0,0,0,0,0,0,0,0,0,0,0,0,0,0,
0,0,0,0,0,0,0,0,0,0,0,0,0,0,0,0,0,0,0,0,0,0,0,0,
0,0,0,0,0,0,0,0,0,0,0,0,0,0,0,0,0,0,0,0,0,0,0,0,
0,0,0,0,0,0,0,0,0,0,0,0,0,0,0,0,0,0,0,0,0,0,0,0,
0,0,0,0,0,0,0,0,0,0,0,0,0,0,0,0,0,0,0,0,0,0,0,0,
0,0,0,0,0,0,0,0,0,0,0,0,0,0,0,0,0,0,0,0,0,0,0,0,
0,0,0,0,0,0,0,0,0,0,0,0,0,0,0,0,0,0,0,0,0,0,0,0,
0,0,0,0,0,0,0,0,0,0,0,0,0,0,0,0,0,0,0,0,0,0,0,0,
0,0,0,0,0,0,0,0,0,0,0,0,0,0,0,0,0,0,0,0,0,0,0,0,
0,0,0,0,0,0,0,0,0,0,0,0,0,0,0,0,0,0,0,0,0,0,0,0,
0,0,0,0,0,0,0,0,0,0,0,0,0,0,0,0,0,0,0,0,0,0,0,0,
0,0,0,0,0,0,0,0,0,0,0,0,0,0,0,0,0,0,0,0,0,0,0,0,
0,0,0,0,0,0,0,0,0,0,0,0,0,0,0,0,0,0,0,0,0,0,0,0,
0,0,0,0,0,0,0,0,0,0,0,0,0,0,0,0,0,0,0,0,0,0,0,0,
0,0,0,0,0,0,0,0,0,0,0,0,0,0,0,0,0,0,0,0,0,0,0,0,
0,0,0,0,0,0,0,0,0,0,0,0,0,0,0,0,0,0,0,0,0,0,0,0,
0,0,0,0,0,0,0,0,0,0,0,0,0,0,0,0,0,0,0,0,0,0,0,0,
0,0,0,0,0,0,0,0,0,0,0,0,0,0,0,0,0,0,0,0,0,0,0,0,
0,0,0,0,0,0,0,0,0,0,0,0,0,0,0,0,0,0,0,0,0,0,0,0,
0,0,0,0,0,0,0,0,0,0,0,0,0,0,0,0,0,0,0,0,0,0,0,0,
0,0,0,0,0,0,0,0,0,0,0,0,0,0,0,0,0,0,0,0,0,0,0,0,
0,0,0,0,0,0,0,0,0,0,0,0,0,0,0,0,0,0,0,0,0,0,0,0,
0,0,0,0,0,0,0,0,0,0,0,0,0,0,0,0,0,0,0,0,0,0,0,0,
0,0,0,0,0,0,0,0,0,0,0,0,0,0,0,0,0,0,0,0,0,0,0,0,
0,0,0,0,0,0,0,0,0,0,0,0,0,0,0,0,0,0,0,0,0,0,0,0,
0,0,0,0,0,0,0,0,0,0,0,0,0,0,0,0,0,0,0,0,0,0,0,0,
0,0,0,0,0,0,0,0,0,0,0,0,0,0,0,0,0,0,0,0,0,0,0,0,
0,0,0,0,0,0,0,0,0,0,0,0,0,0,0,0,0,0,0,0,0,0,0,0,
0,0,0,0,0,0,0,0,0,0,0,0,0,0,0,0,0,0,0,0,0,0,0,0,
0,0,0,0,0,0,0,0,0,0,0,0,0,0,0,0,0,0,0,0,0,0,0,0
</data>
 </layer>
 <objectgroup id="4" name="collisioni">
  <object id="1000" x="0" y="480" width="32" height="32"/>
  <object id="1001" x="32" y="480" width="32" height="32"/>
  <object id="1002" x="64" y="480" width="32" height="32"/>
  <object id="1003" x="96" y="480" width="32" height="32"/>
  <object id="1004" x="128" y="480" width="32" height="32"/>
  <object id="1005" x="160" y="480" width="32" height="32"/>
  <object id="1006" x="192" y="480" width="32" height="32"/>
  <object id="1007" x="224" y="480" width="32" height="32"/>
  <object id="1008" x="256" y="480" width="32" height="32"/>
  <object id="1009" x="288" y="480" width="32" height="32"/>
  <object id="1010" x="416" y="480" width="32" height="32"/>
  <object id="1011" x="448" y="480" width="32" height="32"/>
  <object id="1012" x="480" y="480" width="32" height="32"/>
  <object id="1013" x="512" y="480" width="32" height="32"/>
  <object id="1014" x="544" y="480" width="32" height="32"/>
  <object id="1015" x="576" y="480" width="32" height="32"/>
  <object id="1016" x="608" y="480" width="32" height="32"/>
  <object id="1017" x="640" y="480" width="32" height="32"/>
  <object id="1018" x="672" y="480" width="32" height="32"/>
  <object id="1019" x="704" y="480" width="32" height="32"/>
  <object id="1020" x="736" y="480" width="32" height="32"/>
  <object id="1021" x="0" y="512" width="32" height="32"/>
  <object id="1022" x="32" y="512" width="32" height="32"/>
  <object id="1023" x="64" y="512" width="32" height="32"/>
  <object id="1024" x="96" y="512" width="32" height="32"/>
  <object id="1025" x="128" y="512" width="32" height="32"/>
  <object id="1026" x="160" y="512" width="32" height="32"/>
  <object id="1027" x="192" y="512" width="32" height="32"/>
  <object id="1028" x="288" y="512" width="32" height="32"/>
  <object id="1029" x="416" y="512" width="32" height="32"/>
  <object id="1030" x="512" y="512" width="32" height="32"/>
  <object id="1031" x="544" y="512" width="32" height="32"/>
  <object id="1032" x="576" y="512" width="32" height="32"/>
  <object id="1033" x="608" y="512" width="32" height="32"/>
  <object id="1034" x="640" y="512" width="32" height="32"/>
  <object id="1035" x="672" y="512" width="32" height="32"/>
  <object id="1036" x="704" y="512" width="32" height="32"/>
  <object id="1037" x="736" y="512" width="32" height="32"/>
  <object id="1038" x="0" y="544" width="32" height="32"/>
  <object id="1039" x="32" y="544" width="32" height="32"/>
  <object id="1040" x="64" y="544" width="32" height="32"/>
  <object id="1041" x="96" y="544" width="32" height="32"/>
  <object id="1042" x="128" y="544" width="32" height="32"/>
  <object id="1043" x="160" y="544" width="32" height="32"/>
  <object id="1044" x="192" y="544" width="32" height="32"/>
  <object id="1045" x="256" y="544" width="32" height="32"/>
  <object id="1046" x="544" y="544" width="32" height="32"/>
  <object id="1047" x="576" y="544" width="32" height="32"/>
  <object id="1048" x="608" y="544" width="32" height="32"/>
  <object id="1049" x="640" y="544" width="32" height="32"/>
  <object id="1050" x="672" y="544" width="32" height="32"/>
  <object id="1051" x="704" y="544" width="32" height="32"/>
  <object id="1052" x="736" y="544" width="32" height="32"/>
  <object id="1053" x="0" y="576" width="32" height="32"/>
  <object id="1054" x="32" y="576" width="32" height="32"/>
  <object id="1055" x="64" y="576" width="32" height="32"/>
  <object id="1056" x="96" y="576" width="32" height="32"/>
  <object id="1057" x="128" y="576" width="32" height="32"/>
  <object id="1058" x="160" y="576" width="32" height="32"/>
  <object id="1059" x="192" y="576" width="32" height="32"/>
  <object id="1060" x="256" y="576" width="32" height="32"/>
  <object id="1061" x="288" y="576" width="32" height="32"/>
  <object id="1062" x="384" y="576" width="32" height="32"/>
  <object id="1063" x="448" y="576" width="32" height="32"/>
  <object id="1064" x="544" y="576" width="32" height="32"/>
  <object id="1065" x="576" y="576" width="32" height="32"/>
  <object id="1066" x="608" y="576" width="32" height="32"/>
  <object id="1067" x="640" y="576" width="32" height="32"/>
  <object id="1068" x="672" y="576" width="32" height="32"/>
  <object id="1069" x="704" y="576" width="32" height="32"/>
  <object id="1070" x="736" y="576" width="32" height="32"/>
  <object id="1071" x="0" y="608" width="32" height="32"/>
  <object id="1072" x="32" y="608" width="32" height="32"/>
  <object id="1073" x="64" y="608" width="32" height="32"/>
  <object id="1074" x="96" y="608" width="32" height="32"/>
  <object id="1075" x="128" y="608" width="32" height="32"/>
  <object id="1076" x="160" y="608" width="32" height="32"/>
  <object id="1077" x="224" y="608" width="32" height="32"/>
  <object id="1078" x="288" y="608" width="32" height="32"/>
  <object id="1079" x="384" y="608" width="32" height="32"/>
  <object id="1080" x="448" y="608" width="32" height="32"/>
  <object id="1081" x="512" y="608" width="32" height="32"/>
  <object id="1082" x="544" y="608" width="32" height="32"/>
  <object id="1083" x="576" y="608" width="32" height="32"/>
  <object id="1084" x="608" y="608" width="32" height="32"/>
  <object id="1085" x="640" y="608" width="32" height="32"/>
  <object id="1086" x="672" y="608" width="32" height="32"/>
  <object id="1087" x="704" y="608" width="32" height="32"/>
  <object id="1088" x="736" y="608" width="32" height="32"/>
  <object id="1089" x="0" y="640" width="32" height="32"/>
  <object id="1090" x="32" y="640" width="32" height="32"/>
  <object id="1091" x="64" y="640" width="32" height="32"/>
  <object id="1092" x="96" y="640" width="32" height="32"/>
  <object id="1093" x="128" y="640" width="32" height="32"/>
  <object id="1094" x="160" y="640" width="32" height="32"/>
  <object id="1095" x="192" y="640" width="32" height="32"/>
  <object id="1096" x="320" y="640" width="32" height="32"/>
  <object id="1097" x="416" y="640" width="32" height="32"/>
  <object id="1098" x="512" y="640" width="32" height="32"/>
  <object id="1099" x="544" y="640" width="32" height="32"/>
  <object id="1100" x="576" y="640" width="32" height="32"/>
  <object id="1101" x="608" y="640" width="32" height="32"/>
  <object id="1102" x="640" y="640" width="32" height="32"/>
  <object id="1103" x="672" y="640" width="32" height="32"/>
  <object id="1104" x="704" y="640" width="32" height="32"/>
  <object id="1105" x="736" y="640" width="32" height="32"/>
  <object id="1106" x="0" y="672" width="32" height="32"/>
  <object id="1107" x="32" y="672" width="32" height="32"/>
  <object id="1108" x="64" y="672" width="32" height="32"/>
  <object id="1109" x="96" y="672" width="32" height="32"/>
  <object id="1110" x="128" y="672" width="32" height="32"/>
  <object id="1111" x="160" y="672" width="32" height="32"/>
  <object id="1112" x="192" y="672" width="32" height="32"/>
  <object id="1113" x="320" y="672" width="32" height="32"/>
  <object id="1114" x="416" y="672" width="32" height="32"/>
  <object id="1115" x="544" y="672" width="32" height="32"/>
  <object id="1116" x="576" y="672" width="32" height="32"/>
  <object id="1117" x="608" y="672" width="32" height="32"/>
  <object id="1118" x="640" y="672" width="32" height="32"/>
  <object id="1119" x="672" y="672" width="32" height="32"/>
  <object id="1120" x="704" y="672" width="32" height="32"/>
  <object id="1121" x="736" y="672" width="32" height="32"/>
  <object id="1122" x="0" y="704" width="32" height="32"/>
  <object id="1123" x="32" y="704" width="32" height="32"/>
  <object id="1124" x="64" y="704" width="32" height="32"/>
  <object id="1125" x="96" y="704" width="32" height="32"/>
  <object id="1126" x="128" y="704" width="32" height="32"/>
  <object id="1127" x="160" y="704" width="32" height="32"/>
  <object id="1128" x="256" y="704" width="32" height="32"/>
  <object id="1129" x="320" y="704" width="32" height="32"/>
  <object id="1130" x="384" y="704" width="32" height="32"/>
  <object id="1131" x="576" y="704" width="32" height="32"/>
  <object id="1132" x="608" y="704" width="32" height="32"/>
  <object id="1133" x="640" y="704" width="32" height="32"/>
  <object id="1134" x="672" y="704" width="32" height="32"/>
  <object id="1135" x="704" y="704" width="32" height="32"/>
  <object id="1136" x="736" y="704" width="32" height="32"/>
  <object id="1137" x="0" y="736" width="32" height="32"/>
  <object id="1138" x="32" y="736" width="32" height="32"/>
  <object id="1139" x="64" y="736" width="32" height="32"/>
  <object id="1140" x="96" y="736" width="32" height="32"/>
  <object id="1141" x="128" y="736" width="32" height="32"/>
  <object id="1142" x="160" y="736" width="32" height="32"/>
  <object id="1143" x="256" y="736" width="32" height="32"/>
  <object id="1144" x="320" y="736" width="32" height="32"/>
  <object id="1145" x="384" y="736" width="32" height="32"/>
  <object id="1146" x="512" y="736" width="32" height="32"/>
  <object id="1147" x="576" y="736" width="32" height="32"/>
  <object id="1148" x="608" y="736" width="32" height="32"/>
  <object id="1149" x="640" y="736" width="32" height="32"/>
  <object id="1150" x="672" y="736" width="32" height="32"/>
  <object id="1151" x="704" y="736" width="32" height="32"/>
  <object id="1152" x="736" y="736" width="32" height="32"/>
  <object id="1153" x="0" y="768" width="32" height="32"/>
  <object id="1154" x="32" y="768" width="32" height="32"/>
  <object id="1155" x="64" y="768" width="32" height="32"/>
  <object id="1156" x="96" y="768" width="32" height="32"/>
  <object id="1157" x="128" y="768" width="32" height="32"/>
  <object id="1158" x="160" y="768" width="32" height="32"/>
  <object id="1159" x="192" y="768" width="32" height="32"/>
  <object id="1160" x="288" y="768" width="32" height="32"/>
  <object id="1161" x="352" y="768" width="32" height="32"/>
  <object id="1162" x="416" y="768" width="32" height="32"/>
  <object id="1163" x="512" y="768" width="32" height="32"/>
  <object id="1164" x="576" y="768" width="32" height="32"/>
  <object id="1165" x="608" y="768" width="32" height="32"/>
  <object id="1166" x="640" y="768" width="32" height="32"/>
  <object id="1167" x="672" y="768" width="32" height="32"/>
  <object id="1168" x="704" y="768" width="32" height="32"/>
  <object id="1169" x="736" y="768" width="32" height="32"/>
  <object id="1170" x="0" y="800" width="32" height="32"/>
  <object id="1171" x="32" y="800" width="32" height="32"/>
  <object id="1172" x="64" y="800" width="32" height="32"/>
  <object id="1173" x="96" y="800" width="32" height="32"/>
  <object id="1174" x="128" y="800" width="32" height="32"/>
  <object id="1175" x="160" y="800" width="32" height="32"/>
  <object id="1176" x="192" y="800" width="32" height="32"/>
  <object id="1177" x="288" y="800" width="32" height="32"/>
  <object id="1178" x="352" y="800" width="32" height="32"/>
  <object id="1179" x="416" y="800" width="32" height="32"/>
  <object id="1180" x="512" y="800" width="32" height="32"/>
  <object id="1181" x="576" y="800" width="32" height="32"/>
  <object id="1182" x="608" y="800" width="32" height="32"/>
  <object id="1183" x="640" y="800" width="32" height="32"/>
  <object id="1184" x="672" y="800" width="32" height="32"/>
  <object id="1185" x="704" y="800" width="32" height="32"/>
  <object id="1186" x="736" y="800" width="32" height="32"/>
  <object id="1187" x="0" y="832" width="32" height="32"/>
  <object id="1188" x="32" y="832" width="32" height="32"/>
  <object id="1189" x="64" y="832" width="32" height="32"/>
  <object id="1190" x="96" y="832" width="32" height="32"/>
  <object id="1191" x="128" y="832" width="32" height="32"/>
  <object id="1192" x="160" y="832" width="32" height="32"/>
  <object id="1193" x="224" y="832" width="32" height="32"/>
  <object id="1194" x="320" y="832" width="32" height="32"/>
  <object id="1195" x="416" y="832" width="32" height="32"/>
  <object id="1196" x="576" y="832" width="32" height="32"/>
  <object id="1197" x="608" y="832" width="32" height="32"/>
  <object id="1198" x="640" y="832" width="32" height="32"/>
  <object id="1199" x="672" y="832" width="32" height="32"/>
  <object id="1200" x="704" y="832" width="32" height="32"/>
  <object id="1201" x="736" y="832" width="32" height="32"/>
  <object id="1202" x="0" y="864" width="32" height="32"/>
  <object id="1203" x="32" y="864" width="32" height="32"/>
  <object id="1204" x="64" y="864" width="32" height="32"/>
  <object id="1205" x="96" y="864" width="32" height="32"/>
  <object id="1206" x="128" y="864" width="32" height="32"/>
  <object id="1207" x="160" y="864" width="32" height="32"/>
  <object id="1208" x="192" y="864" width="32" height="32"/>
  <object id="1209" x="224" y="864" width="32" height="32"/>
  <object id="1210" x="256" y="864" width="32" height="32"/>
  <object id="1211" x="320" y="864" width="32" height="32"/>
  <object id="1212" x="416" y="864" width="32" height="32"/>
  <object id="1213" x="480" y="864" width="32" height="32"/>
  <object id="1214" x="576" y="864" width="32" height="32"/>
  <object id="1215" x="608" y="864" width="32" height="32"/>
  <object id="1216" x="640" y="864" width="32" height="32"/>
  <object id="1217" x="672" y="864" width="32" height="32"/>
  <object id="1218" x="704" y="864" width="32" height="32"/>
  <object id="1219" x="736" y="864" width="32" height="32"/>
  <object id="1220" x="0" y="896" width="32" height="32"/>
  <object id="1221" x="32" y="896" width="32" height="32"/>
  <object id="1222" x="64" y="896" width="32" height="32"/>
  <object id="1223" x="96" y="896" width="32" height="32"/>
  <object id="1224" x="128" y="896" width="32" height="32"/>
  <object id="1225" x="160" y="896" width="32" height="32"/>
  <object id="1226" x="192" y="896" width="32" height="32"/>
  <object id="1227" x="256" y="896" width="32" height="32"/>
  <object id="1228" x="320" y="896" width="32" height="32"/>
  <object id="1229" x="416" y="896" width="32" height="32"/>
  <object id="1230" x="480" y="896" width="32" height="32"/>
  <object id="1231" x="576" y="896" width="32" height="32"/>
  <object id="1232" x="608" y="896" width="32" height="32"/>
  <object id="1233" x="640" y="896" width="32" height="32"/>
  <object id="1234" x="672" y="896" width="32" height="32"/>
  <object id="1235" x="704" y="896" width="32" height="32"/>
  <object id="1236" x="736" y="896" width="32" height="32"/>
  <object id="1237" x="0" y="928" width="32" height="32"/>
  <object id="1238" x="32" y="928" width="32" height="32"/>
  <object id="1239" x="64" y="928" width="32" height="32"/>
  <object id="1240" x="96" y="928" width="32" height="32"/>
  <object id="1241" x="128" y="928" width="32" height="32"/>
  <object id="1242" x="160" y="928" width="32" height="32"/>
  <object id="1243" x="192" y="928" width="32" height="32"/>
  <object id="1244" x="256" y="928" width="32" height="32"/>
  <object id="1245" x="320" y="928" width="32" height="32"/>
  <object id="1246" x="416" y="928" width="32" height="32"/>
  <object id="1247" x="480" y="928" width="32" height="32"/>
  <object id="1248" x="544" y="928" width="32" height="32"/>
  <object id="1249" x="576" y="928" width="32" height="32"/>
  <object id="1250" x="608" y="928" width="32" height="32"/>
  <object id="1251" x="640" y="928" width="32" height="32"/>
  <object id="1252" x="672" y="928" width="32" height="32"/>
  <object id="1253" x="704" y="928" width="32" height="32"/>
  <object id="1254" x="736" y="928" width="32" height="32"/>
  <object id="1255" x="0" y="960" width="32" height="32"/>
  <object id="1256" x="32" y="960" width="32" height="32"/>
  <object id="1257" x="64" y="960" width="32" height="32"/>
  <object id="1258" x="96" y="960" width="32" height="32"/>
  <object id="1259" x="128" y="960" width="32" height="32"/>
  <object id="1260" x="160" y="960" width="32" height="32"/>
  <object id="1261" x="192" y="960" width="32" height="32"/>
  <object id="1262" x="256" y="960" width="32" height="32"/>
  <object id="1263" x="480" y="960" width="32" height="32"/>
  <object id="1264" x="544" y="960" width="32" height="32"/>
  <object id="1265" x="576" y="960" width="32" height="32"/>
  <object id="1266" x="608" y="960" width="32" height="32"/>
  <object id="1267" x="640" y="960" width="32" height="32"/>
  <object id="1268" x="672" y="960" width="32" height="32"/>
  <object id="1269" x="704" y="960" width="32" height="32"/>
  <object id="1270" x="736" y="960" width="32" height="32"/>
  <object id="1271" x="0" y="992" width="32" height="32"/>
  <object id="1272" x="32" y="992" width="32" height="32"/>
  <object id="1273" x="64" y="992" width="32" height="32"/>
  <object id="1274" x="160" y="992" width="32" height="32"/>
  <object id="1275" x="576" y="992" width="32" height="32"/>
  <object id="1276" x="672" y="992" width="32" height="32"/>
  <object id="1277" x="704" y="992" width="32" height="32"/>
  <object id="1278" x="736" y="992" width="32" height="32"/>
  <object id="1279" x="0" y="1024" width="32" height="32"/>
  <object id="1280" x="32" y="1024" width="32" height="32"/>
  <object id="1281" x="704" y="1024" width="32" height="32"/>
  <object id="1282" x="736" y="1024" width="32" height="32"/>
  <object id="1283" x="0" y="1056" width="32" height="32"/>
  <object id="1284" x="32" y="1056" width="32" height="32"/>
  <object id="1285" x="704" y="1056" width="32" height="32"/>
  <object id="1286" x="736" y="1056" width="32" height="32"/>
  <object id="1287" x="0" y="1088" width="32" height="32"/>
  <object id="1288" x="32" y="1088" width="32" height="32"/>
  <object id="1289" x="704" y="1088" width="32" height="32"/>
  <object id="1290" x="736" y="1088" width="32" height="32"/>
  <object id="1291" x="0" y="1120" width="32" height="32"/>
  <object id="1292" x="32" y="1120" width="32" height="32"/>
  <object id="1293" x="64" y="1120" width="32" height="32"/>
  <object id="1294" x="96" y="1120" width="32" height="32"/>
  <object id="1295" x="128" y="1120" width="32" height="32"/>
  <object id="1296" x="160" y="1120" width="32" height="32"/>
  <object id="1297" x="192" y="1120" width="32" height="32"/>
  <object id="1298" x="224" y="1120" width="32" height="32"/>
  <object id="1299" x="256" y="1120" width="32" height="32"/>
  <object id="1300" x="288" y="1120" width="32" height="32"/>
  <object id="1301" x="320" y="1120" width="32" height="32"/>
  <object id="1302" x="352" y="1120" width="32" height="32"/>
  <object id="1303" x="384" y="1120" width="32" height="32"/>
  <object id="1304" x="416" y="1120" width="32" height="32"/>
  <object id="1305" x="448" y="1120" width="32" height="32"/>
  <object id="1306" x="480" y="1120" width="32" height="32"/>
  <object id="1307" x="512" y="1120" width="32" height="32"/>
  <object id="1308" x="544" y="1120" width="32" height="32"/>
  <object id="1309" x="576" y="1120" width="32" height="32"/>
  <object id="1310" x="704" y="1120" width="32" height="32"/>
  <object id="1311" x="736" y="1120" width="32" height="32"/>
  <object id="1312" x="0" y="1152" width="32" height="32"/>
  <object id="1313" x="32" y="1152" width="32" height="32"/>
  <object id="1314" x="64" y="1152" width="32" height="32"/>
  <object id="1315" x="96" y="1152" width="32" height="32"/>
  <object id="1329" x="544" y="1152" width="32" height="32"/>
  <object id="1330" x="576" y="1152" width="32" height="32"/>
  <object id="1331" x="704" y="1152" width="32" height="32"/>
  <object id="1332" x="736" y="1152" width="32" height="32"/>
  <object id="1333" x="0" y="1184" width="32" height="32"/>
  <object id="1334" x="32" y="1184" width="32" height="32"/>
  <object id="1335" x="64" y="1184" width="32" height="32"/>
  <object id="1336" x="96" y="1184" width="32" height="32"/>
  <object id="1350" x="544" y="1184" width="32" height="32"/>
  <object id="1351" x="576" y="1184" width="32" height="32"/>
  <object id="1352" x="704" y="1184" width="32" height="32"/>
  <object id="1353" x="736" y="1184" width="32" height="32"/>
  <object id="1354" x="0" y="1216" width="32" height="32"/>
  <object id="1355" x="32" y="1216" width="32" height="32"/>
  <object id="1356" x="64" y="1216" width="32" height="32"/>
  <object id="1357" x="96" y="1216" width="32" height="32"/>
  <object id="1371" x="544" y="1216" width="32" height="32"/>
  <object id="1372" x="576" y="1216" width="32" height="32"/>
  <object id="1373" x="704" y="1216" width="32" height="32"/>
  <object id="1374" x="736" y="1216" width="32" height="32"/>
  <object id="1375" x="0" y="1248" width="32" height="32"/>
  <object id="1376" x="32" y="1248" width="32" height="32"/>
  <object id="1377" x="64" y="1248" width="32" height="32"/>
  <object id="1378" x="96" y="1248" width="32" height="32"/>
  <object id="1392" x="544" y="1248" width="32" height="32"/>
  <object id="1393" x="576" y="1248" width="32" height="32"/>
  <object id="1394" x="704" y="1248" width="32" height="32"/>
  <object id="1395" x="736" y="1248" width="32" height="32"/>
  <object id="1396" x="0" y="1280" width="32" height="32"/>
  <object id="1397" x="32" y="1280" width="32" height="32"/>
  <object id="1398" x="64" y="1280" width="32" height="32"/>
  <object id="1399" x="96" y="1280" width="32" height="32"/>
  <object id="1415" x="608" y="1280" width="32" height="32"/>
  <object id="1416" x="704" y="1280" width="32" height="32"/>
  <object id="1417" x="736" y="1280" width="32" height="32"/>
  <object id="1418" x="0" y="1312" width="32" height="32"/>
  <object id="1419" x="32" y="1312" width="32" height="32"/>
  <object id="1420" x="64" y="1312" width="32" height="32"/>
  <object id="1421" x="96" y="1312" width="32" height="32"/>
  <object id="1437" x="608" y="1312" width="32" height="32"/>
  <object id="1438" x="640" y="1312" width="32" height="32"/>
  <object id="1439" x="704" y="1312" width="32" height="32"/>
  <object id="1440" x="736" y="1312" width="32" height="32"/>
  <object id="1441" x="0" y="1344" width="32" height="32"/>
  <object id="1442" x="32" y="1344" width="32" height="32"/>
  <object id="1443" x="64" y="1344" width="32" height="32"/>
  <object id="1444" x="96" y="1344" width="32" height="32"/>
  <object id="1445" x="128" y="1344" width="32" height="32"/>
  <object id="1447" x="192" y="1344" width="32" height="32"/>
  <object id="1448" x="224" y="1344" width="32" height="32"/>
  <object id="1449" x="256" y="1344" width="32" height="32"/>
  <object id="1450" x="288" y="1344" width="32" height="32"/>
  <object id="1451" x="320" y="1344" width="32" height="32"/>
  <object id="1456" x="480" y="1344" width="32" height="32"/>
  <object id="1457" x="512" y="1344" width="32" height="32"/>
  <object id="1458" x="544" y="1344" width="32" height="32"/>
  <object id="1460" x="608" y="1344" width="32" height="32"/>
  <object id="1461" x="640" y="1344" width="32" height="32"/>
  <object id="1462" x="704" y="1344" width="32" height="32"/>
  <object id="1463" x="736" y="1344" width="32" height="32"/>
  <object id="1464" x="0" y="1376" width="32" height="32"/>
  <object id="1465" x="32" y="1376" width="32" height="32"/>
  <object id="1466" x="64" y="1376" width="32" height="32"/>
  <object id="1467" x="96" y="1376" width="32" height="32"/>
  <object id="1468" x="128" y="1376" width="32" height="32"/>
  <object id="1469" x="192" y="1376" width="32" height="32"/>
  <object id="1470" x="224" y="1376" width="32" height="32"/>
  <object id="1471" x="256" y="1376" width="32" height="32"/>
  <object id="1472" x="288" y="1376" width="32" height="32"/>
  <object id="1473" x="320" y="1376" width="32" height="32"/>
  <object id="1478" x="480" y="1376" width="32" height="32"/>
  <object id="1479" x="512" y="1376" width="32" height="32"/>
  <object id="1480" x="544" y="1376" width="32" height="32"/>
  <object id="1481" x="608" y="1376" width="32" height="32"/>
  <object id="1482" x="640" y="1376" width="32" height="32"/>
  <object id="1483" x="704" y="1376" width="32" height="32"/>
  <object id="1484" x="736" y="1376" width="32" height="32"/>
  <object id="1485" x="0" y="1408" width="32" height="32"/>
  <object id="1486" x="32" y="1408" width="32" height="32"/>
  <object id="1487" x="96" y="1408" width="32" height="32"/>
  <object id="1488" x="224" y="1408" width="32" height="32"/>
  <object id="1489" x="256" y="1408" width="32" height="32"/>
  <object id="1490" x="288" y="1408" width="32" height="32"/>
  <object id="1491" x="320" y="1408" width="32" height="32"/>
  <object id="1496" x="480" y="1408" width="32" height="32"/>
  <object id="1497" x="512" y="1408" width="32" height="32"/>
  <object id="1498" x="704" y="1408" width="32" height="32"/>
  <object id="1499" x="736" y="1408" width="32" height="32"/>
  <object id="1500" x="0" y="1440" width="32" height="32"/>
  <object id="1501" x="32" y="1440" width="32" height="32"/>
  <object id="1502" x="288" y="1440" width="32" height="32"/>
  <object id="1503" x="320" y="1440" width="32" height="32"/>
  <object id="1508" x="480" y="1440" width="32" height="32"/>
  <object id="1509" x="512" y="1440" width="32" height="32"/>
  <object id="1510" x="704" y="1440" width="32" height="32"/>
  <object id="1511" x="736" y="1440" width="32" height="32"/>
  <object id="1512" x="0" y="1472" width="32" height="32"/>
  <object id="1513" x="32" y="1472" width="32" height="32"/>
  <object id="1514" x="96" y="1472" width="32" height="32"/>
  <object id="1515" x="256" y="1472" width="32" height="32"/>
  <object id="1516" x="288" y="1472" width="32" height="32"/>
  <object id="1517" x="320" y="1472" width="32" height="32"/>
  <object id="1522" x="480" y="1472" width="32" height="32"/>
  <object id="1523" x="512" y="1472" width="32" height="32"/>
  <object id="1524" x="704" y="1472" width="32" height="32"/>
  <object id="1525" x="736" y="1472" width="32" height="32"/>
  <object id="1526" x="0" y="1504" width="32" height="32"/>
  <object id="1527" x="32" y="1504" width="32" height="32"/>
  <object id="1528" x="288" y="1504" width="32" height="32"/>
  <object id="1529" x="320" y="1504" width="32" height="32"/>
  <object id="1534" x="480" y="1504" width="32" height="32"/>
  <object id="1535" x="512" y="1504" width="32" height="32"/>
  <object id="1536" x="704" y="1504" width="32" height="32"/>
  <object id="1537" x="736" y="1504" width="32" height="32"/>
  <object id="1538" x="0" y="1536" width="32" height="32"/>
  <object id="1539" x="32" y="1536" width="32" height="32"/>
  <object id="1540" x="64" y="1536" width="32" height="32"/>
  <object id="1541" x="288" y="1536" width="32" height="32"/>
  <object id="1542" x="320" y="1536" width="32" height="32"/>
  <object id="1547" x="480" y="1536" width="32" height="32"/>
  <object id="1548" x="512" y="1536" width="32" height="32"/>
  <object id="1549" x="544" y="1536" width="32" height="32"/>
  <object id="1550" x="576" y="1536" width="32" height="32"/>
  <object id="1551" x="608" y="1536" width="32" height="32"/>
  <object id="1552" x="640" y="1536" width="32" height="32"/>
  <object id="1553" x="672" y="1536" width="32" height="32"/>
  <object id="1554" x="704" y="1536" width="32" height="32"/>
  <object id="1555" x="736" y="1536" width="32" height="32"/>
  <object id="1556" x="0" y="1568" width="32" height="32"/>
  <object id="1557" x="32" y="1568" width="32" height="32"/>
  <object id="1558" x="256" y="1568" width="32" height="32"/>
  <object id="1559" x="288" y="1568" width="32" height="32"/>
  <object id="1560" x="320" y="1568" width="32" height="32"/>
  <object id="1568" x="576" y="1568" width="32" height="32"/>
  <object id="1569" x="608" y="1568" width="32" height="32"/>
  <object id="1570" x="640" y="1568" width="32" height="32"/>
  <object id="1571" x="672" y="1568" width="32" height="32"/>
  <object id="1572" x="704" y="1568" width="32" height="32"/>
  <object id="1573" x="736" y="1568" width="32" height="32"/>
  <object id="1574" x="0" y="1600" width="32" height="32"/>
  <object id="1575" x="32" y="1600" width="32" height="32"/>
  <object id="1576" x="64" y="1600" width="32" height="32"/>
  <object id="1577" x="96" y="1600" width="32" height="32"/>
  <object id="1578" x="224" y="1600" width="32" height="32"/>
  <object id="1579" x="288" y="1600" width="32" height="32"/>
  <object id="1580" x="320" y="1600" width="32" height="32"/>
  <object id="1588" x="576" y="1600" width="32" height="32"/>
  <object id="1589" x="608" y="1600" width="32" height="32"/>
  <object id="1590" x="640" y="1600" width="32" height="32"/>
  <object id="1591" x="672" y="1600" width="32" height="32"/>
  <object id="1592" x="704" y="1600" width="32" height="32"/>
  <object id="1593" x="736" y="1600" width="32" height="32"/>
  <object id="1594" x="0" y="1632" width="32" height="32"/>
  <object id="1595" x="32" y="1632" width="32" height="32"/>
  <object id="1596" x="256" y="1632" width="32" height="32"/>
  <object id="1597" x="288" y="1632" width="32" height="32"/>
  <object id="1598" x="320" y="1632" width="32" height="32"/>
  <object id="1606" x="576" y="1632" width="32" height="32"/>
  <object id="1607" x="608" y="1632" width="32" height="32"/>
  <object id="1608" x="640" y="1632" width="32" height="32"/>
  <object id="1609" x="672" y="1632" width="32" height="32"/>
  <object id="1610" x="704" y="1632" width="32" height="32"/>
  <object id="1611" x="736" y="1632" width="32" height="32"/>
  <object id="1612" x="0" y="1664" width="32" height="32"/>
  <object id="1613" x="32" y="1664" width="32" height="32"/>
  <object id="1614" x="288" y="1664" width="32" height="32"/>
  <object id="1615" x="320" y="1664" width="32" height="32"/>
  <object id="1616" x="352" y="1664" width="32" height="32"/>
  <object id="1623" x="576" y="1664" width="32" height="32"/>
  <object id="1624" x="608" y="1664" width="32" height="32"/>
  <object id="1625" x="640" y="1664" width="32" height="32"/>
  <object id="1626" x="672" y="1664" width="32" height="32"/>
  <object id="1627" x="704" y="1664" width="32" height="32"/>
  <object id="1628" x="736" y="1664" width="32" height="32"/>
  <object id="1629" x="0" y="1696" width="32" height="32"/>
  <object id="1630" x="32" y="1696" width="32" height="32"/>
  <object id="1631" x="96" y="1696" width="32" height="32"/>
  <object id="1632" x="256" y="1696" width="32" height="32"/>
  <object id="1633" x="288" y="1696" width="32" height="32"/>
  <object id="1634" x="320" y="1696" width="32" height="32"/>
  <object id="1635" x="352" y="1696" width="32" height="32"/>
  <object id="1642" x="576" y="1696" width="32" height="32"/>
  <object id="1643" x="608" y="1696" width="32" height="32"/>
  <object id="1644" x="640" y="1696" width="32" height="32"/>
  <object id="1645" x="672" y="1696" width="32" height="32"/>
  <object id="1646" x="704" y="1696" width="32" height="32"/>
  <object id="1647" x="736" y="1696" width="32" height="32"/>
  <object id="1648" x="0" y="1728" width="32" height="32"/>
  <object id="1649" x="32" y="1728" width="32" height="32"/>
  <object id="1650" x="256" y="1728" width="32" height="32"/>
  <object id="1651" x="288" y="1728" width="32" height="32"/>
  <object id="1652" x="320" y="1728" width="32" height="32"/>
  <object id="1653" x="352" y="1728" width="32" height="32"/>
  <object id="1654" x="384" y="1728" width="32" height="32"/>
  <object id="1655" x="416" y="1728" width="32" height="32"/>
  <object id="1656" x="448" y="1728" width="32" height="32"/>
  <object id="1657" x="480" y="1728" width="32" height="32"/>
  <object id="1658" x="512" y="1728" width="32" height="32"/>
  <object id="1659" x="544" y="1728" width="32" height="32"/>
  <object id="1660" x="576" y="1728" width="32" height="32"/>
  <object id="1661" x="608" y="1728" width="32" height="32"/>
  <object id="1662" x="640" y="1728" width="32" height="32"/>
  <object id="1663" x="672" y="1728" width="32" height="32"/>
  <object id="1664" x="704" y="1728" width="32" height="32"/>
  <object id="1665" x="736" y="1728" width="32" height="32"/>
  <object id="1666" x="0" y="1760" width="32" height="32"/>
  <object id="1667" x="32" y="1760" width="32" height="32"/>
  <object id="1668" x="64" y="1760" width="32" height="32"/>
  <object id="1669" x="288" y="1760" width="32" height="32"/>
  <object id="1670" x="320" y="1760" width="32" height="32"/>
  <object id="1671" x="352" y="1760" width="32" height="32"/>
  <object id="1672" x="384" y="1760" width="32" height="32"/>
  <object id="1673" x="416" y="1760" width="32" height="32"/>
  <object id="1674" x="448" y="1760" width="32" height="32"/>
  <object id="1675" x="480" y="1760" width="32" height="32"/>
  <object id="1676" x="512" y="1760" width="32" height="32"/>
  <object id="1677" x="544" y="1760" width="32" height="32"/>
  <object id="1678" x="576" y="1760" width="32" height="32"/>
  <object id="1679" x="608" y="1760" width="32" height="32"/>
  <object id="1680" x="640" y="1760" width="32" height="32"/>
  <object id="1681" x="672" y="1760" width="32" height="32"/>
  <object id="1682" x="704" y="1760" width="32" height="32"/>
  <object id="1683" x="736" y="1760" width="32" height="32"/>
  <object id="1684" x="0" y="1792" width="32" height="32"/>
  <object id="1685" x="32" y="1792" width="32" height="32"/>
  <object id="1686" x="96" y="1792" width="32" height="32"/>
  <object id="1687" x="224" y="1792" width="32" height="32"/>
  <object id="1688" x="288" y="1792" width="32" height="32"/>
  <object id="1689" x="320" y="1792" width="32" height="32"/>
  <object id="1690" x="352" y="1792" width="32" height="32"/>
  <object id="1691" x="384" y="1792" width="32" height="32"/>
  <object id="1692" x="416" y="1792" width="32" height="32"/>
  <object id="1693" x="448" y="1792" width="32" height="32"/>
  <object id="1694" x="480" y="1792" width="32" height="32"/>
  <object id="1695" x="512" y="1792" width="32" height="32"/>
  <object id="1696" x="544" y="1792" width="32" height="32"/>
  <object id="1697" x="576" y="1792" width="32" height="32"/>
  <object id="1698" x="608" y="1792" width="32" height="32"/>
  <object id="1699" x="640" y="1792" width="32" height="32"/>
  <object id="1700" x="672" y="1792" width="32" height="32"/>
  <object id="1701" x="704" y="1792" width="32" height="32"/>
  <object id="1702" x="736" y="1792" width="32" height="32"/>
  <object id="1703" x="0" y="1824" width="32" height="32"/>
  <object id="1704" x="32" y="1824" width="32" height="32"/>
  <object id="1705" x="64" y="1824" width="32" height="32"/>
  <object id="1706" x="320" y="1824" width="32" height="32"/>
  <object id="1707" x="352" y="1824" width="32" height="32"/>
  <object id="1708" x="384" y="1824" width="32" height="32"/>
  <object id="1709" x="608" y="1824" width="32" height="32"/>
  <object id="1710" x="704" y="1824" width="32" height="32"/>
  <object id="1711" x="736" y="1824" width="32" height="32"/>
  <object id="1712" x="0" y="1856" width="32" height="32"/>
  <object id="1713" x="32" y="1856" width="32" height="32"/>
  <object id="1714" x="96" y="1856" width="32" height="32"/>
  <object id="1715" x="352" y="1856" width="32" height="32"/>
  <object id="1716" x="384" y="1856" width="32" height="32"/>
  <object id="1717" x="704" y="1856" width="32" height="32"/>
  <object id="1718" x="736" y="1856" width="32" height="32"/>
  <object id="1719" x="0" y="1888" width="32" height="32"/>
  <object id="1720" x="32" y="1888" width="32" height="32"/>
  <object id="1721" x="352" y="1888" width="32" height="32"/>
  <object id="1722" x="384" y="1888" width="32" height="32"/>
  <object id="1723" x="704" y="1888" width="32" height="32"/>
  <object id="1724" x="736" y="1888" width="32" height="32"/>
  <object id="1725" x="0" y="1920" width="32" height="32"/>
  <object id="1726" x="32" y="1920" width="32" height="32"/>
  <object id="1727" x="64" y="1920" width="32" height="32"/>
  <object id="1728" x="96" y="1920" width="32" height="32"/>
  <object id="1729" x="128" y="1920" width="32" height="32"/>
  <object id="1730" x="160" y="1920" width="32" height="32"/>
  <object id="1731" x="384" y="1920" width="32" height="32"/>
  <object id="1732" x="416" y="1920" width="32" height="32"/>
  <object id="1733" x="448" y="1920" width="32" height="32"/>
  <object id="1734" x="704" y="1920" width="32" height="32"/>
  <object id="1735" x="736" y="1920" width="32" height="32"/>
  <object id="1736" x="0" y="1952" width="32" height="32"/>
  <object id="1737" x="32" y="1952" width="32" height="32"/>
  <object id="1738" x="64" y="1952" width="32" height="32"/>
  <object id="1739" x="96" y="1952" width="32" height="32"/>
  <object id="1740" x="128" y="1952" width="32" height="32"/>
  <object id="1741" x="160" y="1952" width="32" height="32"/>
  <object id="1742" x="384" y="1952" width="32" height="32"/>
  <object id="1743" x="416" y="1952" width="32" height="32"/>
  <object id="1744" x="448" y="1952" width="32" height="32"/>
  <object id="1745" x="704" y="1952" width="32" height="32"/>
  <object id="1746" x="736" y="1952" width="32" height="32"/>
  <object id="1747" x="0" y="1984" width="32" height="32"/>
  <object id="1748" x="32" y="1984" width="32" height="32"/>
  <object id="1749" x="64" y="1984" width="32" height="32"/>
  <object id="1750" x="96" y="1984" width="32" height="32"/>
  <object id="1751" x="128" y="1984" width="32" height="32"/>
  <object id="1752" x="160" y="1984" width="32" height="32"/>
  <object id="1753" x="192" y="1984" width="32" height="32"/>
  <object id="1754" x="224" y="1984" width="32" height="32"/>
  <object id="1755" x="256" y="1984" width="32" height="32"/>
  <object id="1756" x="704" y="1984" width="32" height="32"/>
  <object id="1757" x="736" y="1984" width="32" height="32"/>
  <object id="1758" x="0" y="2016" width="32" height="32"/>
  <object id="1759" x="32" y="2016" width="32" height="32"/>
  <object id="1760" x="64" y="2016" width="32" height="32"/>
  <object id="1761" x="96" y="2016" width="32" height="32"/>
  <object id="1762" x="128" y="2016" width="32" height="32"/>
  <object id="1763" x="160" y="2016" width="32" height="32"/>
  <object id="1764" x="192" y="2016" width="32" height="32"/>
  <object id="1765" x="224" y="2016" width="32" height="32"/>
  <object id="1766" x="256" y="2016" width="32" height="32"/>
  <object id="1767" x="704" y="2016" width="32" height="32"/>
  <object id="1768" x="736" y="2016" width="32" height="32"/>
  <object id="1769" x="0" y="2048" width="32" height="32"/>
  <object id="1770" x="32" y="2048" width="32" height="32"/>
  <object id="1771" x="64" y="2048" width="32" height="32"/>
  <object id="1772" x="96" y="2048" width="32" height="32"/>
  <object id="1773" x="128" y="2048" width="32" height="32"/>
  <object id="1774" x="160" y="2048" width="32" height="32"/>
  <object id="1775" x="192" y="2048" width="32" height="32"/>
  <object id="1776" x="224" y="2048" width="32" height="32"/>
  <object id="1777" x="256" y="2048" width="32" height="32"/>
  <object id="1778" x="704" y="2048" width="32" height="32"/>
  <object id="1779" x="736" y="2048" width="32" height="32"/>
  <object id="1780" x="0" y="2080" width="32" height="32"/>
  <object id="1781" x="32" y="2080" width="32" height="32"/>
  <object id="1782" x="64" y="2080" width="32" height="32"/>
  <object id="1783" x="96" y="2080" width="32" height="32"/>
  <object id="1784" x="128" y="2080" width="32" height="32"/>
  <object id="1785" x="160" y="2080" width="32" height="32"/>
  <object id="1786" x="192" y="2080" width="32" height="32"/>
  <object id="1787" x="224" y="2080" width="32" height="32"/>
  <object id="1788" x="256" y="2080" width="32" height="32"/>
  <object id="1789" x="704" y="2080" width="32" height="32"/>
  <object id="1790" x="736" y="2080" width="32" height="32"/>
  <object id="1791" x="0" y="2112" width="32" height="32"/>
  <object id="1792" x="32" y="2112" width="32" height="32"/>
  <object id="1793" x="64" y="2112" width="32" height="32"/>
  <object id="1794" x="96" y="2112" width="32" height="32"/>
  <object id="1795" x="128" y="2112" width="32" height="32"/>
  <object id="1796" x="160" y="2112" width="32" height="32"/>
  <object id="1797" x="192" y="2112" width="32" height="32"/>
  <object id="1798" x="224" y="2112" width="32" height="32"/>
  <object id="1799" x="256" y="2112" width="32" height="32"/>
  <object id="1800" x="704" y="2112" width="32" height="32"/>
  <object id="1801" x="736" y="2112" width="32" height="32"/>
  <object id="1802" x="0" y="2144" width="32" height="32"/>
  <object id="1803" x="32" y="2144" width="32" height="32"/>
  <object id="1804" x="64" y="2144" width="32" height="32"/>
  <object id="1805" x="160" y="2144" width="32" height="32"/>
  <object id="1806" x="256" y="2144" width="32" height="32"/>
  <object id="1807" x="480" y="2144" width="32" height="32"/>
  <object id="1808" x="512" y="2144" width="32" height="32"/>
  <object id="1809" x="544" y="2144" width="32" height="32"/>
  <object id="1810" x="576" y="2144" width="32" height="32"/>
  <object id="1811" x="608" y="2144" width="32" height="32"/>
  <object id="1812" x="640" y="2144" width="32" height="32"/>
  <object id="1813" x="672" y="2144" width="32" height="32"/>
  <object id="1814" x="704" y="2144" width="32" height="32"/>
  <object id="1815" x="736" y="2144" width="32" height="32"/>
  <object id="1816" x="0" y="2176" width="32" height="32"/>
  <object id="1817" x="32" y="2176" width="32" height="32"/>
  <object id="1818" x="480" y="2176" width="32" height="32"/>
  <object id="1819" x="512" y="2176" width="32" height="32"/>
  <object id="1820" x="544" y="2176" width="32" height="32"/>
  <object id="1821" x="576" y="2176" width="32" height="32"/>
  <object id="1822" x="608" y="2176" width="32" height="32"/>
  <object id="1823" x="640" y="2176" width="32" height="32"/>
  <object id="1824" x="672" y="2176" width="32" height="32"/>
  <object id="1825" x="704" y="2176" width="32" height="32"/>
  <object id="1826" x="736" y="2176" width="32" height="32"/>
  <object id="1827" x="0" y="2208" width="32" height="32"/>
  <object id="1828" x="32" y="2208" width="32" height="32"/>
  <object id="1829" x="480" y="2208" width="32" height="32"/>
  <object id="1830" x="512" y="2208" width="32" height="32"/>
  <object id="1831" x="544" y="2208" width="32" height="32"/>
  <object id="1832" x="576" y="2208" width="32" height="32"/>
  <object id="1833" x="608" y="2208" width="32" height="32"/>
  <object id="1834" x="640" y="2208" width="32" height="32"/>
  <object id="1835" x="672" y="2208" width="32" height="32"/>
  <object id="1836" x="704" y="2208" width="32" height="32"/>
  <object id="1837" x="736" y="2208" width="32" height="32"/>
  <object id="1838" x="0" y="2240" width="32" height="32"/>
  <object id="1839" x="32" y="2240" width="32" height="32"/>
  <object id="1840" x="64" y="2240" width="32" height="32"/>
  <object id="1841" x="96" y="2240" width="32" height="32"/>
  <object id="1842" x="128" y="2240" width="32" height="32"/>
  <object id="1843" x="160" y="2240" width="32" height="32"/>
  <object id="1844" x="192" y="2240" width="32" height="32"/>
  <object id="1845" x="224" y="2240" width="32" height="32"/>
  <object id="1846" x="256" y="2240" width="32" height="32"/>
  <object id="1847" x="288" y="2240" width="32" height="32"/>
  <object id="1848" x="320" y="2240" width="32" height="32"/>
  <object id="1849" x="352" y="2240" width="32" height="32"/>
  <object id="1850" x="480" y="2240" width="32" height="32"/>
  <object id="1851" x="512" y="2240" width="32" height="32"/>
  <object id="1852" x="544" y="2240" width="32" height="32"/>
  <object id="1853" x="576" y="2240" width="32" height="32"/>
  <object id="1854" x="608" y="2240" width="32" height="32"/>
  <object id="1855" x="640" y="2240" width="32" height="32"/>
  <object id="1856" x="672" y="2240" width="32" height="32"/>
  <object id="1857" x="704" y="2240" width="32" height="32"/>
  <object id="1858" x="736" y="2240" width="32" height="32"/>
  <object id="1859" x="0" y="2272" width="32" height="32"/>
  <object id="1860" x="32" y="2272" width="32" height="32"/>
  <object id="1861" x="64" y="2272" width="32" height="32"/>
  <object id="1862" x="96" y="2272" width="32" height="32"/>
  <object id="1863" x="128" y="2272" width="32" height="32"/>
  <object id="1864" x="160" y="2272" width="32" height="32"/>
  <object id="1865" x="192" y="2272" width="32" height="32"/>
  <object id="1866" x="224" y="2272" width="32" height="32"/>
  <object id="1867" x="256" y="2272" width="32" height="32"/>
  <object id="1868" x="288" y="2272" width="32" height="32"/>
  <object id="1869" x="320" y="2272" width="32" height="32"/>
  <object id="1870" x="352" y="2272" width="32" height="32"/>
  <object id="1871" x="480" y="2272" width="32" height="32"/>
  <object id="1872" x="512" y="2272" width="32" height="32"/>
  <object id="1873" x="544" y="2272" width="32" height="32"/>
  <object id="1874" x="576" y="2272" width="32" height="32"/>
  <object id="1875" x="608" y="2272" width="32" height="32"/>
  <object id="1876" x="640" y="2272" width="32" height="32"/>
  <object id="1877" x="672" y="2272" width="32" height="32"/>
  <object id="1878" x="704" y="2272" width="32" height="32"/>
  <object id="1879" x="736" y="2272" width="32" height="32"/>
  <object id="1880" x="0" y="2304" width="32" height="32"/>
  <object id="1881" x="32" y="2304" width="32" height="32"/>
  <object id="1882" x="64" y="2304" width="32" height="32"/>
  <object id="1883" x="96" y="2304" width="32" height="32"/>
  <object id="1884" x="128" y="2304" width="32" height="32"/>
  <object id="1885" x="160" y="2304" width="32" height="32"/>
  <object id="1886" x="192" y="2304" width="32" height="32"/>
  <object id="1887" x="224" y="2304" width="32" height="32"/>
  <object id="1888" x="256" y="2304" width="32" height="32"/>
  <object id="1889" x="288" y="2304" width="32" height="32"/>
  <object id="1890" x="320" y="2304" width="32" height="32"/>
  <object id="1891" x="352" y="2304" width="32" height="32"/>
  <object id="1892" x="480" y="2304" width="32" height="32"/>
  <object id="1893" x="512" y="2304" width="32" height="32"/>
  <object id="1894" x="544" y="2304" width="32" height="32"/>
  <object id="1895" x="576" y="2304" width="32" height="32"/>
  <object id="1896" x="608" y="2304" width="32" height="32"/>
  <object id="1897" x="640" y="2304" width="32" height="32"/>
  <object id="1898" x="672" y="2304" width="32" height="32"/>
  <object id="1899" x="704" y="2304" width="32" height="32"/>
  <object id="1900" x="736" y="2304" width="32" height="32"/>
  <object id="1901" x="0" y="2336" width="32" height="32"/>
  <object id="1902" x="32" y="2336" width="32" height="32"/>
  <object id="1903" x="64" y="2336" width="32" height="32"/>
  <object id="1904" x="96" y="2336" width="32" height="32"/>
  <object id="1905" x="128" y="2336" width="32" height="32"/>
  <object id="1906" x="160" y="2336" width="32" height="32"/>
  <object id="1907" x="192" y="2336" width="32" height="32"/>
  <object id="1908" x="224" y="2336" width="32" height="32"/>
  <object id="1909" x="256" y="2336" width="32" height="32"/>
  <object id="1910" x="288" y="2336" width="32" height="32"/>
  <object id="1911" x="320" y="2336" width="32" height="32"/>
  <object id="1912" x="352" y="2336" width="32" height="32"/>
  <object id="1913" x="480" y="2336" width="32" height="32"/>
  <object id="1914" x="512" y="2336" width="32" height="32"/>
  <object id="1915" x="544" y="2336" width="32" height="32"/>
  <object id="1916" x="576" y="2336" width="32" height="32"/>
  <object id="1917" x="608" y="2336" width="32" height="32"/>
  <object id="1918" x="640" y="2336" width="32" height="32"/>
  <object id="1919" x="672" y="2336" width="32" height="32"/>
  <object id="1920" x="704" y="2336" width="32" height="32"/>
  <object id="1921" x="736" y="2336" width="32" height="32"/>
  <object id="1922" x="0" y="2368" width="32" height="32"/>
  <object id="1923" x="32" y="2368" width="32" height="32"/>
  <object id="1924" x="64" y="2368" width="32" height="32"/>
  <object id="1925" x="96" y="2368" width="32" height="32"/>
  <object id="1926" x="128" y="2368" width="32" height="32"/>
  <object id="1927" x="160" y="2368" width="32" height="32"/>
  <object id="1928" x="192" y="2368" width="32" height="32"/>
  <object id="1929" x="224" y="2368" width="32" height="32"/>
  <object id="1930" x="256" y="2368" width="32" height="32"/>
  <object id="1931" x="288" y="2368" width="32" height="32"/>
  <object id="1932" x="320" y="2368" width="32" height="32"/>
  <object id="1933" x="352" y="2368" width="32" height="32"/>
  <object id="1934" x="480" y="2368" width="32" height="32"/>
  <object id="1935" x="512" y="2368" width="32" height="32"/>
  <object id="1936" x="544" y="2368" width="32" height="32"/>
  <object id="1937" x="576" y="2368" width="32" height="32"/>
  <object id="1938" x="608" y="2368" width="32" height="32"/>
  <object id="1939" x="640" y="2368" width="32" height="32"/>
  <object id="1940" x="672" y="2368" width="32" height="32"/>
  <object id="1941" x="704" y="2368" width="32" height="32"/>
  <object id="1942" x="736" y="2368" width="32" height="32"/>
  <object id="1943" x="0" y="2400" width="32" height="32"/>
  <object id="1944" x="32" y="2400" width="32" height="32"/>
  <object id="1945" x="64" y="2400" width="32" height="32"/>
  <object id="1946" x="96" y="2400" width="32" height="32"/>
  <object id="1947" x="128" y="2400" width="32" height="32"/>
  <object id="1948" x="160" y="2400" width="32" height="32"/>
  <object id="1949" x="192" y="2400" width="32" height="32"/>
  <object id="1950" x="224" y="2400" width="32" height="32"/>
  <object id="1951" x="256" y="2400" width="32" height="32"/>
  <object id="1952" x="288" y="2400" width="32" height="32"/>
  <object id="1953" x="320" y="2400" width="32" height="32"/>
  <object id="1954" x="352" y="2400" width="32" height="32"/>
  <object id="1955" x="480" y="2400" width="32" height="32"/>
  <object id="1956" x="512" y="2400" width="32" height="32"/>
  <object id="1957" x="544" y="2400" width="32" height="32"/>
  <object id="1958" x="576" y="2400" width="32" height="32"/>
  <object id="1959" x="608" y="2400" width="32" height="32"/>
  <object id="1960" x="640" y="2400" width="32" height="32"/>
  <object id="1961" x="672" y="2400" width="32" height="32"/>
  <object id="1962" x="704" y="2400" width="32" height="32"/>
  <object id="1963" x="736" y="2400" width="32" height="32"/>
  <object id="1964" x="0" y="2432" width="32" height="32"/>
  <object id="1965" x="32" y="2432" width="32" height="32"/>
  <object id="1966" x="64" y="2432" width="32" height="32"/>
  <object id="1967" x="96" y="2432" width="32" height="32"/>
  <object id="1968" x="128" y="2432" width="32" height="32"/>
  <object id="1969" x="160" y="2432" width="32" height="32"/>
  <object id="1970" x="192" y="2432" width="32" height="32"/>
  <object id="1971" x="224" y="2432" width="32" height="32"/>
  <object id="1972" x="256" y="2432" width="32" height="32"/>
  <object id="1973" x="352" y="2432" width="32" height="32"/>
  <object id="1974" x="480" y="2432" width="32" height="32"/>
  <object id="1975" x="576" y="2432" width="32" height="32"/>
  <object id="1976" x="608" y="2432" width="32" height="32"/>
  <object id="1977" x="640" y="2432" width="32" height="32"/>
  <object id="1978" x="672" y="2432" width="32" height="32"/>
  <object id="1979" x="704" y="2432" width="32" height="32"/>
  <object id="1980" x="736" y="2432" width="32" height="32"/>
  <object id="1981" x="0" y="2464" width="32" height="32"/>
  <object id="1982" x="32" y="2464" width="32" height="32"/>
  <object id="1983" x="64" y="2464" width="32" height="32"/>
  <object id="1984" x="96" y="2464" width="32" height="32"/>
  <object id="1985" x="128" y="2464" width="32" height="32"/>
  <object id="1986" x="160" y="2464" width="32" height="32"/>
  <object id="1987" x="192" y="2464" width="32" height="32"/>
  <object id="1988" x="224" y="2464" width="32" height="32"/>
  <object id="1989" x="608" y="2464" width="32" height="32"/>
  <object id="1990" x="640" y="2464" width="32" height="32"/>
  <object id="1991" x="672" y="2464" width="32" height="32"/>
  <object id="1992" x="704" y="2464" width="32" height="32"/>
  <object id="1993" x="736" y="2464" width="32" height="32"/>
  <object id="1994" x="0" y="2496" width="32" height="32"/>
  <object id="1995" x="32" y="2496" width="32" height="32"/>
  <object id="1996" x="64" y="2496" width="32" height="32"/>
  <object id="1997" x="96" y="2496" width="32" height="32"/>
  <object id="1998" x="128" y="2496" width="32" height="32"/>
  <object id="1999" x="160" y="2496" width="32" height="32"/>
  <object id="2000" x="192" y="2496" width="32" height="32"/>
  <object id="2001" x="224" y="2496" width="32" height="32"/>
  <object id="2002" x="608" y="2496" width="32" height="32"/>
  <object id="2003" x="640" y="2496" width="32" height="32"/>
  <object id="2004" x="672" y="2496" width="32" height="32"/>
  <object id="2005" x="704" y="2496" width="32" height="32"/>
  <object id="2006" x="736" y="2496" width="32" height="32"/>
  <object id="2007" x="0" y="2528" width="32" height="32"/>
  <object id="2008" x="32" y="2528" width="32" height="32"/>
  <object id="2009" x="64" y="2528" width="32" height="32"/>
  <object id="2010" x="96" y="2528" width="32" height="32"/>
  <object id="2011" x="128" y="2528" width="32" height="32"/>
  <object id="2012" x="160" y="2528" width="32" height="32"/>
  <object id="2013" x="192" y="2528" width="32" height="32"/>
  <object id="2014" x="224" y="2528" width="32" height="32"/>
  <object id="2015" x="352" y="2528" width="32" height="32"/>
  <object id="2016" x="384" y="2528" width="32" height="32"/>
  <object id="2017" x="608" y="2528" width="32" height="32"/>
  <object id="2018" x="640" y="2528" width="32" height="32"/>
  <object id="2019" x="672" y="2528" width="32" height="32"/>
  <object id="2020" x="704" y="2528" width="32" height="32"/>
  <object id="2021" x="736" y="2528" width="32" height="32"/>
  <object id="2022" x="0" y="2560" width="32" height="32"/>
  <object id="2023" x="32" y="2560" width="32" height="32"/>
  <object id="2024" x="64" y="2560" width="32" height="32"/>
  <object id="2025" x="96" y="2560" width="32" height="32"/>
  <object id="2026" x="128" y="2560" width="32" height="32"/>
  <object id="2027" x="160" y="2560" width="32" height="32"/>
  <object id="2028" x="192" y="2560" width="32" height="32"/>
  <object id="2029" x="224" y="2560" width="32" height="32"/>
  <object id="2030" x="352" y="2560" width="32" height="32"/>
  <object id="2031" x="384" y="2560" width="32" height="32"/>
  <object id="2032" x="608" y="2560" width="32" height="32"/>
  <object id="2033" x="640" y="2560" width="32" height="32"/>
  <object id="2034" x="672" y="2560" width="32" height="32"/>
  <object id="2035" x="704" y="2560" width="32" height="32"/>
  <object id="2036" x="736" y="2560" width="32" height="32"/>
  <object id="2037" x="0" y="2592" width="32" height="32"/>
  <object id="2038" x="32" y="2592" width="32" height="32"/>
  <object id="2039" x="64" y="2592" width="32" height="32"/>
  <object id="2040" x="96" y="2592" width="32" height="32"/>
  <object id="2041" x="128" y="2592" width="32" height="32"/>
  <object id="2042" x="160" y="2592" width="32" height="32"/>
  <object id="2043" x="192" y="2592" width="32" height="32"/>
  <object id="2044" x="224" y="2592" width="32" height="32"/>
  <object id="2045" x="256" y="2592" width="32" height="32"/>
  <object id="2046" x="384" y="2592" width="32" height="32"/>
  <object id="2047" x="608" y="2592" width="32" height="32"/>
  <object id="2048" x="640" y="2592" width="32" height="32"/>
  <object id="2049" x="672" y="2592" width="32" height="32"/>
  <object id="2050" x="704" y="2592" width="32" height="32"/>
  <object id="2051" x="736" y="2592" width="32" height="32"/>
  <object id="2052" x="0" y="2624" width="32" height="32"/>
  <object id="2053" x="32" y="2624" width="32" height="32"/>
  <object id="2054" x="64" y="2624" width="32" height="32"/>
  <object id="2055" x="96" y="2624" width="32" height="32"/>
  <object id="2056" x="128" y="2624" width="32" height="32"/>
  <object id="2057" x="160" y="2624" width="32" height="32"/>
  <object id="2058" x="192" y="2624" width="32" height="32"/>
  <object id="2059" x="224" y="2624" width="32" height="32"/>
  <object id="2060" x="256" y="2624" width="32" height="32"/>
  <object id="2061" x="384" y="2624" width="32" height="32"/>
  <object id="2062" x="608" y="2624" width="32" height="32"/>
  <object id="2063" x="640" y="2624" width="32" height="32"/>
  <object id="2064" x="672" y="2624" width="32" height="32"/>
  <object id="2065" x="704" y="2624" width="32" height="32"/>
  <object id="2066" x="736" y="2624" width="32" height="32"/>
  <object id="2067" x="0" y="2656" width="32" height="32"/>
  <object id="2068" x="32" y="2656" width="32" height="32"/>
  <object id="2069" x="64" y="2656" width="32" height="32"/>
  <object id="2070" x="96" y="2656" width="32" height="32"/>
  <object id="2071" x="128" y="2656" width="32" height="32"/>
  <object id="2072" x="160" y="2656" width="32" height="32"/>
  <object id="2073" x="192" y="2656" width="32" height="32"/>
  <object id="2074" x="224" y="2656" width="32" height="32"/>
  <object id="2075" x="256" y="2656" width="32" height="32"/>
  <object id="2076" x="384" y="2656" width="32" height="32"/>
  <object id="2077" x="480" y="2656" width="32" height="32"/>
  <object id="2078" x="512" y="2656" width="32" height="32"/>
  <object id="2079" x="608" y="2656" width="32" height="32"/>
  <object id="2080" x="640" y="2656" width="32" height="32"/>
  <object id="2081" x="672" y="2656" width="32" height="32"/>
  <object id="2082" x="704" y="2656" width="32" height="32"/>
  <object id="2083" x="736" y="2656" width="32" height="32"/>
  <object id="2084" x="0" y="2688" width="32" height="32"/>
  <object id="2085" x="32" y="2688" width="32" height="32"/>
  <object id="2086" x="64" y="2688" width="32" height="32"/>
  <object id="2087" x="96" y="2688" width="32" height="32"/>
  <object id="2088" x="128" y="2688" width="32" height="32"/>
  <object id="2089" x="160" y="2688" width="32" height="32"/>
  <object id="2090" x="192" y="2688" width="32" height="32"/>
  <object id="2091" x="224" y="2688" width="32" height="32"/>
  <object id="2092" x="256" y="2688" width="32" height="32"/>
  <object id="2093" x="384" y="2688" width="32" height="32"/>
  <object id="2094" x="480" y="2688" width="32" height="32"/>
  <object id="2095" x="512" y="2688" width="32" height="32"/>
  <object id="2096" x="608" y="2688" width="32" height="32"/>
  <object id="2097" x="640" y="2688" width="32" height="32"/>
  <object id="2098" x="672" y="2688" width="32" height="32"/>
  <object id="2099" x="704" y="2688" width="32" height="32"/>
  <object id="2100" x="736" y="2688" width="32" height="32"/>
  <object id="2101" x="0" y="2720" width="32" height="32"/>
  <object id="2102" x="32" y="2720" width="32" height="32"/>
  <object id="2103" x="64" y="2720" width="32" height="32"/>
  <object id="2104" x="96" y="2720" width="32" height="32"/>
  <object id="2105" x="128" y="2720" width="32" height="32"/>
  <object id="2106" x="160" y="2720" width="32" height="32"/>
  <object id="2107" x="192" y="2720" width="32" height="32"/>
  <object id="2108" x="224" y="2720" width="32" height="32"/>
  <object id="2109" x="352" y="2720" width="32" height="32"/>
  <object id="2110" x="384" y="2720" width="32" height="32"/>
  <object id="2111" x="512" y="2720" width="32" height="32"/>
  <object id="2112" x="608" y="2720" width="32" height="32"/>
  <object id="2113" x="640" y="2720" width="32" height="32"/>
  <object id="2114" x="672" y="2720" width="32" height="32"/>
  <object id="2115" x="704" y="2720" width="32" height="32"/>
  <object id="2116" x="736" y="2720" width="32" height="32"/>
  <object id="2117" x="0" y="2752" width="32" height="32"/>
  <object id="2118" x="32" y="2752" width="32" height="32"/>
  <object id="2119" x="64" y="2752" width="32" height="32"/>
  <object id="2120" x="96" y="2752" width="32" height="32"/>
  <object id="2121" x="128" y="2752" width="32" height="32"/>
  <object id="2122" x="160" y="2752" width="32" height="32"/>
  <object id="2123" x="192" y="2752" width="32" height="32"/>
  <object id="2124" x="224" y="2752" width="32" height="32"/>
  <object id="2125" x="352" y="2752" width="32" height="32"/>
  <object id="2126" x="384" y="2752" width="32" height="32"/>
  <object id="2127" x="512" y="2752" width="32" height="32"/>
  <object id="2128" x="608" y="2752" width="32" height="32"/>
  <object id="2129" x="640" y="2752" width="32" height="32"/>
  <object id="2130" x="672" y="2752" width="32" height="32"/>
  <object id="2131" x="704" y="2752" width="32" height="32"/>
  <object id="2132" x="736" y="2752" width="32" height="32"/>
  <object id="2133" x="0" y="2784" width="32" height="32"/>
  <object id="2134" x="32" y="2784" width="32" height="32"/>
  <object id="2135" x="64" y="2784" width="32" height="32"/>
  <object id="2136" x="96" y="2784" width="32" height="32"/>
  <object id="2137" x="128" y="2784" width="32" height="32"/>
  <object id="2138" x="160" y="2784" width="32" height="32"/>
  <object id="2139" x="192" y="2784" width="32" height="32"/>
  <object id="2140" x="224" y="2784" width="32" height="32"/>
  <object id="2141" x="480" y="2784" width="32" height="32"/>
  <object id="2142" x="608" y="2784" width="32" height="32"/>
  <object id="2143" x="640" y="2784" width="32" height="32"/>
  <object id="2144" x="672" y="2784" width="32" height="32"/>
  <object id="2145" x="704" y="2784" width="32" height="32"/>
  <object id="2146" x="736" y="2784" width="32" height="32"/>
  <object id="2147" x="0" y="2816" width="32" height="32"/>
  <object id="2148" x="32" y="2816" width="32" height="32"/>
  <object id="2149" x="64" y="2816" width="32" height="32"/>
  <object id="2150" x="96" y="2816" width="32" height="32"/>
  <object id="2151" x="128" y="2816" width="32" height="32"/>
  <object id="2152" x="160" y="2816" width="32" height="32"/>
  <object id="2153" x="192" y="2816" width="32" height="32"/>
  <object id="2154" x="224" y="2816" width="32" height="32"/>
  <object id="2155" x="256" y="2816" width="32" height="32"/>
  <object id="2156" x="480" y="2816" width="32" height="32"/>
  <object id="2157" x="608" y="2816" width="32" height="32"/>
  <object id="2158" x="672" y="2816" width="32" height="32"/>
  <object id="2159" x="704" y="2816" width="32" height="32"/>
  <object id="2160" x="736" y="2816" width="32" height="32"/>
  <object id="2161" x="0" y="2848" width="32" height="32"/>
  <object id="2162" x="32" y="2848" width="32" height="32"/>
  <object id="2163" x="64" y="2848" width="32" height="32"/>
  <object id="2164" x="96" y="2848" width="32" height="32"/>
  <object id="2165" x="128" y="2848" width="32" height="32"/>
  <object id="2166" x="160" y="2848" width="32" height="32"/>
  <object id="2167" x="192" y="2848" width="32" height="32"/>
  <object id="2168" x="224" y="2848" width="32" height="32"/>
  <object id="2169" x="256" y="2848" width="32" height="32"/>
  <object id="2170" x="288" y="2848" width="32" height="32"/>
  <object id="2171" x="704" y="2848" width="32" height="32"/>
  <object id="2172" x="736" y="2848" width="32" height="32"/>
  <object id="2173" x="0" y="2880" width="32" height="32"/>
  <object id="2174" x="32" y="2880" width="32" height="32"/>
  <object id="2175" x="64" y="2880" width="32" height="32"/>
  <object id="2176" x="96" y="2880" width="32" height="32"/>
  <object id="2177" x="128" y="2880" width="32" height="32"/>
  <object id="2178" x="160" y="2880" width="32" height="32"/>
  <object id="2179" x="192" y="2880" width="32" height="32"/>
  <object id="2180" x="224" y="2880" width="32" height="32"/>
  <object id="2181" x="256" y="2880" width="32" height="32"/>
  <object id="2182" x="288" y="2880" width="32" height="32"/>
  <object id="2183" x="704" y="2880" width="32" height="32"/>
  <object id="2184" x="736" y="2880" width="32" height="32"/>
  <object id="2185" x="0" y="2912" width="32" height="32"/>
  <object id="2186" x="32" y="2912" width="32" height="32"/>
  <object id="2187" x="64" y="2912" width="32" height="32"/>
  <object id="2188" x="96" y="2912" width="32" height="32"/>
  <object id="2189" x="128" y="2912" width="32" height="32"/>
  <object id="2190" x="160" y="2912" width="32" height="32"/>
  <object id="2191" x="192" y="2912" width="32" height="32"/>
  <object id="2192" x="224" y="2912" width="32" height="32"/>
  <object id="2193" x="256" y="2912" width="32" height="32"/>
  <object id="2194" x="288" y="2912" width="32" height="32"/>
  <object id="2195" x="704" y="2912" width="32" height="32"/>
  <object id="2196" x="736" y="2912" width="32" height="32"/>
  <object id="2197" x="0" y="2944" width="32" height="32"/>
  <object id="2198" x="32" y="2944" width="32" height="32"/>
  <object id="2199" x="64" y="2944" width="32" height="32"/>
  <object id="2200" x="96" y="2944" width="32" height="32"/>
  <object id="2201" x="128" y="2944" width="32" height="32"/>
  <object id="2202" x="160" y="2944" width="32" height="32"/>
  <object id="2203" x="192" y="2944" width="32" height="32"/>
  <object id="2204" x="224" y="2944" width="32" height="32"/>
  <object id="2205" x="704" y="2944" width="32" height="32"/>
  <object id="2206" x="736" y="2944" width="32" height="32"/>
  <object id="2207" x="0" y="2976" width="32" height="32"/>
  <object id="2208" x="32" y="2976" width="32" height="32"/>
  <object id="2209" x="64" y="2976" width="32" height="32"/>
  <object id="2210" x="96" y="2976" width="32" height="32"/>
  <object id="2211" x="128" y="2976" width="32" height="32"/>
  <object id="2212" x="160" y="2976" width="32" height="32"/>
  <object id="2213" x="192" y="2976" width="32" height="32"/>
  <object id="2214" x="224" y="2976" width="32" height="32"/>
  <object id="2215" x="704" y="2976" width="32" height="32"/>
  <object id="2216" x="736" y="2976" width="32" height="32"/>
  <object id="2217" x="0" y="3008" width="32" height="32"/>
  <object id="2218" x="32" y="3008" width="32" height="32"/>
  <object id="2219" x="64" y="3008" width="32" height="32"/>
  <object id="2220" x="96" y="3008" width="32" height="32"/>
  <object id="2221" x="128" y="3008" width="32" height="32"/>
  <object id="2222" x="160" y="3008" width="32" height="32"/>
  <object id="2223" x="192" y="3008" width="32" height="32"/>
  <object id="2224" x="224" y="3008" width="32" height="32"/>
  <object id="2225" x="512" y="3008" width="32" height="32"/>
  <object id="2226" x="544" y="3008" width="32" height="32"/>
  <object id="2227" x="576" y="3008" width="32" height="32"/>
  <object id="2228" x="608" y="3008" width="32" height="32"/>
  <object id="2229" x="640" y="3008" width="32" height="32"/>
  <object id="2230" x="672" y="3008" width="32" height="32"/>
  <object id="2231" x="704" y="3008" width="32" height="32"/>
  <object id="2232" x="736" y="3008" width="32" height="32"/>
  <object id="2233" x="0" y="3040" width="32" height="32"/>
  <object id="2234" x="32" y="3040" width="32" height="32"/>
  <object id="2235" x="64" y="3040" width="32" height="32"/>
  <object id="2236" x="96" y="3040" width="32" height="32"/>
  <object id="2237" x="128" y="3040" width="32" height="32"/>
  <object id="2238" x="160" y="3040" width="32" height="32"/>
  <object id="2239" x="192" y="3040" width="32" height="32"/>
  <object id="2240" x="224" y="3040" width="32" height="32"/>
  <object id="2241" x="512" y="3040" width="32" height="32"/>
  <object id="2242" x="544" y="3040" width="32" height="32"/>
  <object id="2243" x="576" y="3040" width="32" height="32"/>
  <object id="2244" x="608" y="3040" width="32" height="32"/>
  <object id="2245" x="640" y="3040" width="32" height="32"/>
  <object id="2246" x="672" y="3040" width="32" height="32"/>
  <object id="2247" x="704" y="3040" width="32" height="32"/>
  <object id="2248" x="736" y="3040" width="32" height="32"/>
  <object id="2249" x="0" y="3072" width="32" height="32"/>
  <object id="2250" x="32" y="3072" width="32" height="32"/>
  <object id="2251" x="64" y="3072" width="32" height="32"/>
  <object id="2252" x="96" y="3072" width="32" height="32"/>
  <object id="2253" x="128" y="3072" width="32" height="32"/>
  <object id="2254" x="160" y="3072" width="32" height="32"/>
  <object id="2255" x="192" y="3072" width="32" height="32"/>
  <object id="2256" x="224" y="3072" width="32" height="32"/>
  <object id="2257" x="512" y="3072" width="32" height="32"/>
  <object id="2258" x="544" y="3072" width="32" height="32"/>
  <object id="2259" x="576" y="3072" width="32" height="32"/>
  <object id="2260" x="608" y="3072" width="32" height="32"/>
  <object id="2261" x="640" y="3072" width="32" height="32"/>
  <object id="2262" x="672" y="3072" width="32" height="32"/>
  <object id="2263" x="704" y="3072" width="32" height="32"/>
  <object id="2264" x="736" y="3072" width="32" height="32"/>
  <object id="2265" x="0" y="3104" width="32" height="32"/>
  <object id="2266" x="32" y="3104" width="32" height="32"/>
  <object id="2267" x="64" y="3104" width="32" height="32"/>
  <object id="2268" x="96" y="3104" width="32" height="32"/>
  <object id="2269" x="128" y="3104" width="32" height="32"/>
  <object id="2270" x="160" y="3104" width="32" height="32"/>
  <object id="2271" x="192" y="3104" width="32" height="32"/>
  <object id="2272" x="224" y="3104" width="32" height="32"/>
  <object id="2273" x="512" y="3104" width="32" height="32"/>
  <object id="2274" x="544" y="3104" width="32" height="32"/>
  <object id="2275" x="576" y="3104" width="32" height="32"/>
  <object id="2276" x="608" y="3104" width="32" height="32"/>
  <object id="2277" x="640" y="3104" width="32" height="32"/>
  <object id="2278" x="672" y="3104" width="32" height="32"/>
  <object id="2279" x="704" y="3104" width="32" height="32"/>
  <object id="2280" x="736" y="3104" width="32" height="32"/>
  <object id="2281" x="0" y="3136" width="32" height="32"/>
  <object id="2282" x="32" y="3136" width="32" height="32"/>
  <object id="2283" x="704" y="3136" width="32" height="32"/>
  <object id="2284" x="736" y="3136" width="32" height="32"/>
  <object id="2285" x="0" y="3168" width="32" height="32"/>
  <object id="2286" x="32" y="3168" width="32" height="32"/>
  <object id="2289" x="0" y="3200" width="32" height="32"/>
  <object id="2290" x="32" y="3200" width="32" height="32"/>
  <object id="2293" x="0" y="3232" width="32" height="32"/>
  <object id="2294" x="32" y="3232" width="32" height="32"/>
  <object id="2297" x="0" y="3264" width="32" height="32"/>
  <object id="2298" x="32" y="3264" width="32" height="32"/>
  <object id="2301" x="0" y="3296" width="32" height="32"/>
  <object id="2302" x="32" y="3296" width="32" height="32"/>
  <object id="2305" x="0" y="3328" width="32" height="32"/>
  <object id="2306" x="32" y="3328" width="32" height="32"/>
  <object id="2307" x="704" y="3328" width="32" height="32"/>
  <object id="2308" x="736" y="3328" width="32" height="32"/>
  <object id="2309" x="0" y="3360" width="32" height="32"/>
  <object id="2310" x="32" y="3360" width="32" height="32"/>
  <object id="2311" x="64" y="3360" width="32" height="32"/>
  <object id="2312" x="96" y="3360" width="32" height="32"/>
  <object id="2313" x="128" y="3360" width="32" height="32"/>
  <object id="2314" x="160" y="3360" width="32" height="32"/>
  <object id="2315" x="192" y="3360" width="32" height="32"/>
  <object id="2316" x="320" y="3360" width="32" height="32"/>
  <object id="2317" x="352" y="3360" width="32" height="32"/>
  <object id="2318" x="384" y="3360" width="32" height="32"/>
  <object id="2319" x="416" y="3360" width="32" height="32"/>
  <object id="2320" x="448" y="3360" width="32" height="32"/>
  <object id="2321" x="480" y="3360" width="32" height="32"/>
  <object id="2322" x="512" y="3360" width="32" height="32"/>
  <object id="2323" x="544" y="3360" width="32" height="32"/>
  <object id="2324" x="576" y="3360" width="32" height="32"/>
  <object id="2325" x="608" y="3360" width="32" height="32"/>
  <object id="2326" x="640" y="3360" width="32" height="32"/>
  <object id="2327" x="672" y="3360" width="32" height="32"/>
  <object id="2328" x="704" y="3360" width="32" height="32"/>
  <object id="2329" x="736" y="3360" width="32" height="32"/>
  <object id="2330" x="0" y="3392" width="32" height="32"/>
  <object id="2331" x="32" y="3392" width="32" height="32"/>
  <object id="2332" x="64" y="3392" width="32" height="32"/>
  <object id="2333" x="96" y="3392" width="32" height="32"/>
  <object id="2334" x="128" y="3392" width="32" height="32"/>
  <object id="2335" x="160" y="3392" width="32" height="32"/>
  <object id="2336" x="192" y="3392" width="32" height="32"/>
  <object id="2337" x="320" y="3392" width="32" height="32"/>
  <object id="2338" x="352" y="3392" width="32" height="32"/>
  <object id="2339" x="384" y="3392" width="32" height="32"/>
  <object id="2340" x="416" y="3392" width="32" height="32"/>
  <object id="2341" x="448" y="3392" width="32" height="32"/>
  <object id="2342" x="480" y="3392" width="32" height="32"/>
  <object id="2343" x="512" y="3392" width="32" height="32"/>
  <object id="2344" x="544" y="3392" width="32" height="32"/>
  <object id="2345" x="576" y="3392" width="32" height="32"/>
  <object id="2346" x="608" y="3392" width="32" height="32"/>
  <object id="2347" x="640" y="3392" width="32" height="32"/>
  <object id="2348" x="672" y="3392" width="32" height="32"/>
  <object id="2349" x="704" y="3392" width="32" height="32"/>
  <object id="2350" x="736" y="3392" width="32" height="32"/>
  <object id="2351" x="0" y="3424" width="32" height="32"/>
  <object id="2352" x="32" y="3424" width="32" height="32"/>
  <object id="2353" x="64" y="3424" width="32" height="32"/>
  <object id="2354" x="96" y="3424" width="32" height="32"/>
  <object id="2355" x="128" y="3424" width="32" height="32"/>
  <object id="2356" x="160" y="3424" width="32" height="32"/>
  <object id="2357" x="192" y="3424" width="32" height="32"/>
  <object id="2358" x="320" y="3424" width="32" height="32"/>
  <object id="2359" x="352" y="3424" width="32" height="32"/>
  <object id="2360" x="384" y="3424" width="32" height="32"/>
  <object id="2361" x="416" y="3424" width="32" height="32"/>
  <object id="2362" x="448" y="3424" width="32" height="32"/>
  <object id="2363" x="480" y="3424" width="32" height="32"/>
  <object id="2364" x="512" y="3424" width="32" height="32"/>
  <object id="2365" x="544" y="3424" width="32" height="32"/>
  <object id="2366" x="576" y="3424" width="32" height="32"/>
  <object id="2367" x="608" y="3424" width="32" height="32"/>
  <object id="2368" x="640" y="3424" width="32" height="32"/>
  <object id="2369" x="672" y="3424" width="32" height="32"/>
  <object id="2370" x="704" y="3424" width="32" height="32"/>
  <object id="2371" x="736" y="3424" width="32" height="32"/>
  <object id="2372" x="0" y="3456" width="32" height="32"/>
  <object id="2373" x="32" y="3456" width="32" height="32"/>
  <object id="2374" x="64" y="3456" width="32" height="32"/>
  <object id="2375" x="96" y="3456" width="32" height="32"/>
  <object id="2376" x="128" y="3456" width="32" height="32"/>
  <object id="2377" x="160" y="3456" width="32" height="32"/>
  <object id="2378" x="192" y="3456" width="32" height="32"/>
  <object id="2379" x="320" y="3456" width="32" height="32"/>
  <object id="2380" x="352" y="3456" width="32" height="32"/>
  <object id="2381" x="384" y="3456" width="32" height="32"/>
  <object id="2382" x="416" y="3456" width="32" height="32"/>
  <object id="2383" x="448" y="3456" width="32" height="32"/>
  <object id="2384" x="480" y="3456" width="32" height="32"/>
  <object id="2385" x="512" y="3456" width="32" height="32"/>
  <object id="2386" x="544" y="3456" width="32" height="32"/>
  <object id="2387" x="576" y="3456" width="32" height="32"/>
  <object id="2388" x="608" y="3456" width="32" height="32"/>
  <object id="2389" x="640" y="3456" width="32" height="32"/>
  <object id="2390" x="672" y="3456" width="32" height="32"/>
  <object id="2391" x="704" y="3456" width="32" height="32"/>
  <object id="2392" x="736" y="3456" width="32" height="32"/>
  <object id="2393" x="0" y="3488" width="32" height="32"/>
  <object id="2394" x="32" y="3488" width="32" height="32"/>
  <object id="2395" x="64" y="3488" width="32" height="32"/>
  <object id="2396" x="96" y="3488" width="32" height="32"/>
  <object id="2397" x="128" y="3488" width="32" height="32"/>
  <object id="2398" x="192" y="3488" width="32" height="32"/>
  <object id="2399" x="608" y="3488" width="32" height="32"/>
  <object id="2400" x="640" y="3488" width="32" height="32"/>
  <object id="2401" x="672" y="3488" width="32" height="32"/>
  <object id="2402" x="704" y="3488" width="32" height="32"/>
  <object id="2403" x="736" y="3488" width="32" height="32"/>
  <object id="2404" x="0" y="3520" width="32" height="32"/>
  <object id="2405" x="32" y="3520" width="32" height="32"/>
  <object id="2406" x="64" y="3520" width="32" height="32"/>
  <object id="2407" x="96" y="3520" width="32" height="32"/>
  <object id="2408" x="128" y="3520" width="32" height="32"/>
  <object id="2409" x="608" y="3520" width="32" height="32"/>
  <object id="2410" x="640" y="3520" width="32" height="32"/>
  <object id="2411" x="672" y="3520" width="32" height="32"/>
  <object id="2412" x="704" y="3520" width="32" height="32"/>
  <object id="2413" x="736" y="3520" width="32" height="32"/>
  <object id="2414" x="0" y="3552" width="32" height="32"/>
  <object id="2415" x="32" y="3552" width="32" height="32"/>
  <object id="2416" x="64" y="3552" width="32" height="32"/>
  <object id="2417" x="96" y="3552" width="32" height="32"/>
  <object id="2418" x="128" y="3552" width="32" height="32"/>
  <object id="2419" x="608" y="3552" width="32" height="32"/>
  <object id="2420" x="640" y="3552" width="32" height="32"/>
  <object id="2421" x="672" y="3552" width="32" height="32"/>
  <object id="2422" x="704" y="3552" width="32" height="32"/>
  <object id="2423" x="736" y="3552" width="32" height="32"/>
  <object id="2424" x="0" y="3584" width="32" height="32"/>
  <object id="2425" x="32" y="3584" width="32" height="32"/>
  <object id="2426" x="64" y="3584" width="32" height="32"/>
  <object id="2427" x="96" y="3584" width="32" height="32"/>
  <object id="2428" x="128" y="3584" width="32" height="32"/>
  <object id="2429" x="608" y="3584" width="32" height="32"/>
  <object id="2430" x="640" y="3584" width="32" height="32"/>
  <object id="2431" x="672" y="3584" width="32" height="32"/>
  <object id="2432" x="704" y="3584" width="32" height="32"/>
  <object id="2433" x="736" y="3584" width="32" height="32"/>
  <object id="2434" x="0" y="3616" width="32" height="32"/>
  <object id="2435" x="32" y="3616" width="32" height="32"/>
  <object id="2436" x="64" y="3616" width="32" height="32"/>
  <object id="2437" x="96" y="3616" width="32" height="32"/>
  <object id="2438" x="128" y="3616" width="32" height="32"/>
  <object id="2439" x="608" y="3616" width="32" height="32"/>
  <object id="2440" x="640" y="3616" width="32" height="32"/>
  <object id="2441" x="672" y="3616" width="32" height="32"/>
  <object id="2442" x="704" y="3616" width="32" height="32"/>
  <object id="2443" x="736" y="3616" width="32" height="32"/>
  <object id="2444" x="0" y="3648" width="32" height="32"/>
  <object id="2445" x="32" y="3648" width="32" height="32"/>
  <object id="2446" x="64" y="3648" width="32" height="32"/>
  <object id="2447" x="96" y="3648" width="32" height="32"/>
  <object id="2448" x="128" y="3648" width="32" height="32"/>
  <object id="2449" x="608" y="3648" width="32" height="32"/>
  <object id="2450" x="640" y="3648" width="32" height="32"/>
  <object id="2451" x="672" y="3648" width="32" height="32"/>
  <object id="2452" x="704" y="3648" width="32" height="32"/>
  <object id="2453" x="736" y="3648" width="32" height="32"/>
  <object id="2454" x="0" y="3680" width="32" height="32"/>
  <object id="2455" x="32" y="3680" width="32" height="32"/>
  <object id="2456" x="64" y="3680" width="32" height="32"/>
  <object id="2457" x="96" y="3680" width="32" height="32"/>
  <object id="2458" x="128" y="3680" width="32" height="32"/>
  <object id="2459" x="608" y="3680" width="32" height="32"/>
  <object id="2460" x="640" y="3680" width="32" height="32"/>
  <object id="2461" x="672" y="3680" width="32" height="32"/>
  <object id="2462" x="704" y="3680" width="32" height="32"/>
  <object id="2463" x="736" y="3680" width="32" height="32"/>
  <object id="2464" x="0" y="3712" width="32" height="32"/>
  <object id="2465" x="32" y="3712" width="32" height="32"/>
  <object id="2466" x="64" y="3712" width="32" height="32"/>
  <object id="2467" x="96" y="3712" width="32" height="32"/>
  <object id="2468" x="128" y="3712" width="32" height="32"/>
  <object id="2469" x="608" y="3712" width="32" height="32"/>
  <object id="2470" x="640" y="3712" width="32" height="32"/>
  <object id="2471" x="672" y="3712" width="32" height="32"/>
  <object id="2472" x="704" y="3712" width="32" height="32"/>
  <object id="2473" x="736" y="3712" width="32" height="32"/>
  <object id="2474" x="0" y="3744" width="32" height="32"/>
  <object id="2475" x="32" y="3744" width="32" height="32"/>
  <object id="2476" x="64" y="3744" width="32" height="32"/>
  <object id="2477" x="96" y="3744" width="32" height="32"/>
  <object id="2478" x="128" y="3744" width="32" height="32"/>
  <object id="2479" x="608" y="3744" width="32" height="32"/>
  <object id="2480" x="640" y="3744" width="32" height="32"/>
  <object id="2481" x="672" y="3744" width="32" height="32"/>
  <object id="2482" x="704" y="3744" width="32" height="32"/>
  <object id="2483" x="736" y="3744" width="32" height="32"/>
  <object id="2484" x="0" y="3776" width="32" height="32"/>
  <object id="2485" x="32" y="3776" width="32" height="32"/>
  <object id="2486" x="608" y="3776" width="32" height="32"/>
  <object id="2487" x="640" y="3776" width="32" height="32"/>
  <object id="2488" x="672" y="3776" width="32" height="32"/>
  <object id="2489" x="704" y="3776" width="32" height="32"/>
  <object id="2490" x="736" y="3776" width="32" height="32"/>
  <object id="2491" x="0" y="3808" width="32" height="32"/>
  <object id="2492" x="32" y="3808" width="32" height="32"/>
  <object id="2493" x="608" y="3808" width="32" height="32"/>
  <object id="2494" x="640" y="3808" width="32" height="32"/>
  <object id="2495" x="672" y="3808" width="32" height="32"/>
  <object id="2496" x="704" y="3808" width="32" height="32"/>
  <object id="2497" x="736" y="3808" width="32" height="32"/>
  <object id="2498" x="0" y="3840" width="32" height="32"/>
  <object id="2499" x="32" y="3840" width="32" height="32"/>
  <object id="2500" x="608" y="3840" width="32" height="32"/>
  <object id="2501" x="640" y="3840" width="32" height="32"/>
  <object id="2502" x="672" y="3840" width="32" height="32"/>
  <object id="2503" x="704" y="3840" width="32" height="32"/>
  <object id="2504" x="736" y="3840" width="32" height="32"/>
  <object id="2505" x="0" y="3872" width="32" height="32"/>
  <object id="2506" x="32" y="3872" width="32" height="32"/>
  <object id="2507" x="608" y="3872" width="32" height="32"/>
  <object id="2508" x="640" y="3872" width="32" height="32"/>
  <object id="2509" x="672" y="3872" width="32" height="32"/>
  <object id="2510" x="704" y="3872" width="32" height="32"/>
  <object id="2511" x="736" y="3872" width="32" height="32"/>
  <object id="2512" x="0" y="3904" width="32" height="32"/>
  <object id="2513" x="32" y="3904" width="32" height="32"/>
  <object id="2514" x="608" y="3904" width="32" height="32"/>
  <object id="2515" x="640" y="3904" width="32" height="32"/>
  <object id="2516" x="672" y="3904" width="32" height="32"/>
  <object id="2517" x="704" y="3904" width="32" height="32"/>
  <object id="2518" x="736" y="3904" width="32" height="32"/>
  <object id="2519" x="0" y="3936" width="32" height="32"/>
  <object id="2520" x="32" y="3936" width="32" height="32"/>
  <object id="2521" x="64" y="3936" width="32" height="32"/>
  <object id="2522" x="96" y="3936" width="32" height="32"/>
  <object id="2523" x="128" y="3936" width="32" height="32"/>
  <object id="2524" x="160" y="3936" width="32" height="32"/>
  <object id="2525" x="192" y="3936" width="32" height="32"/>
  <object id="2526" x="224" y="3936" width="32" height="32"/>
  <object id="2527" x="256" y="3936" width="32" height="32"/>
  <object id="2528" x="288" y="3936" width="32" height="32"/>
  <object id="2529" x="320" y="3936" width="32" height="32"/>
  <object id="2530" x="352" y="3936" width="32" height="32"/>
  <object id="2531" x="384" y="3936" width="32" height="32"/>
  <object id="2532" x="512" y="3936" width="32" height="32"/>
  <object id="2533" x="544" y="3936" width="32" height="32"/>
  <object id="2534" x="576" y="3936" width="32" height="32"/>
  <object id="2535" x="608" y="3936" width="32" height="32"/>
  <object id="2536" x="640" y="3936" width="32" height="32"/>
  <object id="2537" x="672" y="3936" width="32" height="32"/>
  <object id="2538" x="704" y="3936" width="32" height="32"/>
  <object id="2539" x="736" y="3936" width="32" height="32"/>
  <object id="2540" x="0" y="3968" width="32" height="32"/>
  <object id="2541" x="32" y="3968" width="32" height="32"/>
  <object id="2542" x="64" y="3968" width="32" height="32"/>
  <object id="2543" x="96" y="3968" width="32" height="32"/>
  <object id="2544" x="128" y="3968" width="32" height="32"/>
  <object id="2545" x="160" y="3968" width="32" height="32"/>
  <object id="2546" x="192" y="3968" width="32" height="32"/>
  <object id="2547" x="224" y="3968" width="32" height="32"/>
  <object id="2548" x="256" y="3968" width="32" height="32"/>
  <object id="2549" x="288" y="3968" width="32" height="32"/>
  <object id="2550" x="320" y="3968" width="32" height="32"/>
  <object id="2551" x="352" y="3968" width="32" height="32"/>
  <object id="2552" x="384" y="3968" width="32" height="32"/>
  <object id="2553" x="512" y="3968" width="32" height="32"/>
  <object id="2554" x="544" y="3968" width="32" height="32"/>
  <object id="2555" x="576" y="3968" width="32" height="32"/>
  <object id="2556" x="608" y="3968" width="32" height="32"/>
  <object id="2557" x="640" y="3968" width="32" height="32"/>
  <object id="2558" x="672" y="3968" width="32" height="32"/>
  <object id="2559" x="704" y="3968" width="32" height="32"/>
  <object id="2560" x="736" y="3968" width="32" height="32"/>
  <object id="2561" x="0" y="4000" width="32" height="32"/>
  <object id="2562" x="32" y="4000" width="32" height="32"/>
  <object id="2563" x="64" y="4000" width="32" height="32"/>
  <object id="2564" x="96" y="4000" width="32" height="32"/>
  <object id="2565" x="128" y="4000" width="32" height="32"/>
  <object id="2566" x="160" y="4000" width="32" height="32"/>
  <object id="2567" x="192" y="4000" width="32" height="32"/>
  <object id="2568" x="224" y="4000" width="32" height="32"/>
  <object id="2569" x="256" y="4000" width="32" height="32"/>
  <object id="2570" x="288" y="4000" width="32" height="32"/>
  <object id="2571" x="320" y="4000" width="32" height="32"/>
  <object id="2572" x="352" y="4000" width="32" height="32"/>
  <object id="2573" x="384" y="4000" width="32" height="32"/>
  <object id="2574" x="512" y="4000" width="32" height="32"/>
  <object id="2575" x="544" y="4000" width="32" height="32"/>
  <object id="2576" x="576" y="4000" width="32" height="32"/>
  <object id="2577" x="608" y="4000" width="32" height="32"/>
  <object id="2578" x="640" y="4000" width="32" height="32"/>
  <object id="2579" x="672" y="4000" width="32" height="32"/>
  <object id="2580" x="704" y="4000" width="32" height="32"/>
  <object id="2581" x="736" y="4000" width="32" height="32"/>
  <object id="2582" x="0" y="4032" width="32" height="32"/>
  <object id="2583" x="32" y="4032" width="32" height="32"/>
  <object id="2584" x="64" y="4032" width="32" height="32"/>
  <object id="2585" x="96" y="4032" width="32" height="32"/>
  <object id="2586" x="128" y="4032" width="32" height="32"/>
  <object id="2587" x="160" y="4032" width="32" height="32"/>
  <object id="2588" x="192" y="4032" width="32" height="32"/>
  <object id="2589" x="224" y="4032" width="32" height="32"/>
  <object id="2590" x="256" y="4032" width="32" height="32"/>
  <object id="2591" x="288" y="4032" width="32" height="32"/>
  <object id="2592" x="320" y="4032" width="32" height="32"/>
  <object id="2593" x="352" y="4032" width="32" height="32"/>
  <object id="2594" x="384" y="4032" width="32" height="32"/>
  <object id="2595" x="512" y="4032" width="32" height="32"/>
  <object id="2596" x="544" y="4032" width="32" height="32"/>
  <object id="2597" x="576" y="4032" width="32" height="32"/>
  <object id="2598" x="608" y="4032" width="32" height="32"/>
  <object id="2599" x="640" y="4032" width="32" height="32"/>
  <object id="2600" x="672" y="4032" width="32" height="32"/>
  <object id="2601" x="704" y="4032" width="32" height="32"/>
  <object id="2602" x="736" y="4032" width="32" height="32"/>
  <object id="2603" x="0" y="4064" width="32" height="32"/>
  <object id="2604" x="32" y="4064" width="32" height="32"/>
  <object id="2605" x="384" y="4064" width="32" height="32"/>
  <object id="2606" x="704" y="4064" width="32" height="32"/>
  <object id="2607" x="736" y="4064" width="32" height="32"/>
  <object id="2608" x="0" y="4096" width="32" height="32"/>
  <object id="2609" x="32" y="4096" width="32" height="32"/>
  <object id="2610" x="704" y="4096" width="32" height="32"/>
  <object id="2611" x="736" y="4096" width="32" height="32"/>
  <object id="2612" x="0" y="4128" width="32" height="32"/>
  <object id="2613" x="32" y="4128" width="32" height="32"/>
  <object id="2614" x="704" y="4128" width="32" height="32"/>
  <object id="2615" x="736" y="4128" width="32" height="32"/>
  <object id="2616" x="0" y="4160" width="32" height="32"/>
  <object id="2617" x="32" y="4160" width="32" height="32"/>
  <object id="2618" x="704" y="4160" width="32" height="32"/>
  <object id="2619" x="736" y="4160" width="32" height="32"/>
  <object id="2620" x="0" y="4192" width="32" height="32"/>
  <object id="2621" x="32" y="4192" width="32" height="32"/>
  <object id="2622" x="704" y="4192" width="32" height="32"/>
  <object id="2623" x="736" y="4192" width="32" height="32"/>
  <object id="2624" x="0" y="4224" width="32" height="32"/>
  <object id="2625" x="32" y="4224" width="32" height="32"/>
  <object id="2626" x="704" y="4224" width="32" height="32"/>
  <object id="2627" x="736" y="4224" width="32" height="32"/>
  <object id="2628" x="0" y="4256" width="32" height="32"/>
  <object id="2629" x="32" y="4256" width="32" height="32"/>
  <object id="2630" x="64" y="4256" width="32" height="32"/>
  <object id="2631" x="96" y="4256" width="32" height="32"/>
  <object id="2632" x="128" y="4256" width="32" height="32"/>
  <object id="2633" x="160" y="4256" width="32" height="32"/>
  <object id="2634" x="192" y="4256" width="32" height="32"/>
  <object id="2635" x="224" y="4256" width="32" height="32"/>
  <object id="2636" x="256" y="4256" width="32" height="32"/>
  <object id="2637" x="288" y="4256" width="32" height="32"/>
  <object id="2638" x="320" y="4256" width="32" height="32"/>
  <object id="2639" x="352" y="4256" width="32" height="32"/>
  <object id="2640" x="480" y="4256" width="32" height="32"/>
  <object id="2641" x="512" y="4256" width="32" height="32"/>
  <object id="2642" x="544" y="4256" width="32" height="32"/>
  <object id="2643" x="576" y="4256" width="32" height="32"/>
  <object id="2644" x="608" y="4256" width="32" height="32"/>
  <object id="2645" x="640" y="4256" width="32" height="32"/>
  <object id="2646" x="672" y="4256" width="32" height="32"/>
  <object id="2647" x="704" y="4256" width="32" height="32"/>
  <object id="2648" x="736" y="4256" width="32" height="32"/>
  <object id="2649" x="0" y="4288" width="32" height="32"/>
  <object id="2650" x="32" y="4288" width="32" height="32"/>
  <object id="2651" x="64" y="4288" width="32" height="32"/>
  <object id="2652" x="96" y="4288" width="32" height="32"/>
  <object id="2653" x="128" y="4288" width="32" height="32"/>
  <object id="2654" x="160" y="4288" width="32" height="32"/>
  <object id="2655" x="192" y="4288" width="32" height="32"/>
  <object id="2656" x="224" y="4288" width="32" height="32"/>
  <object id="2657" x="256" y="4288" width="32" height="32"/>
  <object id="2658" x="288" y="4288" width="32" height="32"/>
  <object id="2659" x="320" y="4288" width="32" height="32"/>
  <object id="2660" x="352" y="4288" width="32" height="32"/>
  <object id="2661" x="480" y="4288" width="32" height="32"/>
  <object id="2662" x="512" y="4288" width="32" height="32"/>
  <object id="2663" x="544" y="4288" width="32" height="32"/>
  <object id="2664" x="576" y="4288" width="32" height="32"/>
  <object id="2665" x="608" y="4288" width="32" height="32"/>
  <object id="2666" x="640" y="4288" width="32" height="32"/>
  <object id="2667" x="672" y="4288" width="32" height="32"/>
  <object id="2668" x="704" y="4288" width="32" height="32"/>
  <object id="2669" x="736" y="4288" width="32" height="32"/>
  <object id="2670" x="0" y="4320" width="32" height="32"/>
  <object id="2671" x="32" y="4320" width="32" height="32"/>
  <object id="2672" x="64" y="4320" width="32" height="32"/>
  <object id="2673" x="96" y="4320" width="32" height="32"/>
  <object id="2674" x="128" y="4320" width="32" height="32"/>
  <object id="2675" x="160" y="4320" width="32" height="32"/>
  <object id="2676" x="192" y="4320" width="32" height="32"/>
  <object id="2677" x="224" y="4320" width="32" height="32"/>
  <object id="2678" x="256" y="4320" width="32" height="32"/>
  <object id="2679" x="288" y="4320" width="32" height="32"/>
  <object id="2680" x="320" y="4320" width="32" height="32"/>
  <object id="2681" x="352" y="4320" width="32" height="32"/>
  <object id="2682" x="480" y="4320" width="32" height="32"/>
  <object id="2683" x="512" y="4320" width="32" height="32"/>
  <object id="2684" x="544" y="4320" width="32" height="32"/>
  <object id="2685" x="576" y="4320" width="32" height="32"/>
  <object id="2686" x="608" y="4320" width="32" height="32"/>
  <object id="2687" x="640" y="4320" width="32" height="32"/>
  <object id="2688" x="672" y="4320" width="32" height="32"/>
  <object id="2689" x="704" y="4320" width="32" height="32"/>
  <object id="2690" x="736" y="4320" width="32" height="32"/>
  <object id="2691" x="0" y="4352" width="32" height="32"/>
  <object id="2692" x="32" y="4352" width="32" height="32"/>
  <object id="2693" x="64" y="4352" width="32" height="32"/>
  <object id="2694" x="96" y="4352" width="32" height="32"/>
  <object id="2695" x="128" y="4352" width="32" height="32"/>
  <object id="2696" x="160" y="4352" width="32" height="32"/>
  <object id="2697" x="192" y="4352" width="32" height="32"/>
  <object id="2698" x="224" y="4352" width="32" height="32"/>
  <object id="2699" x="256" y="4352" width="32" height="32"/>
  <object id="2700" x="288" y="4352" width="32" height="32"/>
  <object id="2701" x="320" y="4352" width="32" height="32"/>
  <object id="2702" x="352" y="4352" width="32" height="32"/>
  <object id="2703" x="480" y="4352" width="32" height="32"/>
  <object id="2704" x="512" y="4352" width="32" height="32"/>
  <object id="2705" x="544" y="4352" width="32" height="32"/>
  <object id="2706" x="576" y="4352" width="32" height="32"/>
  <object id="2707" x="608" y="4352" width="32" height="32"/>
  <object id="2708" x="640" y="4352" width="32" height="32"/>
  <object id="2709" x="672" y="4352" width="32" height="32"/>
  <object id="2710" x="704" y="4352" width="32" height="32"/>
  <object id="2711" x="736" y="4352" width="32" height="32"/>
  <object id="2712" x="0" y="4384" width="32" height="32"/>
  <object id="2713" x="32" y="4384" width="32" height="32"/>
  <object id="2714" x="64" y="4384" width="32" height="32"/>
  <object id="2715" x="96" y="4384" width="32" height="32"/>
  <object id="2716" x="128" y="4384" width="32" height="32"/>
  <object id="2717" x="160" y="4384" width="32" height="32"/>
  <object id="2718" x="192" y="4384" width="32" height="32"/>
  <object id="2719" x="224" y="4384" width="32" height="32"/>
  <object id="2720" x="256" y="4384" width="32" height="32"/>
  <object id="2721" x="288" y="4384" width="32" height="32"/>
  <object id="2722" x="320" y="4384" width="32" height="32"/>
  <object id="2723" x="352" y="4384" width="32" height="32"/>
  <object id="2724" x="480" y="4384" width="32" height="32"/>
  <object id="2725" x="512" y="4384" width="32" height="32"/>
  <object id="2726" x="544" y="4384" width="32" height="32"/>
  <object id="2727" x="576" y="4384" width="32" height="32"/>
  <object id="2728" x="608" y="4384" width="32" height="32"/>
  <object id="2729" x="640" y="4384" width="32" height="32"/>
  <object id="2730" x="672" y="4384" width="32" height="32"/>
  <object id="2731" x="704" y="4384" width="32" height="32"/>
  <object id="2732" x="736" y="4384" width="32" height="32"/>
  <object id="2733" x="0" y="4416" width="32" height="32"/>
  <object id="2734" x="32" y="4416" width="32" height="32"/>
  <object id="2735" x="352" y="4416" width="32" height="32"/>
  <object id="2736" x="480" y="4416" width="32" height="32"/>
  <object id="2737" x="704" y="4416" width="32" height="32"/>
  <object id="2738" x="736" y="4416" width="32" height="32"/>
  <object id="2739" x="0" y="4448" width="32" height="32"/>
  <object id="2740" x="32" y="4448" width="32" height="32"/>
  <object id="2741" x="704" y="4448" width="32" height="32"/>
  <object id="2742" x="736" y="4448" width="32" height="32"/>
  <object id="2743" x="0" y="4480" width="32" height="32"/>
  <object id="2744" x="32" y="4480" width="32" height="32"/>
  <object id="2745" x="704" y="4480" width="32" height="32"/>
  <object id="2746" x="736" y="4480" width="32" height="32"/>
  <object id="2747" x="0" y="4512" width="32" height="32"/>
  <object id="2748" x="32" y="4512" width="32" height="32"/>
  <object id="2749" x="704" y="4512" width="32" height="32"/>
  <object id="2750" x="736" y="4512" width="32" height="32"/>
  <object id="2751" x="0" y="4544" width="32" height="32"/>
  <object id="2752" x="32" y="4544" width="32" height="32"/>
  <object id="2753" x="160" y="4544" width="32" height="32"/>
  <object id="2754" x="192" y="4544" width="32" height="32"/>
  <object id="2755" x="224" y="4544" width="32" height="32"/>
  <object id="2756" x="256" y="4544" width="32" height="32"/>
  <object id="2757" x="384" y="4544" width="32" height="32"/>
  <object id="2758" x="416" y="4544" width="32" height="32"/>
  <object id="2759" x="448" y="4544" width="32" height="32"/>
  <object id="2760" x="480" y="4544" width="32" height="32"/>
  <object id="2761" x="512" y="4544" width="32" height="32"/>
  <object id="2762" x="544" y="4544" width="32" height="32"/>
  <object id="2763" x="576" y="4544" width="32" height="32"/>
  <object id="2764" x="608" y="4544" width="32" height="32"/>
  <object id="2765" x="640" y="4544" width="32" height="32"/>
  <object id="2766" x="672" y="4544" width="32" height="32"/>
  <object id="2767" x="704" y="4544" width="32" height="32"/>
  <object id="2768" x="736" y="4544" width="32" height="32"/>
  <object id="2769" x="0" y="4576" width="32" height="32"/>
  <object id="2770" x="32" y="4576" width="32" height="32"/>
  <object id="2771" x="160" y="4576" width="32" height="32"/>
  <object id="2772" x="192" y="4576" width="32" height="32"/>
  <object id="2773" x="224" y="4576" width="32" height="32"/>
  <object id="2774" x="256" y="4576" width="32" height="32"/>
  <object id="2775" x="384" y="4576" width="32" height="32"/>
  <object id="2776" x="416" y="4576" width="32" height="32"/>
  <object id="2777" x="448" y="4576" width="32" height="32"/>
  <object id="2778" x="480" y="4576" width="32" height="32"/>
  <object id="2779" x="512" y="4576" width="32" height="32"/>
  <object id="2780" x="544" y="4576" width="32" height="32"/>
  <object id="2781" x="576" y="4576" width="32" height="32"/>
  <object id="2782" x="608" y="4576" width="32" height="32"/>
  <object id="2783" x="640" y="4576" width="32" height="32"/>
  <object id="2784" x="672" y="4576" width="32" height="32"/>
  <object id="2785" x="704" y="4576" width="32" height="32"/>
  <object id="2786" x="736" y="4576" width="32" height="32"/>
  <object id="2787" x="0" y="4608" width="32" height="32"/>
  <object id="2788" x="32" y="4608" width="32" height="32"/>
  <object id="2789" x="160" y="4608" width="32" height="32"/>
  <object id="2790" x="192" y="4608" width="32" height="32"/>
  <object id="2791" x="224" y="4608" width="32" height="32"/>
  <object id="2792" x="256" y="4608" width="32" height="32"/>
  <object id="2793" x="384" y="4608" width="32" height="32"/>
  <object id="2794" x="416" y="4608" width="32" height="32"/>
  <object id="2795" x="448" y="4608" width="32" height="32"/>
  <object id="2796" x="480" y="4608" width="32" height="32"/>
  <object id="2797" x="512" y="4608" width="32" height="32"/>
  <object id="2798" x="544" y="4608" width="32" height="32"/>
  <object id="2799" x="576" y="4608" width="32" height="32"/>
  <object id="2800" x="608" y="4608" width="32" height="32"/>
  <object id="2801" x="640" y="4608" width="32" height="32"/>
  <object id="2802" x="672" y="4608" width="32" height="32"/>
  <object id="2803" x="704" y="4608" width="32" height="32"/>
  <object id="2804" x="736" y="4608" width="32" height="32"/>
  <object id="2805" x="0" y="4640" width="32" height="32"/>
  <object id="2806" x="32" y="4640" width="32" height="32"/>
  <object id="2807" x="160" y="4640" width="32" height="32"/>
  <object id="2808" x="192" y="4640" width="32" height="32"/>
  <object id="2809" x="224" y="4640" width="32" height="32"/>
  <object id="2810" x="256" y="4640" width="32" height="32"/>
  <object id="2811" x="384" y="4640" width="32" height="32"/>
  <object id="2812" x="416" y="4640" width="32" height="32"/>
  <object id="2813" x="448" y="4640" width="32" height="32"/>
  <object id="2814" x="480" y="4640" width="32" height="32"/>
  <object id="2815" x="512" y="4640" width="32" height="32"/>
  <object id="2816" x="544" y="4640" width="32" height="32"/>
  <object id="2817" x="576" y="4640" width="32" height="32"/>
  <object id="2818" x="608" y="4640" width="32" height="32"/>
  <object id="2819" x="640" y="4640" width="32" height="32"/>
  <object id="2820" x="672" y="4640" width="32" height="32"/>
  <object id="2821" x="704" y="4640" width="32" height="32"/>
  <object id="2822" x="736" y="4640" width="32" height="32"/>
  <object id="2823" x="0" y="4672" width="32" height="32"/>
  <object id="2824" x="32" y="4672" width="32" height="32"/>
  <object id="2825" x="256" y="4672" width="32" height="32"/>
  <object id="2826" x="384" y="4672" width="32" height="32"/>
  <object id="2827" x="704" y="4672" width="32" height="32"/>
  <object id="2828" x="736" y="4672" width="32" height="32"/>
  <object id="2829" x="0" y="4704" width="32" height="32"/>
  <object id="2830" x="32" y="4704" width="32" height="32"/>
  <object id="2831" x="64" y="4704" width="32" height="32"/>
  <object id="2832" x="96" y="4704" width="32" height="32"/>
  <object id="2833" x="704" y="4704" width="32" height="32"/>
  <object id="2834" x="736" y="4704" width="32" height="32"/>
  <object id="2835" x="0" y="4736" width="32" height="32"/>
  <object id="2836" x="32" y="4736" width="32" height="32"/>
  <object id="2837" x="64" y="4736" width="32" height="32"/>
  <object id="2838" x="96" y="4736" width="32" height="32"/>
  <object id="2839" x="704" y="4736" width="32" height="32"/>
  <object id="2840" x="736" y="4736" width="32" height="32"/>
  <object id="2841" x="0" y="4768" width="32" height="32"/>
  <object id="2842" x="32" y="4768" width="32" height="32"/>
  <object id="2843" x="64" y="4768" width="32" height="32"/>
  <object id="2844" x="96" y="4768" width="32" height="32"/>
  <object id="2845" x="704" y="4768" width="32" height="32"/>
  <object id="2846" x="736" y="4768" width="32" height="32"/>
  <object id="2847" x="0" y="4800" width="32" height="32"/>
  <object id="2848" x="32" y="4800" width="32" height="32"/>
  <object id="2849" x="64" y="4800" width="32" height="32"/>
  <object id="2850" x="96" y="4800" width="32" height="32"/>
  <object id="2851" x="704" y="4800" width="32" height="32"/>
  <object id="2852" x="736" y="4800" width="32" height="32"/>
  <object id="2853" x="0" y="4832" width="32" height="32"/>
  <object id="2854" x="32" y="4832" width="32" height="32"/>
  <object id="2855" x="64" y="4832" width="32" height="32"/>
  <object id="2856" x="96" y="4832" width="32" height="32"/>
  <object id="2857" x="128" y="4832" width="32" height="32"/>
  <object id="2858" x="160" y="4832" width="32" height="32"/>
  <object id="2859" x="288" y="4832" width="32" height="32"/>
  <object id="2860" x="320" y="4832" width="32" height="32"/>
  <object id="2861" x="352" y="4832" width="32" height="32"/>
  <object id="2862" x="384" y="4832" width="32" height="32"/>
  <object id="2863" x="416" y="4832" width="32" height="32"/>
  <object id="2864" x="448" y="4832" width="32" height="32"/>
  <object id="2865" x="480" y="4832" width="32" height="32"/>
  <object id="2866" x="512" y="4832" width="32" height="32"/>
  <object id="2867" x="544" y="4832" width="32" height="32"/>
  <object id="2868" x="576" y="4832" width="32" height="32"/>
  <object id="2869" x="608" y="4832" width="32" height="32"/>
  <object id="2870" x="640" y="4832" width="32" height="32"/>
  <object id="2871" x="672" y="4832" width="32" height="32"/>
  <object id="2872" x="704" y="4832" width="32" height="32"/>
  <object id="2873" x="736" y="4832" width="32" height="32"/>
  <object id="2874" x="0" y="4864" width="32" height="32"/>
  <object id="2875" x="32" y="4864" width="32" height="32"/>
  <object id="2876" x="64" y="4864" width="32" height="32"/>
  <object id="2877" x="96" y="4864" width="32" height="32"/>
  <object id="2878" x="128" y="4864" width="32" height="32"/>
  <object id="2879" x="160" y="4864" width="32" height="32"/>
  <object id="2880" x="288" y="4864" width="32" height="32"/>
  <object id="2881" x="320" y="4864" width="32" height="32"/>
  <object id="2882" x="352" y="4864" width="32" height="32"/>
  <object id="2883" x="384" y="4864" width="32" height="32"/>
  <object id="2884" x="416" y="4864" width="32" height="32"/>
  <object id="2885" x="448" y="4864" width="32" height="32"/>
  <object id="2886" x="480" y="4864" width="32" height="32"/>
  <object id="2887" x="512" y="4864" width="32" height="32"/>
  <object id="2888" x="544" y="4864" width="32" height="32"/>
  <object id="2889" x="576" y="4864" width="32" height="32"/>
  <object id="2890" x="608" y="4864" width="32" height="32"/>
  <object id="2891" x="640" y="4864" width="32" height="32"/>
  <object id="2892" x="672" y="4864" width="32" height="32"/>
  <object id="2893" x="704" y="4864" width="32" height="32"/>
  <object id="2894" x="736" y="4864" width="32" height="32"/>
  <object id="2895" x="0" y="4896" width="32" height="32"/>
  <object id="2896" x="32" y="4896" width="32" height="32"/>
  <object id="2897" x="64" y="4896" width="32" height="32"/>
  <object id="2898" x="96" y="4896" width="32" height="32"/>
  <object id="2899" x="128" y="4896" width="32" height="32"/>
  <object id="2900" x="160" y="4896" width="32" height="32"/>
  <object id="2901" x="288" y="4896" width="32" height="32"/>
  <object id="2902" x="320" y="4896" width="32" height="32"/>
  <object id="2903" x="352" y="4896" width="32" height="32"/>
  <object id="2904" x="384" y="4896" width="32" height="32"/>
  <object id="2905" x="416" y="4896" width="32" height="32"/>
  <object id="2906" x="448" y="4896" width="32" height="32"/>
  <object id="2907" x="480" y="4896" width="32" height="32"/>
  <object id="2908" x="512" y="4896" width="32" height="32"/>
  <object id="2909" x="544" y="4896" width="32" height="32"/>
  <object id="2910" x="576" y="4896" width="32" height="32"/>
  <object id="2911" x="608" y="4896" width="32" height="32"/>
  <object id="2912" x="640" y="4896" width="32" height="32"/>
  <object id="2913" x="672" y="4896" width="32" height="32"/>
  <object id="2914" x="704" y="4896" width="32" height="32"/>
  <object id="2915" x="736" y="4896" width="32" height="32"/>
  <object id="2916" x="0" y="4928" width="32" height="32"/>
  <object id="2917" x="32" y="4928" width="32" height="32"/>
  <object id="2918" x="64" y="4928" width="32" height="32"/>
  <object id="2919" x="96" y="4928" width="32" height="32"/>
  <object id="2920" x="128" y="4928" width="32" height="32"/>
  <object id="2921" x="160" y="4928" width="32" height="32"/>
  <object id="2922" x="288" y="4928" width="32" height="32"/>
  <object id="2923" x="320" y="4928" width="32" height="32"/>
  <object id="2924" x="352" y="4928" width="32" height="32"/>
  <object id="2925" x="384" y="4928" width="32" height="32"/>
  <object id="2926" x="416" y="4928" width="32" height="32"/>
  <object id="2927" x="448" y="4928" width="32" height="32"/>
  <object id="2928" x="480" y="4928" width="32" height="32"/>
  <object id="2929" x="512" y="4928" width="32" height="32"/>
  <object id="2930" x="544" y="4928" width="32" height="32"/>
  <object id="2931" x="576" y="4928" width="32" height="32"/>
  <object id="2932" x="608" y="4928" width="32" height="32"/>
  <object id="2933" x="640" y="4928" width="32" height="32"/>
  <object id="2934" x="672" y="4928" width="32" height="32"/>
  <object id="2935" x="704" y="4928" width="32" height="32"/>
  <object id="2936" x="736" y="4928" width="32" height="32"/>
  <object id="2937" x="0" y="4960" width="32" height="32"/>
  <object id="2938" x="32" y="4960" width="32" height="32"/>
  <object id="2939" x="64" y="4960" width="32" height="32"/>
  <object id="2940" x="160" y="4960" width="32" height="32"/>
  <object id="2941" x="288" y="4960" width="32" height="32"/>
  <object id="2942" x="672" y="4960" width="32" height="32"/>
  <object id="2943" x="704" y="4960" width="32" height="32"/>
  <object id="2944" x="736" y="4960" width="32" height="32"/>
  <object id="2945" x="0" y="4992" width="32" height="32"/>
  <object id="2946" x="32" y="4992" width="32" height="32"/>
  <object id="2947" x="704" y="4992" width="32" height="32"/>
  <object id="2948" x="736" y="4992" width="32" height="32"/>
  <object id="2949" x="0" y="5024" width="32" height="32"/>
  <object id="2950" x="32" y="5024" width="32" height="32"/>
  <object id="2951" x="64" y="5024" width="32" height="32"/>
  <object id="2952" x="96" y="5024" width="32" height="32"/>
  <object id="2953" x="640" y="5024" width="32" height="32"/>
  <object id="2954" x="672" y="5024" width="32" height="32"/>
  <object id="2955" x="704" y="5024" width="32" height="32"/>
  <object id="2956" x="736" y="5024" width="32" height="32"/>
  <object id="2957" x="0" y="5056" width="32" height="32"/>
  <object id="2958" x="32" y="5056" width="32" height="32"/>
  <object id="2959" x="64" y="5056" width="32" height="32"/>
  <object id="2960" x="96" y="5056" width="32" height="32"/>
  <object id="2961" x="640" y="5056" width="32" height="32"/>
  <object id="2962" x="672" y="5056" width="32" height="32"/>
  <object id="2963" x="704" y="5056" width="32" height="32"/>
  <object id="2964" x="736" y="5056" width="32" height="32"/>
  <object id="2965" x="0" y="5088" width="32" height="32"/>
  <object id="2966" x="32" y="5088" width="32" height="32"/>
  <object id="2967" x="64" y="5088" width="32" height="32"/>
  <object id="2968" x="96" y="5088" width="32" height="32"/>
  <object id="2969" x="128" y="5088" width="32" height="32"/>
  <object id="2970" x="160" y="5088" width="32" height="32"/>
  <object id="2971" x="640" y="5088" width="32" height="32"/>
  <object id="2972" x="672" y="5088" width="32" height="32"/>
  <object id="2973" x="704" y="5088" width="32" height="32"/>
  <object id="2974" x="736" y="5088" width="32" height="32"/>
  <object id="2975" x="0" y="5120" width="32" height="32"/>
  <object id="2976" x="32" y="5120" width="32" height="32"/>
  <object id="2977" x="64" y="5120" width="32" height="32"/>
  <object id="2978" x="96" y="5120" width="32" height="32"/>
  <object id="2979" x="128" y="5120" width="32" height="32"/>
  <object id="2980" x="160" y="5120" width="32" height="32"/>
  <object id="2981" x="192" y="5120" width="32" height="32"/>
  <object id="2982" x="224" y="5120" width="32" height="32"/>
  <object id="2983" x="256" y="5120" width="32" height="32"/>
  <object id="2984" x="288" y="5120" width="32" height="32"/>
  <object id="2985" x="320" y="5120" width="32" height="32"/>
  <object id="2986" x="352" y="5120" width="32" height="32"/>
  <object id="2987" x="384" y="5120" width="32" height="32"/>
  <object id="2988" x="512" y="5120" width="32" height="32"/>
  <object id="2989" x="544" y="5120" width="32" height="32"/>
  <object id="2990" x="576" y="5120" width="32" height="32"/>
  <object id="2991" x="608" y="5120" width="32" height="32"/>
  <object id="2992" x="640" y="5120" width="32" height="32"/>
  <object id="2993" x="672" y="5120" width="32" height="32"/>
  <object id="2994" x="704" y="5120" width="32" height="32"/>
  <object id="2995" x="736" y="5120" width="32" height="32"/>
  <object id="2996" x="0" y="5152" width="32" height="32"/>
  <object id="2997" x="32" y="5152" width="32" height="32"/>
  <object id="2998" x="64" y="5152" width="32" height="32"/>
  <object id="2999" x="96" y="5152" width="32" height="32"/>
  <object id="3000" x="128" y="5152" width="32" height="32"/>
  <object id="3001" x="160" y="5152" width="32" height="32"/>
  <object id="3002" x="192" y="5152" width="32" height="32"/>
  <object id="3003" x="224" y="5152" width="32" height="32"/>
  <object id="3004" x="256" y="5152" width="32" height="32"/>
  <object id="3005" x="288" y="5152" width="32" height="32"/>
  <object id="3006" x="320" y="5152" width="32" height="32"/>
  <object id="3007" x="352" y="5152" width="32" height="32"/>
  <object id="3008" x="384" y="5152" width="32" height="32"/>
  <object id="3009" x="512" y="5152" width="32" height="32"/>
  <object id="3010" x="544" y="5152" width="32" height="32"/>
  <object id="3011" x="576" y="5152" width="32" height="32"/>
  <object id="3012" x="608" y="5152" width="32" height="32"/>
  <object id="3013" x="640" y="5152" width="32" height="32"/>
  <object id="3014" x="672" y="5152" width="32" height="32"/>
  <object id="3015" x="704" y="5152" width="32" height="32"/>
  <object id="3016" x="736" y="5152" width="32" height="32"/>
  <object id="3017" x="0" y="5184" width="32" height="32"/>
  <object id="3018" x="32" y="5184" width="32" height="32"/>
  <object id="3019" x="64" y="5184" width="32" height="32"/>
  <object id="3020" x="96" y="5184" width="32" height="32"/>
  <object id="3021" x="128" y="5184" width="32" height="32"/>
  <object id="3022" x="160" y="5184" width="32" height="32"/>
  <object id="3023" x="192" y="5184" width="32" height="32"/>
  <object id="3024" x="224" y="5184" width="32" height="32"/>
  <object id="3025" x="256" y="5184" width="32" height="32"/>
  <object id="3026" x="288" y="5184" width="32" height="32"/>
  <object id="3027" x="320" y="5184" width="32" height="32"/>
  <object id="3028" x="352" y="5184" width="32" height="32"/>
  <object id="3029" x="384" y="5184" width="32" height="32"/>
  <object id="3030" x="512" y="5184" width="32" height="32"/>
  <object id="3031" x="544" y="5184" width="32" height="32"/>
  <object id="3032" x="576" y="5184" width="32" height="32"/>
  <object id="3033" x="608" y="5184" width="32" height="32"/>
  <object id="3034" x="640" y="5184" width="32" height="32"/>
  <object id="3035" x="672" y="5184" width="32" height="32"/>
  <object id="3036" x="704" y="5184" width="32" height="32"/>
  <object id="3037" x="736" y="5184" width="32" height="32"/>
  <object id="3038" x="0" y="5216" width="32" height="32"/>
  <object id="3039" x="32" y="5216" width="32" height="32"/>
  <object id="3040" x="64" y="5216" width="32" height="32"/>
  <object id="3041" x="96" y="5216" width="32" height="32"/>
  <object id="3042" x="128" y="5216" width="32" height="32"/>
  <object id="3043" x="160" y="5216" width="32" height="32"/>
  <object id="3044" x="192" y="5216" width="32" height="32"/>
  <object id="3045" x="224" y="5216" width="32" height="32"/>
  <object id="3046" x="256" y="5216" width="32" height="32"/>
  <object id="3047" x="288" y="5216" width="32" height="32"/>
  <object id="3048" x="320" y="5216" width="32" height="32"/>
  <object id="3049" x="352" y="5216" width="32" height="32"/>
  <object id="3050" x="384" y="5216" width="32" height="32"/>
  <object id="3051" x="512" y="5216" width="32" height="32"/>
  <object id="3052" x="544" y="5216" width="32" height="32"/>
  <object id="3053" x="576" y="5216" width="32" height="32"/>
  <object id="3054" x="608" y="5216" width="32" height="32"/>
  <object id="3055" x="640" y="5216" width="32" height="32"/>
  <object id="3056" x="672" y="5216" width="32" height="32"/>
  <object id="3057" x="704" y="5216" width="32" height="32"/>
  <object id="3058" x="736" y="5216" width="32" height="32"/>
  <object id="3059" x="0" y="5248" width="32" height="32"/>
  <object id="3060" x="32" y="5248" width="32" height="32"/>
  <object id="3061" x="64" y="5248" width="32" height="32"/>
  <object id="3062" x="96" y="5248" width="32" height="32"/>
  <object id="3063" x="128" y="5248" width="32" height="32"/>
  <object id="3064" x="160" y="5248" width="32" height="32"/>
  <object id="3065" x="192" y="5248" width="32" height="32"/>
  <object id="3066" x="384" y="5248" width="32" height="32"/>
  <object id="3067" x="512" y="5248" width="32" height="32"/>
  <object id="3068" x="608" y="5248" width="32" height="32"/>
  <object id="3069" x="640" y="5248" width="32" height="32"/>
  <object id="3070" x="672" y="5248" width="32" height="32"/>
  <object id="3071" x="704" y="5248" width="32" height="32"/>
  <object id="3072" x="736" y="5248" width="32" height="32"/>
  <object id="3073" x="0" y="5280" width="32" height="32"/>
  <object id="3074" x="32" y="5280" width="32" height="32"/>
  <object id="3075" x="64" y="5280" width="32" height="32"/>
  <object id="3076" x="96" y="5280" width="32" height="32"/>
  <object id="3077" x="128" y="5280" width="32" height="32"/>
  <object id="3078" x="160" y="5280" width="32" height="32"/>
  <object id="3079" x="192" y="5280" width="32" height="32"/>
  <object id="3080" x="640" y="5280" width="32" height="32"/>
  <object id="3081" x="672" y="5280" width="32" height="32"/>
  <object id="3082" x="704" y="5280" width="32" height="32"/>
  <object id="3083" x="736" y="5280" width="32" height="32"/>
  <object id="3084" x="0" y="5312" width="32" height="32"/>
  <object id="3085" x="32" y="5312" width="32" height="32"/>
  <object id="3086" x="64" y="5312" width="32" height="32"/>
  <object id="3087" x="96" y="5312" width="32" height="32"/>
  <object id="3088" x="128" y="5312" width="32" height="32"/>
  <object id="3089" x="160" y="5312" width="32" height="32"/>
  <object id="3090" x="192" y="5312" width="32" height="32"/>
  <object id="3091" x="640" y="5312" width="32" height="32"/>
  <object id="3092" x="672" y="5312" width="32" height="32"/>
  <object id="3093" x="704" y="5312" width="32" height="32"/>
  <object id="3094" x="736" y="5312" width="32" height="32"/>
  <object id="3095" x="0" y="5344" width="32" height="32"/>
  <object id="3096" x="32" y="5344" width="32" height="32"/>
  <object id="3097" x="64" y="5344" width="32" height="32"/>
  <object id="3098" x="96" y="5344" width="32" height="32"/>
  <object id="3099" x="128" y="5344" width="32" height="32"/>
  <object id="3100" x="160" y="5344" width="32" height="32"/>
  <object id="3101" x="192" y="5344" width="32" height="32"/>
  <object id="3102" x="704" y="5344" width="32" height="32"/>
  <object id="3103" x="736" y="5344" width="32" height="32"/>
  <object id="3104" x="0" y="5376" width="32" height="32"/>
  <object id="3105" x="32" y="5376" width="32" height="32"/>
  <object id="3106" x="64" y="5376" width="32" height="32"/>
  <object id="3107" x="96" y="5376" width="32" height="32"/>
  <object id="3108" x="128" y="5376" width="32" height="32"/>
  <object id="3109" x="160" y="5376" width="32" height="32"/>
  <object id="3110" x="192" y="5376" width="32" height="32"/>
  <object id="3111" x="320" y="5376" width="32" height="32"/>
  <object id="3112" x="352" y="5376" width="32" height="32"/>
  <object id="3113" x="384" y="5376" width="32" height="32"/>
  <object id="3114" x="416" y="5376" width="32" height="32"/>
  <object id="3115" x="448" y="5376" width="32" height="32"/>
  <object id="3116" x="480" y="5376" width="32" height="32"/>
  <object id="3117" x="512" y="5376" width="32" height="32"/>
  <object id="3118" x="544" y="5376" width="32" height="32"/>
  <object id="3119" x="576" y="5376" width="32" height="32"/>
  <object id="3120" x="608" y="5376" width="32" height="32"/>
  <object id="3121" x="640" y="5376" width="32" height="32"/>
  <object id="3122" x="672" y="5376" width="32" height="32"/>
  <object id="3123" x="704" y="5376" width="32" height="32"/>
  <object id="3124" x="736" y="5376" width="32" height="32"/>
  <object id="3125" x="0" y="5408" width="32" height="32"/>
  <object id="3126" x="32" y="5408" width="32" height="32"/>
  <object id="3127" x="64" y="5408" width="32" height="32"/>
  <object id="3128" x="96" y="5408" width="32" height="32"/>
  <object id="3129" x="128" y="5408" width="32" height="32"/>
  <object id="3130" x="160" y="5408" width="32" height="32"/>
  <object id="3131" x="192" y="5408" width="32" height="32"/>
  <object id="3132" x="224" y="5408" width="32" height="32"/>
  <object id="3133" x="288.5" y="5408.75" width="32" height="32"/>
  <object id="3134" x="288" y="5408" width="32" height="32"/>
  <object id="3135" x="320" y="5408" width="32" height="32"/>
  <object id="3136" x="352" y="5408" width="32" height="32"/>
  <object id="3137" x="384" y="5408" width="32" height="32"/>
  <object id="3138" x="416" y="5408" width="32" height="32"/>
  <object id="3139" x="448" y="5408" width="32" height="32"/>
  <object id="3140" x="480" y="5408" width="32" height="32"/>
  <object id="3141" x="512" y="5408" width="32" height="32"/>
  <object id="3142" x="544" y="5408" width="32" height="32"/>
  <object id="3143" x="576" y="5408" width="32" height="32"/>
  <object id="3144" x="608" y="5408" width="32" height="32"/>
  <object id="3145" x="640" y="5408" width="32" height="32"/>
  <object id="3146" x="672" y="5408" width="32" height="32"/>
  <object id="3147" x="704" y="5408" width="32" height="32"/>
  <object id="3148" x="736" y="5408" width="32" height="32"/>
  <object id="3149" x="0" y="5440" width="32" height="32"/>
  <object id="3150" x="32" y="5440" width="32" height="32"/>
  <object id="3151" x="64" y="5440" width="32" height="32"/>
  <object id="3152" x="96" y="5440" width="32" height="32"/>
  <object id="3153" x="128" y="5440" width="32" height="32"/>
  <object id="3154" x="160" y="5440" width="32" height="32"/>
  <object id="3155" x="192" y="5440" width="32" height="32"/>
  <object id="3156" x="224" y="5440" width="32" height="32"/>
  <object id="3157" x="256" y="5440" width="32" height="32"/>
  <object id="3158" x="288" y="5440" width="32" height="32"/>
  <object id="3159" x="320" y="5440" width="32" height="32"/>
  <object id="3160" x="352" y="5440" width="32" height="32"/>
  <object id="3161" x="384" y="5440" width="32" height="32"/>
  <object id="3162" x="416" y="5440" width="32" height="32"/>
  <object id="3163" x="448" y="5440" width="32" height="32"/>
  <object id="3164" x="480" y="5440" width="32" height="32"/>
  <object id="3165" x="512" y="5440" width="32" height="32"/>
  <object id="3166" x="544" y="5440" width="32" height="32"/>
  <object id="3167" x="576" y="5440" width="32" height="32"/>
  <object id="3168" x="608" y="5440" width="32" height="32"/>
  <object id="3169" x="640" y="5440" width="32" height="32"/>
  <object id="3170" x="672" y="5440" width="32" height="32"/>
  <object id="3171" x="704" y="5440" width="32" height="32"/>
  <object id="3172" x="736" y="5440" width="32" height="32"/>
  <object id="3173" x="0" y="5472" width="32" height="32"/>
  <object id="3174" x="32" y="5472" width="32" height="32"/>
  <object id="3175" x="64" y="5472" width="32" height="32"/>
  <object id="3176" x="96" y="5472" width="32" height="32"/>
  <object id="3177" x="128" y="5472" width="32" height="32"/>
  <object id="3178" x="160" y="5472" width="32" height="32"/>
  <object id="3179" x="192" y="5472" width="32" height="32"/>
  <object id="3180" x="224" y="5472" width="32" height="32"/>
  <object id="3181" x="256" y="5472" width="32" height="32"/>
  <object id="3182" x="288" y="5472" width="32" height="32"/>
  <object id="3183" x="320" y="5472" width="32" height="32"/>
  <object id="3184" x="352" y="5472" width="32" height="32"/>
  <object id="3185" x="384" y="5472" width="32" height="32"/>
  <object id="3186" x="416" y="5472" width="32" height="32"/>
  <object id="3187" x="448" y="5472" width="32" height="32"/>
  <object id="3188" x="480" y="5472" width="32" height="32"/>
  <object id="3189" x="512" y="5472" width="32" height="32"/>
  <object id="3190" x="544" y="5472" width="32" height="32"/>
  <object id="3191" x="576" y="5472" width="32" height="32"/>
  <object id="3192" x="608" y="5472" width="32" height="32"/>
  <object id="3193" x="640" y="5472" width="32" height="32"/>
  <object id="3194" x="672" y="5472" width="32" height="32"/>
  <object id="3195" x="704" y="5472" width="32" height="32"/>
  <object id="3196" x="736" y="5472" width="32" height="32"/>
  <object id="3197" x="0" y="5504" width="32" height="32"/>
  <object id="3198" x="32" y="5504" width="32" height="32"/>
  <object id="3199" x="64" y="5504" width="32" height="32"/>
  <object id="3200" x="96" y="5504" width="32" height="32"/>
  <object id="3201" x="128" y="5504" width="32" height="32"/>
  <object id="3202" x="160" y="5504" width="32" height="32"/>
  <object id="3203" x="192" y="5504" width="32" height="32"/>
  <object id="3204" x="224" y="5504" width="32" height="32"/>
  <object id="3205" x="256" y="5504" width="32" height="32"/>
  <object id="3206" x="288" y="5504" width="32" height="32"/>
  <object id="3207" x="320" y="5504" width="32" height="32"/>
  <object id="3208" x="352" y="5504" width="32" height="32"/>
  <object id="3209" x="384" y="5504" width="32" height="32"/>
  <object id="3210" x="416" y="5504" width="32" height="32"/>
  <object id="3211" x="448" y="5504" width="32" height="32"/>
  <object id="3212" x="480" y="5504" width="32" height="32"/>
  <object id="3213" x="512" y="5504" width="32" height="32"/>
  <object id="3214" x="544" y="5504" width="32" height="32"/>
  <object id="3215" x="576" y="5504" width="32" height="32"/>
  <object id="3216" x="608" y="5504" width="32" height="32"/>
  <object id="3217" x="640" y="5504" width="32" height="32"/>
  <object id="3218" x="672" y="5504" width="32" height="32"/>
  <object id="3219" x="704" y="5504" width="32" height="32"/>
  <object id="3220" x="736" y="5504" width="32" height="32"/>
  <object id="3221" x="0" y="5536" width="32" height="32"/>
  <object id="3222" x="32" y="5536" width="32" height="32"/>
  <object id="3223" x="64" y="5536" width="32" height="32"/>
  <object id="3224" x="96" y="5536" width="32" height="32"/>
  <object id="3225" x="128" y="5536" width="32" height="32"/>
  <object id="3226" x="160" y="5536" width="32" height="32"/>
  <object id="3227" x="192" y="5536" width="32" height="32"/>
  <object id="3228" x="224" y="5536" width="32" height="32"/>
  <object id="3229" x="256" y="5536" width="32" height="32"/>
  <object id="3230" x="288" y="5536" width="32" height="32"/>
  <object id="3231" x="320" y="5536" width="32" height="32"/>
  <object id="3232" x="352" y="5536" width="32" height="32"/>
  <object id="3233" x="384" y="5536" width="32" height="32"/>
  <object id="3234" x="416" y="5536" width="32" height="32"/>
  <object id="3235" x="448" y="5536" width="32" height="32"/>
  <object id="3236" x="480" y="5536" width="32" height="32"/>
  <object id="3237" x="512" y="5536" width="32" height="32"/>
  <object id="3238" x="544" y="5536" width="32" height="32"/>
  <object id="3239" x="576" y="5536" width="32" height="32"/>
  <object id="3240" x="608" y="5536" width="32" height="32"/>
  <object id="3241" x="640" y="5536" width="32" height="32"/>
  <object id="3242" x="672" y="5536" width="32" height="32"/>
  <object id="3243" x="704" y="5536" width="32" height="32"/>
  <object id="3244" x="736" y="5536" width="32" height="32"/>
  <object id="3245" x="0" y="5568" width="32" height="32"/>
  <object id="3246" x="32" y="5568" width="32" height="32"/>
  <object id="3247" x="64" y="5568" width="32" height="32"/>
  <object id="3248" x="96" y="5568" width="32" height="32"/>
  <object id="3249" x="128" y="5568" width="32" height="32"/>
  <object id="3250" x="160" y="5568" width="32" height="32"/>
  <object id="3251" x="192" y="5568" width="32" height="32"/>
  <object id="3252" x="224" y="5568" width="32" height="32"/>
  <object id="3253" x="256" y="5568" width="32" height="32"/>
  <object id="3254" x="288" y="5568" width="32" height="32"/>
  <object id="3255" x="320" y="5568" width="32" height="32"/>
  <object id="3256" x="352" y="5568" width="32" height="32"/>
  <object id="3257" x="384" y="5568" width="32" height="32"/>
  <object id="3258" x="416" y="5568" width="32" height="32"/>
  <object id="3259" x="448" y="5568" width="32" height="32"/>
  <object id="3260" x="480" y="5568" width="32" height="32"/>
  <object id="3261" x="512" y="5568" width="32" height="32"/>
  <object id="3262" x="544" y="5568" width="32" height="32"/>
  <object id="3263" x="576" y="5568" width="32" height="32"/>
  <object id="3264" x="608" y="5568" width="32" height="32"/>
  <object id="3265" x="640" y="5568" width="32" height="32"/>
  <object id="3266" x="672" y="5568" width="32" height="32"/>
  <object id="3267" x="704" y="5568" width="32" height="32"/>
  <object id="3268" x="736" y="5568" width="32" height="32"/>
  <object id="2281" x="0.5" y="-1" width="285" height="474"/>
  <object id="2282" x="289.5" y="3.5" width="174.5" height="219"/>
  <object id="2283" x="291" y="225" width="61" height="28.5"/>
  <object id="2284" x="388" y="225.5" width="82.5" height="23.5"/>
  <object id="2285" x="459" y="16" width="307" height="466.5"/>
  <object id="2286" x="428.5" y="327" width="46.5" height="157.5"/>
  <object id="2287" x="286.5" y="330.5" width="18.5" height="153"/>
 </objectgroup>
 <objectgroup id="5" name="eventi">
  <object id="1" name="trainer_montepo3_1" type="trainer" x="496" y="5280">
   <properties>
    <property name="direzione" value="sud"/>
    <property name="id" value="trainer_montepo3_1"/>
    <property name="type" value="trainer"/>
   </properties>
   <point/>
  </object>
  <object id="2" name="trainer_montepo3_2" type="trainer" x="272" y="4992">
   <properties>
    <property name="direzione" value="sud"/>
    <property name="id" value="trainer_montepo3_2"/>
    <property name="type" value="trainer"/>
   </properties>
   <point/>
  </object>
  <object id="3" name="trainer_montepo3_3" type="trainer" x="464" y="4448">
   <properties>
    <property name="direzione" value="sud"/>
    <property name="id" value="trainer_montepo3_3"/>
    <property name="type" value="trainer"/>
   </properties>
   <point/>
  </object>
  <object id="4" name="trainer_montepo3_4" type="trainer" x="528" y="4096">
   <properties>
    <property name="direzione" value="sud"/>
    <property name="id" value="trainer_montepo3_4"/>
    <property name="type" value="trainer"/>
   </properties>
   <point/>
  </object>
  <object id="5" name="trainer_montepo3_5" type="trainer" x="336" y="3520">
   <properties>
    <property name="direzione" value="sud"/>
    <property name="id" value="trainer_montepo3_5"/>
    <property name="type" value="trainer"/>
   </properties>
   <point/>
  </object>
  <object id="6" name="trainer_montepo3_6" type="trainer" x="464" y="2464">
   <properties>
    <property name="direzione" value="sud"/>
    <property name="id" value="trainer_montepo3_6"/>
    <property name="type" value="trainer"/>
   </properties>
   <point/>
  </object>
  <object id="7" name="trainer_montepo3_7" type="trainer" x="208" y="1632">
   <properties>
    <property name="direzione" value="sud"/>
    <property name="id" value="trainer_montepo3_7"/>
    <property name="type" value="trainer"/>
   </properties>
   <point/>
  </object>
  <object id="2288" name="npc_gate_montepo3_pre" x="721" y="3185.08">
   <properties>
    <property name="condizione" value="legaCompletata"/>
    <property name="direzione" value="sud"/>
    <property name="gate" type="bool" value="true"/>
    <property name="id" value="npc_gate_montepo3_pre"/>
    <property name="noTestBypass" type="bool" value="true"/>
    <property name="type" value="npc"/>
   </properties>
   <point/>
  </object>
  <object id="2289" name="warp" type="warp" x="357.287" y="229.928" width="18.6667" height="17.3333">
   <properties>
    <property name="destinazione" value="Via Vittoria"/>
    <property name="spawn_id" value="da_monteporzio"/>
    <property name="type" value="warp"/>
   </properties>
  </object>
  <object id="2290" name="spawn" type="spawn" x="358.047" y="254.738" width="21.3333" height="19">
   <properties>
    <property name="id" value="da Via Vittoria"/>
    <property name="type" value="spawn"/>
   </properties>
  </object>
  <object id="2293" name="warp" type="warp" x="257.5" y="5396.25" width="30" height="32">
   <properties>
    <property name="destinazione" value="monteporzio"/>
    <property name="spawn_id" value="da_percorso_montepo_3"/>
    <property name="type" value="warp"/>
   </properties>
  </object>
  <object id="2294" name="spawn" type="spawn" x="259" y="5352.25" width="24" height="23">
   <properties>
    <property name="id" value="da_monteporzio"/>
    <property name="type" value="spawn"/>
   </properties>
  </object>
  <object id="2295" name="grunt_gate_montepo3" type="trainer" x="706.061" y="3171.39" width="25.7273" height="21.1591">
   <properties>
    <property name="condizione" value="grunt_gate_montepo3_attivo"/>
    <property name="direzione" value="sud"/>
    <property name="id" value="grunt_gate_montepo3"/>
    <property name="speciale" type="bool" value="true"/>
    <property name="type" value="trainer"/>
    <property name="vista" value="7"/>
   </properties>
  </object>
  <object id="2295" name="acqua_percorso_montepo3" x="111.094" y="4102.04" width="552.48" height="150.591">
   <properties>
    <property name="id" value="acqua_percorso_montepo3"/>
    <property name="type" value="acqua surf"/>
   </properties>
  </object>
  <object id="2296" name="acqua_percorso_montepo3" x="105.76" y="3823.37" width="458.48" height="86.591">
   <properties>
    <property name="id" value="acqua_percorso_montepo3"/>
    <property name="type" value="acqua surf"/>
   </properties>
  </object>
  <object id="2297" name="acqua_percorso_montepo3" x="426.093" y="3916.04" width="75.8133" height="183.258">
   <properties>
    <property name="id" value="acqua_percorso_montepo3"/>
    <property name="type" value="acqua surf"/>
   </properties>
  </object>
  <object id="2298" name="acqua_percorso_montepo3" x="456.093" y="3537.7" width="107.813" height="263.925">
   <properties>
    <property name="id" value="acqua_percorso_montepo3"/>
    <property name="type" value="acqua surf"/>
   </properties>
  </object>
  <object id="2299" name="acqua_percorso_montepo3" x="199.427" y="3536.7" width="47.813" height="263.925">
   <properties>
    <property name="id" value="acqua_percorso_montepo3"/>
    <property name="type" value="acqua surf"/>
   </properties>
  </object>
  <object id="2300" name="acqua_percorso_montepo3" x="230.76" y="3360.7" width="88.4797" height="287.925">
   <properties>
    <property name="id" value="acqua_percorso_montepo3"/>
    <property name="type" value="acqua surf"/>
   </properties>
  </object>
  <object id="2301" name="acqua_percorso_montepo3" x="330.427" y="3536.7" width="109.146" height="91.2583">
   <properties>
    <property name="id" value="acqua_percorso_montepo3"/>
    <property name="type" value="acqua surf"/>
   </properties>
  </object>
  <object id="2302" name="acqua_percorso_montepo3" x="106.094" y="3179.04" width="555.813" height="159.925">
   <properties>
    <property name="id" value="acqua_percorso_montepo3"/>
    <property name="type" value="acqua surf"/>
   </properties>
  </object>
  <object id="2303" name="acqua_percorso_montepo3" x="300.76" y="3018.7" width="172.48" height="150.592">
   <properties>
    <property name="id" value="acqua_percorso_montepo3"/>
    <property name="type" value="acqua surf"/>
   </properties>
  </object>
  <object id="2304" name="acqua_percorso_montepo3" x="664.427" y="3207.37" width="161.813" height="81.9253">
   <properties>
    <property name="id" value="acqua_percorso_montepo3"/>
    <property name="type" value="acqua surf"/>
   </properties>
  </object>
 </objectgroup>
</map>
