<?xml version="1.0" encoding="UTF-8"?>
<map version="1.10" tiledversion="1.12.2" orientation="orthogonal" renderorder="right-down" width="60" height="46" tilewidth="32" tileheight="32" infinite="0" backgroundcolor="#000000" nextlayerid="21" nextobjectid="83">
 <tileset firstgid="1" source="../../outside.tsx"/>
 <layer id="1" name="ground" width="60" height="46">
  <data encoding="csv">
0,0,0,0,0,0,0,0,0,0,0,0,0,0,0,0,0,0,0,0,0,0,0,0,0,0,0,0,0,0,0,0,0,0,0,0,0,0,0,0,0,0,0,0,0,0,0,0,0,0,0,0,0,0,0,0,0,0,0,0,
0,0,0,0,0,0,0,0,0,0,0,0,0,0,0,0,0,0,0,0,0,0,0,0,0,0,0,0,0,0,0,0,0,0,0,0,0,0,0,0,0,0,0,0,0,0,0,0,0,0,0,0,0,0,0,0,0,0,0,0,
0,0,0,0,0,0,0,0,0,0,0,0,0,0,0,0,0,0,0,0,0,0,0,0,0,0,0,0,0,0,0,0,0,0,0,0,0,0,0,0,0,0,0,0,0,0,0,0,0,0,0,0,0,0,0,0,0,0,0,0,
0,0,0,0,0,0,0,0,0,0,0,0,0,0,0,0,0,0,0,0,0,0,0,0,0,0,0,0,0,0,0,0,0,0,0,0,0,0,0,0,0,0,0,0,0,0,0,0,0,0,0,0,0,0,0,0,0,0,0,0,
0,0,0,0,0,0,0,0,0,0,0,0,0,0,0,0,0,0,0,0,0,0,0,0,0,0,0,0,0,0,0,0,0,0,0,0,0,0,0,0,0,0,0,0,0,0,0,0,0,0,0,0,0,0,0,0,0,0,0,0,
0,0,0,0,0,0,0,0,0,0,0,0,0,0,0,0,0,0,0,0,0,0,0,0,0,0,0,0,0,0,0,0,0,0,0,0,0,0,0,0,0,0,0,0,0,0,0,0,0,0,0,0,0,0,0,0,0,0,0,0,
0,0,0,0,0,0,0,0,0,0,0,0,0,0,0,0,0,0,0,0,0,0,0,0,0,0,0,0,0,0,0,0,0,0,0,0,0,0,0,0,0,0,0,0,0,0,0,0,0,0,0,0,0,0,0,0,0,0,0,0,
0,0,0,0,0,0,0,0,0,0,0,0,0,0,0,0,0,0,0,0,0,0,0,0,0,0,0,0,0,0,0,0,0,0,0,0,0,0,0,0,0,0,0,0,0,0,0,0,0,0,0,0,0,0,0,0,0,0,0,0,
0,0,0,0,0,0,0,0,0,0,0,0,0,0,0,0,0,0,0,0,0,0,0,0,0,0,0,0,0,0,0,0,0,0,0,0,0,0,0,0,0,0,0,0,0,0,0,0,0,0,0,0,0,0,0,0,0,0,0,0,
0,0,0,0,0,0,0,0,0,0,0,0,0,0,0,0,0,0,0,0,0,0,0,0,0,0,0,0,0,0,0,0,0,0,0,0,0,0,0,0,0,0,0,0,0,0,0,0,0,0,0,0,0,0,0,0,0,0,0,0,
0,0,0,0,0,0,0,0,0,0,0,0,0,0,0,0,0,0,0,0,0,0,0,0,0,0,0,0,0,0,0,0,0,0,0,0,0,0,0,0,0,0,0,0,0,0,0,0,0,0,0,0,0,0,0,0,0,0,0,0,
3,3,3,3,3,3,3,3,3,3,3,3,3,3,3,3,3,3,3,3,3,3,3,3,3,3,3,3,3,3,3,3,3,3,3,3,3,3,3,3,3,3,3,3,3,3,3,3,3,3,3,3,3,3,3,3,3,3,3,3,
3,3,3,3,3,3,3,3,3,3,3,3,3,3,3,3,3,3,3,3,3,3,3,3,3,3,3,3,3,3,3,3,3,3,3,3,3,3,3,3,3,3,3,3,3,3,3,3,3,3,3,3,3,3,3,3,3,3,3,3,
3,3,3,3,3,3,3,3,3,3,3,3,3,3,3,3,3,3,3,3,3,3,3,3,3,3,3,3,3,3,3,3,3,3,3,3,3,3,3,3,3,3,3,3,3,3,3,3,3,3,3,3,3,3,3,3,3,3,3,3,
3,3,3,3,3,3,3,3,3,3,3,3,3,3,3,3,3,3,3,3,3,3,3,3,3,3,3,3,3,3,3,3,3,3,3,3,3,3,3,3,3,3,3,3,3,3,3,3,3,3,3,3,3,3,3,3,3,3,3,3,
3,3,3,3,3,3,3,3,3,3,3,3,3,3,3,3,3,3,3,3,3,3,3,3,3,3,3,3,3,3,3,3,3,3,3,3,3,3,3,3,3,3,3,3,3,3,3,3,3,3,3,3,3,3,3,3,3,3,3,3,
3,3,3,3,3,3,3,3,3,3,3,3,3,3,3,3,3,3,3,3,3,3,3,3,3,3,3,3,3,3,3,3,3,3,3,3,3,3,3,3,3,3,3,3,3,3,3,3,3,3,3,3,3,3,3,3,3,3,3,3,
3,3,3,3,3,3,3,3,3,3,3,3,3,3,3,3,3,3,3,3,3,3,3,3,3,3,3,3,3,3,3,3,3,3,3,3,3,3,3,3,3,3,3,3,3,3,3,3,3,3,3,3,3,3,3,3,3,3,3,3,
3,3,3,3,3,3,3,3,3,3,3,3,3,3,3,3,3,3,3,3,3,3,3,3,3,3,3,3,3,3,3,3,3,3,3,3,3,3,3,3,3,3,3,3,3,3,3,3,3,3,3,3,3,3,3,3,3,3,3,3,
3,3,3,3,3,3,3,3,3,3,3,3,3,3,3,3,3,3,3,3,3,3,3,3,3,3,3,3,3,3,3,3,3,3,3,3,3,3,3,3,3,3,3,3,3,3,3,3,3,3,3,3,3,3,3,3,3,3,3,3,
3,3,3,3,3,3,3,3,3,3,3,3,3,3,3,3,3,3,3,3,3,3,3,3,3,3,3,3,3,3,3,3,3,3,3,3,3,3,3,3,3,3,3,3,3,3,3,3,3,3,3,3,3,3,3,3,3,3,3,3,
3,3,3,3,3,3,3,3,3,3,3,3,3,3,3,3,3,3,3,3,3,3,3,3,3,3,3,3,3,3,3,3,3,3,3,3,3,3,3,3,3,3,3,3,3,3,3,3,3,3,3,3,3,3,3,3,3,3,3,3,
3,3,3,3,3,3,3,3,3,3,3,3,3,3,3,3,3,3,3,3,3,3,3,3,3,3,3,3,3,3,3,3,3,3,3,3,3,3,3,3,3,3,3,3,3,3,3,3,3,3,3,3,3,3,3,3,3,3,3,3,
3,3,3,3,3,3,3,3,3,3,3,3,3,3,3,3,3,3,3,3,3,3,3,3,3,3,3,3,3,3,3,3,3,3,3,3,3,3,3,3,3,3,3,3,3,3,3,3,3,3,3,3,3,3,3,3,3,3,3,3,
3,3,3,3,3,3,3,3,3,3,3,3,3,3,3,3,3,3,3,3,3,3,3,3,3,3,3,3,3,3,3,3,3,3,3,3,3,3,3,3,3,3,3,3,3,3,3,3,3,3,3,3,3,3,3,3,3,3,3,3,
3,3,3,3,3,3,3,3,3,3,3,3,3,3,3,3,3,3,3,3,3,3,3,3,3,3,3,3,3,3,3,3,3,3,3,3,3,3,3,3,3,3,3,3,3,3,3,3,3,3,3,3,3,3,3,3,3,3,3,3,
3,3,3,3,3,3,3,3,3,3,3,3,3,3,3,3,3,3,3,3,3,3,3,3,3,3,3,3,3,3,3,3,3,3,3,3,3,3,3,3,3,3,3,3,3,3,3,3,3,3,3,3,3,3,3,3,3,3,3,3,
3,3,3,3,3,3,3,3,3,3,3,3,3,3,3,3,3,3,3,3,3,3,3,3,3,3,3,3,3,3,3,3,3,3,3,3,3,3,3,3,3,3,3,3,3,3,3,3,3,3,3,3,3,3,3,3,3,3,3,3,
3,3,3,3,3,3,3,3,3,3,3,3,3,3,3,3,3,3,3,3,3,3,3,3,3,3,3,3,3,3,3,3,3,3,3,3,3,3,3,3,3,3,3,3,3,3,3,3,3,3,3,3,3,3,3,3,3,3,3,3,
3,3,3,3,3,3,3,3,3,3,3,3,3,3,3,3,3,3,3,3,3,3,3,3,3,3,3,3,3,3,3,3,3,3,3,3,3,3,3,3,3,3,3,3,3,3,3,3,3,3,3,3,3,3,3,3,3,3,3,3,
3,3,3,3,3,3,3,3,3,3,3,3,3,3,3,3,3,3,3,3,3,3,3,3,3,3,3,3,3,3,3,3,3,3,3,3,3,3,3,3,3,3,3,3,3,3,3,3,3,3,3,3,3,3,3,3,3,3,3,3,
3,3,3,3,3,3,3,3,3,3,3,3,3,3,3,3,3,3,3,3,3,3,3,3,3,3,3,3,3,3,3,3,3,3,3,3,3,3,3,3,3,3,3,3,3,3,3,3,3,3,3,3,3,3,3,3,3,3,3,3,
3,3,3,3,3,3,3,3,3,3,3,3,3,3,3,3,3,3,3,3,3,3,3,3,3,3,3,3,3,3,3,3,3,3,3,3,3,3,3,3,3,3,3,3,3,3,3,3,3,3,3,3,3,3,3,3,3,3,3,3,
3,3,3,3,3,3,3,3,3,3,3,3,3,3,3,3,3,3,3,3,3,3,3,3,3,3,3,3,3,3,3,3,3,3,3,3,3,3,3,3,3,3,3,3,3,3,3,3,3,3,3,3,3,3,3,3,3,3,3,3,
3,3,3,3,3,3,3,3,3,3,3,3,3,3,3,3,3,3,3,3,3,3,3,3,3,3,3,3,3,3,3,3,3,3,3,3,3,3,3,3,3,3,3,3,3,3,3,3,3,3,3,3,3,3,3,3,3,3,3,3,
3,3,3,3,3,3,3,3,3,3,3,3,3,3,3,3,3,3,3,3,3,3,3,3,3,3,3,3,3,3,3,3,3,3,3,3,3,3,3,3,3,3,3,3,3,3,3,3,3,3,3,3,3,3,3,3,3,3,3,3,
3,3,3,3,3,3,3,3,3,3,3,3,3,3,3,3,3,3,3,3,3,3,3,3,3,3,3,3,3,3,3,3,3,3,3,3,3,3,3,3,3,3,3,3,3,3,3,3,3,3,3,3,3,3,3,3,3,3,3,3,
3,3,3,3,3,3,3,3,3,3,3,3,3,3,3,3,3,3,3,3,3,3,3,3,3,3,3,3,3,3,3,3,3,3,3,3,3,3,3,3,3,3,3,3,3,3,3,3,3,3,3,3,3,3,3,3,3,3,3,3,
3,3,3,3,3,3,3,3,3,3,3,3,3,3,3,3,3,3,3,3,3,3,3,3,3,3,3,3,3,3,3,3,3,3,3,3,3,3,3,3,3,3,3,3,3,3,3,3,3,3,3,3,3,3,3,3,3,3,3,3,
0,0,0,0,0,0,0,0,0,0,0,0,0,0,0,0,0,0,0,0,0,0,0,0,0,0,0,0,0,0,0,0,0,0,0,0,0,0,0,0,0,0,0,0,0,0,0,0,0,0,0,0,0,0,0,0,0,0,0,0,
0,0,0,0,0,0,0,0,0,0,0,0,0,0,0,0,0,0,0,0,0,0,0,0,0,0,0,0,0,0,0,0,0,0,0,0,0,0,0,0,0,0,0,0,0,0,0,0,0,0,0,0,0,0,0,0,0,0,0,0,
0,0,0,0,0,0,0,0,0,0,0,0,0,0,0,0,0,0,0,0,0,0,0,0,0,0,0,0,0,0,0,0,0,0,0,0,0,0,0,0,0,0,0,0,0,0,0,0,0,0,0,0,0,0,0,0,0,0,0,0,
0,0,0,0,0,0,0,0,0,0,0,0,0,0,0,0,0,0,0,0,0,0,0,0,0,0,0,0,0,0,0,0,0,0,0,0,0,0,0,0,0,0,0,0,0,0,0,0,0,0,0,0,0,0,0,0,0,0,0,0,
0,0,0,0,0,0,0,0,0,0,0,0,0,0,0,0,0,0,0,0,0,0,0,0,0,0,0,0,0,0,0,0,0,0,0,0,0,0,0,0,0,0,0,0,0,0,0,0,0,0,0,0,0,0,0,0,0,0,0,0,
0,0,0,0,0,0,0,0,0,0,0,0,0,0,0,0,0,0,0,0,0,0,0,0,0,0,0,0,0,0,0,0,0,0,0,0,0,0,0,0,0,0,0,0,0,0,0,0,0,0,0,0,0,0,0,0,0,0,0,0,
0,0,0,0,0,0,0,0,0,0,0,0,0,0,0,0,0,0,0,0,0,0,0,0,0,0,0,0,0,0,0,0,0,0,0,0,0,0,0,0,0,0,0,0,0,0,0,0,0,0,0,0,0,0,0,0,0,0,0,0
</data>
 </layer>
 <layer id="2" name="deco_sotto" width="60" height="46">
  <data encoding="csv">
2,2,2,2,2,2,2,2,2,2,2,2,2,2,2,2,2,2,2,2,2,2,2,2,2,2,2,2,2,2,2,2,2,2,2,2,2,2,2,2,2,2,2,2,2,2,2,2,2,2,2,2,2,2,2,2,2,2,2,2,
2,2,2,2,2,2,2,2,2,2,2,2,2,2,2,2,2,2,2,2,2,2,2,2,2,2,2,2,2,2,2,2,2,2,2,2,2,2,2,2,2,2,2,2,2,2,2,2,2,2,2,2,2,2,2,2,2,2,2,2,
2,2,2,2,2,2,2,2,2,2,2,2,2,2,2,2,2,2,2,2,2,2,2,2,2,2,2,2,2,2,2,2,2,2,2,2,2,2,2,2,2,2,2,2,2,2,2,2,2,2,2,2,2,2,2,2,2,2,2,2,
2,2,2,2,2,2,2,2,2,2,2,2,2,2,2,2,2,2,2,2,2,2,2,2,2,2,2,2,2,2,2,2,2,2,2,2,2,2,2,2,2,2,2,2,2,2,2,2,2,2,2,2,2,2,2,2,2,2,2,2,
2,2,2,2,2,2,2,2,2,2,2,2,2,2,2,2,2,2,2,2,2,2,2,2,2,2,2,2,2,2,2,2,2,2,2,2,2,2,2,2,2,2,2,2,2,2,2,2,2,2,2,2,2,2,2,2,2,2,2,2,
2,2,2,2,2,2,2,2,2,2,2,2,2,2,2,2,2,2,2,2,2,2,2,2,2,2,2,2,2,2,2,2,2,2,2,2,2,2,2,2,2,2,2,2,2,2,2,2,2,2,2,2,2,2,2,2,2,2,2,2,
2,2,2,2,2,2,2,2,2,2,2,2,2,2,2,2,2,2,2,2,2,2,2,2,2,2,2,2,2,2,2,2,2,2,2,2,2,2,2,2,2,2,2,2,2,2,2,2,2,2,2,2,2,2,2,2,2,2,2,2,
2,2,2,2,2,2,2,2,2,2,2,2,2,2,2,2,2,2,2,2,2,2,2,2,2,2,2,2,2,2,2,2,2,2,2,2,2,2,2,2,2,2,2,2,2,2,2,2,2,2,2,2,2,2,2,2,2,2,2,2,
2,2,2,2,2,2,2,2,2,2,2,2,2,2,2,2,2,2,2,2,2,2,2,2,2,2,2,2,2,2,2,2,2,2,2,2,2,2,2,2,2,2,2,2,2,2,2,2,2,2,2,2,2,2,2,2,2,2,2,2,
2,2,2,2,2,2,2,2,2,2,2,2,2,2,2,2,2,2,2,2,2,2,2,2,2,2,2,2,2,2,2,2,2,2,2,2,2,2,2,2,2,2,2,2,2,2,2,2,2,2,2,2,2,2,2,2,2,2,2,2,
2,2,2,2,2,2,2,2,2,2,2,2,2,2,2,2,2,2,2,2,2,2,2,2,2,2,2,2,2,2,2,2,2,2,2,2,2,2,2,2,2,2,2,2,2,2,2,2,2,2,2,2,2,2,2,2,2,2,2,2,
417,418,419,420,417,418,419,420,417,418,419,420,417,418,419,420,417,418,419,420,417,418,419,420,417,418,419,420,417,418,419,420,417,418,419,420,417,418,419,420,417,418,419,420,417,418,419,420,417,418,419,420,417,418,419,420,417,418,419,420,
425,426,427,428,425,426,427,428,425,426,427,428,425,426,427,428,425,426,427,428,425,426,427,428,425,426,427,428,425,426,427,428,425,426,427,428,425,426,427,428,425,426,427,428,425,426,427,428,425,426,427,428,425,426,427,428,425,426,427,428,
433,434,435,436,433,434,435,436,433,434,435,436,433,434,435,436,433,434,435,436,433,434,435,436,433,434,435,436,433,434,435,436,433,434,435,436,433,434,435,436,433,434,435,436,433,434,435,436,433,434,435,436,433,434,435,436,433,434,435,436,
155,155,155,155,155,155,155,155,155,155,155,155,155,155,155,155,155,155,155,155,155,155,155,155,155,155,155,155,155,155,155,155,155,155,155,155,155,155,155,155,155,155,155,155,155,155,155,155,155,155,155,155,155,155,155,155,155,155,155,155,
171,171,171,171,171,171,171,171,171,171,171,171,171,171,171,171,171,171,171,171,171,171,171,171,171,171,171,171,171,171,171,171,171,171,171,171,171,171,171,171,171,171,171,171,171,171,171,171,171,171,171,171,171,171,171,171,171,171,171,171,
7,7,7,7,7,7,7,7,7,7,7,7,7,7,7,7,7,7,7,7,7,7,7,7,7,7,7,7,7,7,7,7,7,7,7,7,7,7,7,7,7,7,7,7,7,7,7,7,7,7,7,7,7,7,7,7,7,7,7,7,
7,7,7,7,7,7,7,7,7,7,7,7,7,7,7,7,7,7,7,7,7,7,7,7,7,7,7,7,7,7,7,7,7,7,7,745,746,746,746,746,746,746,746,746,746,746,746,746,746,746,746,746,746,746,746,746,746,746,746,746,
746,746,746,746,746,746,746,746,746,746,746,746,746,747,7,7,7,7,7,7,7,7,7,7,7,7,7,7,7,7,0,0,0,0,0,753,0,0,0,0,0,0,0,0,0,0,0,0,0,0,0,0,0,0,0,0,0,0,0,0,
0,0,0,0,0,0,0,0,0,0,0,0,0,755,7,7,7,7,7,7,7,7,7,7,7,7,7,7,7,0,0,0,0,0,0,946,0,0,0,0,0,0,0,0,0,0,0,0,0,0,0,0,0,0,0,0,0,0,0,0,
0,0,0,0,0,0,0,0,0,0,0,0,0,755,7,7,7,7,7,7,7,7,7,7,7,7,7,7,7,7,0,0,0,0,0,753,0,0,0,0,0,0,0,0,0,0,0,0,0,0,0,0,0,0,0,0,0,0,0,0,
0,0,0,0,0,0,0,0,0,0,0,0,0,755,0,0,0,0,0,0,0,0,0,0,0,0,0,0,0,0,0,0,0,0,0,753,0,0,0,0,0,0,0,0,0,0,0,0,0,0,0,0,0,0,0,0,0,0,0,0,
0,0,0,0,0,0,0,0,0,0,0,0,0,0,746,746,746,746,746,746,746,746,746,746,746,746,746,746,746,746,746,746,746,746,746,0,0,0,0,0,0,0,0,0,0,0,0,0,0,0,0,0,0,0,0,0,0,0,266,267,
0,0,0,0,0,0,0,0,0,0,0,1049,1050,0,0,0,0,0,0,0,0,0,1049,1050,0,0,0,0,0,0,0,0,0,7,7,7,7,7,7,7,7,7,7,7,7,7,7,7,266,267,267,267,267,267,267,267,267,267,287,275,
0,0,955,0,0,0,0,0,0,0,0,1057,1058,0,0,0,0,0,0,0,0,0,1057,1058,0,0,0,0,0,0,0,0,0,7,7,7,7,7,7,7,7,7,7,7,7,7,7,7,274,275,275,275,275,275,275,275,275,275,275,275,
0,0,0,0,0,0,0,0,0,0,0,1065,1066,0,0,0,0,0,0,0,0,0,1065,1066,0,0,0,0,0,0,0,0,0,7,7,7,7,7,7,7,7,7,7,7,7,7,7,7,274,275,269,283,283,283,283,283,283,283,271,275,
267,267,267,267,267,267,267,267,267,267,267,267,267,267,267,267,267,267,267,267,267,267,267,267,267,267,267,267,267,267,267,267,268,7,7,7,7,7,7,7,7,7,7,7,7,7,7,7,274,275,276,0,0,0,0,955,0,0,282,283,
275,275,275,275,275,275,275,275,275,275,275,275,275,275,275,275,275,275,275,275,275,275,275,275,275,275,275,275,275,275,275,275,276,7,7,7,7,7,7,7,7,7,7,7,7,7,7,7,274,275,276,0,0,0,0,0,0,0,0,0,
283,283,283,283,283,283,283,283,283,283,283,283,283,283,283,283,283,283,283,283,283,283,283,283,283,283,283,283,283,283,271,275,276,7,7,7,7,7,7,7,7,7,7,7,7,7,7,7,274,275,276,0,0,0,0,0,0,0,0,0,
0,0,0,0,1049,1050,0,0,0,0,0,0,0,0,1049,1050,0,0,0,0,0,0,0,0,0,1049,1050,0,0,955,274,275,276,7,7,7,7,7,7,7,7,7,7,7,7,7,7,7,274,275,276,0,0,0,0,0,0,0,0,0,
0,0,0,0,1057,1058,0,0,0,0,0,0,0,0,1057,1058,0,0,0,0,0,0,0,0,0,1057,1058,0,0,0,274,275,276,7,7,7,7,7,7,7,7,7,7,7,7,7,7,7,274,275,276,0,0,0,0,0,0,0,0,0,
0,0,0,0,1065,1066,0,0,0,0,0,0,0,0,1065,1066,0,0,0,0,0,0,0,0,0,1065,1066,0,0,0,274,275,276,7,7,7,7,7,7,7,7,7,7,7,7,7,7,7,274,275,276,0,0,0,0,0,0,0,0,0,
7,7,7,7,7,7,7,7,7,7,7,7,7,7,7,7,7,7,7,7,7,7,7,7,7,7,7,7,7,7,274,275,276,7,7,7,7,7,7,7,7,7,7,7,7,7,7,7,274,275,276,0,0,0,0,0,0,0,0,0,
7,7,7,7,7,7,7,7,7,7,7,7,7,7,7,7,7,7,7,7,7,7,7,7,7,7,7,7,7,7,274,275,285,267,267,267,267,267,267,267,267,267,267,267,267,267,267,267,287,275,276,0,0,0,0,0,0,0,0,0,
7,7,7,7,7,7,7,7,7,7,7,7,7,7,7,7,7,7,7,7,7,7,7,7,7,7,7,7,7,7,274,275,275,275,275,275,275,275,275,275,275,275,275,275,275,275,275,275,275,275,276,0,0,0,0,0,0,0,0,0,
7,7,7,7,7,7,7,7,7,7,7,7,7,7,7,7,7,7,7,7,7,7,7,7,7,7,7,7,7,7,282,283,283,283,283,283,283,283,283,283,283,283,283,283,283,283,283,283,283,283,284,0,0,0,0,949,0,0,0,0,
421,422,421,422,421,422,421,422,421,422,421,422,421,422,421,422,421,422,421,422,421,422,421,422,421,422,421,422,421,422,421,422,421,422,421,422,421,422,421,422,421,422,421,422,421,422,421,422,421,422,421,422,421,422,421,422,421,422,421,422,
429,430,429,430,429,430,429,430,429,430,429,430,429,430,429,430,429,430,429,430,429,430,429,430,429,430,429,430,429,430,429,430,429,430,429,430,429,430,429,430,429,430,429,430,429,430,429,430,429,430,429,430,429,430,429,430,429,430,429,430,
437,438,437,438,437,438,437,438,437,438,437,438,437,438,437,438,437,438,437,438,437,438,437,438,437,438,437,438,437,438,437,438,437,438,437,438,437,438,437,438,437,438,437,438,437,438,437,438,437,438,437,438,437,438,437,438,437,438,437,438,
2,2,2,2,2,2,2,2,2,2,2,2,2,2,2,2,2,2,2,2,2,2,2,2,2,2,2,2,2,2,2,2,2,2,2,2,2,2,2,2,2,2,2,2,2,2,2,2,2,2,2,2,2,2,2,2,2,2,2,2,
2,2,2,2,2,2,2,2,2,2,2,2,2,2,2,2,2,2,2,2,2,2,2,2,2,2,2,2,2,2,2,2,2,2,2,2,2,2,2,2,2,2,2,2,2,2,2,2,2,2,2,2,2,2,2,2,2,2,2,2,
2,2,2,2,2,2,2,2,2,2,2,2,2,2,2,2,2,2,2,2,2,2,2,2,2,2,2,2,2,2,2,2,2,2,2,2,2,2,2,2,2,2,2,2,2,2,2,2,2,2,2,2,2,2,2,2,2,2,2,2,
2,2,2,2,2,2,2,2,2,2,2,2,2,2,2,2,2,2,2,2,2,2,2,2,2,2,2,2,2,2,2,2,2,2,2,2,2,2,2,2,2,2,2,2,2,2,2,2,2,2,2,2,2,2,2,2,2,2,2,2,
2,2,2,2,2,2,2,2,2,2,2,2,2,2,2,2,2,2,2,2,2,2,2,2,2,2,2,2,2,2,2,2,2,2,2,2,2,2,2,2,2,2,2,2,2,2,2,2,2,2,2,2,2,2,2,2,2,2,2,2,
2,2,2,2,2,2,2,2,2,2,2,2,2,2,2,2,2,2,2,2,2,2,2,2,2,2,2,2,2,2,2,2,2,2,2,2,2,2,2,2,2,2,2,2,2,2,2,2,2,2,2,2,2,2,2,2,2,2,2,2,
2,2,2,2,2,2,2,2,2,2,2,2,2,2,2,2,2,2,2,2,2,2,2,2,2,2,2,2,2,2,2,2,2,2,2,2,2,2,2,2,2,2,2,2,2,2,2,2,2,2,2,2,2,2,2,2,2,2,2,2
</data>
 </layer>
 <layer id="3" name="edifici" width="60" height="46">
  <data encoding="csv">
421,422,421,422,421,422,421,422,421,422,421,422,421,422,421,422,421,422,421,422,421,422,421,422,421,422,421,422,421,422,421,422,421,422,421,422,421,422,421,422,421,422,421,422,421,422,421,422,421,422,421,422,421,422,421,422,421,422,421,422,
429,430,429,430,429,430,429,430,429,430,429,430,429,430,429,430,429,430,429,430,429,430,429,430,429,430,429,430,429,430,429,430,429,430,429,430,429,430,429,430,429,430,429,430,429,430,429,430,429,430,429,430,429,430,429,430,429,430,429,430,
437,438,437,438,437,438,437,438,437,438,437,438,437,438,437,438,437,438,437,438,437,438,437,438,437,438,437,438,437,438,437,438,437,438,437,438,437,438,437,438,437,438,437,438,437,438,437,438,437,438,437,438,437,438,437,438,437,438,437,438,
421,422,421,422,421,422,421,422,421,422,421,422,421,422,421,422,421,422,421,422,421,422,421,422,421,422,421,422,421,422,421,422,421,422,421,422,421,422,421,422,421,422,421,422,421,422,421,422,421,422,421,422,421,422,421,422,421,422,421,422,
429,430,429,430,429,430,429,430,429,430,429,430,429,430,429,430,429,430,429,430,429,430,429,430,429,430,429,430,429,430,429,430,429,430,429,430,429,430,429,430,429,430,429,430,429,430,429,430,429,430,429,430,429,430,429,430,429,430,429,430,
437,438,437,438,437,438,437,438,437,438,437,438,437,438,437,438,437,438,437,438,437,438,437,438,437,438,437,438,437,438,437,438,437,438,437,438,437,438,437,438,437,438,437,438,437,438,437,438,437,438,437,438,437,438,437,438,437,438,437,438,
421,422,421,422,421,422,421,422,421,422,421,422,421,422,421,422,421,422,421,422,421,422,421,422,421,422,421,422,421,422,421,422,421,422,421,422,421,422,421,422,421,422,421,422,421,422,421,422,421,422,421,422,421,422,421,422,421,422,421,422,
429,430,429,430,429,430,429,430,429,430,429,430,429,430,429,430,429,430,429,430,429,430,429,430,429,430,429,430,429,430,429,430,429,430,429,430,429,430,429,430,429,430,429,430,429,430,429,430,429,430,429,430,429,430,429,430,429,430,429,430,
437,438,437,438,437,438,437,438,437,438,437,438,437,438,437,438,437,438,437,438,437,438,437,438,437,438,437,438,437,438,437,438,437,438,437,438,437,438,437,438,437,438,437,438,437,438,437,438,437,438,437,438,437,438,437,438,437,438,437,438,
421,422,421,422,421,422,421,422,421,422,421,422,421,422,421,422,421,422,421,422,421,422,421,422,421,422,421,422,421,422,421,422,421,422,421,422,421,422,421,422,421,422,421,422,421,422,421,422,421,422,421,422,421,422,421,422,421,422,421,422,
429,430,429,430,429,430,429,430,429,430,429,430,429,430,429,430,429,430,429,430,429,430,429,430,429,430,429,430,429,430,429,430,429,430,429,430,429,430,429,430,429,430,429,430,429,430,429,430,429,430,429,430,429,430,429,430,429,430,429,430,
0,0,0,0,0,0,0,0,0,0,0,0,0,0,0,0,0,0,0,0,0,0,0,0,0,0,0,0,0,0,0,0,0,0,0,0,0,0,0,0,0,0,0,0,0,0,0,0,0,0,0,0,0,0,0,0,0,0,0,0,
0,0,0,0,0,0,0,0,0,0,0,0,0,0,0,0,0,0,0,0,0,0,0,0,0,0,0,0,0,0,0,0,0,0,0,0,0,0,0,0,0,0,0,0,0,0,0,0,0,0,0,0,0,0,0,0,0,0,0,0,
0,0,0,0,0,0,0,0,0,0,0,0,0,0,0,0,0,0,0,0,0,0,0,0,0,0,0,0,0,0,0,0,0,0,0,0,0,0,0,0,0,0,0,0,0,0,0,0,0,0,0,0,0,0,0,0,0,0,0,0,
824,0,949,0,0,0,0,0,0,0,0,0,0,0,0,0,0,0,0,0,0,0,0,0,0,0,0,0,0,0,0,0,0,0,0,0,0,0,0,0,0,0,0,0,0,0,0,0,0,0,0,0,0,0,0,949,0,0,0,824,
824,0,0,0,0,0,0,0,0,0,0,0,0,0,0,0,0,0,0,0,0,0,0,0,0,0,0,0,0,0,0,0,0,0,0,0,0,0,0,0,0,0,0,0,0,0,0,0,0,0,0,0,944,0,0,0,0,0,0,824,
824,0,0,0,0,0,0,0,0,0,0,0,0,0,0,0,0,0,0,0,0,0,0,0,0,0,0,0,0,0,0,0,0,0,0,0,0,0,0,0,0,0,0,0,0,0,0,0,0,0,0,0,0,0,0,0,0,0,0,824,
824,0,0,0,0,0,0,0,0,0,0,0,0,0,0,0,0,0,0,0,0,0,0,0,0,0,0,0,0,0,0,0,0,0,0,0,0,0,0,0,0,0,0,0,0,0,0,0,0,0,0,0,0,0,0,0,0,0,0,1316,
1317,0,0,0,0,0,0,0,0,0,0,0,0,0,0,0,0,0,0,0,0,0,0,0,0,0,0,0,0,0,0,0,0,0,0,0,0,0,0,0,0,0,0,0,0,0,0,0,0,0,0,0,0,0,0,0,0,0,0,1324,
1325,0,0,0,0,0,0,0,0,0,0,0,0,0,0,0,0,0,0,0,0,0,0,0,0,0,0,0,0,0,0,0,0,0,0,0,0,0,0,0,0,0,0,0,0,0,0,0,0,0,0,0,0,0,0,0,0,0,0,1332,
1333,0,0,0,0,0,0,0,0,0,0,0,0,0,0,0,0,0,0,0,0,0,0,0,0,0,0,0,0,0,0,0,0,0,0,0,0,0,0,0,0,0,0,0,0,0,0,0,0,0,0,0,0,0,0,0,0,0,0,1316,
1317,0,0,0,0,0,0,0,0,0,0,0,0,0,0,0,0,0,0,0,0,0,0,0,0,0,0,0,0,0,0,0,0,0,0,0,0,0,0,0,0,0,0,0,0,0,0,0,0,0,0,0,0,0,0,0,0,0,0,1324,
1325,0,0,0,0,0,0,0,0,0,0,0,0,0,0,0,0,0,0,0,0,0,0,0,0,0,0,0,0,0,0,0,0,0,0,0,0,0,0,0,0,0,0,0,0,0,0,0,0,0,973,974,0,0,0,0,0,0,0,0,
1333,0,0,0,0,0,0,0,0,0,0,0,0,0,0,0,0,0,0,0,0,0,0,0,0,0,0,0,0,0,0,0,0,0,0,0,0,0,0,0,0,0,0,0,0,0,0,0,0,0,0,0,0,0,0,0,0,0,0,0,
1317,0,0,0,0,0,0,0,0,0,0,0,0,0,0,0,0,0,0,0,0,0,0,0,0,0,0,0,0,0,0,0,0,0,0,0,0,0,0,0,0,0,0,0,0,0,0,0,0,0,0,0,0,0,0,0,0,0,0,0,
1325,0,0,0,0,0,0,0,0,0,0,0,0,0,0,0,973,974,0,0,0,0,0,0,0,0,0,0,0,0,0,0,0,0,0,0,0,0,0,0,0,0,0,0,0,0,0,0,0,0,0,0,0,0,0,0,0,0,0,0,
0,0,0,0,0,0,0,0,0,0,0,0,0,0,0,0,0,0,0,0,0,0,0,0,0,0,0,0,0,0,0,0,0,0,0,0,0,0,0,0,0,0,0,0,0,0,0,0,0,0,0,0,0,0,0,0,0,0,0,0,
0,0,0,0,0,0,0,0,0,0,0,0,0,0,0,0,0,0,0,0,0,0,0,0,0,0,0,0,0,0,0,0,0,0,0,0,0,0,0,0,0,0,0,0,0,0,0,0,0,0,0,0,0,0,0,0,0,0,0,1316,
0,0,0,0,0,0,973,974,0,0,0,0,0,0,0,0,0,0,0,0,0,0,0,0,0,0,0,0,0,0,0,0,0,0,0,0,0,0,0,0,0,0,0,0,0,0,0,0,0,0,0,0,0,0,0,0,0,0,0,1324,
1317,0,0,0,0,0,0,0,0,0,0,0,0,0,0,0,0,0,0,0,0,0,0,0,0,0,0,0,0,0,0,0,0,0,0,0,0,0,0,0,0,0,0,0,0,0,0,0,0,0,0,0,0,0,0,0,0,0,0,1332,
1325,0,0,0,0,0,0,0,0,0,0,0,0,0,0,0,0,0,0,0,0,0,0,0,0,0,0,0,0,0,0,0,0,0,0,0,0,0,0,0,0,0,0,0,0,0,0,0,0,0,0,0,0,0,0,0,0,0,0,1316,
1333,0,0,0,0,0,0,0,0,0,0,0,0,0,0,0,0,0,0,0,0,0,0,0,0,0,0,0,0,0,0,0,0,0,0,0,0,0,0,0,0,0,0,0,0,0,0,0,0,0,0,0,0,0,0,0,0,0,0,1324,
1317,0,0,0,0,0,0,0,0,0,0,0,0,0,0,0,0,0,0,0,0,0,0,0,0,0,0,0,0,0,0,0,0,0,0,0,0,0,0,0,0,0,0,0,0,0,0,0,0,0,0,0,0,0,0,0,0,0,0,1332,
1325,0,0,0,0,0,0,0,0,0,0,0,0,0,0,0,0,0,0,0,0,0,0,0,0,0,0,0,0,0,0,0,0,0,0,0,0,0,0,0,0,0,0,0,0,0,0,0,0,0,0,0,0,0,0,0,0,0,0,1316,
1333,0,0,949,0,0,0,0,0,0,0,0,0,0,0,0,0,0,0,0,0,0,0,0,0,0,0,0,0,0,0,0,0,0,0,0,973,974,0,0,0,0,0,0,0,0,0,0,0,0,0,0,0,0,0,0,0,0,0,1324,
1317,0,0,0,0,0,0,0,0,0,0,0,0,0,0,0,0,0,0,0,0,0,0,0,0,0,0,0,0,0,0,0,0,0,0,0,0,0,0,0,0,0,0,973,974,0,0,0,0,0,0,0,0,0,0,0,0,0,0,1332,
0,0,0,0,0,0,0,0,0,0,0,0,0,0,0,0,0,0,0,0,0,0,0,0,0,0,0,0,0,0,0,0,0,0,0,0,0,0,0,0,0,0,0,0,0,0,0,0,0,0,0,0,0,0,0,0,0,0,0,1316,
0,0,0,0,0,0,0,0,0,0,0,0,0,0,0,0,0,0,0,0,0,0,0,0,0,0,0,0,0,0,0,0,0,0,0,0,0,0,0,0,0,0,0,0,0,0,0,0,0,0,0,0,0,0,0,0,0,0,0,0,
0,0,0,0,0,0,0,0,0,0,0,0,0,0,0,0,0,0,0,0,0,0,0,0,0,0,0,0,0,0,0,0,0,0,0,0,0,0,0,0,0,0,0,0,0,0,0,0,0,0,0,0,0,0,0,0,0,0,0,0,
421,422,421,422,421,422,421,422,421,422,421,422,421,422,421,422,421,422,421,422,421,422,421,422,421,422,421,422,421,422,421,422,421,422,421,422,421,422,421,422,421,422,421,422,421,422,421,422,421,422,421,422,421,422,421,422,421,422,421,422,
429,430,429,430,429,430,429,430,429,430,429,430,429,430,429,430,429,430,429,430,429,430,429,430,429,430,429,430,429,430,429,430,429,430,429,430,429,430,429,430,429,430,429,430,429,430,429,430,429,430,429,430,429,430,429,430,429,430,429,430,
437,438,437,438,437,438,437,438,437,438,437,438,437,438,437,438,437,438,437,438,437,438,437,438,437,438,437,438,437,438,437,438,437,438,437,438,437,438,437,438,437,438,437,438,437,438,437,438,437,438,437,438,437,438,437,438,437,438,437,438,
421,422,421,422,421,422,421,422,421,422,421,422,421,422,421,422,421,422,421,422,421,422,421,422,421,422,421,422,421,422,421,422,421,422,421,422,421,422,421,422,421,422,421,422,421,422,421,422,421,422,421,422,421,422,421,422,421,422,421,422,
429,430,429,430,429,430,429,430,429,430,429,430,429,430,429,430,429,430,429,430,429,430,429,430,429,430,429,430,429,430,429,430,429,430,429,430,429,430,429,430,429,430,429,430,429,430,429,430,429,430,429,430,429,430,429,430,429,430,429,430,
437,438,437,438,437,438,437,438,437,438,437,438,437,438,437,438,437,438,437,438,437,438,437,438,437,438,437,438,437,438,437,438,437,438,437,438,437,438,437,438,437,438,437,438,437,438,437,438,437,438,437,438,437,438,437,438,437,438,437,438,
0,0,0,0,0,0,0,0,0,0,0,0,0,0,0,0,0,0,0,0,0,0,0,0,0,0,0,0,0,0,0,0,0,0,0,0,0,0,0,0,0,0,0,0,0,0,0,0,0,0,0,0,0,0,0,0,0,0,0,0
</data>
 </layer>
 <layer id="4" name="sopra_testa" width="60" height="46">
  <data encoding="csv">
0,0,0,0,0,0,0,0,0,0,0,0,0,0,0,0,0,0,0,0,0,0,0,0,0,0,0,0,0,0,0,0,0,0,0,0,0,0,0,0,0,0,0,0,0,0,0,0,0,0,0,0,0,0,0,0,0,0,0,0,
0,0,0,0,0,0,0,0,0,0,0,0,0,0,0,0,0,0,0,0,0,0,0,0,0,0,0,0,0,0,0,0,0,0,0,0,0,0,0,0,0,0,0,0,0,0,0,0,0,0,0,0,0,0,0,0,0,0,0,0,
0,0,0,0,0,0,0,0,0,0,0,0,0,0,0,0,0,0,0,0,0,0,0,0,0,0,0,0,0,0,0,0,0,0,0,0,0,0,0,0,0,0,0,0,0,0,0,0,0,0,0,0,0,0,0,0,0,0,0,0,
0,0,0,0,0,0,0,0,0,0,0,0,0,0,0,0,0,0,0,0,0,0,0,0,0,0,0,0,0,0,0,0,0,0,0,0,0,0,0,0,0,0,0,0,0,0,0,0,0,0,0,0,0,0,0,0,0,0,0,0,
0,0,0,0,0,0,0,0,0,0,0,0,0,0,0,0,0,0,0,0,0,0,0,0,0,0,0,0,0,0,0,0,0,0,0,0,0,0,0,0,0,0,0,0,0,0,0,0,0,0,0,0,0,0,0,0,0,0,0,0,
0,0,0,0,0,0,0,0,0,0,0,0,0,0,0,0,0,0,0,0,0,0,0,0,0,0,0,0,0,0,0,0,0,0,0,0,0,0,0,0,0,0,0,0,0,0,0,0,0,0,0,0,0,0,0,0,0,0,0,0,
0,0,0,0,0,0,0,0,0,0,0,0,0,0,0,0,0,0,0,0,0,0,0,0,0,0,0,0,0,0,0,0,0,0,0,0,0,0,0,0,0,0,0,0,0,0,0,0,0,0,0,0,0,0,0,0,0,0,0,0,
0,0,0,0,0,0,0,0,0,0,0,0,0,0,0,0,0,0,0,0,0,0,0,0,0,0,0,0,0,0,0,0,0,0,0,0,0,0,0,0,0,0,0,0,0,0,0,0,0,0,0,0,0,0,0,0,0,0,0,0,
0,0,0,0,0,0,0,0,0,0,0,0,0,0,0,0,0,0,0,0,0,0,0,0,0,0,0,0,0,0,0,0,0,0,0,0,0,0,0,0,0,0,0,0,0,0,0,0,0,0,0,0,0,0,0,0,0,0,0,0,
0,0,0,0,0,0,0,0,0,0,0,0,0,0,0,0,0,0,0,0,0,0,0,0,0,0,0,0,0,0,0,0,0,0,0,0,0,0,0,0,0,0,0,0,0,0,0,0,0,0,0,0,0,0,0,0,0,0,0,0,
0,0,0,0,0,0,0,0,0,0,0,0,0,0,0,0,0,0,0,0,0,0,0,0,0,0,0,0,0,0,0,0,0,0,0,0,0,0,0,0,0,0,0,0,0,0,0,0,0,0,0,0,0,0,0,0,0,0,0,0,
0,0,0,0,0,0,0,0,0,0,0,0,0,0,0,0,0,0,0,0,0,0,0,0,0,0,0,0,0,0,0,0,0,0,0,0,0,0,0,0,0,0,0,0,0,0,0,0,0,0,0,0,0,0,0,0,0,0,0,0,
0,0,0,0,0,0,0,0,0,0,0,0,0,0,0,0,0,0,0,0,0,0,0,0,0,0,0,0,0,0,0,0,0,0,0,0,0,0,0,0,0,0,0,0,0,0,0,0,0,0,0,0,0,0,0,0,0,0,0,0,
0,0,0,0,0,0,0,0,0,0,0,0,0,0,0,0,0,0,0,0,0,0,0,0,0,0,0,0,0,0,0,0,0,0,0,0,0,0,0,0,0,0,0,0,0,0,0,0,0,0,0,0,0,0,0,0,0,0,0,0,
0,0,0,0,0,0,0,0,0,0,0,0,0,0,0,0,0,0,0,0,0,0,0,0,0,0,0,0,0,0,0,0,0,0,0,0,0,0,0,0,0,0,0,0,0,0,0,0,0,0,0,0,0,0,0,0,0,0,0,0,
0,0,0,0,0,0,0,0,0,0,0,0,0,0,0,0,0,0,0,0,0,0,0,0,0,0,0,0,0,0,0,0,0,0,0,0,0,0,0,0,0,0,0,0,0,0,0,0,0,0,0,0,0,0,0,0,0,0,0,0,
0,0,0,0,0,0,0,0,0,0,0,0,0,0,0,0,0,0,0,0,0,0,0,0,0,0,0,0,0,0,0,0,0,0,0,0,0,0,0,0,0,0,0,0,0,0,0,0,0,0,0,0,0,0,0,0,0,0,0,0,
0,0,0,0,0,0,0,0,0,0,0,0,0,0,0,0,0,0,0,0,0,0,0,0,0,0,0,0,0,0,0,0,0,0,0,0,0,0,0,0,0,0,0,0,0,0,0,0,0,0,0,0,0,0,0,0,0,0,0,0,
0,0,0,0,0,0,0,0,0,0,0,0,0,0,0,0,0,0,0,0,0,0,0,0,0,0,0,0,0,0,0,0,0,0,0,0,0,0,0,0,0,0,0,0,0,0,0,0,0,0,0,0,0,0,0,0,0,0,0,0,
0,0,0,0,0,0,0,0,0,0,0,0,0,0,0,0,0,0,0,0,0,0,0,0,0,0,0,0,0,0,0,0,0,0,0,0,0,0,0,0,0,0,0,0,0,0,0,0,0,0,0,0,0,0,0,0,0,0,0,0,
0,0,0,0,0,0,0,0,0,0,0,0,0,0,0,0,0,0,0,0,0,0,0,0,0,0,0,0,0,0,0,0,0,0,0,0,0,0,0,0,0,0,0,0,0,0,0,0,0,0,0,0,0,0,0,0,0,0,0,0,
0,0,0,0,0,0,0,0,0,0,0,0,0,0,0,0,0,0,0,0,0,0,0,0,0,0,0,0,0,0,0,0,0,0,0,0,0,0,0,0,0,0,0,0,0,0,0,0,0,0,0,0,0,0,0,0,0,0,0,0,
0,0,0,0,0,0,0,0,0,0,0,0,0,0,0,0,0,0,0,0,0,0,0,0,0,0,0,0,0,0,0,0,0,0,0,0,0,0,0,0,0,0,0,0,0,0,0,0,0,0,0,0,0,0,0,0,0,0,0,0,
0,0,0,0,0,0,0,0,0,0,0,0,0,0,0,0,0,0,0,0,0,0,0,0,0,0,0,0,0,0,0,0,0,0,0,0,0,0,0,0,0,0,0,0,0,0,0,0,0,0,0,0,0,0,0,0,0,0,0,0,
0,0,0,0,0,0,0,0,0,0,0,0,0,0,0,0,0,0,0,0,0,0,0,0,0,0,0,0,0,0,0,0,0,0,0,0,0,0,0,0,0,0,0,0,0,0,0,0,0,0,0,0,0,0,0,0,0,0,0,0,
0,0,0,0,0,0,0,0,0,0,0,0,0,0,0,0,0,0,0,0,0,0,0,0,0,0,0,0,0,0,0,0,0,0,0,0,0,0,0,0,0,0,0,0,0,0,0,0,0,0,0,0,0,0,0,0,0,0,0,0,
0,0,0,0,0,0,0,0,0,0,0,0,0,0,0,0,0,0,0,0,0,0,0,0,0,0,0,0,0,0,0,0,0,0,0,0,0,0,0,0,0,0,0,0,0,0,0,0,0,0,0,0,0,0,0,0,0,0,0,0,
0,0,0,0,0,0,0,0,0,0,0,0,0,0,0,0,0,0,0,0,0,0,0,0,0,0,0,0,0,0,0,0,0,0,0,0,0,0,0,0,0,0,0,0,0,0,0,0,0,0,0,0,0,0,0,0,0,0,0,0,
0,0,0,0,0,0,0,0,0,0,0,0,0,0,0,0,0,0,0,0,0,0,0,0,0,0,0,0,0,0,0,0,0,0,0,0,0,0,0,0,0,0,0,0,0,0,0,0,0,0,0,0,0,0,0,0,0,0,0,0,
0,0,0,0,0,0,0,0,0,0,0,0,0,0,0,0,0,0,0,0,0,0,0,0,0,0,0,0,0,0,0,0,0,0,0,0,0,0,0,0,0,0,0,0,0,0,0,0,0,0,0,0,0,0,0,0,0,0,0,0,
0,0,0,0,0,0,0,0,0,0,0,0,0,0,0,0,0,0,0,0,0,0,0,0,0,0,0,0,0,0,0,0,0,0,0,0,0,0,0,0,0,0,0,0,0,0,0,0,0,0,0,0,0,0,0,0,0,0,0,0,
0,0,0,0,0,0,0,0,0,0,0,0,0,0,0,0,0,0,0,0,0,0,0,0,0,0,0,0,0,0,0,0,0,0,0,0,0,0,0,0,0,0,0,0,0,0,0,0,0,0,0,0,0,0,0,0,0,0,0,0,
0,0,0,0,0,0,0,0,0,0,0,0,0,0,0,0,0,0,0,0,0,0,0,0,0,0,0,0,0,0,0,0,0,0,0,0,0,0,0,0,0,0,0,0,0,0,0,0,0,0,0,0,0,0,0,0,0,0,0,0,
0,0,0,0,0,0,0,0,0,0,0,0,0,0,0,0,0,0,0,0,0,0,0,0,0,0,0,0,0,0,0,0,0,0,0,0,0,0,0,0,0,0,0,0,0,0,0,0,0,0,0,0,0,0,0,0,0,0,0,0,
0,0,0,0,0,0,0,0,0,0,0,0,0,0,0,0,0,0,0,0,0,0,0,0,0,0,0,0,0,0,0,0,0,0,0,0,0,0,0,0,0,0,0,0,0,0,0,0,0,0,0,0,0,0,0,0,0,0,0,0,
0,0,0,0,0,0,0,0,0,0,0,0,0,0,0,0,0,0,0,0,0,0,0,0,0,0,0,0,0,0,0,0,0,0,0,0,0,0,0,0,0,0,0,0,0,0,0,0,0,0,0,0,0,0,0,0,0,0,0,0,
0,0,0,0,0,0,0,0,0,0,0,0,0,0,0,0,0,0,0,0,0,0,0,0,0,0,0,0,0,0,0,0,0,0,0,0,0,0,0,0,0,0,0,0,0,0,0,0,0,0,0,0,0,0,0,0,0,0,0,0,
0,0,0,0,0,0,0,0,0,0,0,0,0,0,0,0,0,0,0,0,0,0,0,0,0,0,0,0,0,0,0,0,0,0,0,0,0,0,0,0,0,0,0,0,0,0,0,0,0,0,0,0,0,0,0,0,0,0,0,0,
0,0,0,0,0,0,0,0,0,0,0,0,0,0,0,0,0,0,0,0,0,0,0,0,0,0,0,0,0,0,0,0,0,0,0,0,0,0,0,0,0,0,0,0,0,0,0,0,0,0,0,0,0,0,0,0,0,0,0,0,
0,0,0,0,0,0,0,0,0,0,0,0,0,0,0,0,0,0,0,0,0,0,0,0,0,0,0,0,0,0,0,0,0,0,0,0,0,0,0,0,0,0,0,0,0,0,0,0,0,0,0,0,0,0,0,0,0,0,0,0,
0,0,0,0,0,0,0,0,0,0,0,0,0,0,0,0,0,0,0,0,0,0,0,0,0,0,0,0,0,0,0,0,0,0,0,0,0,0,0,0,0,0,0,0,0,0,0,0,0,0,0,0,0,0,0,0,0,0,0,0,
0,0,0,0,0,0,0,0,0,0,0,0,0,0,0,0,0,0,0,0,0,0,0,0,0,0,0,0,0,0,0,0,0,0,0,0,0,0,0,0,0,0,0,0,0,0,0,0,0,0,0,0,0,0,0,0,0,0,0,0,
0,0,0,0,0,0,0,0,0,0,0,0,0,0,0,0,0,0,0,0,0,0,0,0,0,0,0,0,0,0,0,0,0,0,0,0,0,0,0,0,0,0,0,0,0,0,0,0,0,0,0,0,0,0,0,0,0,0,0,0,
0,0,0,0,0,0,0,0,0,0,0,0,0,0,0,0,0,0,0,0,0,0,0,0,0,0,0,0,0,0,0,0,0,0,0,0,0,0,0,0,0,0,0,0,0,0,0,0,0,0,0,0,0,0,0,0,0,0,0,0,
0,0,0,0,0,0,0,0,0,0,0,0,0,0,0,0,0,0,0,0,0,0,0,0,0,0,0,0,0,0,0,0,0,0,0,0,0,0,0,0,0,0,0,0,0,0,0,0,0,0,0,0,0,0,0,0,0,0,0,0,
0,0,0,0,0,0,0,0,0,0,0,0,0,0,0,0,0,0,0,0,0,0,0,0,0,0,0,0,0,0,0,0,0,0,0,0,0,0,0,0,0,0,0,0,0,0,0,0,0,0,0,0,0,0,0,0,0,0,0,0
</data>
 </layer>
 <objectgroup id="20" name="collisioni">
  <object id="52" x="2" y="441" width="6" height="381"/>
  <object id="53" x="2" y="932" width="6" height="230"/>
  <object id="54" x="-3" y="1179" width="1916" height="63"/>
  <object id="55" x="1910" y="867" height="300"/>
  <object id="57" x="1907" y="375" width="6" height="318"/>
  <object id="58" x="-6" y="360" width="1916" height="72"/>
  <object id="62" x="10" y="578.667" width="430" height="4"/>
  <object id="63" x="440" y="580.667" width="2.66667" height="120"/>
  <object id="64" x="454" y="708.667" width="662.667" height="0.666667"/>
  <object id="65" x="1123.33" y="642" width="5.33333" height="62"/>
  <object id="66" x="1124" y="545.333" width="0.666667" height="59.3333"/>
  <object id="68" x="1129" y="548" width="782" height="1"/>
  <object id="69" x="1606" y="718" width="18" height="8"/>
  <object id="70" x="1381" y="1141" width="18" height="8"/>
  <object id="71" x="1160" y="1103" width="18" height="8"/>
  <object id="72" x="817" y="941" width="26" height="42"/>
  <object id="73" x="721" y="745" width="26" height="45"/>
  <object id="74" x="366" y="750" width="37" height="44"/>
  <object id="75" x="142" y="942" width="27" height="41"/>
  <object id="76" x="199" y="914" width="18" height="8"/>
  <object id="77" x="524" y="816" width="18" height="8"/>
  <object id="78" x="463" y="944" width="25" height="38"/>
  <object id="79" x="1672" y="494" width="18" height="8"/>
  <object id="82" x="1797" y="580" width="123" height="458"/>
 </objectgroup>
 <objectgroup color="#ff0000" id="6" name="eventi">
  <object id="2" name="masso_p3_1" type="trigger_forza" x="1126.76" y="613.485" width="17.9432" height="20.286">
   <properties>
    <property name="blocco_id" value="masso_p3_1"/>
    <property name="type" value="trigger_forza"/>
   </properties>
  </object>
  <object id="4" name="trainer" type="trainer" x="511.417" y="932.922" width="32" height="32">
   <properties>
    <property name="direzione" value="nord"/>
    <property name="id" value="all-gm-extra-1"/>
    <property name="sprite" value="YOUNGSTER"/>
    <property name="type" value="trainer"/>
    <property name="vista" type="int" value="4"/>
   </properties>
  </object>
  <object id="5" name="trainer" type="trainer" x="1665.56" y="450.325" width="26.5335" height="24.9716">
   <properties>
    <property name="direzione" value="ovest"/>
    <property name="id" value="all-gm-extra-2"/>
    <property name="sprite" value="LASS"/>
    <property name="type" value="trainer"/>
    <property name="vista" type="int" value="8"/>
   </properties>
  </object>
  <object id="6" name="p3_forza_superpoz" type="oggetto" x="1760.89" y="451.905" width="28.0953" height="24.9716">
   <properties>
    <property name="contenuto" value="superpozione"/>
    <property name="id" value="p3_forza_superpoz"/>
    <property name="quantita" type="int" value="1"/>
    <property name="type" value="oggetto"/>
   </properties>
  </object>
  <object id="7" name="p3_forza_repel" type="oggetto" x="1696" y="544" width="32" height="32">
   <properties>
    <property name="contenuto" value="repellente"/>
    <property name="id" value="p3_forza_repel"/>
    <property name="quantita" type="int" value="1"/>
    <property name="type" value="oggetto"/>
   </properties>
  </object>
  <object id="8" name="trainer" type="trainer" x="188.858" y="869.521" width="32" height="32">
   <properties>
    <property name="dialogo" value="Vuoi fottermi la bici?"/>
    <property name="direzione" value="est"/>
    <property name="id" value="all-gm-1"/>
    <property name="sprite" value="YOUNGSTER"/>
    <property name="type" value="trainer"/>
    <property name="vista" type="int" value="4"/>
   </properties>
  </object>
  <object id="9" name="trainer" type="trainer" x="1545.99" y="707.087" width="32" height="32">
   <properties>
    <property name="direzione" value="ovest"/>
    <property name="id" value="all-gm-2"/>
    <property name="sprite" value="LASS"/>
    <property name="type" value="trainer"/>
    <property name="vista" type="int" value="5"/>
   </properties>
  </object>
  <object id="10" name="trainer" type="trainer" x="608" y="768" width="32" height="32">
   <properties>
    <property name="direzione" value="sud"/>
    <property name="direzione_ciclo" value="EO"/>
    <property name="id" value="all-gm-3"/>
    <property name="pattuglia" type="bool" value="true"/>
    <property name="sprite" value="BUGCATCHER"/>
    <property name="type" value="trainer"/>
    <property name="vista" type="int" value="4"/>
   </properties>
  </object>
  <object id="11" name="trainer" type="trainer" x="832" y="768" width="32" height="32">
   <properties>
    <property name="direzione" value="sud"/>
    <property name="id" value="all-gm-4"/>
    <property name="sprite" value="YOUNGSTER"/>
    <property name="type" value="trainer"/>
    <property name="vista" type="int" value="5"/>
   </properties>
  </object>
  <object id="12" name="trainer" type="trainer" x="741.12" y="862.493" width="32" height="32">
   <properties>
    <property name="direzione" value="est"/>
    <property name="direzione_ciclo" value="EO"/>
    <property name="id" value="all-gm-5"/>
    <property name="pattuglia" type="bool" value="true"/>
    <property name="sprite" value="BIRDKEEPER"/>
    <property name="type" value="trainer"/>
    <property name="vista" type="int" value="5"/>
   </properties>
  </object>
  <object id="13" name="trainer" type="trainer" x="1504" y="768" width="32" height="32">
   <properties>
    <property name="direzione" value="ovest"/>
    <property name="id" value="all-gm-6"/>
    <property name="sprite" value="LASS"/>
    <property name="type" value="trainer"/>
    <property name="vista" type="int" value="4"/>
   </properties>
  </object>
  <object id="14" name="trainer" type="trainer" x="1664" y="768" width="32" height="32">
   <properties>
    <property name="direzione" value="est"/>
    <property name="id" value="all-gm-7"/>
    <property name="sprite" value="YOUNGSTER"/>
    <property name="type" value="trainer"/>
    <property name="vista" type="int" value="5"/>
   </properties>
  </object>
  <object id="15" name="trainer" type="trainer" x="1718.59" y="658.669" width="32" height="32">
   <properties>
    <property name="direzione" value="ovest"/>
    <property name="direzione_ciclo" value="EO"/>
    <property name="id" value="all-gm-8"/>
    <property name="pattuglia" type="bool" value="true"/>
    <property name="sprite" value="BIRDKEEPER"/>
    <property name="type" value="trainer"/>
    <property name="vista" type="int" value="5"/>
   </properties>
  </object>
  <object id="16" name="npc" type="npc" x="512" y="576" width="32" height="32">
   <properties>
    <property name="direzione" value="sud"/>
    <property name="id" value="p3_npc1"/>
    <property name="sprite" value="NPC_65"/>
    <property name="type" value="npc"/>
   </properties>
  </object>
  <object id="17" name="npc" type="npc" x="1408" y="928" width="32" height="32">
   <properties>
    <property name="direzione" value="nord"/>
    <property name="id" value="p3_npc2"/>
    <property name="movimento" value="random"/>
    <property name="raggio" type="int" value="3"/>
    <property name="sprite" value="NPC_66"/>
    <property name="type" value="npc"/>
   </properties>
  </object>
  <object id="18" name="npc" type="npc" x="1686.63" y="975.582" width="32" height="32">
   <properties>
    <property name="direzione" value="ovest"/>
    <property name="id" value="p3_npc3"/>
    <property name="sprite" value="NPC_67"/>
    <property name="type" value="npc"/>
   </properties>
  </object>
  <object id="19" name="p3_pozione" type="oggetto" x="62.2924" y="450.85" width="32" height="32">
   <properties>
    <property name="contenuto" value="pozione"/>
    <property name="id" value="p3_pozione"/>
    <property name="quantita" type="int" value="1"/>
    <property name="type" value="oggetto"/>
   </properties>
  </object>
  <object id="20" name="p3_etere" type="oggetto" x="97.1792" y="1092.11" width="24.1907" height="25.7525">
   <properties>
    <property name="contenuto" value="etere"/>
    <property name="id" value="p3_etere"/>
    <property name="quantita" type="int" value="1"/>
    <property name="type" value="oggetto"/>
   </properties>
  </object>
  <object id="21" name="p3_pokeball" type="oggetto" x="1760.02" y="1122.38" width="32" height="32">
   <properties>
    <property name="contenuto" value="pokeball"/>
    <property name="id" value="p3_pokeball"/>
    <property name="quantita" type="int" value="2"/>
    <property name="type" value="oggetto"/>
   </properties>
  </object>
  <object id="22" name="cartello" type="cartello" x="64" y="768" width="32" height="32">
   <properties>
    <property name="testo" value="← Grottaferrata"/>
    <property name="type" value="cartello"/>
   </properties>
  </object>
  <object id="23" name="cartello" type="cartello" x="1758.97" y="833.868" width="32" height="32">
   <properties>
    <property name="testo" value="Marino →"/>
    <property name="type" value="cartello"/>
   </properties>
  </object>
  <object id="24" name="cartello" type="cartello" x="930.325" y="925.04" width="32" height="32">
   <properties>
    <property name="testo" value="Si comincia a vedere il lago in lontananza..."/>
    <property name="type" value="cartello"/>
   </properties>
  </object>
  <object id="30" name="warp" type="warp" x="1888" y="719.619" width="32" height="16.3814">
   <properties>
    <property name="destinazione" value="marino"/>
    <property name="spawn_id" value="da_percorso_3"/>
    <property name="type" value="warp"/>
   </properties>
  </object>
  <object id="31" name="warp" type="warp" x="1888" y="736" width="32" height="32">
   <properties>
    <property name="destinazione" value="marino"/>
    <property name="spawn_id" value="da_percorso_3"/>
    <property name="type" value="warp"/>
   </properties>
  </object>
  <object id="32" name="warp" type="warp" x="1888" y="768" width="32" height="32">
   <properties>
    <property name="destinazione" value="marino"/>
    <property name="spawn_id" value="da_percorso_3"/>
    <property name="type" value="warp"/>
   </properties>
  </object>
  <object id="33" name="warp" type="warp" x="1888" y="800" width="32" height="32">
   <properties>
    <property name="destinazione" value="marino"/>
    <property name="spawn_id" value="da_percorso_3"/>
    <property name="type" value="warp"/>
   </properties>
  </object>
  <object id="34" name="warp" type="warp" x="1888" y="832" width="32" height="22.6288">
   <properties>
    <property name="destinazione" value="marino"/>
    <property name="spawn_id" value="da_percorso_3"/>
    <property name="type" value="warp"/>
   </properties>
  </object>
  <object id="36" name="spawn" type="spawn" x="1853.68" y="766.438" width="32" height="32">
   <properties>
    <property name="id" value="da_marino"/>
    <property name="type" value="spawn"/>
   </properties>
  </object>
  <object id="47" name="erba alta percorso 3" x="14.815" y="1027.3" width="941.37" height="121.398">
   <properties>
    <property name="id" value="incontri percorso 3"/>
    <property name="type" value="erba_alta"/>
   </properties>
  </object>
  <object id="48" name="erba alta percorso 3" x="26.315" y="511.301" width="1089.37" height="58.398">
   <properties>
    <property name="id" value="incontri percorso 3"/>
    <property name="type" value="erba_alta"/>
   </properties>
  </object>
  <object id="49" name="erba alta percorso 3" x="450.315" y="576.801" width="505.37" height="94.398">
   <properties>
    <property name="id" value="incontri percorso 3"/>
    <property name="type" value="erba_alta"/>
   </properties>
  </object>
  <object id="50" name="erba alta percorso 3" x="1065.32" y="746.801" width="461.37" height="288.398">
   <properties>
    <property name="id" value="incontri percorso 3"/>
    <property name="type" value="erba_alta"/>
   </properties>
  </object>
  <object id="51" name="erba alta percorso 3" x="1121.32" y="517.801" width="757.37" height="17.398">
   <properties>
    <property name="id" value="incontri percorso 3"/>
    <property name="type" value="erba_alta"/>
   </properties>
  </object>
  <object id="80" name="cartello_verso_marino" type="cartello" x="500" y="800" width="32" height="32">
   <properties>
    <property name="testo" value="Marino, la città del vino →"/>
    <property name="type" value="cartello"/>
   </properties>
  </object>
 </objectgroup>
</map>
