<?xml version="1.0" encoding="UTF-8"?>
<map version="1.10" tiledversion="1.12.2" orientation="orthogonal" renderorder="right-down" width="50" height="80" tilewidth="32" tileheight="32" infinite="0" nextlayerid="7" nextobjectid="59">
 <editorsettings>
  <export target="Percorso_11.tmj" format="json"/>
 </editorsettings>
 <tileset firstgid="1" source="../../outside.tsx"/>
 <tileset firstgid="4017" source="../outside.tsx"/>
 <tileset firstgid="8033" source="../chiesa.tsj"/>
 <tileset firstgid="8165" source="../church.tsj"/>
 <layer id="1" name="ground" width="50" height="80">
  <data encoding="csv">
4,4,4,4,4,4,4,4,4,4,4,4,4,4,4,4,4,4,4,4,4,4,4,4,4,4,4,4,4,4,4,4,4,4,4,4,4,4,4,4,4,4,4,4,4,4,4,4,4,4,
4,4,4,4,4,4,4,4,4,4,4,4,4,4,4,4,4,4,4,4,4,4,4,4,4,4,4,4,4,4,4,4,4,4,4,4,4,4,4,4,4,4,4,4,4,4,4,4,4,4,
4,4,4,4,4,4,4,4,4,4,4,4,4,4,4,4,4,4,4,4,4,4,4,4,4,4,4,4,4,4,4,4,4,4,4,4,4,4,4,4,4,4,4,4,4,4,4,4,4,4,
4,4,4,4,4,4,4,4,4,4,4,4,4,4,4,4,4,4,4,4,4,4,4,4,4,4,4,4,4,4,4,4,4,4,4,4,4,4,4,4,4,4,4,4,4,4,4,4,4,4,
4,4,4,4,4,4,4,4,4,4,4,4,4,4,4,4,4,4,4,4,4,4,4,4,4,4,4,4,4,4,4,4,4,4,4,4,4,4,4,4,4,4,4,4,4,4,4,4,4,4,
4,4,4,4,4,4,4,4,4,4,4,4,4,4,4,4,4,4,4,4,4,4,4,4,4,4,4,4,4,4,4,4,4,4,4,4,4,4,4,4,4,4,4,4,4,4,4,4,4,4,
4,4,4,4,4,4,4,4,4,4,4,4,4,4,4,4,4,4,4,4,4,4,4,4,4,4,4,4,4,4,4,4,4,4,4,4,4,4,4,4,4,4,4,4,4,4,4,4,4,4,
4,4,4,4,4,4,4,4,4,4,4,4,4,4,4,4,4,4,4,4,4,4,4,4,4,4,4,4,4,4,4,4,4,4,4,4,4,4,4,4,4,4,4,4,4,4,4,4,4,4,
4,4,4,4,4,4,4,4,7,7,7,7,7,7,4,4,4,4,4,4,4,4,4,4,4,4,4,4,4,4,4,4,4,4,4,4,4,4,4,4,4,4,4,4,4,4,4,4,4,4,
4,4,4,4,4,4,4,4,7,7,7,7,2,2,4,4,4,4,4,4,4,4,4,4,4,4,4,4,4,4,4,4,4,4,4,4,4,4,4,4,4,4,4,4,4,4,4,4,4,4,
4,4,4,4,4,4,4,4,7,7,7,7,2,2,4,4,4,4,4,4,4,4,4,4,4,4,4,4,4,4,4,4,4,4,4,4,4,4,4,4,4,4,4,4,4,4,4,4,4,4,
4,4,4,4,4,4,4,4,7,7,7,7,2,2,4,4,4,4,4,4,4,4,4,4,4,4,4,4,4,4,4,4,4,4,4,4,4,4,4,4,4,4,4,4,4,4,4,4,4,4,
4,4,4,4,4,4,4,4,7,7,7,7,274,275,276,4,4,4,4023,4023,4023,4023,4,4,4,4,4,4,4,4,4,4,4,4,4,4,4,4,4,4,4,4,4,4,4,4,4,4,4,4,
4,4,4,4,4,4,4,4,7,7,7,7,274,275,276,4,4023,4023,4023,4023,4023,4023,4023,4023,4,4,4,4,4,4,4,4,4,4,4,4,4,4,4,4,4,4,4,4,4,4,4,4,4,4,
4,4,4,4,4,4,4,4,7,7,7,7,274,275,276,4,4023,4,4023,4023,4023,4023,4023,4,4023,4,4,4,4,4,4,4,4,4,4,4,4,4,4,4,4,4,4,4,4,4,4,4,4,4,
4,4,4,4,4,4,4,4,7,7,7,7,274,275,276,4,4023,4023,4023,4,4,4023,4023,4,4023,4,4,4,4,4,4,4,4,4,4,7,7,7,7,7,4,4,4,4,4,4,4,4,4,4,
4,4,4,4,4,4,4,4,7,7,7,7,274,275,276,4,4,4,4023,4023,4023,4023,4023,4023,4,4,4,4,4,4,4,4,4,4,4,7,7,7,7,7,4,4,4,4,4,4,4,4,4,4,
4,4,4,4,4,4,4,4,7,7,7,7,274,275,276,4,4,4,4,4,4,4,4,4,4,4,4,4,4,4,4,4,4,4,4,7,7,7,7,7,4,4,4,4,4,4,4,4,4,4,
4,4,4,4,4,4,4,4,7,7,7,7,274,275,276,4,4,4,4,4,4,4,4,4,4,4,4,4,4,4,4,4,4,4,4,2,2,2,2,2,274,275,276,4,4,4,4,4,4,4,
4,4,4,4,4,4,4,4,7,7,7,7,274,275,276,4,4,4,4,4,4,4,4,4,4,4,4,4,4,4,4,4,4,4,4,2,2,2,2,2,274,275,276,4,4,4,4,4,4,4,
4,4,4,4,4,4,4,4,7,7,7,7,274,275,276,4,4,4,4,4,4,4,4,4,4,4,4,4,4,4,4,4,4,4,4,2,2,2,2,2,274,275,276,4,4,4,4,4,4,4,
4,4,4,4,4,4,4,4,7,7,7,6,6,6,6,4,4,4,4,4,4,4,4,4,4,4,4,4,4,4,2,4,4,4,4,7,7,7,7,7,274,275,276,4,4,4,4,4,4,4,
4,4,4,4,4,4,4,4,7,7,7,6,6,6,6,4,4,4,4,4,4,4,4,4,4,4,4,4,4,4,4,4,4,4,4,7,7,7,7,7,274,275,276,4,4,4,4,4,4,4,
4,4,4,4,4,4,4,4,7,7,7,7,6,6,6,4,4,4,4,4,4,4,4,4,4,4,4,4,4,4,4,4,4,4,4,7,7,7,7,7,274,275,276,4,4,4,4,4,4,4,
4,4,4,4,4,4,4,4,7,7,7,7,6,6,6,6,6,4,4,4,4,4,4,4,4,4,4,4,4,4,4,4,4,4,4,7,7,7,7,7,274,275,276,4,4,4,4,4,4,4,
4,4,4,4,4,4,4,4,7,7,7,7,7,7,4,4,6,4,4,4,4,4,4,4,4,4,4,4,4,4,4,4,4,4,4,7,7,7,7,7,274,275,276,4,4,4,4,4,4,4,
4,4,4,4,4,4,4,4,7,7,7,7,7,7,4,4,4,4,4,4,4,4,4,4,4,4,4,4,4,4,4,4,4,4,4,7,7,7,7,7,274,275,276,4,4,4,4,4,4,4,
4,4,4,4,4,4,4,4,7,7,7,7,7,7,4,4,4,4,4,4,4,4,4,4,4,4,4,4,4,4,4,4,4,4,4,7,7,7,7,7,274,275,276,4,4,4,4,4,4,4,
4,4,4,4,4,4,4,4,7,7,7,7,7,7,4,4,4,4,4,4,4,4,4,4,4,4,4,4,4,4,4,4,4,4,4,7,7,7,7,7,274,275,276,4,4,4,4,4,4,4,
4,4,4,4,4,4,4,4,7,7,7,7,7,7,4,4,4,4,4,4,4,4,4,4,4,4,4,4,4,4,4,4,4,4,4,7,7,7,7,7,274,275,276,4,4,4,4,4,4,4,
4,4,4,4,4,4,4,4,7,7,7,7,7,7,4,4,4,4,4,4,4,4,4,4,4,4,4,4,4,4,4,4,4,4,4,7,7,7,7,7,274,275,276,4,4,4,4,4,4,4,
4,4,4,4,4,4,4,4,7,7,7,7,7,7,4,4,4,4,4,4,4,4,4,4,4,4,4,4,4,4,4,4,4,4,4,7,7,7,7,7,274,275,276,4,4,4,4,4,4,4,
4,4,4,4,4,4,4,4,4,4,4,4,4,4,4,4,4,4,4,4,4,4,4,4,4,4,4,4,4,4,4,4,4,4,4,7,7,7,7,7,274,275,276,4,4,4,4,4,4,4,
4,4,4,4,4,4,4,4,4,4,4,4,4,4,4,4,4,4,4,4,4,4,4,4,4,4,4,4,4,4,4,4,4,4,4,7,7,7,7,7,4,4,4,4,4,4,4,4,4,4,
4,4,4,4,4,4,4,4,4,4,4,4,4,4,4,4,4,4,4,4,4,4,4,4,4,4,4,4,4,4,4,4,4,4,4,7,7,7,7,7,4,4,4,4,4,4,4,4,4,4,
4,4,4,4,4,4,4,4,4,4,4,4,4,4,4,4,4,4,4,4,4,4023,4,4,4023,4023,4023,4023,4,4,274,275,276,2,2,2,2,2,2,2,2,4,4,4,4,4,4,4,4,4,
4,4,4,4,99,4,4,4,4,4,4,4,4,4,4,4,4,4,4,4,4023,4023,4023,4023,4023,4023,4023,4023,4023,4,274,275,276,2,2,2,2,2,2,2,2,4,4,4,4,4,4,4,4,4,
4,4,4,4,4,107,4,4,4,4,4,4,4,4,4,4,4,4,4,4,4023,4023,4023,4023,4023,4,4,4,4,4023,274,275,276,2,2,2,2,2,2,2,2,4,4,4,4,4,4,4,4,4,
4,4,4,4,115,4,4,4,4,4,4,4,4,4,4,4,4,4,4,4,4023,4,4023,4023,4023,4023,4023,4023,4023,4023,274,275,276,4,4,7,7,7,7,7,4,4,4,4,4,4,4,4,4,4,
4,4,4,4,4,4,4,4,4,4,4,4,4,4,4,4,4,4,4,4,4,4,4,4,4,4,4,4,4,4,274,275,276,4,4,7,7,7,7,7,4,4,4,4,4,4,4,4,4,4,
4,4,4,4,4,4,4,4,4,4,4,4,4,4,4,4,4,4,4,4,4,4,4,4,4,4,4,4,4,4,274,275,276,4,4,7,7,7,7,7,4,4,4,4,4,4,4,4,4,4,
4,4,4,4,4,4,4,4,4,4,4,4,4,4,4,4,4,4,4,4,4,4,4,4,4,4,4,4,4,4,274,275,276,4,4,7,7,7,7,7,4,4,4,4,4,4,4,4,4,4,
4,4,4,4,4,4,4,4,4,4,4,4,4,4,4,4,4,4,4,4,4,4,4,4,4,4,4,4,4,4,274,275,276,4,4,7,7,7,7,7,4,4,4,4,4,4,4,4,4,4,
4,4,4,4,4,4,4,4,4,4,4,4,4,4,4,4,4,4,4,4,4,4,4,4,4,4,4,4,4,4,274,275,276,4,4,7,7,7,7,7,4,4,4,4,4,4,4,4,4,4,
4,4,4,4,4,4,4,4,4,4,4,4,4,4,4,4,4,4,4,4,4,4,4,4,4,4,4,4,4,4,274,275,276,4,4,7,7,7,7,7,4,4,4,4,4,4,4,4,4,4,
4,4,4,4,4,4,4,4,4,4,4,4,4,4,4,4,4,4,4,4,4,4,4,4,4,4,4,4,4,4,274,275,276,4,4,7,7,7,7,7,4,4,4,4,4,4,4,4,4,4,
4,4,4,4,4,4,4,4,4,4,4,4,4,4,4,4,4,4,4,4,4,4,4,4,4,4,4,4,4,4,4,4,4,4,4,7,7,7,7,7,4,4,4,4,4,4,4,4,4,4,
4,4,4,4,4,4,4,4,4,4,4,4,4,4,4,4,4,4,4,4,4,4,4,4,4,4,4,4,4,4,4,4,4,4,4,7,7,7,7,7,4,4,4,4,4,4,4,4,4,4,
4,4,4,4,4,4,4,4,4,4,4,4,4,4,4,4,4,4,4,4,4,4,4,4,4,4,4,4,4,4,4,4,4,4,4,7,7,7,7,7,4,4,4,4,4,4,4,4,4,4,
4,4,4,4,4,4,4,4,4,7,4,4,4,4,4,4,4,4,4,4,4,4,4,4,4,4,4,4,4,4,4,4,4,4,4,7,7,7,7,7,4,4,4,4,4,4,4,4,4,4,
4,4,4,4,4,4,4,4,4,7,4,4,4,4,4,4,4,4,4,4,4,4,4,4,4,4,4,4,4,4,4,4,4,4,4,7,7,7,7,7,4,4,4,4,4,4,4,4,4,4,
4,4,4,4,4,4,4,4,4,7,4,4,4,4,4,4,4,4,4,4,4,4,4,4,4,4,4,4,4,4,4,4,4,4,4,7,7,7,7,7,4,4,4,4,4,4,4,4,4,4,
4,4,4,4,4,4,4,4,4,7,4,4,4,4,4,4,4,4,4,4,4,4,4,4,4,4,4,4,4,4,4,4,4,4,4,7,7,7,7,7,4,4,4,4,4,4,4,4,4,4,
4,4,4,4,4,4,4,7,7,7,4,7,4,4,4,4,4,4,4,4,4,4,4,4,4,4,4,4,4,4,4,4,4,4,4,7,7,7,7,7,4,4,4,4,4,4,4,4,4,4,
4,4,4,4,4,4,4,7,7,7,4,7,4,4,4,7,4,4,4,4,4,4,4,4,4,4,4,4,4,4,4,4,4,4,4,7,7,7,7,7,4,4,4,4,4,4,4,4,4,4,
4,4,4,4,4,4,4,7,7,7,4,7,7,4,7,7,4,4,4,4,4,4,4,4,4,4,4,4,4,4,4,4,4,4,4,4,4,4,4,4,4,4,4,4,4,4,4,4,4,4,
4,4,4,4,4,4,4,7,7,7,4,7,7,4,7,7,4,4,4,4,4,4,4,4,4,4,4,4,4,4,4,4,4,4,4,4,4,4,4,4,4,4,4,4,4,4,4,4,4,4,
4,4,4,4,4,4,7,4,7,7,7,7,7,7,7,4,4,4,4,4,4,4,4,4,4,4,4,4,4,4,4,4,4,4,4,4,4,4,4,4,4,4,4,4,4,4,4,4,4,4,
4,4,4,4,4,4,7,7,7,7,7,7,7,7,7,7,4,4,4,4,4,4,4,4,4,4,4,4,4,4,7,7,4,4,7,7,7,7,7,4,4,4,4,4,4,4,4,4,4,4,
4,4,4,4,4,4,7,4,7,7,7,7,7,7,7,7,4,4,4,4,4,4,4,4,4,4,4,4,7,7,7,7,7,7,7,7,7,4,4,7,7,4,4,4,4,4,4,4,4,4,
4,4,4,4,4,4,7,4,7,7,7,7,7,7,7,7,4,4,4,4,4,4,4,4,4,7,7,7,7,7,4,7,7,7,7,7,7,7,4,4,4,7,4,4,4,4,4,4,4,4,
4,4,4,4,4,4,7,7,7,7,7,7,7,7,7,7,4,4,4,4,4,7,7,7,7,7,7,4,4,7,7,7,7,7,7,7,7,7,7,7,4,7,4,4,4,4,4,4,4,4,
4,4,4,4,4,4,7,7,7,7,7,4,7,7,7,7,4,4,4,4,4,4,7,7,7,7,7,7,7,7,7,7,7,4,7,7,7,7,7,7,7,7,4,4,4,4,4,4,4,4,
4,4,4,4,4,4,7,7,7,7,7,7,7,4,7,7,4,4,4,4,4,7,4,4,7,4,7,7,7,7,7,7,7,7,7,7,7,7,7,4,4,4,7,4,4,4,4,4,4,4,
4,4,4,4,4,4,7,7,4,7,7,7,7,4,7,7,4,4,4,4,7,4,4,7,7,7,4,4,7,7,7,7,7,7,7,7,7,7,7,7,4,4,7,4,4,4,4,4,4,4,
4,4,4,4,4,4,7,7,4,7,7,7,7,7,7,7,4,4,4,7,4,4,4,7,7,4,7,7,7,7,7,7,7,7,7,7,7,7,7,7,7,7,7,7,4,4,4,4,4,4,
4,4,4,4,4,4,4,4,7,7,7,7,7,7,7,7,4,4,4,7,7,7,7,7,7,7,7,7,7,7,7,7,7,7,7,7,7,7,7,7,7,7,7,7,4,4,4,4,4,4,
4,4,4,4,4,4,4,4,7,7,7,7,7,7,7,7,4,4,4,4,7,7,7,7,7,7,7,7,7,7,7,7,7,7,7,7,7,7,7,7,7,7,7,7,7,7,4,4,4,4,
4,4,4,4,4,4,4,4,7,7,7,7,7,7,7,7,4,4,7,7,4,4,7,7,7,7,4,7,7,4,7,7,7,7,7,7,7,7,7,7,7,7,7,7,4,4,4,4,4,4,
4,4,4,4,4,4,4,4,7,7,7,7,7,4,7,7,4,4,7,7,7,7,7,4,7,4,7,4,7,7,7,7,7,7,7,7,7,7,7,7,7,4,4,7,4,4,4,4,4,4,
4,4,4,4,4,4,4,4,7,7,7,7,7,4,7,7,4,4,4,4,4,4,7,7,7,7,7,7,7,7,7,7,7,7,7,7,7,7,4,7,7,4,4,7,4,4,4,4,4,4,
4,4,4,4,4,4,4,4,7,7,7,7,7,4,7,7,4,4,4,4,4,4,7,7,7,7,7,7,7,7,7,7,7,7,7,7,7,7,7,7,7,7,7,7,7,4,4,4,4,4,
4,4,4,4,4,4,4,4,7,7,7,7,7,4,7,7,4,4,4,4,4,4,4,7,7,7,7,7,7,7,7,7,7,7,7,7,7,7,7,7,7,7,7,7,7,4,4,4,4,4,
4,4,4,4,4,4,4,4,7,7,4,7,7,4,7,7,4,4,4,4,7,7,7,7,7,7,7,7,7,4,4,7,7,7,7,7,7,7,7,7,7,7,7,7,4,4,4,4,4,4,
4,4,4,4,4,4,4,4,7,7,4,7,4,4,7,7,4,4,4,4,4,4,4,4,7,7,7,7,7,7,7,7,7,7,7,7,7,7,7,7,7,4,4,4,4,4,4,4,4,4,
4,4,4,4,4,4,4,4,7,7,4,7,4,4,7,4,4,4,4,4,2,4,4,4,4,4,7,7,7,7,7,7,7,7,7,7,7,7,7,7,4,4,4,4,4,4,4,4,4,4,
4,4,4,4,4,4,4,4,7,7,4,7,4,4,4,4,4,4,4,4,4,4,4,4,7,7,7,7,7,7,7,7,7,7,7,7,7,7,7,4,4,4,4,4,4,4,4,4,4,4,
4,4,4,4,4,4,4,4,4,7,4,4,4,4,4,4,4,4,4,4,4,4,7,7,4,4,7,7,7,7,7,7,7,7,7,7,7,4,4123,4179,4179,4,4,4,4,4,4123,4,4,4,
4,4,4,4,4,4,4,4,4,7,4,4,4,4,4,4,4,4,4,4,4,7,7,7,7,7,4,4,4,4,4,4,4,7,7,4,4,4179,4123,4123,4123,4123,4123,4123,4123,4123,4123,4,4,4,
4,4,4,4,4,4,4,4,4,4,4,4,4,4,4,4,4,4,4,4,4,4,4,4,4,4,4,4,4,4,4,4,4,4,4,4,4,4123,4123,4123,4123,4123,4,4,4123,4123,4123,4,4,4
</data>
 </layer>
 <layer id="2" name="deco_sotto" width="50" height="80">
  <data encoding="csv">
0,0,0,0,0,0,0,0,0,0,0,0,0,0,0,0,0,0,0,0,0,0,0,0,0,0,0,0,0,0,0,0,0,0,0,0,0,0,0,0,0,0,0,0,0,0,0,0,0,0,
0,0,0,0,0,0,0,0,0,0,0,0,0,0,0,0,0,0,0,0,0,0,0,0,0,0,0,0,0,0,0,0,0,0,0,0,0,0,0,0,0,0,0,0,0,0,0,0,0,0,
0,0,0,0,0,0,0,0,0,0,0,0,0,0,0,0,0,0,0,0,0,0,0,0,0,0,0,0,0,0,0,0,0,0,0,0,0,0,0,0,0,0,0,0,0,0,0,0,0,0,
0,0,0,0,0,0,0,0,0,0,0,0,0,0,0,0,0,0,0,0,0,0,0,0,0,0,0,0,0,0,0,0,0,0,0,0,0,0,0,0,0,0,0,0,0,0,0,0,0,0,
0,0,0,0,0,0,0,0,0,0,0,0,0,0,0,0,0,0,0,0,0,274,275,276,0,0,0,0,0,0,0,0,0,0,0,0,0,0,0,0,0,0,0,0,0,0,0,0,0,0,
0,0,0,0,0,0,0,0,0,0,0,0,0,0,0,0,0,0,0,0,0,0,0,0,0,0,0,0,0,0,0,0,0,0,0,0,0,0,0,0,0,0,0,0,0,0,0,0,0,0,
0,0,0,0,0,0,0,0,0,0,0,0,0,0,0,0,0,0,0,0,0,274,275,276,0,0,0,0,1317,0,0,0,0,0,0,0,1401,1402,1403,1404,1405,0,0,0,0,0,0,0,0,0,
0,0,0,0,0,0,0,0,0,0,0,0,0,0,0,0,0,0,0,0,0,0,0,0,0,0,0,0,1325,0,0,0,0,0,0,0,1409,1410,1411,1412,1413,0,0,0,0,0,0,0,0,0,
0,0,0,0,0,0,0,0,0,0,0,0,0,0,0,0,0,0,0,0,0,0,0,0,0,0,0,0,1325,0,0,0,0,0,0,0,1417,1418,1419,1420,1421,0,0,0,0,0,0,0,0,0,
0,0,0,0,0,0,0,0,0,0,0,0,0,0,0,0,0,0,0,0,0,0,0,0,0,0,0,0,1325,0,0,0,0,0,0,0,1425,1426,1427,1428,1429,0,0,0,0,0,0,0,0,0,
0,0,0,0,0,0,0,0,0,0,0,0,0,0,0,0,0,0,0,0,0,0,0,0,0,0,0,0,1325,0,0,0,0,0,0,0,0,0,0,0,0,0,0,0,0,0,0,0,0,0,
0,0,0,0,0,0,0,0,0,0,0,0,0,0,0,0,0,0,0,0,0,0,0,0,0,0,0,0,1325,0,0,0,0,0,0,0,0,0,0,0,0,0,0,0,0,0,0,0,0,0,
0,0,0,0,0,0,0,0,0,0,0,0,0,0,0,0,0,0,0,0,0,0,0,0,0,0,0,0,1325,0,0,0,0,0,0,0,0,0,0,0,0,0,0,0,0,0,0,0,0,0,
0,0,0,0,0,0,0,0,0,0,0,0,0,0,0,0,0,0,0,0,0,0,0,0,0,0,0,0,1326,1334,1334,0,0,0,1334,1334,1334,1334,1334,1334,1334,1334,1334,1334,0,0,0,0,0,0,
0,0,0,0,0,0,0,0,0,0,0,0,0,0,0,0,0,0,0,0,0,0,0,0,0,0,0,0,0,0,0,0,0,0,0,0,0,0,0,0,0,0,0,0,0,0,0,0,0,0,
0,0,0,0,0,0,0,0,0,0,0,0,0,0,0,0,0,0,0,0,0,0,0,0,0,0,0,0,0,0,0,0,0,0,0,0,0,0,0,0,0,0,0,0,0,0,0,0,0,0,
0,0,0,0,0,0,0,0,0,0,0,0,0,0,0,0,0,0,0,0,0,0,0,0,0,0,0,0,0,0,0,0,0,0,0,0,0,0,0,0,0,0,0,0,0,0,0,0,0,0,
0,0,0,0,0,0,0,0,0,0,0,0,0,0,0,0,0,0,0,0,0,0,0,0,0,0,0,0,0,0,0,0,0,0,0,0,0,0,0,0,0,0,0,0,0,0,0,0,0,0,
0,0,0,0,0,0,0,0,0,0,0,0,0,0,0,0,0,0,0,0,0,0,0,0,0,0,0,0,0,0,0,0,0,0,0,0,0,0,0,0,0,0,0,0,0,0,0,0,0,0,
0,0,0,0,0,0,0,0,0,0,0,0,0,0,0,0,0,0,0,0,0,0,0,0,0,0,0,0,0,0,0,0,0,0,0,0,0,0,0,0,0,0,0,0,0,0,0,0,0,0,
0,0,0,0,0,0,0,0,0,0,0,0,0,0,0,0,0,0,0,0,0,0,0,0,0,0,0,0,0,0,0,0,0,0,0,0,0,0,0,0,0,0,0,0,0,0,0,0,0,0,
0,0,0,0,0,0,0,0,0,0,0,0,0,0,0,0,0,0,0,0,0,0,0,0,0,0,0,0,0,0,0,0,0,0,0,0,0,0,0,0,0,0,0,0,0,0,0,0,0,0,
0,0,0,0,0,0,0,0,0,0,0,0,0,0,0,0,0,0,0,0,0,0,0,0,0,0,0,0,0,0,0,0,0,0,0,0,0,0,0,0,0,0,0,0,0,0,0,0,0,0,
0,0,0,0,0,0,0,0,0,0,0,0,0,0,0,0,0,0,0,0,0,0,0,0,0,0,0,0,0,0,0,0,0,0,0,0,0,0,0,0,0,0,0,0,0,0,0,0,0,0,
0,0,0,0,0,0,0,0,0,0,0,0,0,0,0,0,0,0,0,0,0,0,0,0,0,0,0,0,0,0,0,0,0,0,0,0,0,0,0,0,0,0,0,0,0,0,0,0,0,0,
0,0,0,0,0,0,0,0,0,0,0,0,0,0,0,0,0,0,0,0,0,0,0,0,0,0,0,0,0,0,0,0,0,0,0,0,0,0,0,0,0,0,0,0,0,0,0,0,0,0,
0,0,0,0,0,0,0,0,0,0,0,0,0,0,0,0,0,0,0,0,0,0,0,0,0,0,0,0,0,0,0,0,0,0,0,0,0,0,0,0,0,0,0,0,0,0,0,0,0,0,
0,0,0,0,0,0,0,0,0,0,0,0,0,0,0,0,0,0,0,0,533,0,0,533,0,0,533,0,945,0,945,0,0,0,0,0,0,0,0,0,0,0,0,0,0,0,0,0,0,0,
0,0,0,0,0,0,0,0,0,0,0,0,0,0,0,0,0,0,0,540,541,542,540,541,542,540,541,542,0,945,0,0,0,0,0,0,0,0,0,0,0,0,0,0,0,0,0,0,0,0,
0,0,0,0,0,0,0,0,0,0,0,0,0,0,0,0,0,0,0,548,549,550,548,549,550,548,549,550,0,0,0,0,0,0,0,0,0,0,0,0,0,0,0,0,0,0,0,0,0,0,
0,0,0,0,0,0,0,0,0,0,0,0,0,0,0,0,0,0,0,556,557,558,556,557,558,556,557,558,0,0,0,0,0,0,0,0,0,0,0,0,0,0,0,0,0,0,0,0,0,0,
0,0,0,0,0,0,0,0,0,0,0,0,0,0,0,0,0,0,0,0,533,0,0,533,0,0,533,0,0,0,0,0,0,0,0,0,0,0,0,0,0,0,0,0,0,0,0,0,0,0,
0,0,0,0,0,0,0,0,0,0,0,0,0,0,0,0,0,0,0,540,541,542,540,541,542,540,541,542,0,0,0,0,0,0,0,0,0,0,0,0,0,0,0,0,0,0,0,0,0,0,
0,0,0,0,0,0,0,0,0,0,0,0,0,0,0,0,0,0,0,548,549,550,548,549,550,548,549,550,0,0,0,0,0,0,0,0,0,0,0,0,0,0,0,0,0,0,0,0,0,0,
0,0,0,0,0,0,0,0,0,0,0,0,0,0,0,0,0,0,0,556,557,558,556,557,558,556,557,558,0,0,0,0,0,0,0,0,0,0,0,0,0,0,0,0,0,0,0,0,0,0,
0,0,0,0,0,0,0,0,0,0,0,0,0,0,0,0,0,0,0,0,0,0,0,0,0,0,0,0,0,0,0,0,0,0,0,0,0,0,0,0,0,0,0,0,0,0,0,0,0,0,
0,0,0,0,946,0,0,0,0,0,0,0,0,0,0,0,0,0,0,0,0,0,0,0,0,0,0,0,0,0,0,0,0,0,0,0,0,0,0,0,0,0,0,0,0,0,0,0,0,0,
0,0,0,0,0,0,0,0,0,0,0,0,0,0,0,0,0,0,0,0,0,0,0,0,0,0,0,0,0,0,0,0,0,0,0,0,0,0,0,0,0,0,0,0,0,0,0,0,0,0,
0,0,0,0,0,0,0,0,0,0,0,0,0,0,0,0,0,0,0,0,533,0,0,533,0,0,533,0,0,0,0,0,0,0,0,0,0,0,0,0,0,0,0,0,0,0,0,0,0,0,
0,0,0,0,0,0,0,0,0,0,0,0,0,0,0,0,0,0,0,540,541,542,540,541,542,540,541,542,0,0,0,0,0,0,0,0,0,0,0,0,0,0,0,0,0,0,0,0,0,0,
0,0,0,0,0,0,0,0,0,0,0,0,0,0,0,0,0,0,0,548,549,550,548,549,550,548,549,550,0,0,0,0,0,0,0,0,0,0,0,0,0,0,0,0,0,0,0,0,0,0,
0,0,0,0,0,0,0,0,0,0,0,0,0,0,0,0,0,0,0,556,557,558,556,557,558,556,557,558,0,0,0,0,0,0,0,0,0,0,0,0,0,0,0,0,0,0,0,0,0,0,
0,0,0,0,0,0,0,0,0,0,0,0,0,0,0,0,0,0,0,0,533,0,0,533,0,0,533,0,0,0,0,0,0,0,0,0,0,0,0,0,0,0,0,0,0,0,0,0,0,0,
0,0,0,0,0,0,0,0,533,0,0,0,0,0,0,0,0,0,0,540,541,542,540,541,542,540,541,542,0,0,0,0,0,0,0,0,0,0,0,0,0,0,0,0,0,0,0,0,0,0,
0,0,0,0,0,0,0,540,541,542,0,0,0,0,0,0,0,0,0,548,549,550,548,549,550,548,549,550,0,0,0,0,0,0,0,0,0,0,0,0,0,0,0,0,0,0,0,0,0,0,
0,0,0,0,0,0,0,548,549,550,0,0,0,0,0,0,0,0,0,556,557,558,556,557,558,556,557,558,0,0,0,0,0,0,0,0,0,0,0,0,0,0,0,0,0,0,0,0,0,0,
0,0,0,0,0,0,0,556,557,558,0,0,0,0,0,0,0,0,0,0,0,0,0,0,0,0,0,0,0,0,0,0,0,0,0,0,0,0,0,0,0,0,0,0,0,0,0,0,0,0,
0,0,0,0,0,0,0,0,0,0,0,0,0,0,0,0,0,0,0,0,0,0,0,0,0,0,0,0,0,0,0,0,0,0,0,0,0,0,0,0,0,0,0,0,0,0,0,0,0,0,
0,0,0,0,0,0,0,0,0,0,0,0,0,0,0,0,0,0,0,0,0,0,0,0,0,0,0,0,0,0,0,0,0,0,0,0,0,0,0,0,0,0,0,0,0,0,0,0,0,0,
0,0,0,0,0,0,0,0,0,0,0,0,0,0,0,0,0,0,0,0,0,0,0,0,0,0,0,0,0,0,0,0,0,0,0,0,0,0,0,0,0,0,0,0,0,0,0,0,0,0,
0,0,0,0,0,0,0,0,0,0,0,0,0,0,0,0,0,0,0,0,0,0,0,0,0,0,0,0,0,0,0,0,0,0,0,0,0,0,0,0,0,0,0,0,0,0,0,0,0,0,
0,0,0,0,0,0,0,0,0,0,0,0,797,0,0,0,0,0,0,0,0,0,0,0,0,0,0,0,0,0,0,0,0,0,0,0,0,0,0,0,0,0,0,0,0,0,0,0,0,0,
0,0,0,0,0,0,0,0,0,0,0,0,0,0,0,0,0,0,0,0,0,0,0,0,0,0,0,0,0,0,0,0,0,0,0,0,0,0,0,0,0,0,0,0,0,0,0,0,0,0,
0,0,0,0,0,0,0,0,0,0,0,0,0,0,0,0,0,0,0,0,0,0,0,0,0,0,0,0,0,0,0,0,0,0,0,0,0,0,0,0,0,0,0,0,0,0,0,0,0,0,
0,0,0,0,0,0,0,0,0,0,0,0,0,0,0,0,0,0,0,0,0,0,0,0,0,0,0,0,0,0,0,0,0,0,0,0,0,0,0,0,0,0,0,0,0,0,0,0,0,0,
0,0,0,0,0,0,0,0,0,0,0,0,0,0,0,0,0,0,0,0,0,0,0,0,0,0,0,0,0,0,0,0,0,0,0,0,0,0,0,0,0,0,0,0,0,0,0,0,0,0,
0,0,0,0,0,0,0,0,0,0,0,0,0,0,0,0,0,0,0,0,0,0,0,0,0,0,0,0,0,0,0,0,0,0,0,0,0,0,0,0,0,0,0,0,0,0,0,0,0,0,
0,0,0,0,0,0,0,0,0,0,0,0,0,0,0,0,0,0,0,0,0,0,0,0,0,0,0,0,0,0,0,0,0,0,0,0,0,0,0,0,0,0,0,0,0,0,0,0,0,0,
0,0,0,0,0,0,0,0,0,0,0,0,0,0,0,0,0,0,0,0,0,0,0,0,0,0,0,0,0,0,0,0,0,0,0,0,0,0,0,0,0,0,0,0,0,0,0,0,0,0,
0,0,0,0,0,0,0,0,0,0,0,0,0,0,0,0,0,0,0,0,0,0,0,0,0,0,0,0,0,0,0,0,0,0,0,0,0,0,0,0,0,0,0,0,0,0,0,0,0,0,
0,0,0,0,0,0,0,0,0,0,0,0,0,0,0,0,0,0,0,0,0,0,0,0,0,0,0,0,0,0,0,0,0,0,0,0,0,0,0,0,0,0,0,0,0,0,0,0,0,0,
0,0,0,0,0,0,0,0,0,0,0,0,0,0,0,0,0,0,0,0,0,0,0,0,0,0,0,0,0,0,0,0,0,0,0,0,0,0,0,0,0,0,0,0,0,0,0,0,0,0,
0,0,0,0,0,0,0,0,0,0,0,0,0,0,0,0,0,0,0,0,0,0,0,0,0,0,0,0,0,0,0,0,0,0,0,0,0,0,0,0,0,0,0,0,0,0,0,0,0,0,
0,0,0,0,0,0,0,0,0,0,0,0,0,0,0,0,0,0,0,0,0,0,0,0,0,0,0,0,0,0,0,0,0,0,0,0,0,0,0,0,0,0,0,0,0,0,0,0,0,0,
0,0,0,0,0,0,0,0,0,0,0,0,0,0,0,0,0,0,0,0,0,0,0,0,0,0,0,0,0,0,0,0,0,0,0,0,0,0,0,0,0,0,0,0,0,0,0,0,0,0,
0,0,0,0,0,0,0,0,0,0,0,0,0,0,0,0,0,0,0,0,0,0,0,0,0,0,0,0,0,0,0,0,0,0,0,0,0,0,0,0,0,0,0,0,0,0,0,0,0,0,
0,0,0,0,0,0,0,0,0,0,0,0,0,0,0,0,0,0,0,0,0,0,0,0,0,0,0,0,0,0,0,0,0,0,0,0,0,0,0,0,0,0,0,0,0,0,0,0,0,0,
0,0,0,0,0,0,0,0,0,0,0,0,0,0,0,0,0,0,0,0,0,0,0,0,0,0,0,0,0,0,0,0,0,0,0,0,0,0,0,0,0,0,0,0,0,0,0,0,0,0,
0,0,0,0,0,0,0,0,0,0,0,0,0,0,0,0,0,0,0,0,0,0,0,0,0,0,0,0,0,0,0,0,0,0,0,0,0,0,0,0,0,0,0,0,0,0,0,0,0,0,
0,0,0,0,0,0,0,0,0,0,0,0,0,0,0,0,0,0,0,0,0,0,0,0,0,0,0,0,0,0,0,0,0,0,0,0,0,0,0,0,0,0,0,0,0,0,0,0,0,0,
0,0,0,0,0,0,0,0,0,0,0,0,0,0,0,0,0,0,0,0,0,0,0,0,0,0,0,0,0,0,0,0,0,0,785,786,786,786,786,786,786,786,786,786,786,786,786,786,786,787,
0,0,0,0,0,0,0,0,0,0,0,0,0,0,0,0,0,0,0,0,0,0,0,0,0,0,0,0,0,0,0,0,0,0,793,788,789,789,789,789,789,789,789,789,789,789,790,794,794,798,
0,0,0,0,0,0,0,0,0,0,0,0,0,0,0,0,0,0,0,0,0,0,0,0,0,0,0,0,0,0,0,0,0,0,793,796,107,107,107,107,107,107,107,107,107,107,797,789,790,798,
0,0,0,0,0,0,0,0,0,0,0,0,0,0,0,0,0,0,0,0,0,0,0,0,0,0,0,0,0,0,0,0,0,0,793,796,107,107,107,107,107,107,107,107,107,107,107,107,798,798,
0,0,0,0,0,0,0,0,0,0,0,0,0,0,0,0,0,0,0,0,0,0,0,0,0,0,0,0,0,0,0,0,0,0,793,796,788,789,789,789,789,789,789,789,789,789,789,790,798,798,
0,0,0,0,0,0,0,0,0,0,0,0,0,0,0,0,0,0,0,0,0,0,0,0,0,0,0,0,0,0,0,0,0,0,793,796,796,107,107,107,107,107,107,107,107,107,107,4814,798,798,
0,0,0,0,0,0,0,0,0,0,0,0,0,0,0,0,0,0,0,0,0,0,0,0,0,0,0,0,0,0,0,0,0,0,793,796,796,107,107,107,107,107,107,107,107,107,107,4814,798,798,
0,0,0,0,0,0,0,0,0,0,0,0,0,0,0,0,0,0,0,0,0,0,0,0,0,0,0,0,0,0,0,0,0,0,793,796,796,107,107,107,107,107,107,107,107,107,107,4814,798,798,
0,0,0,0,0,0,0,0,0,0,0,0,0,0,0,0,0,0,0,0,0,0,0,0,0,0,0,0,0,0,0,0,0,0,793,796,796,107,0,0,0,0,0,0,0,0,0,4814,4814,795,
0,0,0,0,0,0,0,0,0,0,0,0,0,0,0,0,0,0,0,0,0,0,0,0,0,0,0,0,0,0,0,0,0,0,793,796,796,4832,0,796,0,0,0,0,0,0,0,4814,4814,0
</data>
 </layer>
 <layer id="3" name="edifici" width="50" height="80">
  <data encoding="csv">
421,422,421,422,421,422,421,422,421,422,421,422,421,422,421,422,421,422,421,422,2906,2907,2908,2909,2910,476,421,422,421,422,421,422,421,422,421,422,421,422,421,422,421,422,421,422,421,422,421,422,421,422,
429,430,429,430,429,430,429,430,429,430,429,430,429,430,429,430,429,430,429,430,2914,2915,2916,2917,2918,476,429,430,429,430,429,430,429,430,429,430,429,430,429,430,429,430,429,430,429,430,429,430,429,430,
437,438,437,438,437,438,437,438,437,438,437,438,437,438,437,438,437,438,437,438,2914,2915,2916,2917,2918,476,437,438,437,438,437,438,437,438,437,438,437,438,437,438,437,438,437,438,437,438,437,438,437,438,
421,422,421,422,421,422,421,422,421,422,421,422,421,422,421,422,421,422,421,422,2922,2923,2924,2925,2926,476,421,422,421,422,421,422,421,422,421,422,421,422,421,422,421,422,421,422,421,422,421,422,421,422,
429,430,429,430,429,430,429,430,429,430,429,430,429,430,429,430,429,430,429,430,2930,2931,2932,2933,2934,476,429,430,429,430,429,430,429,430,429,430,429,430,429,430,429,430,429,430,429,430,429,430,429,430,
437,438,437,438,437,438,437,438,437,438,437,438,437,438,437,438,437,438,437,438,2938,2939,2940,2941,2942,0,437,438,437,438,437,438,437,438,437,438,437,438,437,438,437,438,437,438,437,438,437,438,437,438,
421,422,421,422,421,422,0,0,0,0,0,0,0,0,0,0,0,0,0,0,0,2947,2948,2949,0,0,0,0,0,0,0,0,0,0,0,0,0,0,0,0,0,0,0,0,421,422,421,422,421,422,
429,430,429,430,429,430,0,0,0,0,0,0,0,0,0,0,0,0,0,0,0,274,275,276,0,0,0,0,0,0,0,0,0,0,0,0,0,0,0,0,0,0,0,0,429,430,429,430,429,430,
437,438,437,438,437,438,0,0,0,0,0,0,0,0,0,0,0,0,0,0,0,274,275,276,0,0,0,0,0,0,0,0,0,0,0,0,0,0,0,0,0,0,0,0,437,438,437,438,437,438,
421,422,421,422,421,422,0,0,0,0,0,0,266,267,267,267,267,267,267,267,267,287,275,276,0,0,0,0,0,0,0,0,0,0,0,0,0,0,0,0,0,0,0,0,421,422,421,422,421,422,
429,430,429,430,429,430,0,0,0,0,0,0,274,275,275,275,275,275,275,275,275,275,275,276,0,0,0,0,0,0,0,0,0,0,0,0,0,0,0,0,0,0,0,0,429,430,429,430,429,430,
437,438,437,438,437,438,0,0,0,0,0,0,274,275,269,283,283,283,283,283,283,283,283,284,0,0,0,0,0,0,0,1004,1005,1006,0,0,0,0,0,0,0,0,0,0,437,438,437,438,437,438,
421,422,421,422,421,422,0,0,0,0,0,0,0,0,0,0,0,0,0,0,0,0,0,0,0,0,0,0,0,0,0,1012,1013,1014,0,0,0,0,0,0,0,0,0,0,421,422,421,422,421,422,
429,430,429,430,429,430,0,0,0,0,0,0,0,0,0,0,0,0,0,0,0,0,0,0,0,0,0,0,0,0,0,1020,0,1022,0,0,0,0,0,0,0,0,0,0,429,430,429,430,429,430,
437,438,437,438,437,438,0,0,0,0,0,0,0,0,0,0,0,0,0,0,0,0,0,0,0,0,0,0,0,0,0,0,0,0,0,0,0,0,0,0,0,0,0,0,437,438,437,438,437,438,
421,422,421,422,421,422,0,0,0,0,0,0,0,0,0,0,0,0,0,0,0,0,0,0,0,0,0,0,0,0,0,0,0,0,0,0,0,0,0,0,0,0,0,0,421,422,421,422,421,422,
429,430,429,430,429,430,0,0,0,0,0,0,0,0,0,0,0,0,0,0,0,0,0,0,0,0,0,0,0,0,0,0,0,0,0,0,0,0,0,0,0,0,0,0,429,430,429,430,429,430,
437,438,437,438,437,438,0,0,0,0,0,0,0,0,0,0,0,0,0,0,0,0,0,0,0,0,0,0,0,0,0,0,0,0,0,0,0,0,0,0,0,0,0,0,437,438,437,438,437,438,
421,422,421,422,421,422,0,0,0,0,0,0,0,0,285,267,267,267,267,267,267,267,267,267,267,267,267,267,267,267,267,267,267,267,267,267,267,267,267,267,267,267,268,0,421,422,421,422,421,422,
429,430,429,430,429,430,0,0,0,0,0,0,0,0,275,275,275,275,275,275,275,275,275,275,275,275,275,275,275,275,275,275,275,275,275,275,275,275,275,275,275,0,0,0,429,430,429,430,429,430,
437,438,437,438,437,438,0,0,0,0,0,0,282,283,283,283,283,283,283,283,283,283,283,283,283,283,283,283,283,283,283,283,283,283,283,283,283,283,283,283,271,0,0,0,437,438,437,438,437,438,
421,422,421,422,421,422,0,0,0,0,0,0,0,0,0,0,0,0,0,0,0,0,0,0,0,0,0,0,0,0,0,0,0,0,0,0,0,0,0,0,0,0,0,0,421,422,421,422,421,422,
429,430,429,430,429,430,0,0,0,0,0,0,0,0,0,0,785,786,787,0,0,0,0,0,0,0,0,0,0,0,0,0,0,0,0,0,0,0,0,0,0,0,0,0,429,430,429,430,429,430,
437,438,437,438,437,438,0,0,0,0,0,0,0,0,0,0,793,794,795,0,0,0,0,0,0,0,0,0,0,0,0,0,0,0,0,0,0,0,0,0,0,0,0,0,437,438,437,438,437,438,
421,422,421,422,421,422,0,0,0,0,0,0,0,0,0,0,793,794,797,786,786,786,786,786,786,786,786,786,786,786,786,786,786,786,787,0,0,0,0,0,0,0,0,0,421,422,421,422,421,422,
429,430,429,430,429,430,0,0,0,0,0,0,0,0,0,0,793,794,794,794,794,794,794,794,794,794,794,794,794,794,794,794,794,794,795,0,0,0,0,0,0,0,0,0,429,430,429,430,429,430,
437,438,437,438,437,438,0,0,0,0,0,0,0,0,0,0,793,794,809,802,802,802,802,802,802,802,802,802,802,778,802,802,802,802,803,0,0,0,0,0,0,0,0,0,437,438,437,438,437,438,
421,422,421,422,421,422,0,0,0,0,0,0,0,0,0,0,793,794,795,0,0,0,0,0,0,0,0,0,0,0,0,0,0,0,0,0,0,0,0,0,0,0,0,0,421,422,421,422,421,422,
429,430,429,430,429,430,0,0,0,0,0,0,0,0,0,0,793,794,795,0,0,0,0,0,0,0,0,0,0,0,0,0,0,0,0,0,0,0,0,0,0,0,0,0,429,430,429,430,429,430,
437,438,437,438,437,438,0,0,0,0,0,0,0,0,0,0,793,794,795,0,0,0,0,0,0,0,0,0,0,0,0,0,0,0,0,0,0,0,0,0,0,0,0,0,437,438,437,438,437,438,
421,422,421,422,421,422,421,422,421,422,421,422,421,422,421,422,793,794,795,0,0,0,0,0,0,0,0,0,0,0,0,0,0,0,0,0,0,0,0,0,0,0,0,0,421,422,421,422,421,422,
429,430,429,430,429,430,429,430,429,430,429,430,429,430,429,430,793,794,795,0,0,0,0,0,0,0,0,0,0,0,0,0,0,0,0,0,0,0,0,0,0,0,0,0,429,430,429,430,429,430,
437,438,437,438,437,438,437,438,437,438,437,438,437,438,437,438,793,794,795,0,0,0,0,0,0,0,0,0,0,0,0,0,0,0,0,0,0,0,0,0,0,0,0,0,437,438,437,438,437,438,
421,422,421,422,421,422,785,786,786,786,786,786,786,786,786,786,794,794,795,0,0,0,0,0,0,0,0,0,0,0,0,0,0,0,0,0,0,0,0,0,274,275,276,0,421,422,421,422,421,422,
429,430,429,430,429,430,793,794,794,794,794,794,794,794,794,794,794,794,795,0,0,0,0,0,0,0,0,0,0,0,0,0,0,0,0,0,0,0,0,0,274,275,276,0,429,430,429,430,429,430,
437,438,437,438,437,438,801,802,778,802,802,802,802,802,802,802,810,794,795,0,0,0,0,0,0,0,0,0,0,0,266,267,267,267,267,267,267,267,267,267,287,275,276,0,437,438,437,438,437,438,
99,99,99,99,946,99,99,99,99,99,99,99,99,99,99,99,793,794,795,0,0,0,0,0,0,0,0,0,0,0,0,275,275,275,275,275,275,275,275,275,275,275,276,0,421,422,421,422,421,422,
107,107,107,107,107,946,107,107,107,107,107,107,107,107,107,107,793,794,795,0,0,0,0,0,0,0,0,0,0,0,0,275,269,283,283,283,283,283,283,283,283,283,284,0,429,430,429,430,429,430,
115,115,115,115,946,115,115,115,115,115,115,115,115,115,115,115,793,794,795,0,0,0,0,0,0,0,0,0,0,0,0,0,0,0,0,0,0,0,0,0,0,0,0,0,437,438,437,438,437,438,
421,422,421,422,421,422,421,422,421,422,421,422,421,422,421,422,793,794,795,0,0,0,0,0,0,0,0,0,0,0,0,0,0,0,0,0,0,0,0,0,0,0,0,0,421,422,421,422,421,422,
429,430,429,430,429,430,429,430,429,430,429,430,429,430,429,430,793,794,795,0,0,0,0,0,0,0,0,0,0,0,0,0,0,0,0,0,0,0,0,0,0,0,0,0,429,430,429,430,429,430,
437,438,437,438,437,438,437,438,437,438,437,438,437,438,437,438,793,794,795,0,0,0,0,0,0,0,0,0,0,0,0,0,0,0,0,0,0,0,0,0,0,0,0,0,437,438,437,438,437,438,
421,422,421,422,421,422,0,0,0,0,0,785,786,786,786,786,794,794,795,0,0,0,0,0,0,0,0,0,0,0,0,0,0,0,0,0,0,0,0,0,0,0,0,0,421,422,421,422,421,422,
429,430,429,430,429,430,0,0,0,0,0,793,794,794,794,794,794,794,795,0,0,0,0,0,0,0,0,0,0,0,0,0,0,0,0,0,0,0,0,0,0,0,0,0,429,430,429,430,429,430,
437,438,437,438,437,438,0,0,0,0,0,793,794,809,802,802,802,802,803,0,0,0,0,0,0,0,0,0,0,0,0,0,0,0,0,0,0,0,0,0,0,0,0,0,437,438,437,438,437,438,
421,422,421,422,421,422,0,0,0,0,0,793,794,795,0,0,0,0,0,0,0,0,0,0,0,0,0,0,0,0,0,0,0,0,0,0,0,0,0,0,0,0,0,0,421,422,421,422,421,422,
429,430,429,430,429,430,0,0,0,0,0,793,794,795,0,0,0,0,0,0,0,0,0,0,0,0,0,0,0,0,274,275,276,0,0,0,0,0,0,0,0,0,0,0,429,430,429,430,429,430,
437,438,437,438,437,438,0,0,0,0,0,793,794,795,0,0,0,0,0,0,0,0,0,0,0,0,0,0,0,0,274,275,276,0,0,0,0,0,0,0,0,0,0,0,437,438,437,438,437,438,
421,422,421,422,421,422,0,0,0,0,0,793,794,795,0,0,0,0,0,0,0,0,955,0,0,0,0,0,0,0,274,275,276,0,0,0,0,0,0,0,0,0,0,0,421,422,421,422,421,422,
429,430,429,430,429,430,0,0,0,0,0,793,794,795,0,0,266,267,267,267,267,267,267,267,267,267,267,267,267,267,287,275,276,0,0,0,0,0,0,0,0,0,0,0,429,430,429,430,429,430,
437,438,437,438,437,438,0,0,0,0,0,793,794,795,0,0,274,275,275,275,275,275,275,275,275,275,275,275,275,275,275,275,276,0,0,0,0,0,0,0,0,0,0,0,437,438,437,438,437,438,
421,422,421,422,421,422,0,0,0,0,0,793,949,795,0,0,274,275,269,283,283,283,283,283,283,283,283,283,283,283,283,283,284,0,0,0,0,0,0,0,0,0,0,0,421,422,421,422,421,422,
429,430,429,430,429,430,0,0,0,0,0,801,802,803,0,0,274,275,276,0,0,0,0,0,0,0,0,0,0,0,0,0,0,0,0,0,0,0,0,0,0,0,0,0,429,430,429,430,429,430,
437,438,437,438,437,438,0,0,0,0,0,0,0,0,0,0,274,275,276,0,0,0,0,0,0,0,0,0,0,0,0,0,0,0,0,0,0,0,0,0,0,0,0,0,437,438,437,438,437,438,
421,422,421,422,421,422,0,0,0,0,0,0,0,0,0,0,274,275,276,0,0,0,0,0,0,0,0,0,0,0,0,0,0,0,0,0,0,0,0,0,0,0,0,0,421,422,421,422,421,422,
429,430,429,430,429,430,0,0,0,0,0,0,0,0,0,0,274,275,276,0,0,0,0,0,0,0,0,0,0,0,0,0,0,0,0,0,0,0,0,0,0,0,0,0,429,430,429,430,429,430,
437,438,437,438,437,438,0,0,0,0,0,0,0,0,0,0,274,275,276,0,0,0,0,0,0,0,0,0,0,0,0,0,0,0,0,0,0,0,0,0,0,0,0,0,437,438,437,438,437,438,
421,422,421,422,421,422,0,0,0,0,0,0,0,0,0,0,274,275,276,0,0,0,0,0,0,0,0,0,0,0,0,0,0,0,0,0,0,0,0,0,0,0,0,0,421,422,421,422,421,422,
429,430,429,430,429,430,0,0,0,0,0,0,0,0,0,0,274,275,276,0,0,0,0,0,0,0,0,0,0,0,0,0,0,0,0,0,0,0,0,0,0,0,0,0,429,430,429,430,429,430,
437,438,437,438,437,438,0,0,0,0,0,0,0,0,0,0,274,275,276,0,0,0,0,0,0,0,0,0,0,0,0,0,0,0,0,0,0,0,0,0,0,0,0,0,437,438,437,438,437,438,
421,422,421,422,421,422,0,0,0,0,0,0,0,0,0,0,274,275,276,0,0,0,0,0,0,0,0,0,0,0,0,0,0,0,0,0,0,0,0,0,0,0,0,0,421,422,421,422,421,422,
429,430,429,430,429,430,0,0,0,0,0,0,0,0,0,0,274,275,276,0,0,0,0,0,0,0,0,0,0,0,0,0,0,0,0,0,0,0,0,0,0,0,0,0,429,430,429,430,429,430,
437,438,437,438,437,438,0,0,0,0,0,0,0,0,0,0,274,275,276,0,0,0,0,0,0,0,0,0,0,0,0,0,0,0,0,0,0,0,0,0,0,0,0,0,437,438,437,438,437,438,
421,422,421,422,421,422,0,0,0,0,0,0,0,0,0,0,274,275,276,0,0,0,0,0,0,0,0,0,0,0,0,0,0,0,0,0,0,0,0,0,0,0,0,0,421,422,421,422,421,422,
429,430,429,430,429,430,0,0,0,0,0,0,0,0,0,0,274,275,276,0,0,0,0,0,0,0,0,0,0,0,0,0,0,0,0,0,0,0,0,0,0,0,0,0,429,430,429,430,429,430,
437,438,437,438,437,438,0,0,0,0,0,0,0,0,0,0,274,275,276,0,0,0,0,0,0,0,0,0,0,0,0,0,0,0,0,0,0,0,0,0,0,0,0,0,437,438,437,438,437,438,
421,422,421,422,421,422,0,0,0,0,0,0,0,0,0,0,274,275,276,0,0,0,0,0,0,0,0,0,0,0,0,0,0,0,0,0,0,0,0,0,0,0,0,0,421,422,421,422,421,422,
429,430,429,430,429,430,0,0,0,0,0,0,0,0,0,0,274,275,276,0,0,0,0,0,0,0,0,0,0,0,0,0,0,0,0,0,0,0,0,0,0,0,0,0,429,430,429,430,429,430,
437,438,437,438,437,438,0,0,0,0,0,0,0,0,0,0,274,275,276,0,0,0,0,0,0,0,0,0,0,0,0,0,0,0,0,0,0,0,0,0,0,0,0,0,437,438,437,438,437,438,
421,422,421,422,421,422,0,0,0,0,0,0,0,0,0,0,274,275,276,0,0,0,0,0,0,0,0,0,0,0,0,0,0,0,0,0,0,0,0,0,0,0,0,0,0,0,0,0,0,0,
429,430,429,430,429,430,0,0,0,0,0,0,0,0,0,0,274,275,276,0,0,0,0,0,0,0,0,0,0,0,0,0,0,0,0,0,0,0,0,0,0,0,0,0,0,0,0,0,0,0,
437,438,437,438,437,438,0,0,0,0,0,0,0,0,0,0,274,275,276,0,0,0,0,0,0,0,0,0,0,0,0,0,421,422,0,785,0,0,0,0,0,0,0,0,0,0,0,0,0,0,
421,422,421,422,421,422,0,0,0,0,0,0,0,0,0,0,274,275,276,0,0,0,0,0,0,0,0,0,0,0,0,0,429,430,0,793,0,0,0,0,0,0,0,0,0,0,0,0,0,0,
429,430,429,430,429,430,0,0,0,0,0,0,0,0,0,0,274,275,276,0,0,0,0,0,0,0,0,0,0,0,0,0,437,438,0,793,0,8033,8034,8035,8036,0,0,0,0,0,0,8043,0,0,
437,438,437,438,437,438,0,0,0,0,0,0,0,0,0,0,274,275,276,0,0,0,0,0,0,0,0,0,0,0,0,476,421,422,0,793,0,8044,8045,8046,8047,0,0,0,0,8052,8053,8054,0,0,
421,422,421,422,421,422,0,0,0,0,0,0,0,0,0,0,274,275,276,0,0,0,0,0,0,0,0,0,0,0,0,0,429,430,0,793,0,8055,8165,8166,8167,8168,8169,8170,8171,8172,8064,8065,0,0,
429,430,429,430,429,430,0,0,0,0,0,0,0,0,0,0,274,275,276,0,0,0,0,0,0,0,0,0,0,0,0,0,437,438,0,793,0,8066,8173,8174,8175,8176,8177,8178,8179,8180,8075,8076,0,0,
437,438,437,438,437,438,421,422,421,422,421,422,421,422,421,422,274,275,276,421,422,421,422,421,422,421,422,421,422,421,422,476,421,422,0,793,0,8077,8181,8182,8183,8184,8185,8186,8187,8188,0,0,0,4814,
0,0,0,0,0,0,429,430,429,430,429,430,429,430,429,430,274,275,276,429,430,429,430,429,430,429,430,429,430,429,430,0,429,430,0,793,796,0,8189,8190,8191,8192,8193,8194,8195,8196,0,0,4814,4814,
0,0,0,0,0,0,437,438,437,438,437,438,437,438,437,438,274,275,276,437,438,437,438,437,438,437,438,437,438,437,438,0,437,438,0,793,0,0,8197,8198,8199,8200,8201,8202,8203,8204,0,0,795,4814
</data>
 </layer>
 <layer id="4" name="sopra_testa" width="50" height="80">
  <data encoding="csv">
0,0,0,0,0,0,0,0,0,0,0,0,0,0,0,0,0,0,0,0,0,0,0,0,0,0,0,0,0,0,0,0,0,0,0,0,0,0,0,0,0,0,0,0,0,0,0,0,0,0,
0,0,0,0,0,0,0,0,0,0,0,0,0,0,0,0,0,0,0,0,0,0,0,0,0,0,0,0,0,0,0,0,0,0,0,0,0,0,0,0,0,0,0,0,0,0,0,0,0,0,
0,0,0,0,0,0,0,0,0,0,0,0,0,0,0,0,0,0,0,0,0,0,0,0,0,0,0,0,0,0,0,0,0,0,0,0,0,0,0,0,0,0,0,0,0,0,0,0,0,0,
0,0,0,0,0,0,0,0,0,0,0,0,0,0,0,0,0,0,0,0,0,0,0,0,0,0,0,0,0,0,0,0,0,0,0,0,0,0,0,0,0,0,0,0,0,0,0,0,0,0,
0,0,0,0,0,0,0,0,0,0,0,0,0,0,0,0,0,0,0,0,0,0,0,0,0,0,0,0,0,0,0,0,0,0,0,0,0,0,0,0,0,0,0,0,0,0,0,0,0,0,
0,0,0,0,0,0,0,0,0,0,0,0,0,0,0,0,0,0,0,0,0,0,0,0,0,0,0,0,0,0,0,0,0,0,0,0,0,0,0,0,0,0,0,0,0,0,0,0,0,0,
0,0,0,0,0,0,0,0,0,0,0,0,0,0,0,0,0,0,0,0,0,0,0,0,0,0,0,0,0,0,0,0,0,0,0,0,0,0,0,0,0,0,0,0,0,0,0,0,0,0,
0,0,0,0,0,0,0,0,0,0,0,0,0,0,0,0,0,0,0,0,0,0,0,0,0,0,0,0,0,0,0,0,0,0,0,0,0,0,0,0,0,0,0,0,0,0,0,0,0,0,
0,0,0,0,0,0,0,0,0,0,0,0,0,0,0,0,0,0,0,0,0,0,0,0,0,0,0,0,0,0,0,0,0,0,0,0,0,0,0,0,0,0,0,0,0,0,0,0,0,0,
0,0,0,0,0,0,0,0,0,0,0,0,0,0,0,0,0,0,0,0,0,0,0,0,0,0,0,0,0,0,0,0,0,0,0,0,0,0,0,0,0,0,0,0,0,0,0,0,0,0,
0,0,0,0,0,0,0,0,0,0,0,0,0,0,0,0,0,0,0,0,0,0,0,0,0,0,0,0,0,0,0,0,0,0,0,0,0,0,0,0,0,0,0,0,0,0,0,0,0,0,
0,0,0,0,0,0,0,0,0,0,0,0,0,0,0,0,0,0,0,0,0,0,0,0,0,0,0,0,0,0,0,0,0,0,0,0,0,0,0,0,0,0,0,0,0,0,0,0,0,0,
0,0,0,0,0,0,0,0,0,0,0,0,0,0,0,0,0,0,0,0,0,0,0,0,0,0,0,0,0,0,0,0,0,0,0,0,0,0,0,0,0,0,0,0,0,0,0,0,0,0,
0,0,0,0,0,0,0,0,0,0,0,0,0,0,0,0,0,0,0,0,0,0,0,0,0,0,0,0,0,0,0,0,0,0,0,0,0,0,0,0,0,0,0,0,0,0,0,0,0,0,
0,0,0,0,0,0,0,0,0,0,0,0,0,0,0,0,0,0,0,0,0,0,0,0,0,0,0,0,0,0,0,0,0,0,0,0,0,0,0,0,0,0,0,0,0,0,0,0,0,0,
0,0,0,0,0,0,0,0,0,0,0,0,0,0,0,0,0,0,0,0,0,0,0,0,0,0,0,0,0,0,0,0,0,0,0,0,0,0,0,0,0,0,0,0,0,0,0,0,0,0,
0,0,0,0,0,0,0,0,0,0,0,0,0,0,0,0,0,0,0,0,0,0,0,0,0,0,0,0,0,0,0,0,0,0,0,0,0,0,0,0,0,0,0,0,0,0,0,0,0,0,
0,0,0,0,0,0,0,0,0,0,0,0,0,0,0,0,0,0,0,0,0,0,0,0,0,0,0,0,0,0,0,0,0,0,0,0,0,0,0,0,0,0,0,0,0,0,0,0,0,0,
0,0,0,0,0,0,0,0,0,0,0,0,0,0,0,0,0,0,0,0,0,0,0,0,0,0,0,0,0,0,0,0,0,0,0,0,0,0,0,0,0,0,0,0,0,0,0,0,0,0,
0,0,0,0,0,0,0,0,0,0,0,0,0,0,0,0,0,0,0,0,0,0,0,0,0,0,0,0,0,0,0,0,0,0,0,0,0,0,0,0,0,0,0,0,0,0,0,0,0,0,
0,0,0,0,0,0,0,0,0,0,0,0,0,0,0,0,0,0,0,0,0,0,0,0,0,0,0,0,0,0,0,0,0,0,0,0,0,0,0,0,0,0,0,0,0,0,0,0,0,0,
0,0,0,0,0,0,0,0,0,0,0,0,0,0,0,0,0,0,0,0,0,0,0,0,0,0,0,0,0,0,0,0,0,0,0,0,0,0,0,0,0,0,0,0,0,0,0,0,0,0,
0,0,0,0,0,0,0,0,0,0,0,0,0,0,0,0,0,0,0,0,0,0,0,0,0,0,0,0,0,0,0,0,0,0,0,0,0,0,0,0,0,0,0,0,0,0,0,0,0,0,
0,0,0,0,0,0,0,0,0,0,0,0,0,0,0,0,0,0,0,0,0,0,0,0,0,0,0,0,0,0,0,0,0,0,0,0,0,0,0,0,0,0,0,0,0,0,0,0,0,0,
0,0,0,0,0,0,0,0,0,0,0,0,0,0,0,0,0,0,0,0,0,0,0,0,0,0,0,0,0,0,0,0,0,0,0,0,0,0,0,0,0,0,0,0,0,0,0,0,0,0,
0,0,0,0,0,0,0,0,0,0,0,0,0,0,0,0,0,0,0,0,0,0,0,0,0,0,0,0,0,0,0,0,0,0,0,0,0,0,0,0,0,0,0,0,0,0,0,0,0,0,
0,0,0,0,0,0,0,0,0,0,0,0,0,0,0,0,0,0,0,0,0,0,0,0,0,0,0,0,0,0,0,0,0,0,0,0,0,0,0,0,0,0,0,0,0,0,0,0,0,0,
0,0,0,0,0,0,0,0,0,0,0,0,0,0,0,0,0,0,0,0,0,0,0,0,0,0,0,0,0,0,0,0,0,0,0,0,0,0,0,0,0,0,0,0,0,0,0,0,0,0,
0,0,0,0,0,0,0,0,0,0,0,0,0,0,0,0,0,0,0,0,0,0,0,0,0,0,0,0,0,0,0,0,0,0,0,0,0,0,0,0,0,0,0,0,0,0,0,0,0,0,
0,0,0,0,0,0,0,0,0,0,0,0,0,0,0,0,0,0,0,0,0,0,0,0,0,0,0,0,0,0,0,0,0,0,0,0,0,0,0,0,0,0,0,0,0,0,0,0,0,0,
0,0,0,0,0,0,0,0,0,0,0,0,0,0,0,0,0,0,0,0,0,0,0,0,0,0,0,0,0,0,0,0,0,0,0,0,0,0,0,0,0,0,0,0,0,0,0,0,0,0,
0,0,0,0,0,0,0,0,0,0,0,0,0,0,0,0,0,0,0,0,0,0,0,0,0,0,0,0,0,0,0,0,0,0,0,0,0,0,0,0,0,0,0,0,0,0,0,0,0,0,
0,0,0,0,0,0,0,0,0,0,0,0,0,0,0,0,0,0,0,0,0,0,0,0,0,0,0,0,0,0,0,0,0,0,0,0,0,0,0,0,0,0,0,0,0,0,0,0,0,0,
0,0,0,0,0,0,0,0,0,0,0,0,0,0,0,0,0,0,0,0,0,0,0,0,0,0,0,0,0,0,0,0,0,0,0,0,0,0,0,0,0,0,0,0,0,0,0,0,0,0,
0,0,0,0,0,0,0,0,0,0,0,0,0,0,0,0,0,0,0,0,0,0,0,0,0,0,0,0,0,0,0,0,0,0,0,0,0,0,0,0,0,0,0,0,0,0,0,0,0,0,
0,0,0,0,0,0,0,0,0,0,0,0,0,0,0,0,0,0,0,0,0,0,0,0,0,0,0,0,0,0,0,0,0,0,0,0,0,0,0,0,0,0,0,0,0,0,0,0,0,0,
0,0,0,0,0,0,0,0,0,0,0,0,0,0,0,0,0,0,0,0,0,0,0,0,0,0,0,0,0,0,0,0,0,0,0,0,0,0,0,0,0,0,0,0,0,0,0,0,0,0,
0,0,0,0,0,0,0,0,0,0,0,0,0,0,0,0,0,0,0,0,0,0,0,0,0,0,0,0,0,0,0,0,0,0,0,0,0,0,0,0,0,0,0,0,0,0,0,0,0,0,
0,0,0,0,0,0,0,0,0,0,0,0,0,0,0,0,0,0,0,0,0,0,0,0,0,0,0,0,0,0,0,0,0,0,0,0,0,0,0,0,0,0,0,0,0,0,0,0,0,0,
0,0,0,0,0,0,0,0,0,0,0,0,0,0,0,0,0,0,0,0,0,0,0,0,0,0,0,0,0,0,0,0,0,0,0,0,0,0,0,0,0,0,0,0,0,0,0,0,0,0,
0,0,0,0,0,0,0,0,0,0,0,0,0,0,0,0,0,0,0,0,0,0,0,0,0,0,0,0,0,0,0,0,0,0,0,0,0,0,0,0,0,0,0,0,0,0,0,0,0,0,
0,0,0,0,0,0,0,0,0,0,0,0,0,0,0,0,0,0,0,0,0,0,0,0,0,0,0,0,0,0,0,0,0,0,0,0,0,0,0,0,0,0,0,0,0,0,0,0,0,0,
0,0,0,0,0,0,0,0,0,0,0,0,0,0,0,0,0,0,0,0,0,0,0,0,0,0,0,0,0,0,0,0,0,0,0,0,0,0,0,0,0,0,0,0,0,0,0,0,0,0,
0,0,0,0,0,0,0,0,0,0,0,0,0,0,0,0,0,0,0,0,0,0,0,0,0,0,0,0,0,0,0,0,0,0,0,0,0,0,0,0,0,0,0,0,0,0,0,0,0,0,
0,0,0,0,0,0,0,0,0,0,0,0,0,0,0,0,0,0,0,0,0,0,0,0,0,0,0,0,0,0,0,0,0,0,0,0,0,0,0,0,0,0,0,0,0,0,0,0,0,0,
0,0,0,0,0,0,0,0,0,0,0,0,0,0,0,0,0,0,0,0,0,0,0,0,0,0,0,0,0,0,0,0,0,0,0,0,0,0,0,0,0,0,0,0,0,0,0,0,0,0,
0,0,0,0,0,0,0,0,0,0,0,0,0,0,0,0,0,0,0,0,0,0,0,0,0,0,0,0,0,0,0,0,0,0,0,0,0,0,0,0,0,0,0,0,0,0,0,0,0,0,
0,0,0,0,0,0,0,0,0,0,0,0,0,0,0,0,0,0,0,0,0,0,0,0,0,0,0,0,0,0,0,0,0,0,0,0,0,0,0,0,0,0,0,0,0,0,0,0,0,0,
0,0,0,0,0,0,0,0,0,0,0,0,0,0,0,0,0,0,0,0,0,0,0,0,0,0,0,0,0,0,0,0,0,0,0,0,0,0,0,0,0,0,0,0,0,0,0,0,0,0,
0,0,0,0,0,0,0,0,0,0,0,0,0,0,0,0,0,0,0,0,0,0,0,0,0,0,0,0,0,0,0,0,0,0,0,0,0,0,0,0,0,0,0,0,0,0,0,0,0,0,
0,0,0,0,0,0,0,0,0,0,0,0,0,0,0,0,0,0,0,0,0,0,0,0,0,0,0,0,0,0,0,0,0,0,0,0,0,0,0,0,0,0,0,0,0,0,0,0,0,0,
0,0,0,0,0,0,0,0,0,0,0,0,0,0,0,0,0,0,0,0,0,0,0,0,0,0,0,0,0,0,0,0,0,0,0,0,0,0,0,0,0,0,0,0,0,0,0,0,0,0,
0,0,0,0,0,0,0,0,0,0,0,0,0,0,0,0,0,0,0,0,0,0,0,0,0,0,0,0,0,0,0,0,0,0,0,0,0,0,0,0,0,0,0,0,0,0,0,0,0,0,
0,0,0,0,0,0,0,0,0,0,0,0,0,0,0,0,0,0,0,0,0,0,0,0,0,0,0,0,0,0,0,0,0,0,0,0,0,0,0,0,0,0,0,0,0,0,0,0,0,0,
0,0,0,0,0,0,0,0,0,0,0,0,0,0,0,0,0,0,0,0,0,0,0,0,0,0,0,0,0,0,0,0,0,0,0,0,0,0,0,0,0,0,0,0,0,0,0,0,0,0,
0,0,0,0,0,0,0,0,0,0,0,0,0,0,0,0,0,0,0,0,0,0,0,0,0,0,0,0,0,0,0,0,0,0,0,0,0,0,0,0,0,0,0,0,0,0,0,0,0,0,
0,0,0,0,0,0,0,0,0,0,0,0,0,0,0,0,0,0,0,0,0,0,0,0,0,0,0,0,0,0,0,0,0,0,0,0,0,0,0,0,0,0,0,0,0,0,0,0,0,0,
0,0,0,0,0,0,0,0,0,0,0,0,0,0,0,0,0,0,0,0,0,0,0,0,0,0,0,0,0,0,0,0,0,0,0,0,0,0,0,0,0,0,0,0,0,0,0,0,0,0,
0,0,0,0,0,0,0,0,0,0,0,0,0,0,0,0,0,0,0,0,0,0,0,0,0,0,0,0,0,0,0,0,0,0,0,0,0,0,0,0,0,0,0,0,0,0,0,0,0,0,
0,0,0,0,0,0,0,0,0,0,0,0,0,0,0,0,0,0,0,0,0,0,0,0,0,0,0,0,0,0,0,0,0,0,0,0,0,0,0,0,0,0,0,0,0,0,0,0,0,0,
0,0,0,0,0,0,0,0,0,0,0,0,0,0,0,0,0,0,0,0,0,0,0,0,0,0,0,0,0,0,0,0,0,0,0,0,0,0,0,0,0,0,0,0,0,0,0,0,0,0,
0,0,0,0,0,0,0,0,0,0,0,0,0,0,0,0,0,0,0,0,0,0,0,0,0,0,0,0,0,0,0,0,0,0,0,0,0,0,0,0,0,0,0,0,0,0,0,0,0,0,
0,0,0,0,0,0,0,0,0,0,0,0,0,0,0,0,0,0,0,0,0,0,0,0,0,0,0,0,0,0,0,0,0,0,0,0,0,0,0,0,0,0,0,0,0,0,0,0,0,0,
0,0,0,0,0,0,0,0,0,0,0,0,0,0,0,0,0,0,0,0,0,0,0,0,0,0,0,0,0,0,0,0,0,0,0,0,0,0,0,0,0,0,0,0,0,0,0,0,0,0,
0,0,0,0,0,0,0,0,0,0,0,0,0,0,0,0,0,0,0,0,0,0,0,0,0,0,0,0,0,0,0,0,0,0,0,0,0,0,0,0,0,0,0,0,0,0,0,0,0,0,
0,0,0,0,0,0,0,0,0,0,0,0,0,0,0,0,0,0,0,0,0,0,0,0,0,0,0,0,0,0,0,0,0,0,0,0,0,0,0,0,0,0,0,0,0,0,0,0,0,0,
0,0,0,0,0,0,0,0,0,0,0,0,0,0,0,0,0,0,0,0,0,0,0,0,0,0,0,0,0,0,0,0,0,0,0,0,0,0,0,0,0,0,0,0,0,0,0,0,0,0,
0,0,0,0,0,0,0,0,0,0,0,0,0,0,0,0,0,0,0,0,0,0,0,0,0,0,0,0,0,0,0,0,0,0,0,0,0,0,0,0,0,0,0,0,0,0,0,0,0,0,
0,0,0,0,0,0,0,0,0,0,0,0,0,0,0,0,0,0,0,0,0,0,0,0,0,0,0,0,0,0,0,0,0,0,0,0,0,0,0,0,0,0,0,0,0,0,0,0,0,0,
0,0,0,0,0,0,0,0,0,0,0,0,0,0,0,0,0,0,0,0,0,0,0,0,0,0,0,0,0,0,0,0,0,0,0,0,0,0,0,0,0,0,0,0,0,0,0,0,0,0,
0,0,0,0,0,0,0,0,0,0,0,0,0,0,0,0,0,0,0,0,0,0,0,0,0,0,0,0,0,0,0,0,0,0,0,0,0,0,0,0,0,0,0,0,0,0,0,0,0,0,
0,0,0,0,0,0,0,0,0,0,0,0,0,0,0,0,0,0,0,0,0,0,0,0,0,0,0,0,0,0,0,0,0,0,0,0,0,0,0,0,0,0,0,0,0,0,0,0,0,0,
0,0,0,0,0,0,0,0,0,0,0,0,0,0,0,0,0,0,0,0,0,0,0,0,0,0,0,0,0,0,0,0,0,0,0,0,0,0,0,0,0,0,0,0,0,0,0,0,0,0,
0,0,0,0,0,0,0,0,0,0,0,0,0,0,0,0,0,0,0,0,0,0,0,0,0,0,0,0,0,0,0,0,0,0,0,0,0,0,0,0,0,0,0,0,0,0,0,0,0,0,
0,0,0,0,0,0,0,0,0,0,0,0,0,0,0,0,0,0,0,0,0,0,0,0,0,0,0,0,0,0,0,0,0,0,0,0,0,0,0,0,0,0,0,0,0,0,0,0,0,0,
0,0,0,0,0,0,0,0,0,0,0,0,0,0,0,0,0,0,0,0,0,0,0,0,0,0,0,0,0,0,0,0,0,0,0,0,0,0,0,0,0,0,0,0,0,0,0,0,0,0,
0,0,0,0,0,0,0,0,0,0,0,0,0,0,0,0,0,0,0,0,0,0,0,0,0,0,0,0,0,0,0,0,0,0,0,0,0,0,0,0,0,0,0,0,0,0,0,0,0,0,
0,0,0,0,0,0,0,0,0,0,0,0,0,0,0,0,0,0,0,0,0,0,0,0,0,0,0,0,0,0,0,0,0,0,0,0,0,0,0,0,0,0,0,0,0,0,0,0,0,0,
0,0,0,0,0,0,0,0,0,0,0,0,0,0,0,0,0,0,0,0,0,0,0,0,0,0,0,0,0,0,0,0,0,0,0,0,0,0,0,0,0,0,0,0,0,0,0,0,0,0,
0,0,0,0,0,0,0,0,0,0,0,0,0,0,0,0,0,0,0,0,0,0,0,0,0,0,0,0,0,0,0,0,0,0,0,0,0,0,0,0,0,0,0,0,0,0,0,0,0,0
</data>
 </layer>
 <objectgroup id="6" name="collisioni">
  <object id="15" x="1099" y="2249.67" width="497.667" height="304.333"/>
  <object id="16" x="1039.33" y="2290.33" width="57.3333" height="264.667"/>
  <object id="17" x="621.333" y="2474.33" width="472.667" height="78"/>
  <object id="18" x="1000.33" y="2372.67" width="14.6667" height="14"/>
  <object id="19" x="996.667" y="2468.33" width="19" height="13.3333"/>
  <object id="20" x="205" y="2470" width="302" height="80"/>
  <object id="21" x="21" y="1259" width="159" height="1217"/>
  <object id="22" x="206" y="1255" width="303" height="80"/>
  <object id="23" x="243" y="1396" width="64" height="85"/>
  <object id="24" x="362" y="1346" width="12" height="330"/>
  <object id="25" x="371" y="1675" width="59" height="6"/>
  <object id="26" x="426" y="1415" width="8" height="264"/>
  <object id="27" x="433" y="1417" width="162" height="19"/>
  <object id="28" x="514" y="1134" width="18" height="203"/>
  <object id="29" x="215" y="1125" width="27" height="13"/>
  <object id="30" x="17.3333" y="2.66667" width="165.333" height="1121.33"/>
  <object id="31" x="200" y="8" width="422.667" height="172"/>
  <object id="32" x="641.333" y="6.66667" width="41.3333" height="176"/>
  <object id="33" x="682.667" y="6.66667" width="117.333" height="128"/>
  <object id="34" x="756" y="18.6667" width="34.6667" height="170.667"/>
  <object id="35" x="812" y="14.6667" width="786.667" height="156"/>
  <object id="36" x="1410.67" y="200" width="188" height="2002.67"/>
  <object id="37" x="1160" y="193.333" width="20" height="118.667"/>
  <object id="38" x="1189.33" y="196" width="113.333" height="64"/>
  <object id="39" x="1221.33" y="262.667" width="84" height="52"/>
  <object id="40" x="896" y="192" width="10.6667" height="238.667"/>
  <object id="41" x="900" y="420" width="82.6667" height="21.3333"/>
  <object id="42" x="994.667" y="356" width="81.3333" height="49.3333"/>
  <object id="43" x="1077.33" y="420" width="338.667" height="22.6667"/>
  <object id="44" x="520" y="722.667" width="13.3333" height="326.667"/>
  <object id="45" x="198.667" y="976" width="316" height="60"/>
  <object id="46" x="206.667" y="1058.67" width="6.66667" height="60"/>
  <object id="47" x="300" y="1133.33" width="208" height="14.6667"/>
  <object id="48" x="213.333" y="1045.33" width="308" height="9.33333"/>
  <object id="49" x="593.333" y="837.333" width="4" height="589.333"/>
  <object id="50" x="596" y="841.333" width="314.667" height="17.3333"/>
  <object id="51" x="580" y="710.667" width="18.6667" height="49.3333"/>
  <object id="52" x="529.333" y="698.667" width="57.3333" height="12"/>
  <object id="53" x="974.667" y="838.667" width="133.333" height="14.6667"/>
  <object id="54" x="1096" y="773.333" width="10.6667" height="72"/>
  <object id="55" x="617.333" y="757.333" width="488" height="14.6667"/>
  <object id="56" x="625.333" y="888" width="249.333" height="204"/>
  <object id="57" x="604" y="1261.33" width="281.333" height="185.333"/>
 </objectgroup>
 <objectgroup id="5" name="eventi">
  <object id="1" name="masso_forza_p11" type="masso" x="171" y="1189" width="16" height="21">
   <properties>
    <property name="id" value="masso_forza_p11"/>
    <property name="type" value="masso"/>
   </properties>
  </object>
  <object id="2" name="warp" type="warp" x="703" y="154.75" width="32" height="32">
   <properties>
    <property name="destinazione" value="rocca_di_papa"/>
    <property name="spawn_id" value="da_percorso_11"/>
    <property name="type" value="warp"/>
   </properties>
  </object>
  <object id="3" name="all-p11-1" type="trainer" x="611" y="1663" width="32" height="32">
   <properties>
    <property name="id" value="all-p11-1"/>
    <property name="type" value="trainer"/>
   </properties>
  </object>
  <object id="4" name="all-p11-2" type="trainer" x="960" y="1760" width="32" height="32">
   <properties>
    <property name="id" value="all-p11-2"/>
    <property name="type" value="trainer"/>
   </properties>
  </object>
  <object id="5" name="masso_forza_p11" type="masso" x="136" y="1221.5" width="16" height="21">
   <properties>
    <property name="id" value="masso_forza_p11"/>
    <property name="type" value="masso"/>
   </properties>
  </object>
  <object id="6" name="masso_forza_p11" type="masso" x="136.667" y="1158.17" width="16" height="21">
   <properties>
    <property name="id" value="masso_forza_p11"/>
    <property name="type" value="masso"/>
   </properties>
  </object>
  <object id="7" name="spacca_collegamento_cotral" type="trigger_spaccaroccia" x="935.5" y="905.5" width="17.5" height="15.5">
   <properties>
    <property name="blocco_id" value="spacca_collegamento_cotral"/>
    <property name="type" value="trigger_spaccaroccia"/>
   </properties>
  </object>
  <object id="8" name="spacca_collegamento_cotral" type="trigger_spaccaroccia" x="968.25" y="874.25" width="17.5" height="15.5">
   <properties>
    <property name="blocco_id" value="spacca_collegamento_cotral"/>
    <property name="type" value="trigger_spaccaroccia"/>
   </properties>
  </object>
  <object id="9" name="spacca_collegamento_cotral" type="trigger_spaccaroccia" x="903.25" y="871.25" width="17.5" height="15.5">
   <properties>
    <property name="blocco_id" value="spacca_collegamento_cotral"/>
    <property name="type" value="trigger_spaccaroccia"/>
   </properties>
  </object>
  <object id="10" name="all-p11-3" type="trainer" x="1075" y="1081" width="32" height="32">
   <properties>
    <property name="id" value="all-p11-3"/>
    <property name="type" value="trainer"/>
   </properties>
  </object>
  <object id="11" name="all-p11-4" type="trainer" x="958" y="265" width="32" height="32">
   <properties>
    <property name="id" value="all-p11-4"/>
    <property name="type" value="trainer"/>
   </properties>
  </object>
  <object id="12" name="all-p11-5" type="trainer" x="478.667" y="389" width="32" height="32">
   <properties>
    <property name="id" value="all-p11-5"/>
    <property name="type" value="trainer"/>
   </properties>
  </object>
  <object id="13" name="all-p11-6" type="trainer" x="1282" y="330" width="32" height="32">
   <properties>
    <property name="id" value="all-p11-6"/>
    <property name="type" value="trainer"/>
   </properties>
  </object>
  <object id="14" name="spawn" type="spawn" x="708.5" y="203.417" width="24" height="19.6667">
   <properties>
    <property name="id" value="da_rocca_di_papa"/>
    <property name="type" value="spawn"/>
   </properties>
  </object>
  <object id="15" name="erba_alta" type="erba_alta" x="300" y="1000" width="192" height="192">
   <properties>
    <property name="id" value="incontri percorso 11"/>
    <property name="type" value="erba_alta"/>
   </properties>
  </object>
  <object id="16" name="p11_superpozione" type="oggetto" x="380" y="1630.67" width="32" height="32">
   <properties>
    <property name="contenuto" value="superpozione"/>
    <property name="id" value="p11_superpozione"/>
    <property name="quantita" type="int" value="1"/>
    <property name="type" value="oggetto"/>
   </properties>
  </object>
  <object id="17" name="cartello_verso_rocca_papa_11" type="cartello" x="710" y="1544.67" width="23.3333" height="17.3333">
   <properties>
    <property name="testo" value="Rocca di Papa (via Monte Cavo) →"/>
    <property name="type" value="cartello"/>
   </properties>
  </object>
 </objectgroup>
</map>
