{
 "compressionlevel": -1,
 "width": 24,
 "height": 160,
 "tilewidth": 32,
 "tileheight": 32,
 "infinite": false,
 "orientation": "orthogonal",
 "renderorder": "right-down",
 "type": "map",
 "version": "1.10",
 "tiledversion": "1.11.0",
 "nextlayerid": 6,
 "nextobjectid": 2281,
 "tilesets": [
  {
   "firstgid": 1,
   "image": "../percorso_montepo_3_tileset.png",
   "imagewidth": 512,
   "imageheight": 704,
   "columns": 16,
   "tilecount": 348,
   "tilewidth": 32,
   "tileheight": 32,
   "name": "percorso_montepo_3_tileset",
   "margin": 0,
   "spacing": 0
  }
 ],
 "layers": [
  {
   "id": 1,
   "name": "ground",
   "type": "tilelayer",
   "width": 24,
   "height": 160,
   "data": [
    1,
    1,
    1,
    1,
    1,
    1,
    3,
    5,
    5,
    7,
    9,
    11,
    11,
    7,
    5,
    5,
    13,
    1,
    1,
    1,
    1,
    1,
    1,
    1,
    15,
    17,
    15,
    17,
    15,
    17,
    19,
    21,
    23,
    25,
    27,
    29,
    29,
    31,
    23,
    33,
    35,
    5,
    15,
    17,
    15,
    17,
    15,
    17,
    37,
    39,
    37,
    39,
    37,
    41,
    43,
    45,
    47,
    45,
    45,
    45,
    45,
    45,
    45,
    45,
    23,
    49,
    51,
    39,
    37,
    39,
    37,
    39,
    53,
    55,
    53,
    55,
    53,
    57,
    59,
    45,
    47,
    47,
    45,
    45,
    47,
    45,
    47,
    45,
    45,
    61,
    63,
    55,
    53,
    55,
    53,
    55,
    37,
    39,
    37,
    39,
    37,
    41,
    65,
    47,
    45,
    47,
    45,
    45,
    47,
    45,
    47,
    45,
    47,
    61,
    51,
    39,
    37,
    39,
    37,
    39,
    53,
    57,
    67,
    69,
    71,
    73,
    59,
    45,
    45,
    45,
    47,
    45,
    45,
    47,
    45,
    45,
    47,
    61,
    67,
    69,
    71,
    73,
    63,
    55,
    37,
    41,
    75,
    77,
    79,
    75,
    47,
    45,
    45,
    45,
    47,
    45,
    45,
    47,
    45,
    45,
    45,
    47,
    75,
    77,
    79,
    75,
    51,
    39,
    53,
    57,
    75,
    77,
    79,
    75,
    45,
    45,
    47,
    45,
    47,
    45,
    47,
    45,
    45,
    45,
    45,
    45,
    75,
    77,
    79,
    75,
    63,
    55,
    37,
    41,
    75,
    77,
    79,
    75,
    45,
    45,
    47,
    45,
    47,
    45,
    47,
    45,
    45,
    45,
    47,
    45,
    75,
    77,
    79,
    75,
    51,
    39,
    53,
    57,
    75,
    77,
    79,
    75,
    47,
    45,
    45,
    47,
    45,
    47,
    45,
    47,
    45,
    45,
    47,
    45,
    75,
    77,
    79,
    75,
    63,
    55,
    37,
    41,
    75,
    77,
    79,
    75,
    47,
    45,
    45,
    47,
    45,
    47,
    45,
    47,
    45,
    45,
    47,
    45,
    75,
    77,
    79,
    75,
    51,
    39,
    53,
    57,
    75,
    77,
    79,
    75,
    45,
    47,
    45,
    45,
    47,
    45,
    45,
    47,
    45,
    45,
    45,
    45,
    75,
    77,
    79,
    75,
    63,
    55,
    37,
    41,
    75,
    77,
    79,
    75,
    47,
    47,
    47,
    45,
    47,
    45,
    45,
    47,
    45,
    47,
    45,
    45,
    75,
    77,
    79,
    75,
    51,
    39,
    53,
    57,
    75,
    77,
    79,
    75,
    47,
    45,
    47,
    45,
    47,
    45,
    45,
    47,
    45,
    47,
    45,
    45,
    75,
    77,
    79,
    75,
    63,
    55,
    37,
    41,
    81,
    83,
    85,
    81,
    47,
    45,
    47,
    45,
    47,
    45,
    45,
    47,
    45,
    47,
    45,
    47,
    81,
    83,
    85,
    81,
    51,
    39,
    53,
    57,
    87,
    89,
    91,
    87,
    47,
    45,
    47,
    45,
    45,
    45,
    45,
    45,
    45,
    47,
    45,
    47,
    87,
    89,
    91,
    87,
    63,
    55,
    37,
    41,
    93,
    65,
    45,
    95,
    45,
    45,
    45,
    45,
    45,
    45,
    45,
    45,
    45,
    45,
    45,
    45,
    93,
    45,
    97,
    95,
    51,
    39,
    53,
    57,
    99,
    101,
    103,
    103,
    103,
    103,
    45,
    45,
    45,
    45,
    45,
    45,
    45,
    45,
    45,
    103,
    103,
    103,
    105,
    107,
    63,
    55,
    37,
    41,
    109,
    111,
    107,
    99,
    107,
    99,
    101,
    103,
    103,
    103,
    103,
    103,
    103,
    103,
    105,
    99,
    107,
    99,
    107,
    99,
    51,
    39,
    53,
    57,
    109,
    113,
    109,
    113,
    109,
    113,
    109,
    113,
    109,
    113,
    109,
    113,
    109,
    113,
    109,
    113,
    109,
    113,
    109,
    113,
    63,
    55,
    37,
    41,
    115,
    117,
    117,
    117,
    117,
    117,
    117,
    117,
    117,
    117,
    117,
    117,
    117,
    117,
    117,
    117,
    119,
    107,
    99,
    121,
    51,
    39,
    53,
    57,
    123,
    125,
    127,
    127,
    127,
    127,
    127,
    127,
    127,
    127,
    127,
    127,
    127,
    127,
    127,
    129,
    131,
    109,
    113,
    121,
    63,
    55,
    37,
    41,
    123,
    133,
    1,
    1,
    1,
    1,
    1,
    1,
    1,
    1,
    1,
    1,
    1,
    1,
    1,
    135,
    131,
    107,
    99,
    121,
    51,
    39,
    53,
    57,
    123,
    133,
    1,
    1,
    1,
    1,
    1,
    1,
    1,
    1,
    1,
    1,
    1,
    1,
    1,
    135,
    131,
    107,
    99,
    121,
    63,
    55,
    37,
    41,
    123,
    133,
    1,
    1,
    1,
    1,
    1,
    1,
    1,
    1,
    1,
    1,
    1,
    1,
    1,
    135,
    131,
    109,
    113,
    121,
    51,
    39,
    53,
    57,
    123,
    133,
    1,
    1,
    1,
    1,
    1,
    1,
    1,
    1,
    1,
    1,
    1,
    1,
    1,
    137,
    137,
    119,
    121,
    121,
    63,
    55,
    37,
    41,
    123,
    133,
    1,
    1,
    1,
    1,
    1,
    1,
    1,
    1,
    1,
    1,
    1,
    1,
    1,
    1,
    1,
    135,
    119,
    121,
    51,
    39,
    53,
    57,
    123,
    139,
    141,
    141,
    141,
    141,
    141,
    141,
    13,
    1,
    1,
    1,
    1,
    3,
    141,
    141,
    141,
    143,
    131,
    121,
    63,
    55,
    37,
    41,
    35,
    145,
    5,
    147,
    5,
    145,
    5,
    13,
    133,
    1,
    1,
    1,
    1,
    135,
    3,
    5,
    147,
    5,
    19,
    121,
    51,
    39,
    53,
    57,
    111,
    93,
    21,
    23,
    33,
    95,
    149,
    123,
    133,
    1,
    1,
    1,
    1,
    135,
    131,
    113,
    99,
    113,
    99,
    107,
    63,
    55,
    37,
    41,
    113,
    99,
    65,
    45,
    97,
    113,
    99,
    123,
    133,
    1,
    1,
    1,
    1,
    135,
    131,
    109,
    113,
    109,
    113,
    109,
    51,
    39,
    53,
    57,
    113,
    151,
    65,
    45,
    97,
    109,
    149,
    123,
    133,
    1,
    1,
    1,
    1,
    135,
    131,
    153,
    107,
    109,
    99,
    109,
    63,
    55,
    37,
    41,
    99,
    109,
    65,
    45,
    97,
    113,
    99,
    123,
    133,
    1,
    1,
    1,
    1,
    135,
    131,
    113,
    153,
    99,
    153,
    109,
    51,
    39,
    53,
    57,
    149,
    109,
    65,
    45,
    97,
    109,
    113,
    123,
    133,
    1,
    1,
    1,
    1,
    135,
    137,
    117,
    117,
    117,
    117,
    119,
    63,
    55,
    37,
    41,
    109,
    155,
    65,
    45,
    97,
    155,
    149,
    123,
    133,
    1,
    1,
    1,
    1,
    137,
    127,
    127,
    129,
    1,
    1,
    131,
    51,
    39,
    53,
    57,
    149,
    93,
    65,
    45,
    97,
    95,
    109,
    123,
    133,
    1,
    1,
    1,
    1,
    1,
    1,
    1,
    135,
    1,
    1,
    131,
    63,
    55,
    37,
    41,
    113,
    99,
    65,
    45,
    97,
    113,
    149,
    123,
    133,
    1,
    1,
    1,
    1,
    1,
    1,
    1,
    135,
    1,
    1,
    131,
    51,
    39,
    53,
    57,
    109,
    113,
    65,
    45,
    97,
    109,
    113,
    123,
    139,
    13,
    1,
    1,
    1,
    1,
    1,
    1,
    135,
    1,
    1,
    131,
    63,
    55,
    37,
    41,
    113,
    149,
    65,
    45,
    97,
    113,
    149,
    123,
    1,
    133,
    1,
    1,
    1,
    1,
    1,
    1,
    135,
    1,
    1,
    131,
    51,
    39,
    53,
    57,
    109,
    113,
    65,
    45,
    97,
    107,
    149,
    123,
    1,
    139,
    141,
    141,
    141,
    141,
    141,
    141,
    143,
    1,
    1,
    131,
    63,
    55,
    37,
    41,
    149,
    155,
    65,
    45,
    97,
    155,
    113,
    123,
    1,
    1,
    1,
    1,
    1,
    1,
    1,
    1,
    1,
    1,
    1,
    131,
    51,
    39,
    53,
    57,
    107,
    93,
    65,
    45,
    97,
    95,
    99,
    35,
    5,
    5,
    5,
    5,
    5,
    5,
    5,
    5,
    5,
    5,
    5,
    19,
    63,
    55,
    37,
    41,
    149,
    99,
    101,
    103,
    105,
    113,
    99,
    113,
    149,
    149,
    149,
    157,
    157,
    157,
    157,
    107,
    99,
    149,
    99,
    99,
    51,
    39,
    53,
    57,
    109,
    149,
    113,
    109,
    113,
    109,
    113,
    109,
    99,
    149,
    149,
    157,
    157,
    157,
    107,
    109,
    113,
    109,
    113,
    113,
    63,
    55,
    37,
    41,
    159,
    161,
    163,
    159,
    109,
    113,
    99,
    113,
    113,
    149,
    149,
    157,
    157,
    157,
    109,
    113,
    109,
    113,
    109,
    113,
    51,
    39,
    53,
    57,
    75,
    77,
    79,
    75,
    107,
    109,
    113,
    109,
    99,
    121,
    149,
    149,
    149,
    107,
    21,
    23,
    23,
    23,
    23,
    33,
    63,
    55,
    37,
    41,
    75,
    77,
    79,
    75,
    161,
    163,
    159,
    109,
    113,
    121,
    149,
    149,
    149,
    109,
    65,
    45,
    45,
    45,
    45,
    97,
    51,
    39,
    53,
    57,
    75,
    77,
    79,
    75,
    77,
    79,
    75,
    107,
    99,
    121,
    107,
    99,
    121,
    107,
    101,
    103,
    103,
    103,
    103,
    105,
    63,
    55,
    37,
    41,
    75,
    77,
    79,
    75,
    77,
    79,
    75,
    21,
    23,
    23,
    23,
    23,
    33,
    109,
    113,
    109,
    153,
    109,
    153,
    109,
    51,
    39,
    53,
    57,
    75,
    77,
    79,
    75,
    77,
    79,
    75,
    65,
    45,
    45,
    45,
    45,
    97,
    107,
    99,
    153,
    99,
    153,
    99,
    107,
    63,
    55,
    37,
    41,
    81,
    83,
    85,
    81,
    83,
    85,
    81,
    101,
    103,
    103,
    45,
    45,
    97,
    109,
    113,
    109,
    113,
    109,
    113,
    109,
    51,
    39,
    53,
    57,
    87,
    89,
    91,
    87,
    89,
    91,
    87,
    113,
    109,
    113,
    65,
    45,
    97,
    159,
    161,
    163,
    159,
    159,
    161,
    159,
    63,
    55,
    37,
    41,
    95,
    109,
    113,
    93,
    109,
    113,
    95,
    99,
    107,
    99,
    65,
    45,
    97,
    75,
    77,
    79,
    75,
    75,
    77,
    75,
    51,
    39,
    53,
    57,
    109,
    113,
    109,
    113,
    109,
    113,
    109,
    113,
    109,
    113,
    65,
    45,
    97,
    75,
    77,
    79,
    75,
    75,
    77,
    75,
    63,
    55,
    37,
    41,
    159,
    161,
    163,
    159,
    161,
    159,
    159,
    161,
    163,
    159,
    101,
    103,
    105,
    75,
    77,
    79,
    75,
    75,
    77,
    75,
    51,
    39,
    53,
    57,
    75,
    77,
    79,
    75,
    77,
    75,
    75,
    77,
    79,
    165,
    167,
    169,
    171,
    173,
    77,
    79,
    75,
    75,
    77,
    75,
    63,
    55,
    37,
    41,
    75,
    77,
    79,
    75,
    77,
    75,
    75,
    77,
    79,
    175,
    177,
    179,
    181,
    183,
    77,
    79,
    75,
    75,
    77,
    75,
    51,
    39,
    53,
    57,
    75,
    77,
    79,
    75,
    77,
    75,
    75,
    77,
    79,
    185,
    187,
    189,
    191,
    193,
    77,
    79,
    75,
    75,
    77,
    75,
    63,
    55,
    37,
    41,
    75,
    77,
    79,
    75,
    77,
    75,
    75,
    77,
    79,
    75,
    21,
    23,
    33,
    75,
    77,
    79,
    75,
    75,
    77,
    75,
    51,
    39,
    53,
    57,
    75,
    77,
    79,
    75,
    77,
    75,
    81,
    83,
    85,
    81,
    65,
    45,
    97,
    81,
    83,
    85,
    81,
    75,
    77,
    75,
    63,
    55,
    37,
    41,
    75,
    77,
    79,
    75,
    77,
    75,
    87,
    89,
    91,
    87,
    65,
    45,
    97,
    87,
    89,
    91,
    87,
    75,
    77,
    75,
    51,
    39,
    53,
    57,
    75,
    77,
    79,
    75,
    77,
    75,
    93,
    157,
    157,
    95,
    65,
    45,
    97,
    93,
    153,
    113,
    95,
    75,
    77,
    75,
    63,
    55,
    37,
    41,
    75,
    77,
    79,
    75,
    77,
    75,
    157,
    157,
    157,
    157,
    101,
    103,
    105,
    121,
    121,
    107,
    153,
    75,
    77,
    75,
    51,
    39,
    53,
    57,
    75,
    77,
    79,
    75,
    77,
    75,
    157,
    157,
    157,
    157,
    157,
    107,
    99,
    107,
    153,
    109,
    121,
    75,
    77,
    75,
    63,
    55,
    37,
    41,
    75,
    77,
    79,
    75,
    77,
    75,
    157,
    157,
    157,
    149,
    149,
    109,
    113,
    109,
    121,
    121,
    153,
    75,
    77,
    75,
    51,
    39,
    53,
    57,
    75,
    77,
    79,
    75,
    77,
    75,
    157,
    157,
    157,
    149,
    149,
    157,
    157,
    157,
    157,
    157,
    157,
    75,
    77,
    75,
    63,
    55,
    37,
    41,
    75,
    77,
    79,
    75,
    77,
    75,
    149,
    113,
    109,
    113,
    149,
    157,
    157,
    157,
    157,
    157,
    157,
    75,
    77,
    75,
    51,
    39,
    53,
    57,
    75,
    77,
    79,
    75,
    77,
    75,
    149,
    109,
    111,
    121,
    149,
    157,
    157,
    157,
    157,
    157,
    157,
    75,
    77,
    75,
    63,
    55,
    37,
    41,
    75,
    77,
    79,
    75,
    77,
    75,
    149,
    99,
    107,
    109,
    149,
    99,
    107,
    149,
    149,
    99,
    107,
    75,
    77,
    75,
    51,
    39,
    53,
    57,
    75,
    77,
    79,
    75,
    77,
    75,
    149,
    113,
    109,
    113,
    149,
    113,
    109,
    149,
    149,
    113,
    109,
    75,
    77,
    75,
    63,
    55,
    37,
    41,
    75,
    77,
    79,
    75,
    77,
    75,
    157,
    157,
    157,
    149,
    149,
    99,
    107,
    121,
    149,
    99,
    107,
    75,
    77,
    75,
    51,
    39,
    53,
    57,
    75,
    77,
    79,
    75,
    77,
    75,
    157,
    157,
    157,
    149,
    149,
    113,
    109,
    121,
    149,
    113,
    109,
    81,
    195,
    81,
    63,
    55,
    37,
    41,
    75,
    77,
    79,
    75,
    77,
    75,
    113,
    109,
    157,
    157,
    157,
    99,
    107,
    149,
    99,
    107,
    109,
    87,
    197,
    87,
    51,
    39,
    53,
    57,
    75,
    77,
    79,
    75,
    77,
    75,
    149,
    121,
    157,
    157,
    157,
    113,
    109,
    149,
    113,
    107,
    109,
    93,
    157,
    95,
    63,
    55,
    37,
    41,
    75,
    77,
    79,
    75,
    77,
    75,
    149,
    149,
    99,
    107,
    99,
    121,
    153,
    109,
    153,
    99,
    157,
    157,
    157,
    157,
    51,
    39,
    53,
    57,
    75,
    77,
    79,
    75,
    77,
    75,
    149,
    149,
    113,
    109,
    113,
    153,
    99,
    153,
    109,
    113,
    157,
    157,
    157,
    157,
    63,
    55,
    37,
    41,
    75,
    77,
    79,
    75,
    77,
    75,
    149,
    149,
    99,
    107,
    99,
    121,
    113,
    109,
    121,
    109,
    157,
    157,
    157,
    157,
    51,
    39,
    53,
    57,
    75,
    77,
    79,
    75,
    77,
    75,
    199,
    199,
    199,
    199,
    199,
    199,
    199,
    199,
    201,
    99,
    107,
    99,
    107,
    99,
    63,
    55,
    37,
    41,
    75,
    77,
    79,
    75,
    77,
    75,
    203,
    205,
    205,
    205,
    205,
    205,
    205,
    207,
    209,
    161,
    159,
    161,
    163,
    159,
    51,
    39,
    53,
    57,
    75,
    77,
    79,
    75,
    77,
    75,
    211,
    213,
    213,
    213,
    213,
    213,
    213,
    215,
    75,
    77,
    75,
    77,
    79,
    75,
    63,
    55,
    37,
    41,
    75,
    77,
    79,
    75,
    77,
    75,
    211,
    213,
    213,
    213,
    213,
    213,
    213,
    215,
    75,
    77,
    75,
    77,
    79,
    75,
    51,
    39,
    53,
    57,
    81,
    83,
    85,
    81,
    195,
    81,
    211,
    213,
    213,
    213,
    213,
    213,
    213,
    215,
    81,
    195,
    81,
    83,
    85,
    81,
    63,
    55,
    37,
    41,
    217,
    89,
    91,
    217,
    197,
    217,
    211,
    213,
    213,
    213,
    213,
    213,
    213,
    215,
    217,
    197,
    217,
    89,
    91,
    217,
    51,
    39,
    53,
    57,
    219,
    205,
    205,
    221,
    205,
    221,
    223,
    213,
    213,
    213,
    213,
    213,
    213,
    225,
    221,
    205,
    221,
    205,
    205,
    227,
    63,
    55,
    37,
    41,
    229,
    213,
    213,
    213,
    213,
    213,
    213,
    213,
    213,
    213,
    213,
    213,
    213,
    213,
    213,
    213,
    213,
    213,
    213,
    231,
    51,
    39,
    53,
    57,
    229,
    213,
    213,
    213,
    213,
    213,
    213,
    213,
    213,
    213,
    213,
    213,
    213,
    213,
    213,
    213,
    213,
    213,
    213,
    231,
    63,
    55,
    37,
    41,
    229,
    213,
    213,
    213,
    213,
    213,
    213,
    213,
    213,
    213,
    213,
    213,
    213,
    213,
    213,
    213,
    213,
    213,
    213,
    231,
    51,
    39,
    53,
    57,
    229,
    213,
    213,
    213,
    213,
    213,
    213,
    213,
    213,
    213,
    213,
    213,
    213,
    213,
    213,
    213,
    213,
    213,
    213,
    231,
    63,
    55,
    37,
    41,
    229,
    213,
    213,
    213,
    213,
    213,
    213,
    213,
    213,
    213,
    213,
    213,
    213,
    213,
    213,
    213,
    213,
    213,
    213,
    231,
    51,
    39,
    53,
    57,
    233,
    235,
    237,
    239,
    241,
    243,
    245,
    247,
    249,
    239,
    235,
    251,
    239,
    235,
    251,
    239,
    235,
    251,
    239,
    253,
    63,
    55,
    37,
    41,
    75,
    77,
    75,
    77,
    175,
    255,
    257,
    259,
    183,
    77,
    79,
    75,
    77,
    79,
    75,
    77,
    79,
    75,
    77,
    75,
    51,
    39,
    53,
    57,
    75,
    77,
    75,
    77,
    185,
    261,
    263,
    265,
    193,
    77,
    79,
    75,
    77,
    79,
    75,
    77,
    79,
    75,
    77,
    75,
    63,
    55,
    37,
    41,
    75,
    77,
    75,
    195,
    81,
    213,
    213,
    213,
    81,
    83,
    85,
    81,
    83,
    85,
    81,
    83,
    85,
    75,
    77,
    75,
    51,
    39,
    53,
    57,
    75,
    77,
    75,
    197,
    87,
    213,
    213,
    213,
    217,
    89,
    91,
    217,
    89,
    91,
    217,
    89,
    91,
    75,
    77,
    75,
    63,
    55,
    37,
    41,
    75,
    77,
    75,
    203,
    267,
    213,
    213,
    213,
    269,
    205,
    205,
    221,
    205,
    205,
    221,
    205,
    207,
    75,
    77,
    75,
    51,
    39,
    53,
    57,
    75,
    77,
    75,
    211,
    213,
    213,
    213,
    213,
    213,
    213,
    213,
    213,
    213,
    213,
    213,
    213,
    215,
    75,
    77,
    75,
    63,
    55,
    37,
    41,
    75,
    77,
    75,
    211,
    213,
    213,
    213,
    213,
    213,
    213,
    213,
    213,
    213,
    213,
    213,
    213,
    215,
    75,
    77,
    75,
    51,
    39,
    53,
    57,
    75,
    77,
    75,
    211,
    213,
    213,
    213,
    213,
    213,
    213,
    213,
    213,
    213,
    213,
    213,
    213,
    215,
    75,
    77,
    75,
    63,
    55,
    37,
    41,
    75,
    77,
    75,
    211,
    213,
    213,
    213,
    213,
    213,
    213,
    213,
    213,
    213,
    213,
    213,
    213,
    215,
    75,
    77,
    75,
    51,
    39,
    53,
    57,
    75,
    77,
    75,
    211,
    213,
    213,
    271,
    273,
    273,
    273,
    273,
    275,
    213,
    213,
    213,
    213,
    215,
    75,
    77,
    75,
    63,
    55,
    37,
    41,
    75,
    77,
    75,
    211,
    213,
    213,
    215,
    277,
    277,
    277,
    277,
    211,
    213,
    213,
    213,
    213,
    215,
    75,
    77,
    75,
    51,
    39,
    53,
    57,
    81,
    195,
    81,
    211,
    213,
    213,
    215,
    277,
    277,
    277,
    277,
    211,
    213,
    213,
    213,
    213,
    215,
    75,
    77,
    75,
    63,
    55,
    37,
    41,
    217,
    197,
    217,
    211,
    213,
    213,
    215,
    277,
    277,
    277,
    277,
    211,
    213,
    213,
    213,
    213,
    215,
    75,
    77,
    75,
    51,
    39,
    53,
    57,
    279,
    205,
    221,
    223,
    213,
    213,
    225,
    205,
    205,
    205,
    205,
    223,
    213,
    213,
    213,
    213,
    215,
    75,
    77,
    75,
    63,
    55,
    37,
    41,
    281,
    213,
    213,
    213,
    213,
    213,
    213,
    213,
    213,
    213,
    213,
    213,
    213,
    213,
    213,
    213,
    215,
    75,
    77,
    75,
    51,
    39,
    53,
    57,
    281,
    213,
    213,
    213,
    213,
    213,
    213,
    213,
    213,
    213,
    213,
    213,
    213,
    213,
    213,
    213,
    215,
    75,
    77,
    75,
    63,
    55,
    37,
    41,
    281,
    213,
    213,
    213,
    213,
    213,
    213,
    213,
    213,
    213,
    213,
    213,
    213,
    213,
    213,
    213,
    215,
    75,
    77,
    75,
    51,
    39,
    53,
    57,
    233,
    239,
    235,
    237,
    237,
    239,
    235,
    237,
    239,
    235,
    241,
    243,
    245,
    247,
    249,
    239,
    283,
    75,
    77,
    75,
    63,
    55,
    37,
    41,
    75,
    77,
    79,
    75,
    75,
    77,
    79,
    75,
    77,
    79,
    175,
    255,
    257,
    259,
    183,
    77,
    79,
    75,
    77,
    75,
    51,
    39,
    53,
    57,
    75,
    77,
    79,
    75,
    75,
    77,
    79,
    75,
    77,
    79,
    185,
    261,
    263,
    265,
    193,
    77,
    79,
    75,
    77,
    75,
    63,
    55,
    37,
    41,
    81,
    83,
    85,
    81,
    81,
    83,
    85,
    81,
    83,
    85,
    81,
    213,
    213,
    213,
    81,
    83,
    85,
    81,
    195,
    81,
    51,
    39,
    53,
    57,
    217,
    89,
    91,
    217,
    217,
    89,
    91,
    217,
    89,
    91,
    87,
    213,
    213,
    213,
    217,
    89,
    91,
    217,
    197,
    217,
    63,
    55,
    37,
    41,
    279,
    205,
    205,
    221,
    221,
    205,
    205,
    221,
    205,
    205,
    267,
    213,
    213,
    213,
    269,
    205,
    205,
    221,
    205,
    227,
    51,
    39,
    53,
    57,
    281,
    213,
    213,
    213,
    213,
    213,
    213,
    213,
    213,
    213,
    213,
    213,
    213,
    213,
    213,
    213,
    213,
    213,
    213,
    231,
    63,
    55,
    37,
    41,
    281,
    213,
    213,
    213,
    213,
    213,
    213,
    213,
    213,
    213,
    213,
    213,
    213,
    213,
    213,
    213,
    213,
    213,
    213,
    231,
    51,
    39,
    53,
    57,
    281,
    213,
    213,
    213,
    213,
    213,
    213,
    213,
    213,
    213,
    213,
    213,
    213,
    213,
    213,
    213,
    213,
    213,
    213,
    231,
    63,
    55,
    37,
    41,
    281,
    213,
    213,
    213,
    213,
    213,
    213,
    213,
    213,
    213,
    213,
    213,
    213,
    213,
    213,
    213,
    213,
    213,
    213,
    231,
    51,
    39,
    53,
    57,
    233,
    239,
    235,
    251,
    239,
    235,
    251,
    239,
    235,
    251,
    213,
    213,
    213,
    251,
    239,
    235,
    251,
    239,
    235,
    253,
    63,
    55,
    37,
    41,
    75,
    77,
    79,
    75,
    77,
    79,
    75,
    77,
    79,
    165,
    285,
    287,
    289,
    173,
    77,
    79,
    75,
    77,
    79,
    75,
    51,
    39,
    53,
    57,
    75,
    77,
    79,
    75,
    77,
    79,
    75,
    77,
    79,
    175,
    177,
    179,
    181,
    183,
    77,
    79,
    75,
    77,
    79,
    75,
    63,
    55,
    37,
    41,
    75,
    77,
    79,
    75,
    77,
    79,
    75,
    77,
    79,
    185,
    187,
    189,
    191,
    193,
    77,
    79,
    75,
    77,
    79,
    75,
    51,
    39,
    53,
    57,
    81,
    83,
    85,
    81,
    83,
    85,
    81,
    83,
    85,
    81,
    21,
    23,
    33,
    81,
    83,
    85,
    81,
    83,
    85,
    81,
    63,
    55,
    37,
    41,
    217,
    89,
    91,
    217,
    89,
    91,
    217,
    89,
    91,
    87,
    65,
    45,
    97,
    87,
    89,
    91,
    217,
    89,
    91,
    217,
    51,
    39,
    53,
    57,
    291,
    21,
    23,
    293,
    23,
    23,
    293,
    23,
    23,
    93,
    65,
    45,
    97,
    95,
    23,
    23,
    293,
    23,
    33,
    291,
    63,
    55,
    37,
    41,
    121,
    65,
    45,
    45,
    45,
    45,
    45,
    45,
    45,
    45,
    45,
    45,
    45,
    45,
    45,
    45,
    45,
    45,
    97,
    121,
    51,
    39,
    53,
    57,
    121,
    101,
    103,
    103,
    103,
    103,
    103,
    45,
    45,
    45,
    103,
    103,
    103,
    103,
    103,
    103,
    103,
    103,
    105,
    121,
    63,
    55,
    37,
    41,
    109,
    113,
    109,
    159,
    161,
    163,
    159,
    65,
    45,
    97,
    159,
    161,
    163,
    159,
    161,
    163,
    159,
    161,
    163,
    159,
    51,
    39,
    53,
    57,
    107,
    99,
    107,
    75,
    77,
    79,
    75,
    65,
    45,
    97,
    75,
    77,
    79,
    75,
    77,
    79,
    75,
    77,
    79,
    75,
    63,
    55,
    37,
    41,
    109,
    111,
    109,
    75,
    77,
    79,
    75,
    65,
    45,
    97,
    75,
    77,
    79,
    75,
    77,
    79,
    75,
    77,
    79,
    75,
    51,
    39,
    53,
    57,
    109,
    113,
    109,
    81,
    83,
    85,
    81,
    65,
    45,
    97,
    81,
    83,
    85,
    81,
    83,
    85,
    81,
    83,
    85,
    81,
    63,
    55,
    37,
    41,
    107,
    99,
    107,
    217,
    89,
    91,
    87,
    65,
    45,
    97,
    87,
    89,
    91,
    217,
    89,
    91,
    217,
    89,
    91,
    217,
    51,
    39,
    53,
    57,
    295,
    297,
    109,
    291,
    109,
    113,
    93,
    65,
    45,
    97,
    95,
    109,
    113,
    291,
    109,
    113,
    291,
    109,
    113,
    291,
    63,
    55,
    37,
    41,
    51,
    41,
    153,
    99,
    107,
    99,
    99,
    101,
    103,
    105,
    107,
    99,
    107,
    153,
    107,
    99,
    153,
    99,
    107,
    153,
    51,
    39,
    53,
    55,
    53,
    57,
    109,
    153,
    109,
    113,
    109,
    113,
    109,
    113,
    109,
    113,
    109,
    113,
    109,
    113,
    109,
    113,
    109,
    113,
    63,
    55,
    37,
    39,
    37,
    41,
    153,
    99,
    107,
    99,
    107,
    99,
    107,
    109,
    113,
    99,
    107,
    99,
    107,
    153,
    107,
    99,
    153,
    99,
    51,
    39,
    53,
    55,
    67,
    69,
    163,
    299,
    167,
    169,
    171,
    301,
    161,
    163,
    159,
    161,
    163,
    159,
    161,
    163,
    159,
    161,
    163,
    159,
    63,
    55,
    37,
    41,
    75,
    77,
    79,
    175,
    177,
    179,
    181,
    183,
    77,
    79,
    75,
    77,
    79,
    75,
    77,
    79,
    75,
    77,
    79,
    75,
    51,
    39,
    53,
    57,
    75,
    77,
    79,
    185,
    187,
    189,
    191,
    193,
    77,
    79,
    75,
    77,
    79,
    75,
    77,
    79,
    75,
    77,
    79,
    75,
    63,
    55,
    37,
    41,
    81,
    83,
    85,
    81,
    21,
    23,
    33,
    81,
    83,
    85,
    81,
    83,
    85,
    81,
    83,
    85,
    81,
    83,
    85,
    81,
    51,
    39,
    53,
    57,
    87,
    89,
    91,
    87,
    65,
    45,
    97,
    87,
    89,
    91,
    217,
    89,
    91,
    217,
    89,
    91,
    217,
    89,
    91,
    87,
    63,
    55,
    37,
    41,
    95,
    153,
    99,
    93,
    65,
    45,
    97,
    95,
    109,
    113,
    291,
    109,
    113,
    291,
    109,
    113,
    291,
    109,
    113,
    93,
    51,
    39,
    53,
    57,
    295,
    297,
    107,
    153,
    101,
    103,
    105,
    99,
    21,
    23,
    23,
    23,
    23,
    23,
    23,
    23,
    23,
    33,
    295,
    297,
    63,
    55,
    37,
    41,
    51,
    41,
    153,
    99,
    113,
    109,
    113,
    113,
    65,
    45,
    45,
    45,
    45,
    45,
    45,
    45,
    45,
    97,
    51,
    41,
    51,
    39,
    53,
    55,
    53,
    57,
    295,
    297,
    99,
    107,
    99,
    99,
    101,
    103,
    103,
    103,
    103,
    103,
    103,
    103,
    103,
    105,
    63,
    55,
    53,
    55,
    37,
    39,
    37,
    41,
    51,
    41,
    159,
    161,
    163,
    159,
    161,
    163,
    299,
    167,
    169,
    171,
    301,
    161,
    163,
    159,
    51,
    39,
    37,
    39,
    53,
    55,
    53,
    55,
    53,
    57,
    75,
    77,
    79,
    75,
    77,
    79,
    175,
    177,
    179,
    181,
    183,
    77,
    79,
    75,
    63,
    55,
    53,
    55,
    37,
    39,
    37,
    39,
    37,
    41,
    75,
    77,
    79,
    75,
    77,
    79,
    185,
    187,
    189,
    191,
    193,
    77,
    79,
    75,
    51,
    39,
    37,
    39,
    53,
    55,
    53,
    55,
    53,
    57,
    81,
    83,
    85,
    81,
    83,
    85,
    81,
    21,
    23,
    33,
    81,
    83,
    85,
    81,
    63,
    55,
    53,
    55,
    37,
    39,
    37,
    39,
    37,
    41,
    87,
    89,
    91,
    217,
    89,
    91,
    87,
    65,
    45,
    97,
    87,
    89,
    91,
    87,
    51,
    39,
    37,
    39,
    53,
    55,
    53,
    55,
    53,
    57,
    95,
    113,
    109,
    291,
    113,
    109,
    93,
    65,
    45,
    97,
    95,
    99,
    153,
    93,
    63,
    55,
    53,
    55,
    37,
    39,
    37,
    39,
    37,
    41,
    303,
    21,
    23,
    23,
    23,
    23,
    23,
    45,
    45,
    97,
    99,
    107,
    99,
    153,
    51,
    39,
    37,
    39,
    53,
    55,
    53,
    55,
    305,
    307,
    303,
    65,
    45,
    45,
    45,
    45,
    45,
    45,
    45,
    97,
    107,
    99,
    153,
    99,
    309,
    311,
    53,
    55,
    37,
    39,
    37,
    41,
    303,
    303,
    303,
    65,
    45,
    45,
    103,
    103,
    103,
    103,
    103,
    105,
    109,
    153,
    109,
    153,
    109,
    153,
    51,
    39,
    313,
    315,
    317,
    307,
    319,
    319,
    321,
    323,
    325,
    327,
    329,
    319,
    319,
    319,
    331,
    117,
    117,
    117,
    117,
    117,
    333,
    319,
    63,
    55,
    1,
    1,
    135,
    119,
    335,
    337,
    337,
    339,
    339,
    339,
    337,
    337,
    341,
    115,
    133,
    1,
    1,
    1,
    1,
    1,
    135,
    119,
    51,
    39,
    1,
    1,
    135,
    131,
    343,
    345,
    345,
    345,
    345,
    345,
    345,
    345,
    347,
    123,
    133,
    1,
    1,
    1,
    1,
    1,
    135,
    131,
    63,
    55,
    1,
    1,
    135,
    131,
    343,
    345,
    345,
    345,
    345,
    345,
    345,
    345,
    347,
    123,
    133,
    1,
    1,
    1,
    1,
    1,
    135,
    131,
    51,
    39,
    1,
    1,
    135,
    131,
    343,
    345,
    345,
    345,
    345,
    345,
    345,
    345,
    347,
    123,
    133,
    1,
    1,
    1,
    1,
    1,
    135,
    131,
    309,
    311,
    1,
    1,
    135,
    131,
    343,
    345,
    345,
    345,
    345,
    345,
    345,
    345,
    347,
    123,
    133,
    1,
    1,
    1,
    1,
    1,
    137,
    137,
    117,
    117,
    1,
    1,
    135,
    131,
    343,
    345,
    345,
    345,
    345,
    345,
    345,
    345,
    347,
    123,
    133,
    1,
    1,
    1,
    1,
    1,
    1,
    1,
    1,
    1
   ],
   "opacity": 1,
   "visible": true,
   "x": 0,
   "y": 0
  },
  {
   "id": 2,
   "name": "deco_sotto",
   "type": "tilelayer",
   "width": 24,
   "height": 160,
   "data": [
    0,
    0,
    0,
    0,
    0,
    0,
    4,
    0,
    0,
    8,
    10,
    12,
    12,
    8,
    0,
    0,
    14,
    0,
    0,
    0,
    0,
    0,
    0,
    0,
    16,
    18,
    16,
    18,
    16,
    18,
    0,
    22,
    24,
    0,
    28,
    30,
    30,
    0,
    24,
    34,
    0,
    0,
    16,
    18,
    16,
    18,
    16,
    18,
    0,
    0,
    0,
    0,
    0,
    0,
    0,
    46,
    0,
    46,
    46,
    46,
    46,
    46,
    46,
    46,
    24,
    0,
    0,
    0,
    0,
    0,
    0,
    0,
    54,
    56,
    54,
    56,
    54,
    58,
    0,
    46,
    0,
    0,
    46,
    46,
    0,
    46,
    0,
    46,
    46,
    0,
    64,
    56,
    54,
    56,
    54,
    56,
    0,
    0,
    0,
    0,
    0,
    0,
    66,
    0,
    46,
    0,
    46,
    46,
    0,
    46,
    0,
    46,
    0,
    0,
    0,
    0,
    0,
    0,
    0,
    0,
    54,
    58,
    68,
    70,
    72,
    74,
    0,
    46,
    46,
    46,
    0,
    46,
    46,
    0,
    46,
    46,
    0,
    0,
    68,
    70,
    72,
    74,
    64,
    56,
    0,
    0,
    76,
    78,
    80,
    76,
    0,
    46,
    46,
    46,
    0,
    46,
    46,
    0,
    46,
    46,
    46,
    0,
    76,
    78,
    80,
    76,
    0,
    0,
    54,
    58,
    76,
    78,
    80,
    76,
    46,
    46,
    0,
    46,
    0,
    46,
    0,
    46,
    46,
    46,
    46,
    46,
    76,
    78,
    80,
    76,
    64,
    56,
    0,
    0,
    76,
    78,
    80,
    76,
    46,
    46,
    0,
    46,
    0,
    46,
    0,
    46,
    46,
    46,
    0,
    46,
    76,
    78,
    80,
    76,
    0,
    0,
    54,
    58,
    76,
    78,
    80,
    76,
    0,
    46,
    46,
    0,
    46,
    0,
    46,
    0,
    46,
    46,
    0,
    46,
    76,
    78,
    80,
    76,
    64,
    56,
    0,
    0,
    76,
    78,
    80,
    76,
    0,
    46,
    46,
    0,
    46,
    0,
    46,
    0,
    46,
    46,
    0,
    46,
    76,
    78,
    80,
    76,
    0,
    0,
    54,
    58,
    76,
    78,
    80,
    76,
    46,
    0,
    46,
    46,
    0,
    46,
    46,
    0,
    46,
    46,
    46,
    46,
    76,
    78,
    80,
    76,
    64,
    56,
    0,
    0,
    76,
    78,
    80,
    76,
    0,
    0,
    0,
    46,
    0,
    46,
    46,
    0,
    46,
    0,
    46,
    46,
    76,
    78,
    80,
    76,
    0,
    0,
    54,
    58,
    76,
    78,
    80,
    76,
    0,
    46,
    0,
    46,
    0,
    46,
    46,
    0,
    46,
    0,
    46,
    46,
    76,
    78,
    80,
    76,
    64,
    56,
    0,
    0,
    82,
    84,
    86,
    82,
    0,
    46,
    0,
    46,
    0,
    46,
    46,
    0,
    46,
    0,
    46,
    0,
    82,
    84,
    86,
    82,
    0,
    0,
    54,
    58,
    88,
    0,
    0,
    88,
    0,
    46,
    0,
    46,
    46,
    46,
    46,
    46,
    46,
    0,
    46,
    0,
    88,
    0,
    0,
    88,
    64,
    56,
    0,
    0,
    0,
    66,
    46,
    0,
    46,
    46,
    46,
    46,
    46,
    46,
    46,
    46,
    46,
    46,
    46,
    46,
    0,
    46,
    98,
    0,
    0,
    0,
    54,
    58,
    100,
    102,
    104,
    104,
    104,
    104,
    46,
    46,
    46,
    46,
    46,
    46,
    46,
    46,
    46,
    104,
    104,
    104,
    106,
    108,
    64,
    56,
    0,
    0,
    110,
    112,
    108,
    100,
    108,
    100,
    102,
    104,
    104,
    104,
    104,
    104,
    104,
    104,
    106,
    100,
    108,
    100,
    108,
    100,
    0,
    0,
    54,
    58,
    110,
    114,
    110,
    114,
    110,
    114,
    110,
    114,
    110,
    114,
    110,
    114,
    110,
    114,
    110,
    114,
    110,
    114,
    110,
    114,
    64,
    56,
    0,
    0,
    0,
    0,
    0,
    0,
    0,
    0,
    0,
    0,
    0,
    0,
    0,
    0,
    0,
    0,
    0,
    0,
    0,
    108,
    100,
    122,
    0,
    0,
    54,
    58,
    0,
    0,
    0,
    0,
    0,
    0,
    0,
    0,
    0,
    0,
    0,
    0,
    0,
    0,
    0,
    0,
    0,
    110,
    114,
    122,
    64,
    56,
    0,
    0,
    0,
    134,
    0,
    0,
    0,
    0,
    0,
    0,
    0,
    0,
    0,
    0,
    0,
    0,
    0,
    136,
    0,
    108,
    100,
    122,
    0,
    0,
    54,
    58,
    0,
    134,
    0,
    0,
    0,
    0,
    0,
    0,
    0,
    0,
    0,
    0,
    0,
    0,
    0,
    136,
    0,
    108,
    100,
    122,
    64,
    56,
    0,
    0,
    0,
    134,
    0,
    0,
    0,
    0,
    0,
    0,
    0,
    0,
    0,
    0,
    0,
    0,
    0,
    136,
    0,
    110,
    114,
    122,
    0,
    0,
    54,
    58,
    0,
    134,
    0,
    0,
    0,
    0,
    0,
    0,
    0,
    0,
    0,
    0,
    0,
    0,
    0,
    0,
    0,
    0,
    122,
    122,
    64,
    56,
    0,
    0,
    0,
    134,
    0,
    0,
    0,
    0,
    0,
    0,
    0,
    0,
    0,
    0,
    0,
    0,
    0,
    0,
    0,
    136,
    0,
    122,
    0,
    0,
    54,
    58,
    0,
    140,
    142,
    142,
    142,
    142,
    142,
    142,
    14,
    0,
    0,
    0,
    0,
    4,
    142,
    142,
    142,
    144,
    0,
    122,
    64,
    56,
    0,
    0,
    0,
    146,
    0,
    0,
    0,
    146,
    0,
    14,
    134,
    0,
    0,
    0,
    0,
    136,
    4,
    0,
    0,
    0,
    0,
    122,
    0,
    0,
    54,
    58,
    112,
    0,
    22,
    24,
    34,
    0,
    0,
    0,
    134,
    0,
    0,
    0,
    0,
    136,
    0,
    114,
    100,
    114,
    100,
    108,
    64,
    56,
    0,
    0,
    114,
    100,
    66,
    46,
    98,
    114,
    100,
    0,
    134,
    0,
    0,
    0,
    0,
    136,
    0,
    110,
    114,
    110,
    114,
    110,
    0,
    0,
    54,
    58,
    114,
    0,
    66,
    46,
    98,
    110,
    0,
    0,
    134,
    0,
    0,
    0,
    0,
    136,
    0,
    0,
    108,
    110,
    100,
    110,
    64,
    56,
    0,
    0,
    100,
    110,
    66,
    46,
    98,
    114,
    100,
    0,
    134,
    0,
    0,
    0,
    0,
    136,
    0,
    114,
    0,
    100,
    0,
    110,
    0,
    0,
    54,
    58,
    0,
    110,
    66,
    46,
    98,
    110,
    114,
    0,
    134,
    0,
    0,
    0,
    0,
    136,
    0,
    0,
    0,
    0,
    0,
    0,
    64,
    56,
    0,
    0,
    110,
    156,
    66,
    46,
    98,
    156,
    0,
    0,
    134,
    0,
    0,
    0,
    0,
    0,
    0,
    0,
    0,
    0,
    0,
    0,
    0,
    0,
    54,
    58,
    0,
    0,
    66,
    46,
    98,
    0,
    110,
    0,
    134,
    0,
    0,
    0,
    0,
    0,
    0,
    0,
    136,
    0,
    0,
    0,
    64,
    56,
    0,
    0,
    114,
    100,
    66,
    46,
    98,
    114,
    0,
    0,
    134,
    0,
    0,
    0,
    0,
    0,
    0,
    0,
    136,
    0,
    0,
    0,
    0,
    0,
    54,
    58,
    110,
    114,
    66,
    46,
    98,
    110,
    114,
    0,
    140,
    14,
    0,
    0,
    0,
    0,
    0,
    0,
    136,
    0,
    0,
    0,
    64,
    56,
    0,
    0,
    114,
    0,
    66,
    46,
    98,
    114,
    0,
    0,
    0,
    134,
    0,
    0,
    0,
    0,
    0,
    0,
    136,
    0,
    0,
    0,
    0,
    0,
    54,
    58,
    110,
    114,
    66,
    46,
    98,
    108,
    0,
    0,
    0,
    140,
    142,
    142,
    142,
    142,
    142,
    142,
    144,
    0,
    0,
    0,
    64,
    56,
    0,
    0,
    0,
    156,
    66,
    46,
    98,
    156,
    114,
    0,
    0,
    0,
    0,
    0,
    0,
    0,
    0,
    0,
    0,
    0,
    0,
    0,
    0,
    0,
    54,
    58,
    108,
    0,
    66,
    46,
    98,
    0,
    100,
    0,
    0,
    0,
    0,
    0,
    0,
    0,
    0,
    0,
    0,
    0,
    0,
    0,
    64,
    56,
    0,
    0,
    0,
    100,
    102,
    104,
    106,
    114,
    100,
    114,
    0,
    0,
    0,
    158,
    158,
    158,
    158,
    108,
    100,
    0,
    100,
    100,
    0,
    0,
    54,
    58,
    110,
    0,
    114,
    110,
    114,
    110,
    114,
    110,
    100,
    0,
    0,
    158,
    158,
    158,
    108,
    110,
    114,
    110,
    114,
    114,
    64,
    56,
    0,
    0,
    160,
    162,
    164,
    160,
    110,
    114,
    100,
    114,
    114,
    0,
    0,
    158,
    158,
    158,
    110,
    114,
    110,
    114,
    110,
    114,
    0,
    0,
    54,
    58,
    76,
    78,
    80,
    76,
    108,
    110,
    114,
    110,
    100,
    122,
    0,
    0,
    0,
    108,
    22,
    24,
    24,
    24,
    24,
    34,
    64,
    56,
    0,
    0,
    76,
    78,
    80,
    76,
    162,
    164,
    160,
    110,
    114,
    122,
    0,
    0,
    0,
    110,
    66,
    46,
    46,
    46,
    46,
    98,
    0,
    0,
    54,
    58,
    76,
    78,
    80,
    76,
    78,
    80,
    76,
    108,
    100,
    122,
    108,
    100,
    122,
    108,
    102,
    104,
    104,
    104,
    104,
    106,
    64,
    56,
    0,
    0,
    76,
    78,
    80,
    76,
    78,
    80,
    76,
    22,
    24,
    24,
    24,
    24,
    34,
    110,
    114,
    110,
    0,
    110,
    0,
    110,
    0,
    0,
    54,
    58,
    76,
    78,
    80,
    76,
    78,
    80,
    76,
    66,
    46,
    46,
    46,
    46,
    98,
    108,
    100,
    0,
    100,
    0,
    100,
    108,
    64,
    56,
    0,
    0,
    82,
    84,
    86,
    82,
    84,
    86,
    82,
    102,
    104,
    104,
    46,
    46,
    98,
    110,
    114,
    110,
    114,
    110,
    114,
    110,
    0,
    0,
    54,
    58,
    88,
    0,
    0,
    88,
    0,
    0,
    88,
    114,
    110,
    114,
    66,
    46,
    98,
    160,
    162,
    164,
    160,
    160,
    162,
    160,
    64,
    56,
    0,
    0,
    0,
    110,
    114,
    0,
    110,
    114,
    0,
    100,
    108,
    100,
    66,
    46,
    98,
    76,
    78,
    80,
    76,
    76,
    78,
    76,
    0,
    0,
    54,
    58,
    110,
    114,
    110,
    114,
    110,
    114,
    110,
    114,
    110,
    114,
    66,
    46,
    98,
    76,
    78,
    80,
    76,
    76,
    78,
    76,
    64,
    56,
    0,
    0,
    160,
    162,
    164,
    160,
    162,
    160,
    160,
    162,
    164,
    160,
    102,
    104,
    106,
    76,
    78,
    80,
    76,
    76,
    78,
    76,
    0,
    0,
    54,
    58,
    76,
    78,
    80,
    76,
    78,
    76,
    76,
    78,
    80,
    166,
    168,
    170,
    172,
    174,
    78,
    80,
    76,
    76,
    78,
    76,
    64,
    56,
    0,
    0,
    76,
    78,
    80,
    76,
    78,
    76,
    76,
    78,
    80,
    176,
    178,
    180,
    182,
    184,
    78,
    80,
    76,
    76,
    78,
    76,
    0,
    0,
    54,
    58,
    76,
    78,
    80,
    76,
    78,
    76,
    76,
    78,
    80,
    186,
    188,
    190,
    192,
    194,
    78,
    80,
    76,
    76,
    78,
    76,
    64,
    56,
    0,
    0,
    76,
    78,
    80,
    76,
    78,
    76,
    76,
    78,
    80,
    76,
    22,
    24,
    34,
    76,
    78,
    80,
    76,
    76,
    78,
    76,
    0,
    0,
    54,
    58,
    76,
    78,
    80,
    76,
    78,
    76,
    82,
    84,
    86,
    82,
    66,
    46,
    98,
    82,
    84,
    86,
    82,
    76,
    78,
    76,
    64,
    56,
    0,
    0,
    76,
    78,
    80,
    76,
    78,
    76,
    88,
    0,
    0,
    88,
    66,
    46,
    98,
    88,
    0,
    0,
    88,
    76,
    78,
    76,
    0,
    0,
    54,
    58,
    76,
    78,
    80,
    76,
    78,
    76,
    0,
    158,
    158,
    0,
    66,
    46,
    98,
    0,
    0,
    114,
    0,
    76,
    78,
    76,
    64,
    56,
    0,
    0,
    76,
    78,
    80,
    76,
    78,
    76,
    158,
    158,
    158,
    158,
    102,
    104,
    106,
    122,
    122,
    108,
    0,
    76,
    78,
    76,
    0,
    0,
    54,
    58,
    76,
    78,
    80,
    76,
    78,
    76,
    158,
    158,
    158,
    158,
    158,
    108,
    100,
    108,
    0,
    110,
    122,
    76,
    78,
    76,
    64,
    56,
    0,
    0,
    76,
    78,
    80,
    76,
    78,
    76,
    158,
    158,
    158,
    0,
    0,
    110,
    114,
    110,
    122,
    122,
    0,
    76,
    78,
    76,
    0,
    0,
    54,
    58,
    76,
    78,
    80,
    76,
    78,
    76,
    158,
    158,
    158,
    0,
    0,
    158,
    158,
    158,
    158,
    158,
    158,
    76,
    78,
    76,
    64,
    56,
    0,
    0,
    76,
    78,
    80,
    76,
    78,
    76,
    0,
    114,
    110,
    114,
    0,
    158,
    158,
    158,
    158,
    158,
    158,
    76,
    78,
    76,
    0,
    0,
    54,
    58,
    76,
    78,
    80,
    76,
    78,
    76,
    0,
    110,
    112,
    122,
    0,
    158,
    158,
    158,
    158,
    158,
    158,
    76,
    78,
    76,
    64,
    56,
    0,
    0,
    76,
    78,
    80,
    76,
    78,
    76,
    0,
    100,
    108,
    110,
    0,
    100,
    108,
    0,
    0,
    100,
    108,
    76,
    78,
    76,
    0,
    0,
    54,
    58,
    76,
    78,
    80,
    76,
    78,
    76,
    0,
    114,
    110,
    114,
    0,
    114,
    110,
    0,
    0,
    114,
    110,
    76,
    78,
    76,
    64,
    56,
    0,
    0,
    76,
    78,
    80,
    76,
    78,
    76,
    158,
    158,
    158,
    0,
    0,
    100,
    108,
    122,
    0,
    100,
    108,
    76,
    78,
    76,
    0,
    0,
    54,
    58,
    76,
    78,
    80,
    76,
    78,
    76,
    158,
    158,
    158,
    0,
    0,
    114,
    110,
    122,
    0,
    114,
    110,
    82,
    196,
    82,
    64,
    56,
    0,
    0,
    76,
    78,
    80,
    76,
    78,
    76,
    114,
    110,
    158,
    158,
    158,
    100,
    108,
    0,
    100,
    108,
    110,
    88,
    0,
    88,
    0,
    0,
    54,
    58,
    76,
    78,
    80,
    76,
    78,
    76,
    0,
    122,
    158,
    158,
    158,
    114,
    110,
    0,
    114,
    108,
    110,
    0,
    158,
    0,
    64,
    56,
    0,
    0,
    76,
    78,
    80,
    76,
    78,
    76,
    0,
    0,
    100,
    108,
    100,
    122,
    0,
    110,
    0,
    100,
    158,
    158,
    158,
    158,
    0,
    0,
    54,
    58,
    76,
    78,
    80,
    76,
    78,
    76,
    0,
    0,
    114,
    110,
    114,
    0,
    100,
    0,
    110,
    114,
    158,
    158,
    158,
    158,
    64,
    56,
    0,
    0,
    76,
    78,
    80,
    76,
    78,
    76,
    0,
    0,
    100,
    108,
    100,
    122,
    114,
    110,
    122,
    110,
    158,
    158,
    158,
    158,
    0,
    0,
    54,
    58,
    76,
    78,
    80,
    76,
    78,
    76,
    200,
    200,
    200,
    200,
    200,
    200,
    200,
    200,
    202,
    100,
    108,
    100,
    108,
    100,
    64,
    56,
    0,
    0,
    76,
    78,
    80,
    76,
    78,
    76,
    204,
    206,
    206,
    206,
    206,
    206,
    206,
    208,
    210,
    162,
    160,
    162,
    164,
    160,
    0,
    0,
    54,
    58,
    76,
    78,
    80,
    76,
    78,
    76,
    212,
    0,
    0,
    0,
    0,
    0,
    0,
    216,
    76,
    78,
    76,
    78,
    80,
    76,
    64,
    56,
    0,
    0,
    76,
    78,
    80,
    76,
    78,
    76,
    212,
    0,
    0,
    0,
    0,
    0,
    0,
    216,
    76,
    78,
    76,
    78,
    80,
    76,
    0,
    0,
    54,
    58,
    82,
    84,
    86,
    82,
    196,
    82,
    212,
    0,
    0,
    0,
    0,
    0,
    0,
    216,
    82,
    196,
    82,
    84,
    86,
    82,
    64,
    56,
    0,
    0,
    0,
    0,
    0,
    0,
    0,
    0,
    212,
    0,
    0,
    0,
    0,
    0,
    0,
    216,
    0,
    0,
    0,
    0,
    0,
    0,
    0,
    0,
    54,
    58,
    0,
    206,
    206,
    0,
    206,
    0,
    224,
    0,
    0,
    0,
    0,
    0,
    0,
    226,
    0,
    206,
    0,
    206,
    206,
    0,
    64,
    56,
    0,
    0,
    230,
    0,
    0,
    0,
    0,
    0,
    0,
    0,
    0,
    0,
    0,
    0,
    0,
    0,
    0,
    0,
    0,
    0,
    0,
    232,
    0,
    0,
    54,
    58,
    230,
    0,
    0,
    0,
    0,
    0,
    0,
    0,
    0,
    0,
    0,
    0,
    0,
    0,
    0,
    0,
    0,
    0,
    0,
    232,
    64,
    56,
    0,
    0,
    230,
    0,
    0,
    0,
    0,
    0,
    0,
    0,
    0,
    0,
    0,
    0,
    0,
    0,
    0,
    0,
    0,
    0,
    0,
    232,
    0,
    0,
    54,
    58,
    230,
    0,
    0,
    0,
    0,
    0,
    0,
    0,
    0,
    0,
    0,
    0,
    0,
    0,
    0,
    0,
    0,
    0,
    0,
    232,
    64,
    56,
    0,
    0,
    230,
    0,
    0,
    0,
    0,
    0,
    0,
    0,
    0,
    0,
    0,
    0,
    0,
    0,
    0,
    0,
    0,
    0,
    0,
    232,
    0,
    0,
    54,
    58,
    234,
    236,
    238,
    240,
    242,
    244,
    246,
    248,
    250,
    240,
    236,
    252,
    240,
    236,
    252,
    240,
    236,
    252,
    240,
    254,
    64,
    56,
    0,
    0,
    76,
    78,
    76,
    78,
    176,
    256,
    258,
    260,
    184,
    78,
    80,
    76,
    78,
    80,
    76,
    78,
    80,
    76,
    78,
    76,
    0,
    0,
    54,
    58,
    76,
    78,
    76,
    78,
    186,
    262,
    264,
    266,
    194,
    78,
    80,
    76,
    78,
    80,
    76,
    78,
    80,
    76,
    78,
    76,
    64,
    56,
    0,
    0,
    76,
    78,
    76,
    196,
    82,
    0,
    0,
    0,
    82,
    84,
    86,
    82,
    84,
    86,
    82,
    84,
    86,
    76,
    78,
    76,
    0,
    0,
    54,
    58,
    76,
    78,
    76,
    0,
    88,
    0,
    0,
    0,
    0,
    0,
    0,
    0,
    0,
    0,
    0,
    0,
    0,
    76,
    78,
    76,
    64,
    56,
    0,
    0,
    76,
    78,
    76,
    204,
    0,
    0,
    0,
    0,
    0,
    206,
    206,
    0,
    206,
    206,
    0,
    206,
    208,
    76,
    78,
    76,
    0,
    0,
    54,
    58,
    76,
    78,
    76,
    212,
    0,
    0,
    0,
    0,
    0,
    0,
    0,
    0,
    0,
    0,
    0,
    0,
    216,
    76,
    78,
    76,
    64,
    56,
    0,
    0,
    76,
    78,
    76,
    212,
    0,
    0,
    0,
    0,
    0,
    0,
    0,
    0,
    0,
    0,
    0,
    0,
    216,
    76,
    78,
    76,
    0,
    0,
    54,
    58,
    76,
    78,
    76,
    212,
    0,
    0,
    0,
    0,
    0,
    0,
    0,
    0,
    0,
    0,
    0,
    0,
    216,
    76,
    78,
    76,
    64,
    56,
    0,
    0,
    76,
    78,
    76,
    212,
    0,
    0,
    0,
    0,
    0,
    0,
    0,
    0,
    0,
    0,
    0,
    0,
    216,
    76,
    78,
    76,
    0,
    0,
    54,
    58,
    76,
    78,
    76,
    212,
    0,
    0,
    272,
    274,
    274,
    274,
    274,
    276,
    0,
    0,
    0,
    0,
    216,
    76,
    78,
    76,
    64,
    56,
    0,
    0,
    76,
    78,
    76,
    212,
    0,
    0,
    216,
    278,
    278,
    278,
    278,
    212,
    0,
    0,
    0,
    0,
    216,
    76,
    78,
    76,
    0,
    0,
    54,
    58,
    82,
    196,
    82,
    212,
    0,
    0,
    216,
    278,
    278,
    278,
    278,
    212,
    0,
    0,
    0,
    0,
    216,
    76,
    78,
    76,
    64,
    56,
    0,
    0,
    0,
    0,
    0,
    212,
    0,
    0,
    216,
    278,
    278,
    278,
    278,
    212,
    0,
    0,
    0,
    0,
    216,
    76,
    78,
    76,
    0,
    0,
    54,
    58,
    0,
    206,
    0,
    224,
    0,
    0,
    226,
    206,
    206,
    206,
    206,
    224,
    0,
    0,
    0,
    0,
    216,
    76,
    78,
    76,
    64,
    56,
    0,
    0,
    282,
    0,
    0,
    0,
    0,
    0,
    0,
    0,
    0,
    0,
    0,
    0,
    0,
    0,
    0,
    0,
    216,
    76,
    78,
    76,
    0,
    0,
    54,
    58,
    282,
    0,
    0,
    0,
    0,
    0,
    0,
    0,
    0,
    0,
    0,
    0,
    0,
    0,
    0,
    0,
    216,
    76,
    78,
    76,
    64,
    56,
    0,
    0,
    282,
    0,
    0,
    0,
    0,
    0,
    0,
    0,
    0,
    0,
    0,
    0,
    0,
    0,
    0,
    0,
    216,
    76,
    78,
    76,
    0,
    0,
    54,
    58,
    234,
    240,
    236,
    238,
    238,
    240,
    236,
    238,
    240,
    236,
    242,
    244,
    246,
    248,
    250,
    240,
    284,
    76,
    78,
    76,
    64,
    56,
    0,
    0,
    76,
    78,
    80,
    76,
    76,
    78,
    80,
    76,
    78,
    80,
    176,
    256,
    258,
    260,
    184,
    78,
    80,
    76,
    78,
    76,
    0,
    0,
    54,
    58,
    76,
    78,
    80,
    76,
    76,
    78,
    80,
    76,
    78,
    80,
    186,
    262,
    264,
    266,
    194,
    78,
    80,
    76,
    78,
    76,
    64,
    56,
    0,
    0,
    82,
    84,
    86,
    82,
    82,
    84,
    86,
    82,
    84,
    86,
    82,
    0,
    0,
    0,
    82,
    84,
    86,
    82,
    196,
    82,
    0,
    0,
    54,
    58,
    0,
    0,
    0,
    0,
    0,
    0,
    0,
    0,
    0,
    0,
    88,
    0,
    0,
    0,
    0,
    0,
    0,
    0,
    0,
    0,
    64,
    56,
    0,
    0,
    0,
    206,
    206,
    0,
    0,
    206,
    206,
    0,
    206,
    206,
    0,
    0,
    0,
    0,
    0,
    206,
    206,
    0,
    206,
    0,
    0,
    0,
    54,
    58,
    282,
    0,
    0,
    0,
    0,
    0,
    0,
    0,
    0,
    0,
    0,
    0,
    0,
    0,
    0,
    0,
    0,
    0,
    0,
    232,
    64,
    56,
    0,
    0,
    282,
    0,
    0,
    0,
    0,
    0,
    0,
    0,
    0,
    0,
    0,
    0,
    0,
    0,
    0,
    0,
    0,
    0,
    0,
    232,
    0,
    0,
    54,
    58,
    282,
    0,
    0,
    0,
    0,
    0,
    0,
    0,
    0,
    0,
    0,
    0,
    0,
    0,
    0,
    0,
    0,
    0,
    0,
    232,
    64,
    56,
    0,
    0,
    282,
    0,
    0,
    0,
    0,
    0,
    0,
    0,
    0,
    0,
    0,
    0,
    0,
    0,
    0,
    0,
    0,
    0,
    0,
    232,
    0,
    0,
    54,
    58,
    234,
    240,
    236,
    252,
    240,
    236,
    252,
    240,
    236,
    252,
    0,
    0,
    0,
    252,
    240,
    236,
    252,
    240,
    236,
    254,
    64,
    56,
    0,
    0,
    76,
    78,
    80,
    76,
    78,
    80,
    76,
    78,
    80,
    166,
    286,
    288,
    290,
    174,
    78,
    80,
    76,
    78,
    80,
    76,
    0,
    0,
    54,
    58,
    76,
    78,
    80,
    76,
    78,
    80,
    76,
    78,
    80,
    176,
    178,
    180,
    182,
    184,
    78,
    80,
    76,
    78,
    80,
    76,
    64,
    56,
    0,
    0,
    76,
    78,
    80,
    76,
    78,
    80,
    76,
    78,
    80,
    186,
    188,
    190,
    192,
    194,
    78,
    80,
    76,
    78,
    80,
    76,
    0,
    0,
    54,
    58,
    82,
    84,
    86,
    82,
    84,
    86,
    82,
    84,
    86,
    82,
    22,
    24,
    34,
    82,
    84,
    86,
    82,
    84,
    86,
    82,
    64,
    56,
    0,
    0,
    0,
    0,
    0,
    0,
    0,
    0,
    0,
    0,
    0,
    88,
    66,
    46,
    98,
    88,
    0,
    0,
    0,
    0,
    0,
    0,
    0,
    0,
    54,
    58,
    0,
    22,
    24,
    0,
    24,
    24,
    0,
    24,
    24,
    0,
    66,
    46,
    98,
    0,
    24,
    24,
    0,
    24,
    34,
    0,
    64,
    56,
    0,
    0,
    122,
    66,
    46,
    46,
    46,
    46,
    46,
    46,
    46,
    46,
    46,
    46,
    46,
    46,
    46,
    46,
    46,
    46,
    98,
    122,
    0,
    0,
    54,
    58,
    122,
    102,
    104,
    104,
    104,
    104,
    104,
    46,
    46,
    46,
    104,
    104,
    104,
    104,
    104,
    104,
    104,
    104,
    106,
    122,
    64,
    56,
    0,
    0,
    110,
    114,
    110,
    160,
    162,
    164,
    160,
    66,
    46,
    98,
    160,
    162,
    164,
    160,
    162,
    164,
    160,
    162,
    164,
    160,
    0,
    0,
    54,
    58,
    108,
    100,
    108,
    76,
    78,
    80,
    76,
    66,
    46,
    98,
    76,
    78,
    80,
    76,
    78,
    80,
    76,
    78,
    80,
    76,
    64,
    56,
    0,
    0,
    110,
    112,
    110,
    76,
    78,
    80,
    76,
    66,
    46,
    98,
    76,
    78,
    80,
    76,
    78,
    80,
    76,
    78,
    80,
    76,
    0,
    0,
    54,
    58,
    110,
    114,
    110,
    82,
    84,
    86,
    82,
    66,
    46,
    98,
    82,
    84,
    86,
    82,
    84,
    86,
    82,
    84,
    86,
    82,
    64,
    56,
    0,
    0,
    108,
    100,
    108,
    0,
    0,
    0,
    88,
    66,
    46,
    98,
    88,
    0,
    0,
    0,
    0,
    0,
    0,
    0,
    0,
    0,
    0,
    0,
    54,
    58,
    296,
    298,
    110,
    0,
    110,
    114,
    0,
    66,
    46,
    98,
    0,
    110,
    114,
    0,
    110,
    114,
    0,
    110,
    114,
    0,
    64,
    56,
    0,
    0,
    0,
    0,
    0,
    100,
    108,
    100,
    100,
    102,
    104,
    106,
    108,
    100,
    108,
    0,
    108,
    100,
    0,
    100,
    108,
    0,
    0,
    0,
    54,
    56,
    54,
    58,
    110,
    0,
    110,
    114,
    110,
    114,
    110,
    114,
    110,
    114,
    110,
    114,
    110,
    114,
    110,
    114,
    110,
    114,
    64,
    56,
    0,
    0,
    0,
    0,
    0,
    100,
    108,
    100,
    108,
    100,
    108,
    110,
    114,
    100,
    108,
    100,
    108,
    0,
    108,
    100,
    0,
    100,
    0,
    0,
    54,
    56,
    68,
    70,
    164,
    300,
    168,
    170,
    172,
    302,
    162,
    164,
    160,
    162,
    164,
    160,
    162,
    164,
    160,
    162,
    164,
    160,
    64,
    56,
    0,
    0,
    76,
    78,
    80,
    176,
    178,
    180,
    182,
    184,
    78,
    80,
    76,
    78,
    80,
    76,
    78,
    80,
    76,
    78,
    80,
    76,
    0,
    0,
    54,
    58,
    76,
    78,
    80,
    186,
    188,
    190,
    192,
    194,
    78,
    80,
    76,
    78,
    80,
    76,
    78,
    80,
    76,
    78,
    80,
    76,
    64,
    56,
    0,
    0,
    82,
    84,
    86,
    82,
    22,
    24,
    34,
    82,
    84,
    86,
    82,
    84,
    86,
    82,
    84,
    86,
    82,
    84,
    86,
    82,
    0,
    0,
    54,
    58,
    88,
    0,
    0,
    88,
    66,
    46,
    98,
    88,
    0,
    0,
    0,
    0,
    0,
    0,
    0,
    0,
    0,
    0,
    0,
    88,
    64,
    56,
    0,
    0,
    0,
    0,
    100,
    0,
    66,
    46,
    98,
    0,
    110,
    114,
    0,
    110,
    114,
    0,
    110,
    114,
    0,
    110,
    114,
    0,
    0,
    0,
    54,
    58,
    296,
    298,
    108,
    0,
    102,
    104,
    106,
    100,
    22,
    24,
    24,
    24,
    24,
    24,
    24,
    24,
    24,
    34,
    296,
    298,
    64,
    56,
    0,
    0,
    0,
    0,
    0,
    100,
    114,
    110,
    114,
    114,
    66,
    46,
    46,
    46,
    46,
    46,
    46,
    46,
    46,
    98,
    0,
    0,
    0,
    0,
    54,
    56,
    54,
    58,
    296,
    298,
    100,
    108,
    100,
    100,
    102,
    104,
    104,
    104,
    104,
    104,
    104,
    104,
    104,
    106,
    64,
    56,
    54,
    56,
    0,
    0,
    0,
    0,
    0,
    0,
    160,
    162,
    164,
    160,
    162,
    164,
    300,
    168,
    170,
    172,
    302,
    162,
    164,
    160,
    0,
    0,
    0,
    0,
    54,
    56,
    54,
    56,
    54,
    58,
    76,
    78,
    80,
    76,
    78,
    80,
    176,
    178,
    180,
    182,
    184,
    78,
    80,
    76,
    64,
    56,
    54,
    56,
    0,
    0,
    0,
    0,
    0,
    0,
    76,
    78,
    80,
    76,
    78,
    80,
    186,
    188,
    190,
    192,
    194,
    78,
    80,
    76,
    0,
    0,
    0,
    0,
    54,
    56,
    54,
    56,
    54,
    58,
    82,
    84,
    86,
    82,
    84,
    86,
    82,
    22,
    24,
    34,
    82,
    84,
    86,
    82,
    64,
    56,
    54,
    56,
    0,
    0,
    0,
    0,
    0,
    0,
    88,
    0,
    0,
    0,
    0,
    0,
    88,
    66,
    46,
    98,
    88,
    0,
    0,
    88,
    0,
    0,
    0,
    0,
    54,
    56,
    54,
    56,
    54,
    58,
    0,
    114,
    110,
    0,
    114,
    110,
    0,
    66,
    46,
    98,
    0,
    100,
    0,
    0,
    64,
    56,
    54,
    56,
    0,
    0,
    0,
    0,
    0,
    0,
    0,
    22,
    24,
    24,
    24,
    24,
    24,
    46,
    46,
    98,
    100,
    108,
    100,
    0,
    0,
    0,
    0,
    0,
    54,
    56,
    54,
    56,
    306,
    308,
    0,
    66,
    46,
    46,
    46,
    46,
    46,
    46,
    46,
    98,
    108,
    100,
    0,
    100,
    310,
    312,
    54,
    56,
    0,
    0,
    0,
    0,
    0,
    0,
    0,
    66,
    46,
    46,
    104,
    104,
    104,
    104,
    104,
    106,
    110,
    0,
    110,
    0,
    110,
    0,
    0,
    0,
    314,
    316,
    318,
    308,
    0,
    0,
    0,
    324,
    326,
    328,
    0,
    0,
    0,
    0,
    332,
    0,
    0,
    0,
    0,
    0,
    334,
    0,
    64,
    56,
    0,
    0,
    136,
    0,
    336,
    338,
    338,
    340,
    340,
    340,
    338,
    338,
    342,
    0,
    134,
    0,
    0,
    0,
    0,
    0,
    136,
    0,
    0,
    0,
    0,
    0,
    136,
    0,
    344,
    346,
    346,
    346,
    346,
    346,
    346,
    346,
    348,
    0,
    134,
    0,
    0,
    0,
    0,
    0,
    136,
    0,
    64,
    56,
    0,
    0,
    136,
    0,
    344,
    346,
    346,
    346,
    346,
    346,
    346,
    346,
    348,
    0,
    134,
    0,
    0,
    0,
    0,
    0,
    136,
    0,
    0,
    0,
    0,
    0,
    136,
    0,
    344,
    346,
    346,
    346,
    346,
    346,
    346,
    346,
    348,
    0,
    134,
    0,
    0,
    0,
    0,
    0,
    136,
    0,
    310,
    312,
    0,
    0,
    136,
    0,
    344,
    346,
    346,
    346,
    346,
    346,
    346,
    346,
    348,
    0,
    134,
    0,
    0,
    0,
    0,
    0,
    0,
    0,
    0,
    0,
    0,
    0,
    136,
    0,
    344,
    346,
    346,
    346,
    346,
    346,
    346,
    346,
    348,
    0,
    134,
    0,
    0,
    0,
    0,
    0,
    0,
    0,
    0,
    0
   ],
   "opacity": 1,
   "visible": true,
   "x": 0,
   "y": 0
  },
  {
   "id": 3,
   "name": "edifici",
   "type": "tilelayer",
   "width": 24,
   "height": 160,
   "data": [
    2,
    2,
    2,
    2,
    2,
    2,
    0,
    6,
    6,
    0,
    0,
    0,
    0,
    0,
    6,
    6,
    0,
    2,
    2,
    2,
    2,
    2,
    2,
    2,
    0,
    0,
    0,
    0,
    0,
    0,
    20,
    0,
    0,
    26,
    0,
    0,
    0,
    32,
    0,
    0,
    36,
    6,
    0,
    0,
    0,
    0,
    0,
    0,
    38,
    40,
    38,
    40,
    38,
    42,
    44,
    0,
    48,
    0,
    0,
    0,
    0,
    0,
    0,
    0,
    0,
    50,
    52,
    40,
    38,
    40,
    38,
    40,
    0,
    0,
    0,
    0,
    0,
    0,
    60,
    0,
    48,
    48,
    0,
    0,
    48,
    0,
    48,
    0,
    0,
    62,
    0,
    0,
    0,
    0,
    0,
    0,
    38,
    40,
    38,
    40,
    38,
    42,
    0,
    48,
    0,
    48,
    0,
    0,
    48,
    0,
    48,
    0,
    48,
    62,
    52,
    40,
    38,
    40,
    38,
    40,
    0,
    0,
    0,
    0,
    0,
    0,
    60,
    0,
    0,
    0,
    48,
    0,
    0,
    48,
    0,
    0,
    48,
    62,
    0,
    0,
    0,
    0,
    0,
    0,
    38,
    42,
    0,
    0,
    0,
    0,
    48,
    0,
    0,
    0,
    48,
    0,
    0,
    48,
    0,
    0,
    0,
    48,
    0,
    0,
    0,
    0,
    52,
    40,
    0,
    0,
    0,
    0,
    0,
    0,
    0,
    0,
    48,
    0,
    48,
    0,
    48,
    0,
    0,
    0,
    0,
    0,
    0,
    0,
    0,
    0,
    0,
    0,
    38,
    42,
    0,
    0,
    0,
    0,
    0,
    0,
    48,
    0,
    48,
    0,
    48,
    0,
    0,
    0,
    48,
    0,
    0,
    0,
    0,
    0,
    52,
    40,
    0,
    0,
    0,
    0,
    0,
    0,
    48,
    0,
    0,
    48,
    0,
    48,
    0,
    48,
    0,
    0,
    48,
    0,
    0,
    0,
    0,
    0,
    0,
    0,
    38,
    42,
    0,
    0,
    0,
    0,
    48,
    0,
    0,
    48,
    0,
    48,
    0,
    48,
    0,
    0,
    48,
    0,
    0,
    0,
    0,
    0,
    52,
    40,
    0,
    0,
    0,
    0,
    0,
    0,
    0,
    48,
    0,
    0,
    48,
    0,
    0,
    48,
    0,
    0,
    0,
    0,
    0,
    0,
    0,
    0,
    0,
    0,
    38,
    42,
    0,
    0,
    0,
    0,
    48,
    48,
    48,
    0,
    48,
    0,
    0,
    48,
    0,
    48,
    0,
    0,
    0,
    0,
    0,
    0,
    52,
    40,
    0,
    0,
    0,
    0,
    0,
    0,
    48,
    0,
    48,
    0,
    48,
    0,
    0,
    48,
    0,
    48,
    0,
    0,
    0,
    0,
    0,
    0,
    0,
    0,
    38,
    42,
    0,
    0,
    0,
    0,
    48,
    0,
    48,
    0,
    48,
    0,
    0,
    48,
    0,
    48,
    0,
    48,
    0,
    0,
    0,
    0,
    52,
    40,
    0,
    0,
    0,
    90,
    92,
    0,
    48,
    0,
    48,
    0,
    0,
    0,
    0,
    0,
    0,
    48,
    0,
    48,
    0,
    90,
    92,
    0,
    0,
    0,
    38,
    42,
    94,
    0,
    0,
    96,
    0,
    0,
    0,
    0,
    0,
    0,
    0,
    0,
    0,
    0,
    0,
    0,
    94,
    0,
    0,
    96,
    52,
    40,
    0,
    0,
    0,
    0,
    0,
    0,
    0,
    0,
    0,
    0,
    0,
    0,
    0,
    0,
    0,
    0,
    0,
    0,
    0,
    0,
    0,
    0,
    0,
    0,
    38,
    42,
    0,
    0,
    0,
    0,
    0,
    0,
    0,
    0,
    0,
    0,
    0,
    0,
    0,
    0,
    0,
    0,
    0,
    0,
    0,
    0,
    52,
    40,
    0,
    0,
    0,
    0,
    0,
    0,
    0,
    0,
    0,
    0,
    0,
    0,
    0,
    0,
    0,
    0,
    0,
    0,
    0,
    0,
    0,
    0,
    0,
    0,
    38,
    42,
    116,
    118,
    118,
    118,
    118,
    118,
    118,
    118,
    118,
    118,
    118,
    118,
    118,
    118,
    118,
    118,
    120,
    0,
    0,
    0,
    52,
    40,
    0,
    0,
    124,
    126,
    128,
    128,
    128,
    128,
    128,
    128,
    128,
    128,
    128,
    128,
    128,
    128,
    128,
    130,
    132,
    0,
    0,
    0,
    0,
    0,
    38,
    42,
    124,
    0,
    2,
    2,
    2,
    2,
    2,
    2,
    2,
    2,
    2,
    2,
    2,
    2,
    2,
    0,
    132,
    0,
    0,
    0,
    52,
    40,
    0,
    0,
    124,
    0,
    2,
    2,
    2,
    2,
    2,
    2,
    2,
    2,
    2,
    2,
    2,
    2,
    2,
    0,
    132,
    0,
    0,
    0,
    0,
    0,
    38,
    42,
    124,
    0,
    2,
    2,
    2,
    2,
    2,
    2,
    2,
    2,
    2,
    2,
    2,
    2,
    2,
    0,
    132,
    0,
    0,
    0,
    52,
    40,
    0,
    0,
    124,
    0,
    2,
    2,
    2,
    2,
    2,
    2,
    2,
    2,
    2,
    2,
    2,
    2,
    2,
    138,
    138,
    120,
    0,
    0,
    0,
    0,
    38,
    42,
    124,
    0,
    2,
    2,
    2,
    2,
    2,
    2,
    2,
    2,
    2,
    2,
    2,
    2,
    2,
    2,
    2,
    0,
    120,
    0,
    52,
    40,
    0,
    0,
    124,
    0,
    0,
    0,
    0,
    0,
    0,
    0,
    0,
    2,
    2,
    2,
    2,
    0,
    0,
    0,
    0,
    0,
    132,
    0,
    0,
    0,
    38,
    42,
    36,
    0,
    6,
    148,
    6,
    0,
    6,
    0,
    0,
    2,
    2,
    2,
    2,
    0,
    0,
    6,
    148,
    6,
    20,
    0,
    52,
    40,
    0,
    0,
    0,
    94,
    0,
    0,
    0,
    96,
    150,
    124,
    0,
    2,
    2,
    2,
    2,
    0,
    132,
    0,
    0,
    0,
    0,
    0,
    0,
    0,
    38,
    42,
    0,
    0,
    0,
    0,
    0,
    0,
    0,
    124,
    0,
    2,
    2,
    2,
    2,
    0,
    132,
    0,
    0,
    0,
    0,
    0,
    52,
    40,
    0,
    0,
    0,
    152,
    0,
    0,
    0,
    0,
    150,
    124,
    0,
    2,
    2,
    2,
    2,
    0,
    132,
    154,
    0,
    0,
    0,
    0,
    0,
    0,
    38,
    42,
    0,
    0,
    0,
    0,
    0,
    0,
    0,
    124,
    0,
    2,
    2,
    2,
    2,
    0,
    132,
    0,
    154,
    0,
    154,
    0,
    52,
    40,
    0,
    0,
    150,
    0,
    0,
    0,
    0,
    0,
    0,
    124,
    0,
    2,
    2,
    2,
    2,
    0,
    138,
    118,
    118,
    118,
    118,
    120,
    0,
    0,
    38,
    42,
    0,
    0,
    0,
    0,
    0,
    0,
    150,
    124,
    0,
    2,
    2,
    2,
    2,
    138,
    128,
    128,
    130,
    2,
    2,
    132,
    52,
    40,
    0,
    0,
    150,
    94,
    0,
    0,
    0,
    96,
    0,
    124,
    0,
    2,
    2,
    2,
    2,
    2,
    2,
    2,
    0,
    2,
    2,
    132,
    0,
    0,
    38,
    42,
    0,
    0,
    0,
    0,
    0,
    0,
    150,
    124,
    0,
    2,
    2,
    2,
    2,
    2,
    2,
    2,
    0,
    2,
    2,
    132,
    52,
    40,
    0,
    0,
    0,
    0,
    0,
    0,
    0,
    0,
    0,
    124,
    0,
    0,
    2,
    2,
    2,
    2,
    2,
    2,
    0,
    2,
    2,
    132,
    0,
    0,
    38,
    42,
    0,
    150,
    0,
    0,
    0,
    0,
    150,
    124,
    2,
    0,
    2,
    2,
    2,
    2,
    2,
    2,
    0,
    2,
    2,
    132,
    52,
    40,
    0,
    0,
    0,
    0,
    0,
    0,
    0,
    0,
    150,
    124,
    2,
    0,
    0,
    0,
    0,
    0,
    0,
    0,
    0,
    2,
    2,
    132,
    0,
    0,
    38,
    42,
    150,
    0,
    0,
    0,
    0,
    0,
    0,
    124,
    2,
    2,
    2,
    2,
    2,
    2,
    2,
    2,
    2,
    2,
    2,
    132,
    52,
    40,
    0,
    0,
    0,
    94,
    0,
    0,
    0,
    96,
    0,
    36,
    6,
    6,
    6,
    6,
    6,
    6,
    6,
    6,
    6,
    6,
    6,
    20,
    0,
    0,
    38,
    42,
    150,
    0,
    0,
    0,
    0,
    0,
    0,
    0,
    150,
    150,
    150,
    0,
    0,
    0,
    0,
    0,
    0,
    150,
    0,
    0,
    52,
    40,
    0,
    0,
    0,
    150,
    0,
    0,
    0,
    0,
    0,
    0,
    0,
    150,
    150,
    0,
    0,
    0,
    0,
    0,
    0,
    0,
    0,
    0,
    0,
    0,
    38,
    42,
    0,
    0,
    0,
    0,
    0,
    0,
    0,
    0,
    0,
    150,
    150,
    0,
    0,
    0,
    0,
    0,
    0,
    0,
    0,
    0,
    52,
    40,
    0,
    0,
    0,
    0,
    0,
    0,
    0,
    0,
    0,
    0,
    0,
    0,
    150,
    150,
    150,
    0,
    0,
    0,
    0,
    0,
    0,
    0,
    0,
    0,
    38,
    42,
    0,
    0,
    0,
    0,
    0,
    0,
    0,
    0,
    0,
    0,
    150,
    150,
    150,
    0,
    0,
    0,
    0,
    0,
    0,
    0,
    52,
    40,
    0,
    0,
    0,
    0,
    0,
    0,
    0,
    0,
    0,
    0,
    0,
    0,
    0,
    0,
    0,
    0,
    0,
    0,
    0,
    0,
    0,
    0,
    0,
    0,
    38,
    42,
    0,
    0,
    0,
    0,
    0,
    0,
    0,
    0,
    0,
    0,
    0,
    0,
    0,
    0,
    0,
    0,
    154,
    0,
    154,
    0,
    52,
    40,
    0,
    0,
    0,
    0,
    0,
    0,
    0,
    0,
    0,
    0,
    0,
    0,
    0,
    0,
    0,
    0,
    0,
    154,
    0,
    154,
    0,
    0,
    0,
    0,
    38,
    42,
    0,
    0,
    0,
    0,
    0,
    0,
    0,
    0,
    0,
    0,
    0,
    0,
    0,
    0,
    0,
    0,
    0,
    0,
    0,
    0,
    52,
    40,
    0,
    0,
    0,
    90,
    92,
    0,
    90,
    92,
    0,
    0,
    0,
    0,
    0,
    0,
    0,
    0,
    0,
    0,
    0,
    0,
    0,
    0,
    0,
    0,
    38,
    42,
    96,
    0,
    0,
    94,
    0,
    0,
    96,
    0,
    0,
    0,
    0,
    0,
    0,
    0,
    0,
    0,
    0,
    0,
    0,
    0,
    52,
    40,
    0,
    0,
    0,
    0,
    0,
    0,
    0,
    0,
    0,
    0,
    0,
    0,
    0,
    0,
    0,
    0,
    0,
    0,
    0,
    0,
    0,
    0,
    0,
    0,
    38,
    42,
    0,
    0,
    0,
    0,
    0,
    0,
    0,
    0,
    0,
    0,
    0,
    0,
    0,
    0,
    0,
    0,
    0,
    0,
    0,
    0,
    52,
    40,
    0,
    0,
    0,
    0,
    0,
    0,
    0,
    0,
    0,
    0,
    0,
    0,
    0,
    0,
    0,
    0,
    0,
    0,
    0,
    0,
    0,
    0,
    0,
    0,
    38,
    42,
    0,
    0,
    0,
    0,
    0,
    0,
    0,
    0,
    0,
    0,
    0,
    0,
    0,
    0,
    0,
    0,
    0,
    0,
    0,
    0,
    52,
    40,
    0,
    0,
    0,
    0,
    0,
    0,
    0,
    0,
    0,
    0,
    0,
    0,
    0,
    0,
    0,
    0,
    0,
    0,
    0,
    0,
    0,
    0,
    0,
    0,
    38,
    42,
    0,
    0,
    0,
    0,
    0,
    0,
    0,
    0,
    0,
    0,
    0,
    0,
    0,
    0,
    0,
    0,
    0,
    0,
    0,
    0,
    52,
    40,
    0,
    0,
    0,
    0,
    0,
    0,
    0,
    0,
    0,
    0,
    0,
    0,
    0,
    0,
    0,
    0,
    0,
    0,
    0,
    0,
    0,
    0,
    0,
    0,
    38,
    42,
    0,
    0,
    0,
    0,
    0,
    0,
    0,
    90,
    92,
    0,
    0,
    0,
    0,
    0,
    90,
    92,
    0,
    0,
    0,
    0,
    52,
    40,
    0,
    0,
    0,
    0,
    0,
    0,
    0,
    0,
    94,
    0,
    0,
    96,
    0,
    0,
    0,
    94,
    154,
    0,
    96,
    0,
    0,
    0,
    0,
    0,
    38,
    42,
    0,
    0,
    0,
    0,
    0,
    0,
    0,
    0,
    0,
    0,
    0,
    0,
    0,
    0,
    0,
    0,
    154,
    0,
    0,
    0,
    52,
    40,
    0,
    0,
    0,
    0,
    0,
    0,
    0,
    0,
    0,
    0,
    0,
    0,
    0,
    0,
    0,
    0,
    154,
    0,
    0,
    0,
    0,
    0,
    0,
    0,
    38,
    42,
    0,
    0,
    0,
    0,
    0,
    0,
    0,
    0,
    0,
    150,
    150,
    0,
    0,
    0,
    0,
    0,
    154,
    0,
    0,
    0,
    52,
    40,
    0,
    0,
    0,
    0,
    0,
    0,
    0,
    0,
    0,
    0,
    0,
    150,
    150,
    0,
    0,
    0,
    0,
    0,
    0,
    0,
    0,
    0,
    0,
    0,
    38,
    42,
    0,
    0,
    0,
    0,
    0,
    0,
    150,
    0,
    0,
    0,
    150,
    0,
    0,
    0,
    0,
    0,
    0,
    0,
    0,
    0,
    52,
    40,
    0,
    0,
    0,
    0,
    0,
    0,
    0,
    0,
    150,
    0,
    0,
    0,
    150,
    0,
    0,
    0,
    0,
    0,
    0,
    0,
    0,
    0,
    0,
    0,
    38,
    42,
    0,
    0,
    0,
    0,
    0,
    0,
    150,
    0,
    0,
    0,
    150,
    0,
    0,
    150,
    150,
    0,
    0,
    0,
    0,
    0,
    52,
    40,
    0,
    0,
    0,
    0,
    0,
    0,
    0,
    0,
    150,
    0,
    0,
    0,
    150,
    0,
    0,
    150,
    150,
    0,
    0,
    0,
    0,
    0,
    0,
    0,
    38,
    42,
    0,
    0,
    0,
    0,
    0,
    0,
    0,
    0,
    0,
    150,
    150,
    0,
    0,
    0,
    150,
    0,
    0,
    0,
    0,
    0,
    52,
    40,
    0,
    0,
    0,
    0,
    0,
    0,
    0,
    0,
    0,
    0,
    0,
    150,
    150,
    0,
    0,
    0,
    150,
    0,
    0,
    0,
    0,
    0,
    0,
    0,
    38,
    42,
    0,
    0,
    0,
    0,
    0,
    0,
    0,
    0,
    0,
    0,
    0,
    0,
    0,
    150,
    0,
    0,
    0,
    0,
    198,
    0,
    52,
    40,
    0,
    0,
    0,
    0,
    0,
    0,
    0,
    0,
    150,
    0,
    0,
    0,
    0,
    0,
    0,
    150,
    0,
    0,
    0,
    94,
    0,
    96,
    0,
    0,
    38,
    42,
    0,
    0,
    0,
    0,
    0,
    0,
    150,
    150,
    0,
    0,
    0,
    0,
    154,
    0,
    154,
    0,
    0,
    0,
    0,
    0,
    52,
    40,
    0,
    0,
    0,
    0,
    0,
    0,
    0,
    0,
    150,
    150,
    0,
    0,
    0,
    154,
    0,
    154,
    0,
    0,
    0,
    0,
    0,
    0,
    0,
    0,
    38,
    42,
    0,
    0,
    0,
    0,
    0,
    0,
    150,
    150,
    0,
    0,
    0,
    0,
    0,
    0,
    0,
    0,
    0,
    0,
    0,
    0,
    52,
    40,
    0,
    0,
    0,
    0,
    0,
    0,
    0,
    0,
    0,
    0,
    0,
    0,
    0,
    0,
    0,
    0,
    0,
    0,
    0,
    0,
    0,
    0,
    0,
    0,
    38,
    42,
    0,
    0,
    0,
    0,
    0,
    0,
    0,
    0,
    0,
    0,
    0,
    0,
    0,
    0,
    0,
    0,
    0,
    0,
    0,
    0,
    52,
    40,
    0,
    0,
    0,
    0,
    0,
    0,
    0,
    0,
    0,
    214,
    214,
    214,
    214,
    214,
    214,
    0,
    0,
    0,
    0,
    0,
    0,
    0,
    0,
    0,
    38,
    42,
    0,
    0,
    0,
    0,
    0,
    0,
    0,
    214,
    214,
    214,
    214,
    214,
    214,
    0,
    0,
    0,
    0,
    0,
    0,
    0,
    52,
    40,
    0,
    0,
    0,
    0,
    0,
    0,
    0,
    0,
    0,
    214,
    214,
    214,
    214,
    214,
    214,
    0,
    0,
    0,
    0,
    0,
    0,
    0,
    0,
    0,
    38,
    42,
    218,
    90,
    92,
    218,
    198,
    218,
    0,
    214,
    214,
    214,
    214,
    214,
    214,
    0,
    218,
    198,
    218,
    90,
    92,
    218,
    52,
    40,
    0,
    0,
    220,
    0,
    0,
    222,
    0,
    222,
    0,
    214,
    214,
    214,
    214,
    214,
    214,
    0,
    222,
    0,
    222,
    0,
    0,
    228,
    0,
    0,
    38,
    42,
    0,
    214,
    214,
    214,
    214,
    214,
    214,
    214,
    214,
    214,
    214,
    214,
    214,
    214,
    214,
    214,
    214,
    214,
    214,
    0,
    52,
    40,
    0,
    0,
    0,
    214,
    214,
    214,
    214,
    214,
    214,
    214,
    214,
    214,
    214,
    214,
    214,
    214,
    214,
    214,
    214,
    214,
    214,
    0,
    0,
    0,
    38,
    42,
    0,
    214,
    214,
    214,
    214,
    214,
    214,
    214,
    214,
    214,
    214,
    214,
    214,
    214,
    214,
    214,
    214,
    214,
    214,
    0,
    52,
    40,
    0,
    0,
    0,
    214,
    214,
    214,
    214,
    214,
    214,
    214,
    214,
    214,
    214,
    214,
    214,
    214,
    214,
    214,
    214,
    214,
    214,
    0,
    0,
    0,
    38,
    42,
    0,
    214,
    214,
    214,
    214,
    214,
    214,
    214,
    214,
    214,
    214,
    214,
    214,
    214,
    214,
    214,
    214,
    214,
    214,
    0,
    52,
    40,
    0,
    0,
    0,
    0,
    0,
    0,
    0,
    0,
    0,
    0,
    0,
    0,
    0,
    0,
    0,
    0,
    0,
    0,
    0,
    0,
    0,
    0,
    0,
    0,
    38,
    42,
    0,
    0,
    0,
    0,
    0,
    0,
    0,
    0,
    0,
    0,
    0,
    0,
    0,
    0,
    0,
    0,
    0,
    0,
    0,
    0,
    52,
    40,
    0,
    0,
    0,
    0,
    0,
    0,
    0,
    0,
    0,
    0,
    0,
    0,
    0,
    0,
    0,
    0,
    0,
    0,
    0,
    0,
    0,
    0,
    0,
    0,
    38,
    42,
    0,
    0,
    0,
    0,
    0,
    214,
    214,
    214,
    0,
    0,
    0,
    0,
    0,
    0,
    0,
    0,
    0,
    0,
    0,
    0,
    52,
    40,
    0,
    0,
    0,
    0,
    0,
    198,
    0,
    214,
    214,
    214,
    218,
    90,
    92,
    218,
    90,
    92,
    218,
    90,
    92,
    0,
    0,
    0,
    0,
    0,
    38,
    42,
    0,
    0,
    0,
    0,
    268,
    214,
    214,
    214,
    270,
    0,
    0,
    222,
    0,
    0,
    222,
    0,
    0,
    0,
    0,
    0,
    52,
    40,
    0,
    0,
    0,
    0,
    0,
    0,
    214,
    214,
    214,
    214,
    214,
    214,
    214,
    214,
    214,
    214,
    214,
    214,
    0,
    0,
    0,
    0,
    0,
    0,
    38,
    42,
    0,
    0,
    0,
    0,
    214,
    214,
    214,
    214,
    214,
    214,
    214,
    214,
    214,
    214,
    214,
    214,
    0,
    0,
    0,
    0,
    52,
    40,
    0,
    0,
    0,
    0,
    0,
    0,
    214,
    214,
    214,
    214,
    214,
    214,
    214,
    214,
    214,
    214,
    214,
    214,
    0,
    0,
    0,
    0,
    0,
    0,
    38,
    42,
    0,
    0,
    0,
    0,
    214,
    214,
    214,
    214,
    214,
    214,
    214,
    214,
    214,
    214,
    214,
    214,
    0,
    0,
    0,
    0,
    52,
    40,
    0,
    0,
    0,
    0,
    0,
    0,
    214,
    214,
    0,
    0,
    0,
    0,
    0,
    0,
    214,
    214,
    214,
    214,
    0,
    0,
    0,
    0,
    0,
    0,
    38,
    42,
    0,
    0,
    0,
    0,
    214,
    214,
    0,
    0,
    0,
    0,
    0,
    0,
    214,
    214,
    214,
    214,
    0,
    0,
    0,
    0,
    52,
    40,
    0,
    0,
    0,
    0,
    0,
    0,
    214,
    214,
    0,
    0,
    0,
    0,
    0,
    0,
    214,
    214,
    214,
    214,
    0,
    0,
    0,
    0,
    0,
    0,
    38,
    42,
    218,
    198,
    218,
    0,
    214,
    214,
    0,
    0,
    0,
    0,
    0,
    0,
    214,
    214,
    214,
    214,
    0,
    0,
    0,
    0,
    52,
    40,
    0,
    0,
    280,
    0,
    222,
    0,
    214,
    214,
    0,
    0,
    0,
    0,
    0,
    0,
    214,
    214,
    214,
    214,
    0,
    0,
    0,
    0,
    0,
    0,
    38,
    42,
    0,
    214,
    214,
    214,
    214,
    214,
    214,
    214,
    214,
    214,
    214,
    214,
    214,
    214,
    214,
    214,
    0,
    0,
    0,
    0,
    52,
    40,
    0,
    0,
    0,
    214,
    214,
    214,
    214,
    214,
    214,
    214,
    214,
    214,
    214,
    214,
    214,
    214,
    214,
    214,
    0,
    0,
    0,
    0,
    0,
    0,
    38,
    42,
    0,
    214,
    214,
    214,
    214,
    214,
    214,
    214,
    214,
    214,
    214,
    214,
    214,
    214,
    214,
    214,
    0,
    0,
    0,
    0,
    52,
    40,
    0,
    0,
    0,
    0,
    0,
    0,
    0,
    0,
    0,
    0,
    0,
    0,
    0,
    0,
    0,
    0,
    0,
    0,
    0,
    0,
    0,
    0,
    0,
    0,
    38,
    42,
    0,
    0,
    0,
    0,
    0,
    0,
    0,
    0,
    0,
    0,
    0,
    0,
    0,
    0,
    0,
    0,
    0,
    0,
    0,
    0,
    52,
    40,
    0,
    0,
    0,
    0,
    0,
    0,
    0,
    0,
    0,
    0,
    0,
    0,
    0,
    0,
    0,
    0,
    0,
    0,
    0,
    0,
    0,
    0,
    0,
    0,
    38,
    42,
    0,
    0,
    0,
    0,
    0,
    0,
    0,
    0,
    0,
    0,
    0,
    214,
    214,
    214,
    0,
    0,
    0,
    0,
    0,
    0,
    52,
    40,
    0,
    0,
    218,
    90,
    92,
    218,
    218,
    90,
    92,
    218,
    90,
    92,
    0,
    214,
    214,
    214,
    218,
    90,
    92,
    218,
    198,
    218,
    0,
    0,
    38,
    42,
    280,
    0,
    0,
    222,
    222,
    0,
    0,
    222,
    0,
    0,
    268,
    214,
    214,
    214,
    270,
    0,
    0,
    222,
    0,
    228,
    52,
    40,
    0,
    0,
    0,
    214,
    214,
    214,
    214,
    214,
    214,
    214,
    214,
    214,
    214,
    214,
    214,
    214,
    214,
    214,
    214,
    214,
    214,
    0,
    0,
    0,
    38,
    42,
    0,
    214,
    214,
    214,
    214,
    214,
    214,
    214,
    214,
    214,
    214,
    214,
    214,
    214,
    214,
    214,
    214,
    214,
    214,
    0,
    52,
    40,
    0,
    0,
    0,
    214,
    214,
    214,
    214,
    214,
    214,
    214,
    214,
    214,
    214,
    214,
    214,
    214,
    214,
    214,
    214,
    214,
    214,
    0,
    0,
    0,
    38,
    42,
    0,
    214,
    214,
    214,
    214,
    214,
    214,
    214,
    214,
    214,
    214,
    214,
    214,
    214,
    214,
    214,
    214,
    214,
    214,
    0,
    52,
    40,
    0,
    0,
    0,
    0,
    0,
    0,
    0,
    0,
    0,
    0,
    0,
    0,
    214,
    214,
    214,
    0,
    0,
    0,
    0,
    0,
    0,
    0,
    0,
    0,
    38,
    42,
    0,
    0,
    0,
    0,
    0,
    0,
    0,
    0,
    0,
    0,
    0,
    0,
    0,
    0,
    0,
    0,
    0,
    0,
    0,
    0,
    52,
    40,
    0,
    0,
    0,
    0,
    0,
    0,
    0,
    0,
    0,
    0,
    0,
    0,
    0,
    0,
    0,
    0,
    0,
    0,
    0,
    0,
    0,
    0,
    0,
    0,
    38,
    42,
    0,
    0,
    0,
    0,
    0,
    0,
    0,
    0,
    0,
    0,
    0,
    0,
    0,
    0,
    0,
    0,
    0,
    0,
    0,
    0,
    52,
    40,
    0,
    0,
    0,
    0,
    0,
    0,
    0,
    0,
    0,
    0,
    0,
    0,
    0,
    0,
    0,
    0,
    0,
    0,
    0,
    0,
    0,
    0,
    0,
    0,
    38,
    42,
    218,
    90,
    92,
    218,
    90,
    92,
    218,
    90,
    92,
    0,
    0,
    0,
    0,
    0,
    90,
    92,
    218,
    90,
    92,
    218,
    52,
    40,
    0,
    0,
    292,
    0,
    0,
    294,
    0,
    0,
    294,
    0,
    0,
    94,
    0,
    0,
    0,
    96,
    0,
    0,
    294,
    0,
    0,
    292,
    0,
    0,
    38,
    42,
    0,
    0,
    0,
    0,
    0,
    0,
    0,
    0,
    0,
    0,
    0,
    0,
    0,
    0,
    0,
    0,
    0,
    0,
    0,
    0,
    52,
    40,
    0,
    0,
    0,
    0,
    0,
    0,
    0,
    0,
    0,
    0,
    0,
    0,
    0,
    0,
    0,
    0,
    0,
    0,
    0,
    0,
    0,
    0,
    0,
    0,
    38,
    42,
    0,
    0,
    0,
    0,
    0,
    0,
    0,
    0,
    0,
    0,
    0,
    0,
    0,
    0,
    0,
    0,
    0,
    0,
    0,
    0,
    52,
    40,
    0,
    0,
    0,
    0,
    0,
    0,
    0,
    0,
    0,
    0,
    0,
    0,
    0,
    0,
    0,
    0,
    0,
    0,
    0,
    0,
    0,
    0,
    0,
    0,
    38,
    42,
    0,
    0,
    0,
    0,
    0,
    0,
    0,
    0,
    0,
    0,
    0,
    0,
    0,
    0,
    0,
    0,
    0,
    0,
    0,
    0,
    52,
    40,
    0,
    0,
    0,
    0,
    0,
    0,
    0,
    0,
    0,
    0,
    0,
    0,
    0,
    0,
    0,
    0,
    0,
    0,
    0,
    0,
    0,
    0,
    0,
    0,
    38,
    42,
    0,
    0,
    0,
    218,
    90,
    92,
    0,
    0,
    0,
    0,
    0,
    90,
    92,
    218,
    90,
    92,
    218,
    90,
    92,
    218,
    52,
    40,
    0,
    0,
    0,
    0,
    0,
    292,
    0,
    0,
    94,
    0,
    0,
    0,
    96,
    0,
    0,
    292,
    0,
    0,
    292,
    0,
    0,
    292,
    0,
    0,
    38,
    42,
    52,
    42,
    154,
    0,
    0,
    0,
    0,
    0,
    0,
    0,
    0,
    0,
    0,
    154,
    0,
    0,
    154,
    0,
    0,
    154,
    52,
    40,
    0,
    0,
    0,
    0,
    0,
    154,
    0,
    0,
    0,
    0,
    0,
    0,
    0,
    0,
    0,
    0,
    0,
    0,
    0,
    0,
    0,
    0,
    0,
    0,
    38,
    40,
    38,
    42,
    154,
    0,
    0,
    0,
    0,
    0,
    0,
    0,
    0,
    0,
    0,
    0,
    0,
    154,
    0,
    0,
    154,
    0,
    52,
    40,
    0,
    0,
    0,
    0,
    0,
    0,
    0,
    0,
    0,
    0,
    0,
    0,
    0,
    0,
    0,
    0,
    0,
    0,
    0,
    0,
    0,
    0,
    0,
    0,
    38,
    42,
    0,
    0,
    0,
    0,
    0,
    0,
    0,
    0,
    0,
    0,
    0,
    0,
    0,
    0,
    0,
    0,
    0,
    0,
    0,
    0,
    52,
    40,
    0,
    0,
    0,
    0,
    0,
    0,
    0,
    0,
    0,
    0,
    0,
    0,
    0,
    0,
    0,
    0,
    0,
    0,
    0,
    0,
    0,
    0,
    0,
    0,
    38,
    42,
    0,
    0,
    0,
    0,
    0,
    0,
    0,
    0,
    0,
    0,
    0,
    0,
    0,
    0,
    0,
    0,
    0,
    0,
    0,
    0,
    52,
    40,
    0,
    0,
    0,
    90,
    92,
    0,
    0,
    0,
    0,
    0,
    90,
    92,
    218,
    90,
    92,
    218,
    90,
    92,
    218,
    90,
    92,
    0,
    0,
    0,
    38,
    42,
    96,
    154,
    0,
    94,
    0,
    0,
    0,
    96,
    0,
    0,
    292,
    0,
    0,
    292,
    0,
    0,
    292,
    0,
    0,
    94,
    52,
    40,
    0,
    0,
    0,
    0,
    0,
    154,
    0,
    0,
    0,
    0,
    0,
    0,
    0,
    0,
    0,
    0,
    0,
    0,
    0,
    0,
    0,
    0,
    0,
    0,
    38,
    42,
    52,
    42,
    154,
    0,
    0,
    0,
    0,
    0,
    0,
    0,
    0,
    0,
    0,
    0,
    0,
    0,
    0,
    0,
    52,
    42,
    52,
    40,
    0,
    0,
    0,
    0,
    0,
    0,
    0,
    0,
    0,
    0,
    0,
    0,
    0,
    0,
    0,
    0,
    0,
    0,
    0,
    0,
    0,
    0,
    0,
    0,
    38,
    40,
    38,
    42,
    52,
    42,
    0,
    0,
    0,
    0,
    0,
    0,
    0,
    0,
    0,
    0,
    0,
    0,
    0,
    0,
    52,
    40,
    38,
    40,
    0,
    0,
    0,
    0,
    0,
    0,
    0,
    0,
    0,
    0,
    0,
    0,
    0,
    0,
    0,
    0,
    0,
    0,
    0,
    0,
    0,
    0,
    0,
    0,
    38,
    40,
    38,
    40,
    38,
    42,
    0,
    0,
    0,
    0,
    0,
    0,
    0,
    0,
    0,
    0,
    0,
    0,
    0,
    0,
    52,
    40,
    38,
    40,
    0,
    0,
    0,
    0,
    0,
    0,
    0,
    0,
    0,
    0,
    0,
    0,
    0,
    0,
    0,
    0,
    0,
    0,
    0,
    0,
    0,
    0,
    0,
    0,
    38,
    40,
    38,
    40,
    38,
    42,
    0,
    90,
    92,
    218,
    90,
    92,
    0,
    0,
    0,
    0,
    0,
    90,
    92,
    0,
    52,
    40,
    38,
    40,
    0,
    0,
    0,
    0,
    0,
    0,
    96,
    0,
    0,
    292,
    0,
    0,
    94,
    0,
    0,
    0,
    96,
    0,
    154,
    94,
    0,
    0,
    0,
    0,
    38,
    40,
    38,
    40,
    38,
    42,
    304,
    0,
    0,
    0,
    0,
    0,
    0,
    0,
    0,
    0,
    0,
    0,
    0,
    154,
    52,
    40,
    38,
    40,
    0,
    0,
    0,
    0,
    0,
    0,
    304,
    0,
    0,
    0,
    0,
    0,
    0,
    0,
    0,
    0,
    0,
    0,
    154,
    0,
    0,
    0,
    0,
    0,
    38,
    40,
    38,
    42,
    304,
    304,
    304,
    0,
    0,
    0,
    0,
    0,
    0,
    0,
    0,
    0,
    0,
    154,
    0,
    154,
    0,
    154,
    52,
    40,
    0,
    0,
    0,
    0,
    320,
    320,
    322,
    0,
    0,
    0,
    330,
    320,
    320,
    320,
    0,
    118,
    118,
    118,
    118,
    118,
    0,
    320,
    0,
    0,
    2,
    2,
    0,
    120,
    0,
    0,
    0,
    0,
    0,
    0,
    0,
    0,
    0,
    116,
    0,
    2,
    2,
    2,
    2,
    2,
    0,
    120,
    52,
    40,
    2,
    2,
    0,
    132,
    0,
    0,
    0,
    0,
    0,
    0,
    0,
    0,
    0,
    124,
    0,
    2,
    2,
    2,
    2,
    2,
    0,
    132,
    0,
    0,
    2,
    2,
    0,
    132,
    0,
    0,
    0,
    0,
    0,
    0,
    0,
    0,
    0,
    124,
    0,
    2,
    2,
    2,
    2,
    2,
    0,
    132,
    52,
    40,
    2,
    2,
    0,
    132,
    0,
    0,
    0,
    0,
    0,
    0,
    0,
    0,
    0,
    124,
    0,
    2,
    2,
    2,
    2,
    2,
    0,
    132,
    0,
    0,
    2,
    2,
    0,
    132,
    0,
    0,
    0,
    0,
    0,
    0,
    0,
    0,
    0,
    124,
    0,
    2,
    2,
    2,
    2,
    2,
    138,
    138,
    118,
    118,
    2,
    2,
    0,
    132,
    0,
    0,
    0,
    0,
    0,
    0,
    0,
    0,
    0,
    124,
    0,
    2,
    2,
    2,
    2,
    2,
    2,
    2,
    2,
    2
   ],
   "opacity": 1,
   "visible": true,
   "x": 0,
   "y": 0
  },
  {
   "id": 4,
   "name": "collisioni",
   "type": "objectgroup",
   "opacity": 1,
   "visible": true,
   "x": 0,
   "y": 0,
   "objects": [
    {
     "id": 1000,
     "name": "",
     "type": "",
     "x": 0,
     "y": 0,
     "width": 32,
     "height": 32,
     "rotation": 0,
     "visible": true,
     "properties": []
    },
    {
     "id": 1001,
     "name": "",
     "type": "",
     "x": 32,
     "y": 0,
     "width": 32,
     "height": 32,
     "rotation": 0,
     "visible": true,
     "properties": []
    },
    {
     "id": 1002,
     "name": "",
     "type": "",
     "x": 64,
     "y": 0,
     "width": 32,
     "height": 32,
     "rotation": 0,
     "visible": true,
     "properties": []
    },
    {
     "id": 1003,
     "name": "",
     "type": "",
     "x": 96,
     "y": 0,
     "width": 32,
     "height": 32,
     "rotation": 0,
     "visible": true,
     "properties": []
    },
    {
     "id": 1004,
     "name": "",
     "type": "",
     "x": 128,
     "y": 0,
     "width": 32,
     "height": 32,
     "rotation": 0,
     "visible": true,
     "properties": []
    },
    {
     "id": 1005,
     "name": "",
     "type": "",
     "x": 160,
     "y": 0,
     "width": 32,
     "height": 32,
     "rotation": 0,
     "visible": true,
     "properties": []
    },
    {
     "id": 1006,
     "name": "",
     "type": "",
     "x": 192,
     "y": 0,
     "width": 32,
     "height": 32,
     "rotation": 0,
     "visible": true,
     "properties": []
    },
    {
     "id": 1007,
     "name": "",
     "type": "",
     "x": 224,
     "y": 0,
     "width": 32,
     "height": 32,
     "rotation": 0,
     "visible": true,
     "properties": []
    },
    {
     "id": 1008,
     "name": "",
     "type": "",
     "x": 256,
     "y": 0,
     "width": 32,
     "height": 32,
     "rotation": 0,
     "visible": true,
     "properties": []
    },
    {
     "id": 1009,
     "name": "",
     "type": "",
     "x": 288,
     "y": 0,
     "width": 32,
     "height": 32,
     "rotation": 0,
     "visible": true,
     "properties": []
    },
    {
     "id": 1010,
     "name": "",
     "type": "",
     "x": 416,
     "y": 0,
     "width": 32,
     "height": 32,
     "rotation": 0,
     "visible": true,
     "properties": []
    },
    {
     "id": 1011,
     "name": "",
     "type": "",
     "x": 448,
     "y": 0,
     "width": 32,
     "height": 32,
     "rotation": 0,
     "visible": true,
     "properties": []
    },
    {
     "id": 1012,
     "name": "",
     "type": "",
     "x": 480,
     "y": 0,
     "width": 32,
     "height": 32,
     "rotation": 0,
     "visible": true,
     "properties": []
    },
    {
     "id": 1013,
     "name": "",
     "type": "",
     "x": 512,
     "y": 0,
     "width": 32,
     "height": 32,
     "rotation": 0,
     "visible": true,
     "properties": []
    },
    {
     "id": 1014,
     "name": "",
     "type": "",
     "x": 544,
     "y": 0,
     "width": 32,
     "height": 32,
     "rotation": 0,
     "visible": true,
     "properties": []
    },
    {
     "id": 1015,
     "name": "",
     "type": "",
     "x": 576,
     "y": 0,
     "width": 32,
     "height": 32,
     "rotation": 0,
     "visible": true,
     "properties": []
    },
    {
     "id": 1016,
     "name": "",
     "type": "",
     "x": 608,
     "y": 0,
     "width": 32,
     "height": 32,
     "rotation": 0,
     "visible": true,
     "properties": []
    },
    {
     "id": 1017,
     "name": "",
     "type": "",
     "x": 640,
     "y": 0,
     "width": 32,
     "height": 32,
     "rotation": 0,
     "visible": true,
     "properties": []
    },
    {
     "id": 1018,
     "name": "",
     "type": "",
     "x": 672,
     "y": 0,
     "width": 32,
     "height": 32,
     "rotation": 0,
     "visible": true,
     "properties": []
    },
    {
     "id": 1019,
     "name": "",
     "type": "",
     "x": 704,
     "y": 0,
     "width": 32,
     "height": 32,
     "rotation": 0,
     "visible": true,
     "properties": []
    },
    {
     "id": 1020,
     "name": "",
     "type": "",
     "x": 736,
     "y": 0,
     "width": 32,
     "height": 32,
     "rotation": 0,
     "visible": true,
     "properties": []
    },
    {
     "id": 1021,
     "name": "",
     "type": "",
     "x": 0,
     "y": 32,
     "width": 32,
     "height": 32,
     "rotation": 0,
     "visible": true,
     "properties": []
    },
    {
     "id": 1022,
     "name": "",
     "type": "",
     "x": 32,
     "y": 32,
     "width": 32,
     "height": 32,
     "rotation": 0,
     "visible": true,
     "properties": []
    },
    {
     "id": 1023,
     "name": "",
     "type": "",
     "x": 64,
     "y": 32,
     "width": 32,
     "height": 32,
     "rotation": 0,
     "visible": true,
     "properties": []
    },
    {
     "id": 1024,
     "name": "",
     "type": "",
     "x": 96,
     "y": 32,
     "width": 32,
     "height": 32,
     "rotation": 0,
     "visible": true,
     "properties": []
    },
    {
     "id": 1025,
     "name": "",
     "type": "",
     "x": 128,
     "y": 32,
     "width": 32,
     "height": 32,
     "rotation": 0,
     "visible": true,
     "properties": []
    },
    {
     "id": 1026,
     "name": "",
     "type": "",
     "x": 160,
     "y": 32,
     "width": 32,
     "height": 32,
     "rotation": 0,
     "visible": true,
     "properties": []
    },
    {
     "id": 1027,
     "name": "",
     "type": "",
     "x": 192,
     "y": 32,
     "width": 32,
     "height": 32,
     "rotation": 0,
     "visible": true,
     "properties": []
    },
    {
     "id": 1028,
     "name": "",
     "type": "",
     "x": 288,
     "y": 32,
     "width": 32,
     "height": 32,
     "rotation": 0,
     "visible": true,
     "properties": []
    },
    {
     "id": 1029,
     "name": "",
     "type": "",
     "x": 416,
     "y": 32,
     "width": 32,
     "height": 32,
     "rotation": 0,
     "visible": true,
     "properties": []
    },
    {
     "id": 1030,
     "name": "",
     "type": "",
     "x": 512,
     "y": 32,
     "width": 32,
     "height": 32,
     "rotation": 0,
     "visible": true,
     "properties": []
    },
    {
     "id": 1031,
     "name": "",
     "type": "",
     "x": 544,
     "y": 32,
     "width": 32,
     "height": 32,
     "rotation": 0,
     "visible": true,
     "properties": []
    },
    {
     "id": 1032,
     "name": "",
     "type": "",
     "x": 576,
     "y": 32,
     "width": 32,
     "height": 32,
     "rotation": 0,
     "visible": true,
     "properties": []
    },
    {
     "id": 1033,
     "name": "",
     "type": "",
     "x": 608,
     "y": 32,
     "width": 32,
     "height": 32,
     "rotation": 0,
     "visible": true,
     "properties": []
    },
    {
     "id": 1034,
     "name": "",
     "type": "",
     "x": 640,
     "y": 32,
     "width": 32,
     "height": 32,
     "rotation": 0,
     "visible": true,
     "properties": []
    },
    {
     "id": 1035,
     "name": "",
     "type": "",
     "x": 672,
     "y": 32,
     "width": 32,
     "height": 32,
     "rotation": 0,
     "visible": true,
     "properties": []
    },
    {
     "id": 1036,
     "name": "",
     "type": "",
     "x": 704,
     "y": 32,
     "width": 32,
     "height": 32,
     "rotation": 0,
     "visible": true,
     "properties": []
    },
    {
     "id": 1037,
     "name": "",
     "type": "",
     "x": 736,
     "y": 32,
     "width": 32,
     "height": 32,
     "rotation": 0,
     "visible": true,
     "properties": []
    },
    {
     "id": 1038,
     "name": "",
     "type": "",
     "x": 0,
     "y": 64,
     "width": 32,
     "height": 32,
     "rotation": 0,
     "visible": true,
     "properties": []
    },
    {
     "id": 1039,
     "name": "",
     "type": "",
     "x": 32,
     "y": 64,
     "width": 32,
     "height": 32,
     "rotation": 0,
     "visible": true,
     "properties": []
    },
    {
     "id": 1040,
     "name": "",
     "type": "",
     "x": 64,
     "y": 64,
     "width": 32,
     "height": 32,
     "rotation": 0,
     "visible": true,
     "properties": []
    },
    {
     "id": 1041,
     "name": "",
     "type": "",
     "x": 96,
     "y": 64,
     "width": 32,
     "height": 32,
     "rotation": 0,
     "visible": true,
     "properties": []
    },
    {
     "id": 1042,
     "name": "",
     "type": "",
     "x": 128,
     "y": 64,
     "width": 32,
     "height": 32,
     "rotation": 0,
     "visible": true,
     "properties": []
    },
    {
     "id": 1043,
     "name": "",
     "type": "",
     "x": 160,
     "y": 64,
     "width": 32,
     "height": 32,
     "rotation": 0,
     "visible": true,
     "properties": []
    },
    {
     "id": 1044,
     "name": "",
     "type": "",
     "x": 192,
     "y": 64,
     "width": 32,
     "height": 32,
     "rotation": 0,
     "visible": true,
     "properties": []
    },
    {
     "id": 1045,
     "name": "",
     "type": "",
     "x": 256,
     "y": 64,
     "width": 32,
     "height": 32,
     "rotation": 0,
     "visible": true,
     "properties": []
    },
    {
     "id": 1046,
     "name": "",
     "type": "",
     "x": 544,
     "y": 64,
     "width": 32,
     "height": 32,
     "rotation": 0,
     "visible": true,
     "properties": []
    },
    {
     "id": 1047,
     "name": "",
     "type": "",
     "x": 576,
     "y": 64,
     "width": 32,
     "height": 32,
     "rotation": 0,
     "visible": true,
     "properties": []
    },
    {
     "id": 1048,
     "name": "",
     "type": "",
     "x": 608,
     "y": 64,
     "width": 32,
     "height": 32,
     "rotation": 0,
     "visible": true,
     "properties": []
    },
    {
     "id": 1049,
     "name": "",
     "type": "",
     "x": 640,
     "y": 64,
     "width": 32,
     "height": 32,
     "rotation": 0,
     "visible": true,
     "properties": []
    },
    {
     "id": 1050,
     "name": "",
     "type": "",
     "x": 672,
     "y": 64,
     "width": 32,
     "height": 32,
     "rotation": 0,
     "visible": true,
     "properties": []
    },
    {
     "id": 1051,
     "name": "",
     "type": "",
     "x": 704,
     "y": 64,
     "width": 32,
     "height": 32,
     "rotation": 0,
     "visible": true,
     "properties": []
    },
    {
     "id": 1052,
     "name": "",
     "type": "",
     "x": 736,
     "y": 64,
     "width": 32,
     "height": 32,
     "rotation": 0,
     "visible": true,
     "properties": []
    },
    {
     "id": 1053,
     "name": "",
     "type": "",
     "x": 0,
     "y": 96,
     "width": 32,
     "height": 32,
     "rotation": 0,
     "visible": true,
     "properties": []
    },
    {
     "id": 1054,
     "name": "",
     "type": "",
     "x": 32,
     "y": 96,
     "width": 32,
     "height": 32,
     "rotation": 0,
     "visible": true,
     "properties": []
    },
    {
     "id": 1055,
     "name": "",
     "type": "",
     "x": 64,
     "y": 96,
     "width": 32,
     "height": 32,
     "rotation": 0,
     "visible": true,
     "properties": []
    },
    {
     "id": 1056,
     "name": "",
     "type": "",
     "x": 96,
     "y": 96,
     "width": 32,
     "height": 32,
     "rotation": 0,
     "visible": true,
     "properties": []
    },
    {
     "id": 1057,
     "name": "",
     "type": "",
     "x": 128,
     "y": 96,
     "width": 32,
     "height": 32,
     "rotation": 0,
     "visible": true,
     "properties": []
    },
    {
     "id": 1058,
     "name": "",
     "type": "",
     "x": 160,
     "y": 96,
     "width": 32,
     "height": 32,
     "rotation": 0,
     "visible": true,
     "properties": []
    },
    {
     "id": 1059,
     "name": "",
     "type": "",
     "x": 192,
     "y": 96,
     "width": 32,
     "height": 32,
     "rotation": 0,
     "visible": true,
     "properties": []
    },
    {
     "id": 1060,
     "name": "",
     "type": "",
     "x": 256,
     "y": 96,
     "width": 32,
     "height": 32,
     "rotation": 0,
     "visible": true,
     "properties": []
    },
    {
     "id": 1061,
     "name": "",
     "type": "",
     "x": 288,
     "y": 96,
     "width": 32,
     "height": 32,
     "rotation": 0,
     "visible": true,
     "properties": []
    },
    {
     "id": 1062,
     "name": "",
     "type": "",
     "x": 384,
     "y": 96,
     "width": 32,
     "height": 32,
     "rotation": 0,
     "visible": true,
     "properties": []
    },
    {
     "id": 1063,
     "name": "",
     "type": "",
     "x": 448,
     "y": 96,
     "width": 32,
     "height": 32,
     "rotation": 0,
     "visible": true,
     "properties": []
    },
    {
     "id": 1064,
     "name": "",
     "type": "",
     "x": 544,
     "y": 96,
     "width": 32,
     "height": 32,
     "rotation": 0,
     "visible": true,
     "properties": []
    },
    {
     "id": 1065,
     "name": "",
     "type": "",
     "x": 576,
     "y": 96,
     "width": 32,
     "height": 32,
     "rotation": 0,
     "visible": true,
     "properties": []
    },
    {
     "id": 1066,
     "name": "",
     "type": "",
     "x": 608,
     "y": 96,
     "width": 32,
     "height": 32,
     "rotation": 0,
     "visible": true,
     "properties": []
    },
    {
     "id": 1067,
     "name": "",
     "type": "",
     "x": 640,
     "y": 96,
     "width": 32,
     "height": 32,
     "rotation": 0,
     "visible": true,
     "properties": []
    },
    {
     "id": 1068,
     "name": "",
     "type": "",
     "x": 672,
     "y": 96,
     "width": 32,
     "height": 32,
     "rotation": 0,
     "visible": true,
     "properties": []
    },
    {
     "id": 1069,
     "name": "",
     "type": "",
     "x": 704,
     "y": 96,
     "width": 32,
     "height": 32,
     "rotation": 0,
     "visible": true,
     "properties": []
    },
    {
     "id": 1070,
     "name": "",
     "type": "",
     "x": 736,
     "y": 96,
     "width": 32,
     "height": 32,
     "rotation": 0,
     "visible": true,
     "properties": []
    },
    {
     "id": 1071,
     "name": "",
     "type": "",
     "x": 0,
     "y": 128,
     "width": 32,
     "height": 32,
     "rotation": 0,
     "visible": true,
     "properties": []
    },
    {
     "id": 1072,
     "name": "",
     "type": "",
     "x": 32,
     "y": 128,
     "width": 32,
     "height": 32,
     "rotation": 0,
     "visible": true,
     "properties": []
    },
    {
     "id": 1073,
     "name": "",
     "type": "",
     "x": 64,
     "y": 128,
     "width": 32,
     "height": 32,
     "rotation": 0,
     "visible": true,
     "properties": []
    },
    {
     "id": 1074,
     "name": "",
     "type": "",
     "x": 96,
     "y": 128,
     "width": 32,
     "height": 32,
     "rotation": 0,
     "visible": true,
     "properties": []
    },
    {
     "id": 1075,
     "name": "",
     "type": "",
     "x": 128,
     "y": 128,
     "width": 32,
     "height": 32,
     "rotation": 0,
     "visible": true,
     "properties": []
    },
    {
     "id": 1076,
     "name": "",
     "type": "",
     "x": 160,
     "y": 128,
     "width": 32,
     "height": 32,
     "rotation": 0,
     "visible": true,
     "properties": []
    },
    {
     "id": 1077,
     "name": "",
     "type": "",
     "x": 224,
     "y": 128,
     "width": 32,
     "height": 32,
     "rotation": 0,
     "visible": true,
     "properties": []
    },
    {
     "id": 1078,
     "name": "",
     "type": "",
     "x": 288,
     "y": 128,
     "width": 32,
     "height": 32,
     "rotation": 0,
     "visible": true,
     "properties": []
    },
    {
     "id": 1079,
     "name": "",
     "type": "",
     "x": 384,
     "y": 128,
     "width": 32,
     "height": 32,
     "rotation": 0,
     "visible": true,
     "properties": []
    },
    {
     "id": 1080,
     "name": "",
     "type": "",
     "x": 448,
     "y": 128,
     "width": 32,
     "height": 32,
     "rotation": 0,
     "visible": true,
     "properties": []
    },
    {
     "id": 1081,
     "name": "",
     "type": "",
     "x": 512,
     "y": 128,
     "width": 32,
     "height": 32,
     "rotation": 0,
     "visible": true,
     "properties": []
    },
    {
     "id": 1082,
     "name": "",
     "type": "",
     "x": 544,
     "y": 128,
     "width": 32,
     "height": 32,
     "rotation": 0,
     "visible": true,
     "properties": []
    },
    {
     "id": 1083,
     "name": "",
     "type": "",
     "x": 576,
     "y": 128,
     "width": 32,
     "height": 32,
     "rotation": 0,
     "visible": true,
     "properties": []
    },
    {
     "id": 1084,
     "name": "",
     "type": "",
     "x": 608,
     "y": 128,
     "width": 32,
     "height": 32,
     "rotation": 0,
     "visible": true,
     "properties": []
    },
    {
     "id": 1085,
     "name": "",
     "type": "",
     "x": 640,
     "y": 128,
     "width": 32,
     "height": 32,
     "rotation": 0,
     "visible": true,
     "properties": []
    },
    {
     "id": 1086,
     "name": "",
     "type": "",
     "x": 672,
     "y": 128,
     "width": 32,
     "height": 32,
     "rotation": 0,
     "visible": true,
     "properties": []
    },
    {
     "id": 1087,
     "name": "",
     "type": "",
     "x": 704,
     "y": 128,
     "width": 32,
     "height": 32,
     "rotation": 0,
     "visible": true,
     "properties": []
    },
    {
     "id": 1088,
     "name": "",
     "type": "",
     "x": 736,
     "y": 128,
     "width": 32,
     "height": 32,
     "rotation": 0,
     "visible": true,
     "properties": []
    },
    {
     "id": 1089,
     "name": "",
     "type": "",
     "x": 0,
     "y": 160,
     "width": 32,
     "height": 32,
     "rotation": 0,
     "visible": true,
     "properties": []
    },
    {
     "id": 1090,
     "name": "",
     "type": "",
     "x": 32,
     "y": 160,
     "width": 32,
     "height": 32,
     "rotation": 0,
     "visible": true,
     "properties": []
    },
    {
     "id": 1091,
     "name": "",
     "type": "",
     "x": 64,
     "y": 160,
     "width": 32,
     "height": 32,
     "rotation": 0,
     "visible": true,
     "properties": []
    },
    {
     "id": 1092,
     "name": "",
     "type": "",
     "x": 96,
     "y": 160,
     "width": 32,
     "height": 32,
     "rotation": 0,
     "visible": true,
     "properties": []
    },
    {
     "id": 1093,
     "name": "",
     "type": "",
     "x": 128,
     "y": 160,
     "width": 32,
     "height": 32,
     "rotation": 0,
     "visible": true,
     "properties": []
    },
    {
     "id": 1094,
     "name": "",
     "type": "",
     "x": 160,
     "y": 160,
     "width": 32,
     "height": 32,
     "rotation": 0,
     "visible": true,
     "properties": []
    },
    {
     "id": 1095,
     "name": "",
     "type": "",
     "x": 192,
     "y": 160,
     "width": 32,
     "height": 32,
     "rotation": 0,
     "visible": true,
     "properties": []
    },
    {
     "id": 1096,
     "name": "",
     "type": "",
     "x": 320,
     "y": 160,
     "width": 32,
     "height": 32,
     "rotation": 0,
     "visible": true,
     "properties": []
    },
    {
     "id": 1097,
     "name": "",
     "type": "",
     "x": 416,
     "y": 160,
     "width": 32,
     "height": 32,
     "rotation": 0,
     "visible": true,
     "properties": []
    },
    {
     "id": 1098,
     "name": "",
     "type": "",
     "x": 512,
     "y": 160,
     "width": 32,
     "height": 32,
     "rotation": 0,
     "visible": true,
     "properties": []
    },
    {
     "id": 1099,
     "name": "",
     "type": "",
     "x": 544,
     "y": 160,
     "width": 32,
     "height": 32,
     "rotation": 0,
     "visible": true,
     "properties": []
    },
    {
     "id": 1100,
     "name": "",
     "type": "",
     "x": 576,
     "y": 160,
     "width": 32,
     "height": 32,
     "rotation": 0,
     "visible": true,
     "properties": []
    },
    {
     "id": 1101,
     "name": "",
     "type": "",
     "x": 608,
     "y": 160,
     "width": 32,
     "height": 32,
     "rotation": 0,
     "visible": true,
     "properties": []
    },
    {
     "id": 1102,
     "name": "",
     "type": "",
     "x": 640,
     "y": 160,
     "width": 32,
     "height": 32,
     "rotation": 0,
     "visible": true,
     "properties": []
    },
    {
     "id": 1103,
     "name": "",
     "type": "",
     "x": 672,
     "y": 160,
     "width": 32,
     "height": 32,
     "rotation": 0,
     "visible": true,
     "properties": []
    },
    {
     "id": 1104,
     "name": "",
     "type": "",
     "x": 704,
     "y": 160,
     "width": 32,
     "height": 32,
     "rotation": 0,
     "visible": true,
     "properties": []
    },
    {
     "id": 1105,
     "name": "",
     "type": "",
     "x": 736,
     "y": 160,
     "width": 32,
     "height": 32,
     "rotation": 0,
     "visible": true,
     "properties": []
    },
    {
     "id": 1106,
     "name": "",
     "type": "",
     "x": 0,
     "y": 192,
     "width": 32,
     "height": 32,
     "rotation": 0,
     "visible": true,
     "properties": []
    },
    {
     "id": 1107,
     "name": "",
     "type": "",
     "x": 32,
     "y": 192,
     "width": 32,
     "height": 32,
     "rotation": 0,
     "visible": true,
     "properties": []
    },
    {
     "id": 1108,
     "name": "",
     "type": "",
     "x": 64,
     "y": 192,
     "width": 32,
     "height": 32,
     "rotation": 0,
     "visible": true,
     "properties": []
    },
    {
     "id": 1109,
     "name": "",
     "type": "",
     "x": 96,
     "y": 192,
     "width": 32,
     "height": 32,
     "rotation": 0,
     "visible": true,
     "properties": []
    },
    {
     "id": 1110,
     "name": "",
     "type": "",
     "x": 128,
     "y": 192,
     "width": 32,
     "height": 32,
     "rotation": 0,
     "visible": true,
     "properties": []
    },
    {
     "id": 1111,
     "name": "",
     "type": "",
     "x": 160,
     "y": 192,
     "width": 32,
     "height": 32,
     "rotation": 0,
     "visible": true,
     "properties": []
    },
    {
     "id": 1112,
     "name": "",
     "type": "",
     "x": 192,
     "y": 192,
     "width": 32,
     "height": 32,
     "rotation": 0,
     "visible": true,
     "properties": []
    },
    {
     "id": 1113,
     "name": "",
     "type": "",
     "x": 320,
     "y": 192,
     "width": 32,
     "height": 32,
     "rotation": 0,
     "visible": true,
     "properties": []
    },
    {
     "id": 1114,
     "name": "",
     "type": "",
     "x": 416,
     "y": 192,
     "width": 32,
     "height": 32,
     "rotation": 0,
     "visible": true,
     "properties": []
    },
    {
     "id": 1115,
     "name": "",
     "type": "",
     "x": 544,
     "y": 192,
     "width": 32,
     "height": 32,
     "rotation": 0,
     "visible": true,
     "properties": []
    },
    {
     "id": 1116,
     "name": "",
     "type": "",
     "x": 576,
     "y": 192,
     "width": 32,
     "height": 32,
     "rotation": 0,
     "visible": true,
     "properties": []
    },
    {
     "id": 1117,
     "name": "",
     "type": "",
     "x": 608,
     "y": 192,
     "width": 32,
     "height": 32,
     "rotation": 0,
     "visible": true,
     "properties": []
    },
    {
     "id": 1118,
     "name": "",
     "type": "",
     "x": 640,
     "y": 192,
     "width": 32,
     "height": 32,
     "rotation": 0,
     "visible": true,
     "properties": []
    },
    {
     "id": 1119,
     "name": "",
     "type": "",
     "x": 672,
     "y": 192,
     "width": 32,
     "height": 32,
     "rotation": 0,
     "visible": true,
     "properties": []
    },
    {
     "id": 1120,
     "name": "",
     "type": "",
     "x": 704,
     "y": 192,
     "width": 32,
     "height": 32,
     "rotation": 0,
     "visible": true,
     "properties": []
    },
    {
     "id": 1121,
     "name": "",
     "type": "",
     "x": 736,
     "y": 192,
     "width": 32,
     "height": 32,
     "rotation": 0,
     "visible": true,
     "properties": []
    },
    {
     "id": 1122,
     "name": "",
     "type": "",
     "x": 0,
     "y": 224,
     "width": 32,
     "height": 32,
     "rotation": 0,
     "visible": true,
     "properties": []
    },
    {
     "id": 1123,
     "name": "",
     "type": "",
     "x": 32,
     "y": 224,
     "width": 32,
     "height": 32,
     "rotation": 0,
     "visible": true,
     "properties": []
    },
    {
     "id": 1124,
     "name": "",
     "type": "",
     "x": 64,
     "y": 224,
     "width": 32,
     "height": 32,
     "rotation": 0,
     "visible": true,
     "properties": []
    },
    {
     "id": 1125,
     "name": "",
     "type": "",
     "x": 96,
     "y": 224,
     "width": 32,
     "height": 32,
     "rotation": 0,
     "visible": true,
     "properties": []
    },
    {
     "id": 1126,
     "name": "",
     "type": "",
     "x": 128,
     "y": 224,
     "width": 32,
     "height": 32,
     "rotation": 0,
     "visible": true,
     "properties": []
    },
    {
     "id": 1127,
     "name": "",
     "type": "",
     "x": 160,
     "y": 224,
     "width": 32,
     "height": 32,
     "rotation": 0,
     "visible": true,
     "properties": []
    },
    {
     "id": 1128,
     "name": "",
     "type": "",
     "x": 256,
     "y": 224,
     "width": 32,
     "height": 32,
     "rotation": 0,
     "visible": true,
     "properties": []
    },
    {
     "id": 1129,
     "name": "",
     "type": "",
     "x": 320,
     "y": 224,
     "width": 32,
     "height": 32,
     "rotation": 0,
     "visible": true,
     "properties": []
    },
    {
     "id": 1130,
     "name": "",
     "type": "",
     "x": 384,
     "y": 224,
     "width": 32,
     "height": 32,
     "rotation": 0,
     "visible": true,
     "properties": []
    },
    {
     "id": 1131,
     "name": "",
     "type": "",
     "x": 576,
     "y": 224,
     "width": 32,
     "height": 32,
     "rotation": 0,
     "visible": true,
     "properties": []
    },
    {
     "id": 1132,
     "name": "",
     "type": "",
     "x": 608,
     "y": 224,
     "width": 32,
     "height": 32,
     "rotation": 0,
     "visible": true,
     "properties": []
    },
    {
     "id": 1133,
     "name": "",
     "type": "",
     "x": 640,
     "y": 224,
     "width": 32,
     "height": 32,
     "rotation": 0,
     "visible": true,
     "properties": []
    },
    {
     "id": 1134,
     "name": "",
     "type": "",
     "x": 672,
     "y": 224,
     "width": 32,
     "height": 32,
     "rotation": 0,
     "visible": true,
     "properties": []
    },
    {
     "id": 1135,
     "name": "",
     "type": "",
     "x": 704,
     "y": 224,
     "width": 32,
     "height": 32,
     "rotation": 0,
     "visible": true,
     "properties": []
    },
    {
     "id": 1136,
     "name": "",
     "type": "",
     "x": 736,
     "y": 224,
     "width": 32,
     "height": 32,
     "rotation": 0,
     "visible": true,
     "properties": []
    },
    {
     "id": 1137,
     "name": "",
     "type": "",
     "x": 0,
     "y": 256,
     "width": 32,
     "height": 32,
     "rotation": 0,
     "visible": true,
     "properties": []
    },
    {
     "id": 1138,
     "name": "",
     "type": "",
     "x": 32,
     "y": 256,
     "width": 32,
     "height": 32,
     "rotation": 0,
     "visible": true,
     "properties": []
    },
    {
     "id": 1139,
     "name": "",
     "type": "",
     "x": 64,
     "y": 256,
     "width": 32,
     "height": 32,
     "rotation": 0,
     "visible": true,
     "properties": []
    },
    {
     "id": 1140,
     "name": "",
     "type": "",
     "x": 96,
     "y": 256,
     "width": 32,
     "height": 32,
     "rotation": 0,
     "visible": true,
     "properties": []
    },
    {
     "id": 1141,
     "name": "",
     "type": "",
     "x": 128,
     "y": 256,
     "width": 32,
     "height": 32,
     "rotation": 0,
     "visible": true,
     "properties": []
    },
    {
     "id": 1142,
     "name": "",
     "type": "",
     "x": 160,
     "y": 256,
     "width": 32,
     "height": 32,
     "rotation": 0,
     "visible": true,
     "properties": []
    },
    {
     "id": 1143,
     "name": "",
     "type": "",
     "x": 256,
     "y": 256,
     "width": 32,
     "height": 32,
     "rotation": 0,
     "visible": true,
     "properties": []
    },
    {
     "id": 1144,
     "name": "",
     "type": "",
     "x": 320,
     "y": 256,
     "width": 32,
     "height": 32,
     "rotation": 0,
     "visible": true,
     "properties": []
    },
    {
     "id": 1145,
     "name": "",
     "type": "",
     "x": 384,
     "y": 256,
     "width": 32,
     "height": 32,
     "rotation": 0,
     "visible": true,
     "properties": []
    },
    {
     "id": 1146,
     "name": "",
     "type": "",
     "x": 512,
     "y": 256,
     "width": 32,
     "height": 32,
     "rotation": 0,
     "visible": true,
     "properties": []
    },
    {
     "id": 1147,
     "name": "",
     "type": "",
     "x": 576,
     "y": 256,
     "width": 32,
     "height": 32,
     "rotation": 0,
     "visible": true,
     "properties": []
    },
    {
     "id": 1148,
     "name": "",
     "type": "",
     "x": 608,
     "y": 256,
     "width": 32,
     "height": 32,
     "rotation": 0,
     "visible": true,
     "properties": []
    },
    {
     "id": 1149,
     "name": "",
     "type": "",
     "x": 640,
     "y": 256,
     "width": 32,
     "height": 32,
     "rotation": 0,
     "visible": true,
     "properties": []
    },
    {
     "id": 1150,
     "name": "",
     "type": "",
     "x": 672,
     "y": 256,
     "width": 32,
     "height": 32,
     "rotation": 0,
     "visible": true,
     "properties": []
    },
    {
     "id": 1151,
     "name": "",
     "type": "",
     "x": 704,
     "y": 256,
     "width": 32,
     "height": 32,
     "rotation": 0,
     "visible": true,
     "properties": []
    },
    {
     "id": 1152,
     "name": "",
     "type": "",
     "x": 736,
     "y": 256,
     "width": 32,
     "height": 32,
     "rotation": 0,
     "visible": true,
     "properties": []
    },
    {
     "id": 1153,
     "name": "",
     "type": "",
     "x": 0,
     "y": 288,
     "width": 32,
     "height": 32,
     "rotation": 0,
     "visible": true,
     "properties": []
    },
    {
     "id": 1154,
     "name": "",
     "type": "",
     "x": 32,
     "y": 288,
     "width": 32,
     "height": 32,
     "rotation": 0,
     "visible": true,
     "properties": []
    },
    {
     "id": 1155,
     "name": "",
     "type": "",
     "x": 64,
     "y": 288,
     "width": 32,
     "height": 32,
     "rotation": 0,
     "visible": true,
     "properties": []
    },
    {
     "id": 1156,
     "name": "",
     "type": "",
     "x": 96,
     "y": 288,
     "width": 32,
     "height": 32,
     "rotation": 0,
     "visible": true,
     "properties": []
    },
    {
     "id": 1157,
     "name": "",
     "type": "",
     "x": 128,
     "y": 288,
     "width": 32,
     "height": 32,
     "rotation": 0,
     "visible": true,
     "properties": []
    },
    {
     "id": 1158,
     "name": "",
     "type": "",
     "x": 160,
     "y": 288,
     "width": 32,
     "height": 32,
     "rotation": 0,
     "visible": true,
     "properties": []
    },
    {
     "id": 1159,
     "name": "",
     "type": "",
     "x": 192,
     "y": 288,
     "width": 32,
     "height": 32,
     "rotation": 0,
     "visible": true,
     "properties": []
    },
    {
     "id": 1160,
     "name": "",
     "type": "",
     "x": 288,
     "y": 288,
     "width": 32,
     "height": 32,
     "rotation": 0,
     "visible": true,
     "properties": []
    },
    {
     "id": 1161,
     "name": "",
     "type": "",
     "x": 352,
     "y": 288,
     "width": 32,
     "height": 32,
     "rotation": 0,
     "visible": true,
     "properties": []
    },
    {
     "id": 1162,
     "name": "",
     "type": "",
     "x": 416,
     "y": 288,
     "width": 32,
     "height": 32,
     "rotation": 0,
     "visible": true,
     "properties": []
    },
    {
     "id": 1163,
     "name": "",
     "type": "",
     "x": 512,
     "y": 288,
     "width": 32,
     "height": 32,
     "rotation": 0,
     "visible": true,
     "properties": []
    },
    {
     "id": 1164,
     "name": "",
     "type": "",
     "x": 576,
     "y": 288,
     "width": 32,
     "height": 32,
     "rotation": 0,
     "visible": true,
     "properties": []
    },
    {
     "id": 1165,
     "name": "",
     "type": "",
     "x": 608,
     "y": 288,
     "width": 32,
     "height": 32,
     "rotation": 0,
     "visible": true,
     "properties": []
    },
    {
     "id": 1166,
     "name": "",
     "type": "",
     "x": 640,
     "y": 288,
     "width": 32,
     "height": 32,
     "rotation": 0,
     "visible": true,
     "properties": []
    },
    {
     "id": 1167,
     "name": "",
     "type": "",
     "x": 672,
     "y": 288,
     "width": 32,
     "height": 32,
     "rotation": 0,
     "visible": true,
     "properties": []
    },
    {
     "id": 1168,
     "name": "",
     "type": "",
     "x": 704,
     "y": 288,
     "width": 32,
     "height": 32,
     "rotation": 0,
     "visible": true,
     "properties": []
    },
    {
     "id": 1169,
     "name": "",
     "type": "",
     "x": 736,
     "y": 288,
     "width": 32,
     "height": 32,
     "rotation": 0,
     "visible": true,
     "properties": []
    },
    {
     "id": 1170,
     "name": "",
     "type": "",
     "x": 0,
     "y": 320,
     "width": 32,
     "height": 32,
     "rotation": 0,
     "visible": true,
     "properties": []
    },
    {
     "id": 1171,
     "name": "",
     "type": "",
     "x": 32,
     "y": 320,
     "width": 32,
     "height": 32,
     "rotation": 0,
     "visible": true,
     "properties": []
    },
    {
     "id": 1172,
     "name": "",
     "type": "",
     "x": 64,
     "y": 320,
     "width": 32,
     "height": 32,
     "rotation": 0,
     "visible": true,
     "properties": []
    },
    {
     "id": 1173,
     "name": "",
     "type": "",
     "x": 96,
     "y": 320,
     "width": 32,
     "height": 32,
     "rotation": 0,
     "visible": true,
     "properties": []
    },
    {
     "id": 1174,
     "name": "",
     "type": "",
     "x": 128,
     "y": 320,
     "width": 32,
     "height": 32,
     "rotation": 0,
     "visible": true,
     "properties": []
    },
    {
     "id": 1175,
     "name": "",
     "type": "",
     "x": 160,
     "y": 320,
     "width": 32,
     "height": 32,
     "rotation": 0,
     "visible": true,
     "properties": []
    },
    {
     "id": 1176,
     "name": "",
     "type": "",
     "x": 192,
     "y": 320,
     "width": 32,
     "height": 32,
     "rotation": 0,
     "visible": true,
     "properties": []
    },
    {
     "id": 1177,
     "name": "",
     "type": "",
     "x": 288,
     "y": 320,
     "width": 32,
     "height": 32,
     "rotation": 0,
     "visible": true,
     "properties": []
    },
    {
     "id": 1178,
     "name": "",
     "type": "",
     "x": 352,
     "y": 320,
     "width": 32,
     "height": 32,
     "rotation": 0,
     "visible": true,
     "properties": []
    },
    {
     "id": 1179,
     "name": "",
     "type": "",
     "x": 416,
     "y": 320,
     "width": 32,
     "height": 32,
     "rotation": 0,
     "visible": true,
     "properties": []
    },
    {
     "id": 1180,
     "name": "",
     "type": "",
     "x": 512,
     "y": 320,
     "width": 32,
     "height": 32,
     "rotation": 0,
     "visible": true,
     "properties": []
    },
    {
     "id": 1181,
     "name": "",
     "type": "",
     "x": 576,
     "y": 320,
     "width": 32,
     "height": 32,
     "rotation": 0,
     "visible": true,
     "properties": []
    },
    {
     "id": 1182,
     "name": "",
     "type": "",
     "x": 608,
     "y": 320,
     "width": 32,
     "height": 32,
     "rotation": 0,
     "visible": true,
     "properties": []
    },
    {
     "id": 1183,
     "name": "",
     "type": "",
     "x": 640,
     "y": 320,
     "width": 32,
     "height": 32,
     "rotation": 0,
     "visible": true,
     "properties": []
    },
    {
     "id": 1184,
     "name": "",
     "type": "",
     "x": 672,
     "y": 320,
     "width": 32,
     "height": 32,
     "rotation": 0,
     "visible": true,
     "properties": []
    },
    {
     "id": 1185,
     "name": "",
     "type": "",
     "x": 704,
     "y": 320,
     "width": 32,
     "height": 32,
     "rotation": 0,
     "visible": true,
     "properties": []
    },
    {
     "id": 1186,
     "name": "",
     "type": "",
     "x": 736,
     "y": 320,
     "width": 32,
     "height": 32,
     "rotation": 0,
     "visible": true,
     "properties": []
    },
    {
     "id": 1187,
     "name": "",
     "type": "",
     "x": 0,
     "y": 352,
     "width": 32,
     "height": 32,
     "rotation": 0,
     "visible": true,
     "properties": []
    },
    {
     "id": 1188,
     "name": "",
     "type": "",
     "x": 32,
     "y": 352,
     "width": 32,
     "height": 32,
     "rotation": 0,
     "visible": true,
     "properties": []
    },
    {
     "id": 1189,
     "name": "",
     "type": "",
     "x": 64,
     "y": 352,
     "width": 32,
     "height": 32,
     "rotation": 0,
     "visible": true,
     "properties": []
    },
    {
     "id": 1190,
     "name": "",
     "type": "",
     "x": 96,
     "y": 352,
     "width": 32,
     "height": 32,
     "rotation": 0,
     "visible": true,
     "properties": []
    },
    {
     "id": 1191,
     "name": "",
     "type": "",
     "x": 128,
     "y": 352,
     "width": 32,
     "height": 32,
     "rotation": 0,
     "visible": true,
     "properties": []
    },
    {
     "id": 1192,
     "name": "",
     "type": "",
     "x": 160,
     "y": 352,
     "width": 32,
     "height": 32,
     "rotation": 0,
     "visible": true,
     "properties": []
    },
    {
     "id": 1193,
     "name": "",
     "type": "",
     "x": 224,
     "y": 352,
     "width": 32,
     "height": 32,
     "rotation": 0,
     "visible": true,
     "properties": []
    },
    {
     "id": 1194,
     "name": "",
     "type": "",
     "x": 320,
     "y": 352,
     "width": 32,
     "height": 32,
     "rotation": 0,
     "visible": true,
     "properties": []
    },
    {
     "id": 1195,
     "name": "",
     "type": "",
     "x": 416,
     "y": 352,
     "width": 32,
     "height": 32,
     "rotation": 0,
     "visible": true,
     "properties": []
    },
    {
     "id": 1196,
     "name": "",
     "type": "",
     "x": 576,
     "y": 352,
     "width": 32,
     "height": 32,
     "rotation": 0,
     "visible": true,
     "properties": []
    },
    {
     "id": 1197,
     "name": "",
     "type": "",
     "x": 608,
     "y": 352,
     "width": 32,
     "height": 32,
     "rotation": 0,
     "visible": true,
     "properties": []
    },
    {
     "id": 1198,
     "name": "",
     "type": "",
     "x": 640,
     "y": 352,
     "width": 32,
     "height": 32,
     "rotation": 0,
     "visible": true,
     "properties": []
    },
    {
     "id": 1199,
     "name": "",
     "type": "",
     "x": 672,
     "y": 352,
     "width": 32,
     "height": 32,
     "rotation": 0,
     "visible": true,
     "properties": []
    },
    {
     "id": 1200,
     "name": "",
     "type": "",
     "x": 704,
     "y": 352,
     "width": 32,
     "height": 32,
     "rotation": 0,
     "visible": true,
     "properties": []
    },
    {
     "id": 1201,
     "name": "",
     "type": "",
     "x": 736,
     "y": 352,
     "width": 32,
     "height": 32,
     "rotation": 0,
     "visible": true,
     "properties": []
    },
    {
     "id": 1202,
     "name": "",
     "type": "",
     "x": 0,
     "y": 384,
     "width": 32,
     "height": 32,
     "rotation": 0,
     "visible": true,
     "properties": []
    },
    {
     "id": 1203,
     "name": "",
     "type": "",
     "x": 32,
     "y": 384,
     "width": 32,
     "height": 32,
     "rotation": 0,
     "visible": true,
     "properties": []
    },
    {
     "id": 1204,
     "name": "",
     "type": "",
     "x": 64,
     "y": 384,
     "width": 32,
     "height": 32,
     "rotation": 0,
     "visible": true,
     "properties": []
    },
    {
     "id": 1205,
     "name": "",
     "type": "",
     "x": 96,
     "y": 384,
     "width": 32,
     "height": 32,
     "rotation": 0,
     "visible": true,
     "properties": []
    },
    {
     "id": 1206,
     "name": "",
     "type": "",
     "x": 128,
     "y": 384,
     "width": 32,
     "height": 32,
     "rotation": 0,
     "visible": true,
     "properties": []
    },
    {
     "id": 1207,
     "name": "",
     "type": "",
     "x": 160,
     "y": 384,
     "width": 32,
     "height": 32,
     "rotation": 0,
     "visible": true,
     "properties": []
    },
    {
     "id": 1208,
     "name": "",
     "type": "",
     "x": 192,
     "y": 384,
     "width": 32,
     "height": 32,
     "rotation": 0,
     "visible": true,
     "properties": []
    },
    {
     "id": 1209,
     "name": "",
     "type": "",
     "x": 224,
     "y": 384,
     "width": 32,
     "height": 32,
     "rotation": 0,
     "visible": true,
     "properties": []
    },
    {
     "id": 1210,
     "name": "",
     "type": "",
     "x": 256,
     "y": 384,
     "width": 32,
     "height": 32,
     "rotation": 0,
     "visible": true,
     "properties": []
    },
    {
     "id": 1211,
     "name": "",
     "type": "",
     "x": 320,
     "y": 384,
     "width": 32,
     "height": 32,
     "rotation": 0,
     "visible": true,
     "properties": []
    },
    {
     "id": 1212,
     "name": "",
     "type": "",
     "x": 416,
     "y": 384,
     "width": 32,
     "height": 32,
     "rotation": 0,
     "visible": true,
     "properties": []
    },
    {
     "id": 1213,
     "name": "",
     "type": "",
     "x": 480,
     "y": 384,
     "width": 32,
     "height": 32,
     "rotation": 0,
     "visible": true,
     "properties": []
    },
    {
     "id": 1214,
     "name": "",
     "type": "",
     "x": 576,
     "y": 384,
     "width": 32,
     "height": 32,
     "rotation": 0,
     "visible": true,
     "properties": []
    },
    {
     "id": 1215,
     "name": "",
     "type": "",
     "x": 608,
     "y": 384,
     "width": 32,
     "height": 32,
     "rotation": 0,
     "visible": true,
     "properties": []
    },
    {
     "id": 1216,
     "name": "",
     "type": "",
     "x": 640,
     "y": 384,
     "width": 32,
     "height": 32,
     "rotation": 0,
     "visible": true,
     "properties": []
    },
    {
     "id": 1217,
     "name": "",
     "type": "",
     "x": 672,
     "y": 384,
     "width": 32,
     "height": 32,
     "rotation": 0,
     "visible": true,
     "properties": []
    },
    {
     "id": 1218,
     "name": "",
     "type": "",
     "x": 704,
     "y": 384,
     "width": 32,
     "height": 32,
     "rotation": 0,
     "visible": true,
     "properties": []
    },
    {
     "id": 1219,
     "name": "",
     "type": "",
     "x": 736,
     "y": 384,
     "width": 32,
     "height": 32,
     "rotation": 0,
     "visible": true,
     "properties": []
    },
    {
     "id": 1220,
     "name": "",
     "type": "",
     "x": 0,
     "y": 416,
     "width": 32,
     "height": 32,
     "rotation": 0,
     "visible": true,
     "properties": []
    },
    {
     "id": 1221,
     "name": "",
     "type": "",
     "x": 32,
     "y": 416,
     "width": 32,
     "height": 32,
     "rotation": 0,
     "visible": true,
     "properties": []
    },
    {
     "id": 1222,
     "name": "",
     "type": "",
     "x": 64,
     "y": 416,
     "width": 32,
     "height": 32,
     "rotation": 0,
     "visible": true,
     "properties": []
    },
    {
     "id": 1223,
     "name": "",
     "type": "",
     "x": 96,
     "y": 416,
     "width": 32,
     "height": 32,
     "rotation": 0,
     "visible": true,
     "properties": []
    },
    {
     "id": 1224,
     "name": "",
     "type": "",
     "x": 128,
     "y": 416,
     "width": 32,
     "height": 32,
     "rotation": 0,
     "visible": true,
     "properties": []
    },
    {
     "id": 1225,
     "name": "",
     "type": "",
     "x": 160,
     "y": 416,
     "width": 32,
     "height": 32,
     "rotation": 0,
     "visible": true,
     "properties": []
    },
    {
     "id": 1226,
     "name": "",
     "type": "",
     "x": 192,
     "y": 416,
     "width": 32,
     "height": 32,
     "rotation": 0,
     "visible": true,
     "properties": []
    },
    {
     "id": 1227,
     "name": "",
     "type": "",
     "x": 256,
     "y": 416,
     "width": 32,
     "height": 32,
     "rotation": 0,
     "visible": true,
     "properties": []
    },
    {
     "id": 1228,
     "name": "",
     "type": "",
     "x": 320,
     "y": 416,
     "width": 32,
     "height": 32,
     "rotation": 0,
     "visible": true,
     "properties": []
    },
    {
     "id": 1229,
     "name": "",
     "type": "",
     "x": 416,
     "y": 416,
     "width": 32,
     "height": 32,
     "rotation": 0,
     "visible": true,
     "properties": []
    },
    {
     "id": 1230,
     "name": "",
     "type": "",
     "x": 480,
     "y": 416,
     "width": 32,
     "height": 32,
     "rotation": 0,
     "visible": true,
     "properties": []
    },
    {
     "id": 1231,
     "name": "",
     "type": "",
     "x": 576,
     "y": 416,
     "width": 32,
     "height": 32,
     "rotation": 0,
     "visible": true,
     "properties": []
    },
    {
     "id": 1232,
     "name": "",
     "type": "",
     "x": 608,
     "y": 416,
     "width": 32,
     "height": 32,
     "rotation": 0,
     "visible": true,
     "properties": []
    },
    {
     "id": 1233,
     "name": "",
     "type": "",
     "x": 640,
     "y": 416,
     "width": 32,
     "height": 32,
     "rotation": 0,
     "visible": true,
     "properties": []
    },
    {
     "id": 1234,
     "name": "",
     "type": "",
     "x": 672,
     "y": 416,
     "width": 32,
     "height": 32,
     "rotation": 0,
     "visible": true,
     "properties": []
    },
    {
     "id": 1235,
     "name": "",
     "type": "",
     "x": 704,
     "y": 416,
     "width": 32,
     "height": 32,
     "rotation": 0,
     "visible": true,
     "properties": []
    },
    {
     "id": 1236,
     "name": "",
     "type": "",
     "x": 736,
     "y": 416,
     "width": 32,
     "height": 32,
     "rotation": 0,
     "visible": true,
     "properties": []
    },
    {
     "id": 1237,
     "name": "",
     "type": "",
     "x": 0,
     "y": 448,
     "width": 32,
     "height": 32,
     "rotation": 0,
     "visible": true,
     "properties": []
    },
    {
     "id": 1238,
     "name": "",
     "type": "",
     "x": 32,
     "y": 448,
     "width": 32,
     "height": 32,
     "rotation": 0,
     "visible": true,
     "properties": []
    },
    {
     "id": 1239,
     "name": "",
     "type": "",
     "x": 64,
     "y": 448,
     "width": 32,
     "height": 32,
     "rotation": 0,
     "visible": true,
     "properties": []
    },
    {
     "id": 1240,
     "name": "",
     "type": "",
     "x": 96,
     "y": 448,
     "width": 32,
     "height": 32,
     "rotation": 0,
     "visible": true,
     "properties": []
    },
    {
     "id": 1241,
     "name": "",
     "type": "",
     "x": 128,
     "y": 448,
     "width": 32,
     "height": 32,
     "rotation": 0,
     "visible": true,
     "properties": []
    },
    {
     "id": 1242,
     "name": "",
     "type": "",
     "x": 160,
     "y": 448,
     "width": 32,
     "height": 32,
     "rotation": 0,
     "visible": true,
     "properties": []
    },
    {
     "id": 1243,
     "name": "",
     "type": "",
     "x": 192,
     "y": 448,
     "width": 32,
     "height": 32,
     "rotation": 0,
     "visible": true,
     "properties": []
    },
    {
     "id": 1244,
     "name": "",
     "type": "",
     "x": 256,
     "y": 448,
     "width": 32,
     "height": 32,
     "rotation": 0,
     "visible": true,
     "properties": []
    },
    {
     "id": 1245,
     "name": "",
     "type": "",
     "x": 320,
     "y": 448,
     "width": 32,
     "height": 32,
     "rotation": 0,
     "visible": true,
     "properties": []
    },
    {
     "id": 1246,
     "name": "",
     "type": "",
     "x": 416,
     "y": 448,
     "width": 32,
     "height": 32,
     "rotation": 0,
     "visible": true,
     "properties": []
    },
    {
     "id": 1247,
     "name": "",
     "type": "",
     "x": 480,
     "y": 448,
     "width": 32,
     "height": 32,
     "rotation": 0,
     "visible": true,
     "properties": []
    },
    {
     "id": 1248,
     "name": "",
     "type": "",
     "x": 544,
     "y": 448,
     "width": 32,
     "height": 32,
     "rotation": 0,
     "visible": true,
     "properties": []
    },
    {
     "id": 1249,
     "name": "",
     "type": "",
     "x": 576,
     "y": 448,
     "width": 32,
     "height": 32,
     "rotation": 0,
     "visible": true,
     "properties": []
    },
    {
     "id": 1250,
     "name": "",
     "type": "",
     "x": 608,
     "y": 448,
     "width": 32,
     "height": 32,
     "rotation": 0,
     "visible": true,
     "properties": []
    },
    {
     "id": 1251,
     "name": "",
     "type": "",
     "x": 640,
     "y": 448,
     "width": 32,
     "height": 32,
     "rotation": 0,
     "visible": true,
     "properties": []
    },
    {
     "id": 1252,
     "name": "",
     "type": "",
     "x": 672,
     "y": 448,
     "width": 32,
     "height": 32,
     "rotation": 0,
     "visible": true,
     "properties": []
    },
    {
     "id": 1253,
     "name": "",
     "type": "",
     "x": 704,
     "y": 448,
     "width": 32,
     "height": 32,
     "rotation": 0,
     "visible": true,
     "properties": []
    },
    {
     "id": 1254,
     "name": "",
     "type": "",
     "x": 736,
     "y": 448,
     "width": 32,
     "height": 32,
     "rotation": 0,
     "visible": true,
     "properties": []
    },
    {
     "id": 1255,
     "name": "",
     "type": "",
     "x": 0,
     "y": 480,
     "width": 32,
     "height": 32,
     "rotation": 0,
     "visible": true,
     "properties": []
    },
    {
     "id": 1256,
     "name": "",
     "type": "",
     "x": 32,
     "y": 480,
     "width": 32,
     "height": 32,
     "rotation": 0,
     "visible": true,
     "properties": []
    },
    {
     "id": 1257,
     "name": "",
     "type": "",
     "x": 64,
     "y": 480,
     "width": 32,
     "height": 32,
     "rotation": 0,
     "visible": true,
     "properties": []
    },
    {
     "id": 1258,
     "name": "",
     "type": "",
     "x": 96,
     "y": 480,
     "width": 32,
     "height": 32,
     "rotation": 0,
     "visible": true,
     "properties": []
    },
    {
     "id": 1259,
     "name": "",
     "type": "",
     "x": 128,
     "y": 480,
     "width": 32,
     "height": 32,
     "rotation": 0,
     "visible": true,
     "properties": []
    },
    {
     "id": 1260,
     "name": "",
     "type": "",
     "x": 160,
     "y": 480,
     "width": 32,
     "height": 32,
     "rotation": 0,
     "visible": true,
     "properties": []
    },
    {
     "id": 1261,
     "name": "",
     "type": "",
     "x": 192,
     "y": 480,
     "width": 32,
     "height": 32,
     "rotation": 0,
     "visible": true,
     "properties": []
    },
    {
     "id": 1262,
     "name": "",
     "type": "",
     "x": 256,
     "y": 480,
     "width": 32,
     "height": 32,
     "rotation": 0,
     "visible": true,
     "properties": []
    },
    {
     "id": 1263,
     "name": "",
     "type": "",
     "x": 480,
     "y": 480,
     "width": 32,
     "height": 32,
     "rotation": 0,
     "visible": true,
     "properties": []
    },
    {
     "id": 1264,
     "name": "",
     "type": "",
     "x": 544,
     "y": 480,
     "width": 32,
     "height": 32,
     "rotation": 0,
     "visible": true,
     "properties": []
    },
    {
     "id": 1265,
     "name": "",
     "type": "",
     "x": 576,
     "y": 480,
     "width": 32,
     "height": 32,
     "rotation": 0,
     "visible": true,
     "properties": []
    },
    {
     "id": 1266,
     "name": "",
     "type": "",
     "x": 608,
     "y": 480,
     "width": 32,
     "height": 32,
     "rotation": 0,
     "visible": true,
     "properties": []
    },
    {
     "id": 1267,
     "name": "",
     "type": "",
     "x": 640,
     "y": 480,
     "width": 32,
     "height": 32,
     "rotation": 0,
     "visible": true,
     "properties": []
    },
    {
     "id": 1268,
     "name": "",
     "type": "",
     "x": 672,
     "y": 480,
     "width": 32,
     "height": 32,
     "rotation": 0,
     "visible": true,
     "properties": []
    },
    {
     "id": 1269,
     "name": "",
     "type": "",
     "x": 704,
     "y": 480,
     "width": 32,
     "height": 32,
     "rotation": 0,
     "visible": true,
     "properties": []
    },
    {
     "id": 1270,
     "name": "",
     "type": "",
     "x": 736,
     "y": 480,
     "width": 32,
     "height": 32,
     "rotation": 0,
     "visible": true,
     "properties": []
    },
    {
     "id": 1271,
     "name": "",
     "type": "",
     "x": 0,
     "y": 512,
     "width": 32,
     "height": 32,
     "rotation": 0,
     "visible": true,
     "properties": []
    },
    {
     "id": 1272,
     "name": "",
     "type": "",
     "x": 32,
     "y": 512,
     "width": 32,
     "height": 32,
     "rotation": 0,
     "visible": true,
     "properties": []
    },
    {
     "id": 1273,
     "name": "",
     "type": "",
     "x": 64,
     "y": 512,
     "width": 32,
     "height": 32,
     "rotation": 0,
     "visible": true,
     "properties": []
    },
    {
     "id": 1274,
     "name": "",
     "type": "",
     "x": 160,
     "y": 512,
     "width": 32,
     "height": 32,
     "rotation": 0,
     "visible": true,
     "properties": []
    },
    {
     "id": 1275,
     "name": "",
     "type": "",
     "x": 576,
     "y": 512,
     "width": 32,
     "height": 32,
     "rotation": 0,
     "visible": true,
     "properties": []
    },
    {
     "id": 1276,
     "name": "",
     "type": "",
     "x": 672,
     "y": 512,
     "width": 32,
     "height": 32,
     "rotation": 0,
     "visible": true,
     "properties": []
    },
    {
     "id": 1277,
     "name": "",
     "type": "",
     "x": 704,
     "y": 512,
     "width": 32,
     "height": 32,
     "rotation": 0,
     "visible": true,
     "properties": []
    },
    {
     "id": 1278,
     "name": "",
     "type": "",
     "x": 736,
     "y": 512,
     "width": 32,
     "height": 32,
     "rotation": 0,
     "visible": true,
     "properties": []
    },
    {
     "id": 1279,
     "name": "",
     "type": "",
     "x": 0,
     "y": 544,
     "width": 32,
     "height": 32,
     "rotation": 0,
     "visible": true,
     "properties": []
    },
    {
     "id": 1280,
     "name": "",
     "type": "",
     "x": 32,
     "y": 544,
     "width": 32,
     "height": 32,
     "rotation": 0,
     "visible": true,
     "properties": []
    },
    {
     "id": 1281,
     "name": "",
     "type": "",
     "x": 704,
     "y": 544,
     "width": 32,
     "height": 32,
     "rotation": 0,
     "visible": true,
     "properties": []
    },
    {
     "id": 1282,
     "name": "",
     "type": "",
     "x": 736,
     "y": 544,
     "width": 32,
     "height": 32,
     "rotation": 0,
     "visible": true,
     "properties": []
    },
    {
     "id": 1283,
     "name": "",
     "type": "",
     "x": 0,
     "y": 576,
     "width": 32,
     "height": 32,
     "rotation": 0,
     "visible": true,
     "properties": []
    },
    {
     "id": 1284,
     "name": "",
     "type": "",
     "x": 32,
     "y": 576,
     "width": 32,
     "height": 32,
     "rotation": 0,
     "visible": true,
     "properties": []
    },
    {
     "id": 1285,
     "name": "",
     "type": "",
     "x": 704,
     "y": 576,
     "width": 32,
     "height": 32,
     "rotation": 0,
     "visible": true,
     "properties": []
    },
    {
     "id": 1286,
     "name": "",
     "type": "",
     "x": 736,
     "y": 576,
     "width": 32,
     "height": 32,
     "rotation": 0,
     "visible": true,
     "properties": []
    },
    {
     "id": 1287,
     "name": "",
     "type": "",
     "x": 0,
     "y": 608,
     "width": 32,
     "height": 32,
     "rotation": 0,
     "visible": true,
     "properties": []
    },
    {
     "id": 1288,
     "name": "",
     "type": "",
     "x": 32,
     "y": 608,
     "width": 32,
     "height": 32,
     "rotation": 0,
     "visible": true,
     "properties": []
    },
    {
     "id": 1289,
     "name": "",
     "type": "",
     "x": 704,
     "y": 608,
     "width": 32,
     "height": 32,
     "rotation": 0,
     "visible": true,
     "properties": []
    },
    {
     "id": 1290,
     "name": "",
     "type": "",
     "x": 736,
     "y": 608,
     "width": 32,
     "height": 32,
     "rotation": 0,
     "visible": true,
     "properties": []
    },
    {
     "id": 1291,
     "name": "",
     "type": "",
     "x": 0,
     "y": 640,
     "width": 32,
     "height": 32,
     "rotation": 0,
     "visible": true,
     "properties": []
    },
    {
     "id": 1292,
     "name": "",
     "type": "",
     "x": 32,
     "y": 640,
     "width": 32,
     "height": 32,
     "rotation": 0,
     "visible": true,
     "properties": []
    },
    {
     "id": 1293,
     "name": "",
     "type": "",
     "x": 64,
     "y": 640,
     "width": 32,
     "height": 32,
     "rotation": 0,
     "visible": true,
     "properties": []
    },
    {
     "id": 1294,
     "name": "",
     "type": "",
     "x": 96,
     "y": 640,
     "width": 32,
     "height": 32,
     "rotation": 0,
     "visible": true,
     "properties": []
    },
    {
     "id": 1295,
     "name": "",
     "type": "",
     "x": 128,
     "y": 640,
     "width": 32,
     "height": 32,
     "rotation": 0,
     "visible": true,
     "properties": []
    },
    {
     "id": 1296,
     "name": "",
     "type": "",
     "x": 160,
     "y": 640,
     "width": 32,
     "height": 32,
     "rotation": 0,
     "visible": true,
     "properties": []
    },
    {
     "id": 1297,
     "name": "",
     "type": "",
     "x": 192,
     "y": 640,
     "width": 32,
     "height": 32,
     "rotation": 0,
     "visible": true,
     "properties": []
    },
    {
     "id": 1298,
     "name": "",
     "type": "",
     "x": 224,
     "y": 640,
     "width": 32,
     "height": 32,
     "rotation": 0,
     "visible": true,
     "properties": []
    },
    {
     "id": 1299,
     "name": "",
     "type": "",
     "x": 256,
     "y": 640,
     "width": 32,
     "height": 32,
     "rotation": 0,
     "visible": true,
     "properties": []
    },
    {
     "id": 1300,
     "name": "",
     "type": "",
     "x": 288,
     "y": 640,
     "width": 32,
     "height": 32,
     "rotation": 0,
     "visible": true,
     "properties": []
    },
    {
     "id": 1301,
     "name": "",
     "type": "",
     "x": 320,
     "y": 640,
     "width": 32,
     "height": 32,
     "rotation": 0,
     "visible": true,
     "properties": []
    },
    {
     "id": 1302,
     "name": "",
     "type": "",
     "x": 352,
     "y": 640,
     "width": 32,
     "height": 32,
     "rotation": 0,
     "visible": true,
     "properties": []
    },
    {
     "id": 1303,
     "name": "",
     "type": "",
     "x": 384,
     "y": 640,
     "width": 32,
     "height": 32,
     "rotation": 0,
     "visible": true,
     "properties": []
    },
    {
     "id": 1304,
     "name": "",
     "type": "",
     "x": 416,
     "y": 640,
     "width": 32,
     "height": 32,
     "rotation": 0,
     "visible": true,
     "properties": []
    },
    {
     "id": 1305,
     "name": "",
     "type": "",
     "x": 448,
     "y": 640,
     "width": 32,
     "height": 32,
     "rotation": 0,
     "visible": true,
     "properties": []
    },
    {
     "id": 1306,
     "name": "",
     "type": "",
     "x": 480,
     "y": 640,
     "width": 32,
     "height": 32,
     "rotation": 0,
     "visible": true,
     "properties": []
    },
    {
     "id": 1307,
     "name": "",
     "type": "",
     "x": 512,
     "y": 640,
     "width": 32,
     "height": 32,
     "rotation": 0,
     "visible": true,
     "properties": []
    },
    {
     "id": 1308,
     "name": "",
     "type": "",
     "x": 544,
     "y": 640,
     "width": 32,
     "height": 32,
     "rotation": 0,
     "visible": true,
     "properties": []
    },
    {
     "id": 1309,
     "name": "",
     "type": "",
     "x": 576,
     "y": 640,
     "width": 32,
     "height": 32,
     "rotation": 0,
     "visible": true,
     "properties": []
    },
    {
     "id": 1310,
     "name": "",
     "type": "",
     "x": 704,
     "y": 640,
     "width": 32,
     "height": 32,
     "rotation": 0,
     "visible": true,
     "properties": []
    },
    {
     "id": 1311,
     "name": "",
     "type": "",
     "x": 736,
     "y": 640,
     "width": 32,
     "height": 32,
     "rotation": 0,
     "visible": true,
     "properties": []
    },
    {
     "id": 1312,
     "name": "",
     "type": "",
     "x": 0,
     "y": 672,
     "width": 32,
     "height": 32,
     "rotation": 0,
     "visible": true,
     "properties": []
    },
    {
     "id": 1313,
     "name": "",
     "type": "",
     "x": 32,
     "y": 672,
     "width": 32,
     "height": 32,
     "rotation": 0,
     "visible": true,
     "properties": []
    },
    {
     "id": 1314,
     "name": "",
     "type": "",
     "x": 64,
     "y": 672,
     "width": 32,
     "height": 32,
     "rotation": 0,
     "visible": true,
     "properties": []
    },
    {
     "id": 1315,
     "name": "",
     "type": "",
     "x": 96,
     "y": 672,
     "width": 32,
     "height": 32,
     "rotation": 0,
     "visible": true,
     "properties": []
    },
    {
     "id": 1316,
     "name": "",
     "type": "",
     "x": 128,
     "y": 672,
     "width": 32,
     "height": 32,
     "rotation": 0,
     "visible": true,
     "properties": []
    },
    {
     "id": 1317,
     "name": "",
     "type": "",
     "x": 160,
     "y": 672,
     "width": 32,
     "height": 32,
     "rotation": 0,
     "visible": true,
     "properties": []
    },
    {
     "id": 1318,
     "name": "",
     "type": "",
     "x": 192,
     "y": 672,
     "width": 32,
     "height": 32,
     "rotation": 0,
     "visible": true,
     "properties": []
    },
    {
     "id": 1319,
     "name": "",
     "type": "",
     "x": 224,
     "y": 672,
     "width": 32,
     "height": 32,
     "rotation": 0,
     "visible": true,
     "properties": []
    },
    {
     "id": 1320,
     "name": "",
     "type": "",
     "x": 256,
     "y": 672,
     "width": 32,
     "height": 32,
     "rotation": 0,
     "visible": true,
     "properties": []
    },
    {
     "id": 1321,
     "name": "",
     "type": "",
     "x": 288,
     "y": 672,
     "width": 32,
     "height": 32,
     "rotation": 0,
     "visible": true,
     "properties": []
    },
    {
     "id": 1322,
     "name": "",
     "type": "",
     "x": 320,
     "y": 672,
     "width": 32,
     "height": 32,
     "rotation": 0,
     "visible": true,
     "properties": []
    },
    {
     "id": 1323,
     "name": "",
     "type": "",
     "x": 352,
     "y": 672,
     "width": 32,
     "height": 32,
     "rotation": 0,
     "visible": true,
     "properties": []
    },
    {
     "id": 1324,
     "name": "",
     "type": "",
     "x": 384,
     "y": 672,
     "width": 32,
     "height": 32,
     "rotation": 0,
     "visible": true,
     "properties": []
    },
    {
     "id": 1325,
     "name": "",
     "type": "",
     "x": 416,
     "y": 672,
     "width": 32,
     "height": 32,
     "rotation": 0,
     "visible": true,
     "properties": []
    },
    {
     "id": 1326,
     "name": "",
     "type": "",
     "x": 448,
     "y": 672,
     "width": 32,
     "height": 32,
     "rotation": 0,
     "visible": true,
     "properties": []
    },
    {
     "id": 1327,
     "name": "",
     "type": "",
     "x": 480,
     "y": 672,
     "width": 32,
     "height": 32,
     "rotation": 0,
     "visible": true,
     "properties": []
    },
    {
     "id": 1328,
     "name": "",
     "type": "",
     "x": 512,
     "y": 672,
     "width": 32,
     "height": 32,
     "rotation": 0,
     "visible": true,
     "properties": []
    },
    {
     "id": 1329,
     "name": "",
     "type": "",
     "x": 544,
     "y": 672,
     "width": 32,
     "height": 32,
     "rotation": 0,
     "visible": true,
     "properties": []
    },
    {
     "id": 1330,
     "name": "",
     "type": "",
     "x": 576,
     "y": 672,
     "width": 32,
     "height": 32,
     "rotation": 0,
     "visible": true,
     "properties": []
    },
    {
     "id": 1331,
     "name": "",
     "type": "",
     "x": 704,
     "y": 672,
     "width": 32,
     "height": 32,
     "rotation": 0,
     "visible": true,
     "properties": []
    },
    {
     "id": 1332,
     "name": "",
     "type": "",
     "x": 736,
     "y": 672,
     "width": 32,
     "height": 32,
     "rotation": 0,
     "visible": true,
     "properties": []
    },
    {
     "id": 1333,
     "name": "",
     "type": "",
     "x": 0,
     "y": 704,
     "width": 32,
     "height": 32,
     "rotation": 0,
     "visible": true,
     "properties": []
    },
    {
     "id": 1334,
     "name": "",
     "type": "",
     "x": 32,
     "y": 704,
     "width": 32,
     "height": 32,
     "rotation": 0,
     "visible": true,
     "properties": []
    },
    {
     "id": 1335,
     "name": "",
     "type": "",
     "x": 64,
     "y": 704,
     "width": 32,
     "height": 32,
     "rotation": 0,
     "visible": true,
     "properties": []
    },
    {
     "id": 1336,
     "name": "",
     "type": "",
     "x": 96,
     "y": 704,
     "width": 32,
     "height": 32,
     "rotation": 0,
     "visible": true,
     "properties": []
    },
    {
     "id": 1337,
     "name": "",
     "type": "",
     "x": 128,
     "y": 704,
     "width": 32,
     "height": 32,
     "rotation": 0,
     "visible": true,
     "properties": []
    },
    {
     "id": 1338,
     "name": "",
     "type": "",
     "x": 160,
     "y": 704,
     "width": 32,
     "height": 32,
     "rotation": 0,
     "visible": true,
     "properties": []
    },
    {
     "id": 1339,
     "name": "",
     "type": "",
     "x": 192,
     "y": 704,
     "width": 32,
     "height": 32,
     "rotation": 0,
     "visible": true,
     "properties": []
    },
    {
     "id": 1340,
     "name": "",
     "type": "",
     "x": 224,
     "y": 704,
     "width": 32,
     "height": 32,
     "rotation": 0,
     "visible": true,
     "properties": []
    },
    {
     "id": 1341,
     "name": "",
     "type": "",
     "x": 256,
     "y": 704,
     "width": 32,
     "height": 32,
     "rotation": 0,
     "visible": true,
     "properties": []
    },
    {
     "id": 1342,
     "name": "",
     "type": "",
     "x": 288,
     "y": 704,
     "width": 32,
     "height": 32,
     "rotation": 0,
     "visible": true,
     "properties": []
    },
    {
     "id": 1343,
     "name": "",
     "type": "",
     "x": 320,
     "y": 704,
     "width": 32,
     "height": 32,
     "rotation": 0,
     "visible": true,
     "properties": []
    },
    {
     "id": 1344,
     "name": "",
     "type": "",
     "x": 352,
     "y": 704,
     "width": 32,
     "height": 32,
     "rotation": 0,
     "visible": true,
     "properties": []
    },
    {
     "id": 1345,
     "name": "",
     "type": "",
     "x": 384,
     "y": 704,
     "width": 32,
     "height": 32,
     "rotation": 0,
     "visible": true,
     "properties": []
    },
    {
     "id": 1346,
     "name": "",
     "type": "",
     "x": 416,
     "y": 704,
     "width": 32,
     "height": 32,
     "rotation": 0,
     "visible": true,
     "properties": []
    },
    {
     "id": 1347,
     "name": "",
     "type": "",
     "x": 448,
     "y": 704,
     "width": 32,
     "height": 32,
     "rotation": 0,
     "visible": true,
     "properties": []
    },
    {
     "id": 1348,
     "name": "",
     "type": "",
     "x": 480,
     "y": 704,
     "width": 32,
     "height": 32,
     "rotation": 0,
     "visible": true,
     "properties": []
    },
    {
     "id": 1349,
     "name": "",
     "type": "",
     "x": 512,
     "y": 704,
     "width": 32,
     "height": 32,
     "rotation": 0,
     "visible": true,
     "properties": []
    },
    {
     "id": 1350,
     "name": "",
     "type": "",
     "x": 544,
     "y": 704,
     "width": 32,
     "height": 32,
     "rotation": 0,
     "visible": true,
     "properties": []
    },
    {
     "id": 1351,
     "name": "",
     "type": "",
     "x": 576,
     "y": 704,
     "width": 32,
     "height": 32,
     "rotation": 0,
     "visible": true,
     "properties": []
    },
    {
     "id": 1352,
     "name": "",
     "type": "",
     "x": 704,
     "y": 704,
     "width": 32,
     "height": 32,
     "rotation": 0,
     "visible": true,
     "properties": []
    },
    {
     "id": 1353,
     "name": "",
     "type": "",
     "x": 736,
     "y": 704,
     "width": 32,
     "height": 32,
     "rotation": 0,
     "visible": true,
     "properties": []
    },
    {
     "id": 1354,
     "name": "",
     "type": "",
     "x": 0,
     "y": 736,
     "width": 32,
     "height": 32,
     "rotation": 0,
     "visible": true,
     "properties": []
    },
    {
     "id": 1355,
     "name": "",
     "type": "",
     "x": 32,
     "y": 736,
     "width": 32,
     "height": 32,
     "rotation": 0,
     "visible": true,
     "properties": []
    },
    {
     "id": 1356,
     "name": "",
     "type": "",
     "x": 64,
     "y": 736,
     "width": 32,
     "height": 32,
     "rotation": 0,
     "visible": true,
     "properties": []
    },
    {
     "id": 1357,
     "name": "",
     "type": "",
     "x": 96,
     "y": 736,
     "width": 32,
     "height": 32,
     "rotation": 0,
     "visible": true,
     "properties": []
    },
    {
     "id": 1358,
     "name": "",
     "type": "",
     "x": 128,
     "y": 736,
     "width": 32,
     "height": 32,
     "rotation": 0,
     "visible": true,
     "properties": []
    },
    {
     "id": 1359,
     "name": "",
     "type": "",
     "x": 160,
     "y": 736,
     "width": 32,
     "height": 32,
     "rotation": 0,
     "visible": true,
     "properties": []
    },
    {
     "id": 1360,
     "name": "",
     "type": "",
     "x": 192,
     "y": 736,
     "width": 32,
     "height": 32,
     "rotation": 0,
     "visible": true,
     "properties": []
    },
    {
     "id": 1361,
     "name": "",
     "type": "",
     "x": 224,
     "y": 736,
     "width": 32,
     "height": 32,
     "rotation": 0,
     "visible": true,
     "properties": []
    },
    {
     "id": 1362,
     "name": "",
     "type": "",
     "x": 256,
     "y": 736,
     "width": 32,
     "height": 32,
     "rotation": 0,
     "visible": true,
     "properties": []
    },
    {
     "id": 1363,
     "name": "",
     "type": "",
     "x": 288,
     "y": 736,
     "width": 32,
     "height": 32,
     "rotation": 0,
     "visible": true,
     "properties": []
    },
    {
     "id": 1364,
     "name": "",
     "type": "",
     "x": 320,
     "y": 736,
     "width": 32,
     "height": 32,
     "rotation": 0,
     "visible": true,
     "properties": []
    },
    {
     "id": 1365,
     "name": "",
     "type": "",
     "x": 352,
     "y": 736,
     "width": 32,
     "height": 32,
     "rotation": 0,
     "visible": true,
     "properties": []
    },
    {
     "id": 1366,
     "name": "",
     "type": "",
     "x": 384,
     "y": 736,
     "width": 32,
     "height": 32,
     "rotation": 0,
     "visible": true,
     "properties": []
    },
    {
     "id": 1367,
     "name": "",
     "type": "",
     "x": 416,
     "y": 736,
     "width": 32,
     "height": 32,
     "rotation": 0,
     "visible": true,
     "properties": []
    },
    {
     "id": 1368,
     "name": "",
     "type": "",
     "x": 448,
     "y": 736,
     "width": 32,
     "height": 32,
     "rotation": 0,
     "visible": true,
     "properties": []
    },
    {
     "id": 1369,
     "name": "",
     "type": "",
     "x": 480,
     "y": 736,
     "width": 32,
     "height": 32,
     "rotation": 0,
     "visible": true,
     "properties": []
    },
    {
     "id": 1370,
     "name": "",
     "type": "",
     "x": 512,
     "y": 736,
     "width": 32,
     "height": 32,
     "rotation": 0,
     "visible": true,
     "properties": []
    },
    {
     "id": 1371,
     "name": "",
     "type": "",
     "x": 544,
     "y": 736,
     "width": 32,
     "height": 32,
     "rotation": 0,
     "visible": true,
     "properties": []
    },
    {
     "id": 1372,
     "name": "",
     "type": "",
     "x": 576,
     "y": 736,
     "width": 32,
     "height": 32,
     "rotation": 0,
     "visible": true,
     "properties": []
    },
    {
     "id": 1373,
     "name": "",
     "type": "",
     "x": 704,
     "y": 736,
     "width": 32,
     "height": 32,
     "rotation": 0,
     "visible": true,
     "properties": []
    },
    {
     "id": 1374,
     "name": "",
     "type": "",
     "x": 736,
     "y": 736,
     "width": 32,
     "height": 32,
     "rotation": 0,
     "visible": true,
     "properties": []
    },
    {
     "id": 1375,
     "name": "",
     "type": "",
     "x": 0,
     "y": 768,
     "width": 32,
     "height": 32,
     "rotation": 0,
     "visible": true,
     "properties": []
    },
    {
     "id": 1376,
     "name": "",
     "type": "",
     "x": 32,
     "y": 768,
     "width": 32,
     "height": 32,
     "rotation": 0,
     "visible": true,
     "properties": []
    },
    {
     "id": 1377,
     "name": "",
     "type": "",
     "x": 64,
     "y": 768,
     "width": 32,
     "height": 32,
     "rotation": 0,
     "visible": true,
     "properties": []
    },
    {
     "id": 1378,
     "name": "",
     "type": "",
     "x": 96,
     "y": 768,
     "width": 32,
     "height": 32,
     "rotation": 0,
     "visible": true,
     "properties": []
    },
    {
     "id": 1379,
     "name": "",
     "type": "",
     "x": 128,
     "y": 768,
     "width": 32,
     "height": 32,
     "rotation": 0,
     "visible": true,
     "properties": []
    },
    {
     "id": 1380,
     "name": "",
     "type": "",
     "x": 160,
     "y": 768,
     "width": 32,
     "height": 32,
     "rotation": 0,
     "visible": true,
     "properties": []
    },
    {
     "id": 1381,
     "name": "",
     "type": "",
     "x": 192,
     "y": 768,
     "width": 32,
     "height": 32,
     "rotation": 0,
     "visible": true,
     "properties": []
    },
    {
     "id": 1382,
     "name": "",
     "type": "",
     "x": 224,
     "y": 768,
     "width": 32,
     "height": 32,
     "rotation": 0,
     "visible": true,
     "properties": []
    },
    {
     "id": 1383,
     "name": "",
     "type": "",
     "x": 256,
     "y": 768,
     "width": 32,
     "height": 32,
     "rotation": 0,
     "visible": true,
     "properties": []
    },
    {
     "id": 1384,
     "name": "",
     "type": "",
     "x": 288,
     "y": 768,
     "width": 32,
     "height": 32,
     "rotation": 0,
     "visible": true,
     "properties": []
    },
    {
     "id": 1385,
     "name": "",
     "type": "",
     "x": 320,
     "y": 768,
     "width": 32,
     "height": 32,
     "rotation": 0,
     "visible": true,
     "properties": []
    },
    {
     "id": 1386,
     "name": "",
     "type": "",
     "x": 352,
     "y": 768,
     "width": 32,
     "height": 32,
     "rotation": 0,
     "visible": true,
     "properties": []
    },
    {
     "id": 1387,
     "name": "",
     "type": "",
     "x": 384,
     "y": 768,
     "width": 32,
     "height": 32,
     "rotation": 0,
     "visible": true,
     "properties": []
    },
    {
     "id": 1388,
     "name": "",
     "type": "",
     "x": 416,
     "y": 768,
     "width": 32,
     "height": 32,
     "rotation": 0,
     "visible": true,
     "properties": []
    },
    {
     "id": 1389,
     "name": "",
     "type": "",
     "x": 448,
     "y": 768,
     "width": 32,
     "height": 32,
     "rotation": 0,
     "visible": true,
     "properties": []
    },
    {
     "id": 1390,
     "name": "",
     "type": "",
     "x": 480,
     "y": 768,
     "width": 32,
     "height": 32,
     "rotation": 0,
     "visible": true,
     "properties": []
    },
    {
     "id": 1391,
     "name": "",
     "type": "",
     "x": 512,
     "y": 768,
     "width": 32,
     "height": 32,
     "rotation": 0,
     "visible": true,
     "properties": []
    },
    {
     "id": 1392,
     "name": "",
     "type": "",
     "x": 544,
     "y": 768,
     "width": 32,
     "height": 32,
     "rotation": 0,
     "visible": true,
     "properties": []
    },
    {
     "id": 1393,
     "name": "",
     "type": "",
     "x": 576,
     "y": 768,
     "width": 32,
     "height": 32,
     "rotation": 0,
     "visible": true,
     "properties": []
    },
    {
     "id": 1394,
     "name": "",
     "type": "",
     "x": 704,
     "y": 768,
     "width": 32,
     "height": 32,
     "rotation": 0,
     "visible": true,
     "properties": []
    },
    {
     "id": 1395,
     "name": "",
     "type": "",
     "x": 736,
     "y": 768,
     "width": 32,
     "height": 32,
     "rotation": 0,
     "visible": true,
     "properties": []
    },
    {
     "id": 1396,
     "name": "",
     "type": "",
     "x": 0,
     "y": 800,
     "width": 32,
     "height": 32,
     "rotation": 0,
     "visible": true,
     "properties": []
    },
    {
     "id": 1397,
     "name": "",
     "type": "",
     "x": 32,
     "y": 800,
     "width": 32,
     "height": 32,
     "rotation": 0,
     "visible": true,
     "properties": []
    },
    {
     "id": 1398,
     "name": "",
     "type": "",
     "x": 64,
     "y": 800,
     "width": 32,
     "height": 32,
     "rotation": 0,
     "visible": true,
     "properties": []
    },
    {
     "id": 1399,
     "name": "",
     "type": "",
     "x": 96,
     "y": 800,
     "width": 32,
     "height": 32,
     "rotation": 0,
     "visible": true,
     "properties": []
    },
    {
     "id": 1400,
     "name": "",
     "type": "",
     "x": 128,
     "y": 800,
     "width": 32,
     "height": 32,
     "rotation": 0,
     "visible": true,
     "properties": []
    },
    {
     "id": 1401,
     "name": "",
     "type": "",
     "x": 160,
     "y": 800,
     "width": 32,
     "height": 32,
     "rotation": 0,
     "visible": true,
     "properties": []
    },
    {
     "id": 1402,
     "name": "",
     "type": "",
     "x": 192,
     "y": 800,
     "width": 32,
     "height": 32,
     "rotation": 0,
     "visible": true,
     "properties": []
    },
    {
     "id": 1403,
     "name": "",
     "type": "",
     "x": 224,
     "y": 800,
     "width": 32,
     "height": 32,
     "rotation": 0,
     "visible": true,
     "properties": []
    },
    {
     "id": 1404,
     "name": "",
     "type": "",
     "x": 256,
     "y": 800,
     "width": 32,
     "height": 32,
     "rotation": 0,
     "visible": true,
     "properties": []
    },
    {
     "id": 1405,
     "name": "",
     "type": "",
     "x": 288,
     "y": 800,
     "width": 32,
     "height": 32,
     "rotation": 0,
     "visible": true,
     "properties": []
    },
    {
     "id": 1406,
     "name": "",
     "type": "",
     "x": 320,
     "y": 800,
     "width": 32,
     "height": 32,
     "rotation": 0,
     "visible": true,
     "properties": []
    },
    {
     "id": 1407,
     "name": "",
     "type": "",
     "x": 352,
     "y": 800,
     "width": 32,
     "height": 32,
     "rotation": 0,
     "visible": true,
     "properties": []
    },
    {
     "id": 1408,
     "name": "",
     "type": "",
     "x": 384,
     "y": 800,
     "width": 32,
     "height": 32,
     "rotation": 0,
     "visible": true,
     "properties": []
    },
    {
     "id": 1409,
     "name": "",
     "type": "",
     "x": 416,
     "y": 800,
     "width": 32,
     "height": 32,
     "rotation": 0,
     "visible": true,
     "properties": []
    },
    {
     "id": 1410,
     "name": "",
     "type": "",
     "x": 448,
     "y": 800,
     "width": 32,
     "height": 32,
     "rotation": 0,
     "visible": true,
     "properties": []
    },
    {
     "id": 1411,
     "name": "",
     "type": "",
     "x": 480,
     "y": 800,
     "width": 32,
     "height": 32,
     "rotation": 0,
     "visible": true,
     "properties": []
    },
    {
     "id": 1412,
     "name": "",
     "type": "",
     "x": 512,
     "y": 800,
     "width": 32,
     "height": 32,
     "rotation": 0,
     "visible": true,
     "properties": []
    },
    {
     "id": 1413,
     "name": "",
     "type": "",
     "x": 544,
     "y": 800,
     "width": 32,
     "height": 32,
     "rotation": 0,
     "visible": true,
     "properties": []
    },
    {
     "id": 1414,
     "name": "",
     "type": "",
     "x": 576,
     "y": 800,
     "width": 32,
     "height": 32,
     "rotation": 0,
     "visible": true,
     "properties": []
    },
    {
     "id": 1415,
     "name": "",
     "type": "",
     "x": 608,
     "y": 800,
     "width": 32,
     "height": 32,
     "rotation": 0,
     "visible": true,
     "properties": []
    },
    {
     "id": 1416,
     "name": "",
     "type": "",
     "x": 704,
     "y": 800,
     "width": 32,
     "height": 32,
     "rotation": 0,
     "visible": true,
     "properties": []
    },
    {
     "id": 1417,
     "name": "",
     "type": "",
     "x": 736,
     "y": 800,
     "width": 32,
     "height": 32,
     "rotation": 0,
     "visible": true,
     "properties": []
    },
    {
     "id": 1418,
     "name": "",
     "type": "",
     "x": 0,
     "y": 832,
     "width": 32,
     "height": 32,
     "rotation": 0,
     "visible": true,
     "properties": []
    },
    {
     "id": 1419,
     "name": "",
     "type": "",
     "x": 32,
     "y": 832,
     "width": 32,
     "height": 32,
     "rotation": 0,
     "visible": true,
     "properties": []
    },
    {
     "id": 1420,
     "name": "",
     "type": "",
     "x": 64,
     "y": 832,
     "width": 32,
     "height": 32,
     "rotation": 0,
     "visible": true,
     "properties": []
    },
    {
     "id": 1421,
     "name": "",
     "type": "",
     "x": 96,
     "y": 832,
     "width": 32,
     "height": 32,
     "rotation": 0,
     "visible": true,
     "properties": []
    },
    {
     "id": 1422,
     "name": "",
     "type": "",
     "x": 128,
     "y": 832,
     "width": 32,
     "height": 32,
     "rotation": 0,
     "visible": true,
     "properties": []
    },
    {
     "id": 1423,
     "name": "",
     "type": "",
     "x": 160,
     "y": 832,
     "width": 32,
     "height": 32,
     "rotation": 0,
     "visible": true,
     "properties": []
    },
    {
     "id": 1424,
     "name": "",
     "type": "",
     "x": 192,
     "y": 832,
     "width": 32,
     "height": 32,
     "rotation": 0,
     "visible": true,
     "properties": []
    },
    {
     "id": 1425,
     "name": "",
     "type": "",
     "x": 224,
     "y": 832,
     "width": 32,
     "height": 32,
     "rotation": 0,
     "visible": true,
     "properties": []
    },
    {
     "id": 1426,
     "name": "",
     "type": "",
     "x": 256,
     "y": 832,
     "width": 32,
     "height": 32,
     "rotation": 0,
     "visible": true,
     "properties": []
    },
    {
     "id": 1427,
     "name": "",
     "type": "",
     "x": 288,
     "y": 832,
     "width": 32,
     "height": 32,
     "rotation": 0,
     "visible": true,
     "properties": []
    },
    {
     "id": 1428,
     "name": "",
     "type": "",
     "x": 320,
     "y": 832,
     "width": 32,
     "height": 32,
     "rotation": 0,
     "visible": true,
     "properties": []
    },
    {
     "id": 1429,
     "name": "",
     "type": "",
     "x": 352,
     "y": 832,
     "width": 32,
     "height": 32,
     "rotation": 0,
     "visible": true,
     "properties": []
    },
    {
     "id": 1430,
     "name": "",
     "type": "",
     "x": 384,
     "y": 832,
     "width": 32,
     "height": 32,
     "rotation": 0,
     "visible": true,
     "properties": []
    },
    {
     "id": 1431,
     "name": "",
     "type": "",
     "x": 416,
     "y": 832,
     "width": 32,
     "height": 32,
     "rotation": 0,
     "visible": true,
     "properties": []
    },
    {
     "id": 1432,
     "name": "",
     "type": "",
     "x": 448,
     "y": 832,
     "width": 32,
     "height": 32,
     "rotation": 0,
     "visible": true,
     "properties": []
    },
    {
     "id": 1433,
     "name": "",
     "type": "",
     "x": 480,
     "y": 832,
     "width": 32,
     "height": 32,
     "rotation": 0,
     "visible": true,
     "properties": []
    },
    {
     "id": 1434,
     "name": "",
     "type": "",
     "x": 512,
     "y": 832,
     "width": 32,
     "height": 32,
     "rotation": 0,
     "visible": true,
     "properties": []
    },
    {
     "id": 1435,
     "name": "",
     "type": "",
     "x": 544,
     "y": 832,
     "width": 32,
     "height": 32,
     "rotation": 0,
     "visible": true,
     "properties": []
    },
    {
     "id": 1436,
     "name": "",
     "type": "",
     "x": 576,
     "y": 832,
     "width": 32,
     "height": 32,
     "rotation": 0,
     "visible": true,
     "properties": []
    },
    {
     "id": 1437,
     "name": "",
     "type": "",
     "x": 608,
     "y": 832,
     "width": 32,
     "height": 32,
     "rotation": 0,
     "visible": true,
     "properties": []
    },
    {
     "id": 1438,
     "name": "",
     "type": "",
     "x": 640,
     "y": 832,
     "width": 32,
     "height": 32,
     "rotation": 0,
     "visible": true,
     "properties": []
    },
    {
     "id": 1439,
     "name": "",
     "type": "",
     "x": 704,
     "y": 832,
     "width": 32,
     "height": 32,
     "rotation": 0,
     "visible": true,
     "properties": []
    },
    {
     "id": 1440,
     "name": "",
     "type": "",
     "x": 736,
     "y": 832,
     "width": 32,
     "height": 32,
     "rotation": 0,
     "visible": true,
     "properties": []
    },
    {
     "id": 1441,
     "name": "",
     "type": "",
     "x": 0,
     "y": 864,
     "width": 32,
     "height": 32,
     "rotation": 0,
     "visible": true,
     "properties": []
    },
    {
     "id": 1442,
     "name": "",
     "type": "",
     "x": 32,
     "y": 864,
     "width": 32,
     "height": 32,
     "rotation": 0,
     "visible": true,
     "properties": []
    },
    {
     "id": 1443,
     "name": "",
     "type": "",
     "x": 64,
     "y": 864,
     "width": 32,
     "height": 32,
     "rotation": 0,
     "visible": true,
     "properties": []
    },
    {
     "id": 1444,
     "name": "",
     "type": "",
     "x": 96,
     "y": 864,
     "width": 32,
     "height": 32,
     "rotation": 0,
     "visible": true,
     "properties": []
    },
    {
     "id": 1445,
     "name": "",
     "type": "",
     "x": 128,
     "y": 864,
     "width": 32,
     "height": 32,
     "rotation": 0,
     "visible": true,
     "properties": []
    },
    {
     "id": 1446,
     "name": "",
     "type": "",
     "x": 160,
     "y": 864,
     "width": 32,
     "height": 32,
     "rotation": 0,
     "visible": true,
     "properties": []
    },
    {
     "id": 1447,
     "name": "",
     "type": "",
     "x": 192,
     "y": 864,
     "width": 32,
     "height": 32,
     "rotation": 0,
     "visible": true,
     "properties": []
    },
    {
     "id": 1448,
     "name": "",
     "type": "",
     "x": 224,
     "y": 864,
     "width": 32,
     "height": 32,
     "rotation": 0,
     "visible": true,
     "properties": []
    },
    {
     "id": 1449,
     "name": "",
     "type": "",
     "x": 256,
     "y": 864,
     "width": 32,
     "height": 32,
     "rotation": 0,
     "visible": true,
     "properties": []
    },
    {
     "id": 1450,
     "name": "",
     "type": "",
     "x": 288,
     "y": 864,
     "width": 32,
     "height": 32,
     "rotation": 0,
     "visible": true,
     "properties": []
    },
    {
     "id": 1451,
     "name": "",
     "type": "",
     "x": 320,
     "y": 864,
     "width": 32,
     "height": 32,
     "rotation": 0,
     "visible": true,
     "properties": []
    },
    {
     "id": 1452,
     "name": "",
     "type": "",
     "x": 352,
     "y": 864,
     "width": 32,
     "height": 32,
     "rotation": 0,
     "visible": true,
     "properties": []
    },
    {
     "id": 1453,
     "name": "",
     "type": "",
     "x": 384,
     "y": 864,
     "width": 32,
     "height": 32,
     "rotation": 0,
     "visible": true,
     "properties": []
    },
    {
     "id": 1454,
     "name": "",
     "type": "",
     "x": 416,
     "y": 864,
     "width": 32,
     "height": 32,
     "rotation": 0,
     "visible": true,
     "properties": []
    },
    {
     "id": 1455,
     "name": "",
     "type": "",
     "x": 448,
     "y": 864,
     "width": 32,
     "height": 32,
     "rotation": 0,
     "visible": true,
     "properties": []
    },
    {
     "id": 1456,
     "name": "",
     "type": "",
     "x": 480,
     "y": 864,
     "width": 32,
     "height": 32,
     "rotation": 0,
     "visible": true,
     "properties": []
    },
    {
     "id": 1457,
     "name": "",
     "type": "",
     "x": 512,
     "y": 864,
     "width": 32,
     "height": 32,
     "rotation": 0,
     "visible": true,
     "properties": []
    },
    {
     "id": 1458,
     "name": "",
     "type": "",
     "x": 544,
     "y": 864,
     "width": 32,
     "height": 32,
     "rotation": 0,
     "visible": true,
     "properties": []
    },
    {
     "id": 1459,
     "name": "",
     "type": "",
     "x": 576,
     "y": 864,
     "width": 32,
     "height": 32,
     "rotation": 0,
     "visible": true,
     "properties": []
    },
    {
     "id": 1460,
     "name": "",
     "type": "",
     "x": 608,
     "y": 864,
     "width": 32,
     "height": 32,
     "rotation": 0,
     "visible": true,
     "properties": []
    },
    {
     "id": 1461,
     "name": "",
     "type": "",
     "x": 640,
     "y": 864,
     "width": 32,
     "height": 32,
     "rotation": 0,
     "visible": true,
     "properties": []
    },
    {
     "id": 1462,
     "name": "",
     "type": "",
     "x": 704,
     "y": 864,
     "width": 32,
     "height": 32,
     "rotation": 0,
     "visible": true,
     "properties": []
    },
    {
     "id": 1463,
     "name": "",
     "type": "",
     "x": 736,
     "y": 864,
     "width": 32,
     "height": 32,
     "rotation": 0,
     "visible": true,
     "properties": []
    },
    {
     "id": 1464,
     "name": "",
     "type": "",
     "x": 0,
     "y": 896,
     "width": 32,
     "height": 32,
     "rotation": 0,
     "visible": true,
     "properties": []
    },
    {
     "id": 1465,
     "name": "",
     "type": "",
     "x": 32,
     "y": 896,
     "width": 32,
     "height": 32,
     "rotation": 0,
     "visible": true,
     "properties": []
    },
    {
     "id": 1466,
     "name": "",
     "type": "",
     "x": 64,
     "y": 896,
     "width": 32,
     "height": 32,
     "rotation": 0,
     "visible": true,
     "properties": []
    },
    {
     "id": 1467,
     "name": "",
     "type": "",
     "x": 96,
     "y": 896,
     "width": 32,
     "height": 32,
     "rotation": 0,
     "visible": true,
     "properties": []
    },
    {
     "id": 1468,
     "name": "",
     "type": "",
     "x": 128,
     "y": 896,
     "width": 32,
     "height": 32,
     "rotation": 0,
     "visible": true,
     "properties": []
    },
    {
     "id": 1469,
     "name": "",
     "type": "",
     "x": 192,
     "y": 896,
     "width": 32,
     "height": 32,
     "rotation": 0,
     "visible": true,
     "properties": []
    },
    {
     "id": 1470,
     "name": "",
     "type": "",
     "x": 224,
     "y": 896,
     "width": 32,
     "height": 32,
     "rotation": 0,
     "visible": true,
     "properties": []
    },
    {
     "id": 1471,
     "name": "",
     "type": "",
     "x": 256,
     "y": 896,
     "width": 32,
     "height": 32,
     "rotation": 0,
     "visible": true,
     "properties": []
    },
    {
     "id": 1472,
     "name": "",
     "type": "",
     "x": 288,
     "y": 896,
     "width": 32,
     "height": 32,
     "rotation": 0,
     "visible": true,
     "properties": []
    },
    {
     "id": 1473,
     "name": "",
     "type": "",
     "x": 320,
     "y": 896,
     "width": 32,
     "height": 32,
     "rotation": 0,
     "visible": true,
     "properties": []
    },
    {
     "id": 1474,
     "name": "",
     "type": "",
     "x": 352,
     "y": 896,
     "width": 32,
     "height": 32,
     "rotation": 0,
     "visible": true,
     "properties": []
    },
    {
     "id": 1475,
     "name": "",
     "type": "",
     "x": 384,
     "y": 896,
     "width": 32,
     "height": 32,
     "rotation": 0,
     "visible": true,
     "properties": []
    },
    {
     "id": 1476,
     "name": "",
     "type": "",
     "x": 416,
     "y": 896,
     "width": 32,
     "height": 32,
     "rotation": 0,
     "visible": true,
     "properties": []
    },
    {
     "id": 1477,
     "name": "",
     "type": "",
     "x": 448,
     "y": 896,
     "width": 32,
     "height": 32,
     "rotation": 0,
     "visible": true,
     "properties": []
    },
    {
     "id": 1478,
     "name": "",
     "type": "",
     "x": 480,
     "y": 896,
     "width": 32,
     "height": 32,
     "rotation": 0,
     "visible": true,
     "properties": []
    },
    {
     "id": 1479,
     "name": "",
     "type": "",
     "x": 512,
     "y": 896,
     "width": 32,
     "height": 32,
     "rotation": 0,
     "visible": true,
     "properties": []
    },
    {
     "id": 1480,
     "name": "",
     "type": "",
     "x": 544,
     "y": 896,
     "width": 32,
     "height": 32,
     "rotation": 0,
     "visible": true,
     "properties": []
    },
    {
     "id": 1481,
     "name": "",
     "type": "",
     "x": 608,
     "y": 896,
     "width": 32,
     "height": 32,
     "rotation": 0,
     "visible": true,
     "properties": []
    },
    {
     "id": 1482,
     "name": "",
     "type": "",
     "x": 640,
     "y": 896,
     "width": 32,
     "height": 32,
     "rotation": 0,
     "visible": true,
     "properties": []
    },
    {
     "id": 1483,
     "name": "",
     "type": "",
     "x": 704,
     "y": 896,
     "width": 32,
     "height": 32,
     "rotation": 0,
     "visible": true,
     "properties": []
    },
    {
     "id": 1484,
     "name": "",
     "type": "",
     "x": 736,
     "y": 896,
     "width": 32,
     "height": 32,
     "rotation": 0,
     "visible": true,
     "properties": []
    },
    {
     "id": 1485,
     "name": "",
     "type": "",
     "x": 0,
     "y": 928,
     "width": 32,
     "height": 32,
     "rotation": 0,
     "visible": true,
     "properties": []
    },
    {
     "id": 1486,
     "name": "",
     "type": "",
     "x": 32,
     "y": 928,
     "width": 32,
     "height": 32,
     "rotation": 0,
     "visible": true,
     "properties": []
    },
    {
     "id": 1487,
     "name": "",
     "type": "",
     "x": 96,
     "y": 928,
     "width": 32,
     "height": 32,
     "rotation": 0,
     "visible": true,
     "properties": []
    },
    {
     "id": 1488,
     "name": "",
     "type": "",
     "x": 224,
     "y": 928,
     "width": 32,
     "height": 32,
     "rotation": 0,
     "visible": true,
     "properties": []
    },
    {
     "id": 1489,
     "name": "",
     "type": "",
     "x": 256,
     "y": 928,
     "width": 32,
     "height": 32,
     "rotation": 0,
     "visible": true,
     "properties": []
    },
    {
     "id": 1490,
     "name": "",
     "type": "",
     "x": 288,
     "y": 928,
     "width": 32,
     "height": 32,
     "rotation": 0,
     "visible": true,
     "properties": []
    },
    {
     "id": 1491,
     "name": "",
     "type": "",
     "x": 320,
     "y": 928,
     "width": 32,
     "height": 32,
     "rotation": 0,
     "visible": true,
     "properties": []
    },
    {
     "id": 1492,
     "name": "",
     "type": "",
     "x": 352,
     "y": 928,
     "width": 32,
     "height": 32,
     "rotation": 0,
     "visible": true,
     "properties": []
    },
    {
     "id": 1493,
     "name": "",
     "type": "",
     "x": 384,
     "y": 928,
     "width": 32,
     "height": 32,
     "rotation": 0,
     "visible": true,
     "properties": []
    },
    {
     "id": 1494,
     "name": "",
     "type": "",
     "x": 416,
     "y": 928,
     "width": 32,
     "height": 32,
     "rotation": 0,
     "visible": true,
     "properties": []
    },
    {
     "id": 1495,
     "name": "",
     "type": "",
     "x": 448,
     "y": 928,
     "width": 32,
     "height": 32,
     "rotation": 0,
     "visible": true,
     "properties": []
    },
    {
     "id": 1496,
     "name": "",
     "type": "",
     "x": 480,
     "y": 928,
     "width": 32,
     "height": 32,
     "rotation": 0,
     "visible": true,
     "properties": []
    },
    {
     "id": 1497,
     "name": "",
     "type": "",
     "x": 512,
     "y": 928,
     "width": 32,
     "height": 32,
     "rotation": 0,
     "visible": true,
     "properties": []
    },
    {
     "id": 1498,
     "name": "",
     "type": "",
     "x": 704,
     "y": 928,
     "width": 32,
     "height": 32,
     "rotation": 0,
     "visible": true,
     "properties": []
    },
    {
     "id": 1499,
     "name": "",
     "type": "",
     "x": 736,
     "y": 928,
     "width": 32,
     "height": 32,
     "rotation": 0,
     "visible": true,
     "properties": []
    },
    {
     "id": 1500,
     "name": "",
     "type": "",
     "x": 0,
     "y": 960,
     "width": 32,
     "height": 32,
     "rotation": 0,
     "visible": true,
     "properties": []
    },
    {
     "id": 1501,
     "name": "",
     "type": "",
     "x": 32,
     "y": 960,
     "width": 32,
     "height": 32,
     "rotation": 0,
     "visible": true,
     "properties": []
    },
    {
     "id": 1502,
     "name": "",
     "type": "",
     "x": 288,
     "y": 960,
     "width": 32,
     "height": 32,
     "rotation": 0,
     "visible": true,
     "properties": []
    },
    {
     "id": 1503,
     "name": "",
     "type": "",
     "x": 320,
     "y": 960,
     "width": 32,
     "height": 32,
     "rotation": 0,
     "visible": true,
     "properties": []
    },
    {
     "id": 1504,
     "name": "",
     "type": "",
     "x": 352,
     "y": 960,
     "width": 32,
     "height": 32,
     "rotation": 0,
     "visible": true,
     "properties": []
    },
    {
     "id": 1505,
     "name": "",
     "type": "",
     "x": 384,
     "y": 960,
     "width": 32,
     "height": 32,
     "rotation": 0,
     "visible": true,
     "properties": []
    },
    {
     "id": 1506,
     "name": "",
     "type": "",
     "x": 416,
     "y": 960,
     "width": 32,
     "height": 32,
     "rotation": 0,
     "visible": true,
     "properties": []
    },
    {
     "id": 1507,
     "name": "",
     "type": "",
     "x": 448,
     "y": 960,
     "width": 32,
     "height": 32,
     "rotation": 0,
     "visible": true,
     "properties": []
    },
    {
     "id": 1508,
     "name": "",
     "type": "",
     "x": 480,
     "y": 960,
     "width": 32,
     "height": 32,
     "rotation": 0,
     "visible": true,
     "properties": []
    },
    {
     "id": 1509,
     "name": "",
     "type": "",
     "x": 512,
     "y": 960,
     "width": 32,
     "height": 32,
     "rotation": 0,
     "visible": true,
     "properties": []
    },
    {
     "id": 1510,
     "name": "",
     "type": "",
     "x": 704,
     "y": 960,
     "width": 32,
     "height": 32,
     "rotation": 0,
     "visible": true,
     "properties": []
    },
    {
     "id": 1511,
     "name": "",
     "type": "",
     "x": 736,
     "y": 960,
     "width": 32,
     "height": 32,
     "rotation": 0,
     "visible": true,
     "properties": []
    },
    {
     "id": 1512,
     "name": "",
     "type": "",
     "x": 0,
     "y": 992,
     "width": 32,
     "height": 32,
     "rotation": 0,
     "visible": true,
     "properties": []
    },
    {
     "id": 1513,
     "name": "",
     "type": "",
     "x": 32,
     "y": 992,
     "width": 32,
     "height": 32,
     "rotation": 0,
     "visible": true,
     "properties": []
    },
    {
     "id": 1514,
     "name": "",
     "type": "",
     "x": 96,
     "y": 992,
     "width": 32,
     "height": 32,
     "rotation": 0,
     "visible": true,
     "properties": []
    },
    {
     "id": 1515,
     "name": "",
     "type": "",
     "x": 256,
     "y": 992,
     "width": 32,
     "height": 32,
     "rotation": 0,
     "visible": true,
     "properties": []
    },
    {
     "id": 1516,
     "name": "",
     "type": "",
     "x": 288,
     "y": 992,
     "width": 32,
     "height": 32,
     "rotation": 0,
     "visible": true,
     "properties": []
    },
    {
     "id": 1517,
     "name": "",
     "type": "",
     "x": 320,
     "y": 992,
     "width": 32,
     "height": 32,
     "rotation": 0,
     "visible": true,
     "properties": []
    },
    {
     "id": 1518,
     "name": "",
     "type": "",
     "x": 352,
     "y": 992,
     "width": 32,
     "height": 32,
     "rotation": 0,
     "visible": true,
     "properties": []
    },
    {
     "id": 1519,
     "name": "",
     "type": "",
     "x": 384,
     "y": 992,
     "width": 32,
     "height": 32,
     "rotation": 0,
     "visible": true,
     "properties": []
    },
    {
     "id": 1520,
     "name": "",
     "type": "",
     "x": 416,
     "y": 992,
     "width": 32,
     "height": 32,
     "rotation": 0,
     "visible": true,
     "properties": []
    },
    {
     "id": 1521,
     "name": "",
     "type": "",
     "x": 448,
     "y": 992,
     "width": 32,
     "height": 32,
     "rotation": 0,
     "visible": true,
     "properties": []
    },
    {
     "id": 1522,
     "name": "",
     "type": "",
     "x": 480,
     "y": 992,
     "width": 32,
     "height": 32,
     "rotation": 0,
     "visible": true,
     "properties": []
    },
    {
     "id": 1523,
     "name": "",
     "type": "",
     "x": 512,
     "y": 992,
     "width": 32,
     "height": 32,
     "rotation": 0,
     "visible": true,
     "properties": []
    },
    {
     "id": 1524,
     "name": "",
     "type": "",
     "x": 704,
     "y": 992,
     "width": 32,
     "height": 32,
     "rotation": 0,
     "visible": true,
     "properties": []
    },
    {
     "id": 1525,
     "name": "",
     "type": "",
     "x": 736,
     "y": 992,
     "width": 32,
     "height": 32,
     "rotation": 0,
     "visible": true,
     "properties": []
    },
    {
     "id": 1526,
     "name": "",
     "type": "",
     "x": 0,
     "y": 1024,
     "width": 32,
     "height": 32,
     "rotation": 0,
     "visible": true,
     "properties": []
    },
    {
     "id": 1527,
     "name": "",
     "type": "",
     "x": 32,
     "y": 1024,
     "width": 32,
     "height": 32,
     "rotation": 0,
     "visible": true,
     "properties": []
    },
    {
     "id": 1528,
     "name": "",
     "type": "",
     "x": 288,
     "y": 1024,
     "width": 32,
     "height": 32,
     "rotation": 0,
     "visible": true,
     "properties": []
    },
    {
     "id": 1529,
     "name": "",
     "type": "",
     "x": 320,
     "y": 1024,
     "width": 32,
     "height": 32,
     "rotation": 0,
     "visible": true,
     "properties": []
    },
    {
     "id": 1530,
     "name": "",
     "type": "",
     "x": 352,
     "y": 1024,
     "width": 32,
     "height": 32,
     "rotation": 0,
     "visible": true,
     "properties": []
    },
    {
     "id": 1531,
     "name": "",
     "type": "",
     "x": 384,
     "y": 1024,
     "width": 32,
     "height": 32,
     "rotation": 0,
     "visible": true,
     "properties": []
    },
    {
     "id": 1532,
     "name": "",
     "type": "",
     "x": 416,
     "y": 1024,
     "width": 32,
     "height": 32,
     "rotation": 0,
     "visible": true,
     "properties": []
    },
    {
     "id": 1533,
     "name": "",
     "type": "",
     "x": 448,
     "y": 1024,
     "width": 32,
     "height": 32,
     "rotation": 0,
     "visible": true,
     "properties": []
    },
    {
     "id": 1534,
     "name": "",
     "type": "",
     "x": 480,
     "y": 1024,
     "width": 32,
     "height": 32,
     "rotation": 0,
     "visible": true,
     "properties": []
    },
    {
     "id": 1535,
     "name": "",
     "type": "",
     "x": 512,
     "y": 1024,
     "width": 32,
     "height": 32,
     "rotation": 0,
     "visible": true,
     "properties": []
    },
    {
     "id": 1536,
     "name": "",
     "type": "",
     "x": 704,
     "y": 1024,
     "width": 32,
     "height": 32,
     "rotation": 0,
     "visible": true,
     "properties": []
    },
    {
     "id": 1537,
     "name": "",
     "type": "",
     "x": 736,
     "y": 1024,
     "width": 32,
     "height": 32,
     "rotation": 0,
     "visible": true,
     "properties": []
    },
    {
     "id": 1538,
     "name": "",
     "type": "",
     "x": 0,
     "y": 1056,
     "width": 32,
     "height": 32,
     "rotation": 0,
     "visible": true,
     "properties": []
    },
    {
     "id": 1539,
     "name": "",
     "type": "",
     "x": 32,
     "y": 1056,
     "width": 32,
     "height": 32,
     "rotation": 0,
     "visible": true,
     "properties": []
    },
    {
     "id": 1540,
     "name": "",
     "type": "",
     "x": 64,
     "y": 1056,
     "width": 32,
     "height": 32,
     "rotation": 0,
     "visible": true,
     "properties": []
    },
    {
     "id": 1541,
     "name": "",
     "type": "",
     "x": 288,
     "y": 1056,
     "width": 32,
     "height": 32,
     "rotation": 0,
     "visible": true,
     "properties": []
    },
    {
     "id": 1542,
     "name": "",
     "type": "",
     "x": 320,
     "y": 1056,
     "width": 32,
     "height": 32,
     "rotation": 0,
     "visible": true,
     "properties": []
    },
    {
     "id": 1543,
     "name": "",
     "type": "",
     "x": 352,
     "y": 1056,
     "width": 32,
     "height": 32,
     "rotation": 0,
     "visible": true,
     "properties": []
    },
    {
     "id": 1544,
     "name": "",
     "type": "",
     "x": 384,
     "y": 1056,
     "width": 32,
     "height": 32,
     "rotation": 0,
     "visible": true,
     "properties": []
    },
    {
     "id": 1545,
     "name": "",
     "type": "",
     "x": 416,
     "y": 1056,
     "width": 32,
     "height": 32,
     "rotation": 0,
     "visible": true,
     "properties": []
    },
    {
     "id": 1546,
     "name": "",
     "type": "",
     "x": 448,
     "y": 1056,
     "width": 32,
     "height": 32,
     "rotation": 0,
     "visible": true,
     "properties": []
    },
    {
     "id": 1547,
     "name": "",
     "type": "",
     "x": 480,
     "y": 1056,
     "width": 32,
     "height": 32,
     "rotation": 0,
     "visible": true,
     "properties": []
    },
    {
     "id": 1548,
     "name": "",
     "type": "",
     "x": 512,
     "y": 1056,
     "width": 32,
     "height": 32,
     "rotation": 0,
     "visible": true,
     "properties": []
    },
    {
     "id": 1549,
     "name": "",
     "type": "",
     "x": 544,
     "y": 1056,
     "width": 32,
     "height": 32,
     "rotation": 0,
     "visible": true,
     "properties": []
    },
    {
     "id": 1550,
     "name": "",
     "type": "",
     "x": 576,
     "y": 1056,
     "width": 32,
     "height": 32,
     "rotation": 0,
     "visible": true,
     "properties": []
    },
    {
     "id": 1551,
     "name": "",
     "type": "",
     "x": 608,
     "y": 1056,
     "width": 32,
     "height": 32,
     "rotation": 0,
     "visible": true,
     "properties": []
    },
    {
     "id": 1552,
     "name": "",
     "type": "",
     "x": 640,
     "y": 1056,
     "width": 32,
     "height": 32,
     "rotation": 0,
     "visible": true,
     "properties": []
    },
    {
     "id": 1553,
     "name": "",
     "type": "",
     "x": 672,
     "y": 1056,
     "width": 32,
     "height": 32,
     "rotation": 0,
     "visible": true,
     "properties": []
    },
    {
     "id": 1554,
     "name": "",
     "type": "",
     "x": 704,
     "y": 1056,
     "width": 32,
     "height": 32,
     "rotation": 0,
     "visible": true,
     "properties": []
    },
    {
     "id": 1555,
     "name": "",
     "type": "",
     "x": 736,
     "y": 1056,
     "width": 32,
     "height": 32,
     "rotation": 0,
     "visible": true,
     "properties": []
    },
    {
     "id": 1556,
     "name": "",
     "type": "",
     "x": 0,
     "y": 1088,
     "width": 32,
     "height": 32,
     "rotation": 0,
     "visible": true,
     "properties": []
    },
    {
     "id": 1557,
     "name": "",
     "type": "",
     "x": 32,
     "y": 1088,
     "width": 32,
     "height": 32,
     "rotation": 0,
     "visible": true,
     "properties": []
    },
    {
     "id": 1558,
     "name": "",
     "type": "",
     "x": 256,
     "y": 1088,
     "width": 32,
     "height": 32,
     "rotation": 0,
     "visible": true,
     "properties": []
    },
    {
     "id": 1559,
     "name": "",
     "type": "",
     "x": 288,
     "y": 1088,
     "width": 32,
     "height": 32,
     "rotation": 0,
     "visible": true,
     "properties": []
    },
    {
     "id": 1560,
     "name": "",
     "type": "",
     "x": 320,
     "y": 1088,
     "width": 32,
     "height": 32,
     "rotation": 0,
     "visible": true,
     "properties": []
    },
    {
     "id": 1561,
     "name": "",
     "type": "",
     "x": 352,
     "y": 1088,
     "width": 32,
     "height": 32,
     "rotation": 0,
     "visible": true,
     "properties": []
    },
    {
     "id": 1562,
     "name": "",
     "type": "",
     "x": 384,
     "y": 1088,
     "width": 32,
     "height": 32,
     "rotation": 0,
     "visible": true,
     "properties": []
    },
    {
     "id": 1563,
     "name": "",
     "type": "",
     "x": 416,
     "y": 1088,
     "width": 32,
     "height": 32,
     "rotation": 0,
     "visible": true,
     "properties": []
    },
    {
     "id": 1564,
     "name": "",
     "type": "",
     "x": 448,
     "y": 1088,
     "width": 32,
     "height": 32,
     "rotation": 0,
     "visible": true,
     "properties": []
    },
    {
     "id": 1565,
     "name": "",
     "type": "",
     "x": 480,
     "y": 1088,
     "width": 32,
     "height": 32,
     "rotation": 0,
     "visible": true,
     "properties": []
    },
    {
     "id": 1566,
     "name": "",
     "type": "",
     "x": 512,
     "y": 1088,
     "width": 32,
     "height": 32,
     "rotation": 0,
     "visible": true,
     "properties": []
    },
    {
     "id": 1567,
     "name": "",
     "type": "",
     "x": 544,
     "y": 1088,
     "width": 32,
     "height": 32,
     "rotation": 0,
     "visible": true,
     "properties": []
    },
    {
     "id": 1568,
     "name": "",
     "type": "",
     "x": 576,
     "y": 1088,
     "width": 32,
     "height": 32,
     "rotation": 0,
     "visible": true,
     "properties": []
    },
    {
     "id": 1569,
     "name": "",
     "type": "",
     "x": 608,
     "y": 1088,
     "width": 32,
     "height": 32,
     "rotation": 0,
     "visible": true,
     "properties": []
    },
    {
     "id": 1570,
     "name": "",
     "type": "",
     "x": 640,
     "y": 1088,
     "width": 32,
     "height": 32,
     "rotation": 0,
     "visible": true,
     "properties": []
    },
    {
     "id": 1571,
     "name": "",
     "type": "",
     "x": 672,
     "y": 1088,
     "width": 32,
     "height": 32,
     "rotation": 0,
     "visible": true,
     "properties": []
    },
    {
     "id": 1572,
     "name": "",
     "type": "",
     "x": 704,
     "y": 1088,
     "width": 32,
     "height": 32,
     "rotation": 0,
     "visible": true,
     "properties": []
    },
    {
     "id": 1573,
     "name": "",
     "type": "",
     "x": 736,
     "y": 1088,
     "width": 32,
     "height": 32,
     "rotation": 0,
     "visible": true,
     "properties": []
    },
    {
     "id": 1574,
     "name": "",
     "type": "",
     "x": 0,
     "y": 1120,
     "width": 32,
     "height": 32,
     "rotation": 0,
     "visible": true,
     "properties": []
    },
    {
     "id": 1575,
     "name": "",
     "type": "",
     "x": 32,
     "y": 1120,
     "width": 32,
     "height": 32,
     "rotation": 0,
     "visible": true,
     "properties": []
    },
    {
     "id": 1576,
     "name": "",
     "type": "",
     "x": 64,
     "y": 1120,
     "width": 32,
     "height": 32,
     "rotation": 0,
     "visible": true,
     "properties": []
    },
    {
     "id": 1577,
     "name": "",
     "type": "",
     "x": 96,
     "y": 1120,
     "width": 32,
     "height": 32,
     "rotation": 0,
     "visible": true,
     "properties": []
    },
    {
     "id": 1578,
     "name": "",
     "type": "",
     "x": 224,
     "y": 1120,
     "width": 32,
     "height": 32,
     "rotation": 0,
     "visible": true,
     "properties": []
    },
    {
     "id": 1579,
     "name": "",
     "type": "",
     "x": 288,
     "y": 1120,
     "width": 32,
     "height": 32,
     "rotation": 0,
     "visible": true,
     "properties": []
    },
    {
     "id": 1580,
     "name": "",
     "type": "",
     "x": 320,
     "y": 1120,
     "width": 32,
     "height": 32,
     "rotation": 0,
     "visible": true,
     "properties": []
    },
    {
     "id": 1581,
     "name": "",
     "type": "",
     "x": 352,
     "y": 1120,
     "width": 32,
     "height": 32,
     "rotation": 0,
     "visible": true,
     "properties": []
    },
    {
     "id": 1582,
     "name": "",
     "type": "",
     "x": 384,
     "y": 1120,
     "width": 32,
     "height": 32,
     "rotation": 0,
     "visible": true,
     "properties": []
    },
    {
     "id": 1583,
     "name": "",
     "type": "",
     "x": 416,
     "y": 1120,
     "width": 32,
     "height": 32,
     "rotation": 0,
     "visible": true,
     "properties": []
    },
    {
     "id": 1584,
     "name": "",
     "type": "",
     "x": 448,
     "y": 1120,
     "width": 32,
     "height": 32,
     "rotation": 0,
     "visible": true,
     "properties": []
    },
    {
     "id": 1585,
     "name": "",
     "type": "",
     "x": 480,
     "y": 1120,
     "width": 32,
     "height": 32,
     "rotation": 0,
     "visible": true,
     "properties": []
    },
    {
     "id": 1586,
     "name": "",
     "type": "",
     "x": 512,
     "y": 1120,
     "width": 32,
     "height": 32,
     "rotation": 0,
     "visible": true,
     "properties": []
    },
    {
     "id": 1587,
     "name": "",
     "type": "",
     "x": 544,
     "y": 1120,
     "width": 32,
     "height": 32,
     "rotation": 0,
     "visible": true,
     "properties": []
    },
    {
     "id": 1588,
     "name": "",
     "type": "",
     "x": 576,
     "y": 1120,
     "width": 32,
     "height": 32,
     "rotation": 0,
     "visible": true,
     "properties": []
    },
    {
     "id": 1589,
     "name": "",
     "type": "",
     "x": 608,
     "y": 1120,
     "width": 32,
     "height": 32,
     "rotation": 0,
     "visible": true,
     "properties": []
    },
    {
     "id": 1590,
     "name": "",
     "type": "",
     "x": 640,
     "y": 1120,
     "width": 32,
     "height": 32,
     "rotation": 0,
     "visible": true,
     "properties": []
    },
    {
     "id": 1591,
     "name": "",
     "type": "",
     "x": 672,
     "y": 1120,
     "width": 32,
     "height": 32,
     "rotation": 0,
     "visible": true,
     "properties": []
    },
    {
     "id": 1592,
     "name": "",
     "type": "",
     "x": 704,
     "y": 1120,
     "width": 32,
     "height": 32,
     "rotation": 0,
     "visible": true,
     "properties": []
    },
    {
     "id": 1593,
     "name": "",
     "type": "",
     "x": 736,
     "y": 1120,
     "width": 32,
     "height": 32,
     "rotation": 0,
     "visible": true,
     "properties": []
    },
    {
     "id": 1594,
     "name": "",
     "type": "",
     "x": 0,
     "y": 1152,
     "width": 32,
     "height": 32,
     "rotation": 0,
     "visible": true,
     "properties": []
    },
    {
     "id": 1595,
     "name": "",
     "type": "",
     "x": 32,
     "y": 1152,
     "width": 32,
     "height": 32,
     "rotation": 0,
     "visible": true,
     "properties": []
    },
    {
     "id": 1596,
     "name": "",
     "type": "",
     "x": 256,
     "y": 1152,
     "width": 32,
     "height": 32,
     "rotation": 0,
     "visible": true,
     "properties": []
    },
    {
     "id": 1597,
     "name": "",
     "type": "",
     "x": 288,
     "y": 1152,
     "width": 32,
     "height": 32,
     "rotation": 0,
     "visible": true,
     "properties": []
    },
    {
     "id": 1598,
     "name": "",
     "type": "",
     "x": 320,
     "y": 1152,
     "width": 32,
     "height": 32,
     "rotation": 0,
     "visible": true,
     "properties": []
    },
    {
     "id": 1599,
     "name": "",
     "type": "",
     "x": 352,
     "y": 1152,
     "width": 32,
     "height": 32,
     "rotation": 0,
     "visible": true,
     "properties": []
    },
    {
     "id": 1600,
     "name": "",
     "type": "",
     "x": 384,
     "y": 1152,
     "width": 32,
     "height": 32,
     "rotation": 0,
     "visible": true,
     "properties": []
    },
    {
     "id": 1601,
     "name": "",
     "type": "",
     "x": 416,
     "y": 1152,
     "width": 32,
     "height": 32,
     "rotation": 0,
     "visible": true,
     "properties": []
    },
    {
     "id": 1602,
     "name": "",
     "type": "",
     "x": 448,
     "y": 1152,
     "width": 32,
     "height": 32,
     "rotation": 0,
     "visible": true,
     "properties": []
    },
    {
     "id": 1603,
     "name": "",
     "type": "",
     "x": 480,
     "y": 1152,
     "width": 32,
     "height": 32,
     "rotation": 0,
     "visible": true,
     "properties": []
    },
    {
     "id": 1604,
     "name": "",
     "type": "",
     "x": 512,
     "y": 1152,
     "width": 32,
     "height": 32,
     "rotation": 0,
     "visible": true,
     "properties": []
    },
    {
     "id": 1605,
     "name": "",
     "type": "",
     "x": 544,
     "y": 1152,
     "width": 32,
     "height": 32,
     "rotation": 0,
     "visible": true,
     "properties": []
    },
    {
     "id": 1606,
     "name": "",
     "type": "",
     "x": 576,
     "y": 1152,
     "width": 32,
     "height": 32,
     "rotation": 0,
     "visible": true,
     "properties": []
    },
    {
     "id": 1607,
     "name": "",
     "type": "",
     "x": 608,
     "y": 1152,
     "width": 32,
     "height": 32,
     "rotation": 0,
     "visible": true,
     "properties": []
    },
    {
     "id": 1608,
     "name": "",
     "type": "",
     "x": 640,
     "y": 1152,
     "width": 32,
     "height": 32,
     "rotation": 0,
     "visible": true,
     "properties": []
    },
    {
     "id": 1609,
     "name": "",
     "type": "",
     "x": 672,
     "y": 1152,
     "width": 32,
     "height": 32,
     "rotation": 0,
     "visible": true,
     "properties": []
    },
    {
     "id": 1610,
     "name": "",
     "type": "",
     "x": 704,
     "y": 1152,
     "width": 32,
     "height": 32,
     "rotation": 0,
     "visible": true,
     "properties": []
    },
    {
     "id": 1611,
     "name": "",
     "type": "",
     "x": 736,
     "y": 1152,
     "width": 32,
     "height": 32,
     "rotation": 0,
     "visible": true,
     "properties": []
    },
    {
     "id": 1612,
     "name": "",
     "type": "",
     "x": 0,
     "y": 1184,
     "width": 32,
     "height": 32,
     "rotation": 0,
     "visible": true,
     "properties": []
    },
    {
     "id": 1613,
     "name": "",
     "type": "",
     "x": 32,
     "y": 1184,
     "width": 32,
     "height": 32,
     "rotation": 0,
     "visible": true,
     "properties": []
    },
    {
     "id": 1614,
     "name": "",
     "type": "",
     "x": 288,
     "y": 1184,
     "width": 32,
     "height": 32,
     "rotation": 0,
     "visible": true,
     "properties": []
    },
    {
     "id": 1615,
     "name": "",
     "type": "",
     "x": 320,
     "y": 1184,
     "width": 32,
     "height": 32,
     "rotation": 0,
     "visible": true,
     "properties": []
    },
    {
     "id": 1616,
     "name": "",
     "type": "",
     "x": 352,
     "y": 1184,
     "width": 32,
     "height": 32,
     "rotation": 0,
     "visible": true,
     "properties": []
    },
    {
     "id": 1617,
     "name": "",
     "type": "",
     "x": 384,
     "y": 1184,
     "width": 32,
     "height": 32,
     "rotation": 0,
     "visible": true,
     "properties": []
    },
    {
     "id": 1618,
     "name": "",
     "type": "",
     "x": 416,
     "y": 1184,
     "width": 32,
     "height": 32,
     "rotation": 0,
     "visible": true,
     "properties": []
    },
    {
     "id": 1619,
     "name": "",
     "type": "",
     "x": 448,
     "y": 1184,
     "width": 32,
     "height": 32,
     "rotation": 0,
     "visible": true,
     "properties": []
    },
    {
     "id": 1620,
     "name": "",
     "type": "",
     "x": 480,
     "y": 1184,
     "width": 32,
     "height": 32,
     "rotation": 0,
     "visible": true,
     "properties": []
    },
    {
     "id": 1621,
     "name": "",
     "type": "",
     "x": 512,
     "y": 1184,
     "width": 32,
     "height": 32,
     "rotation": 0,
     "visible": true,
     "properties": []
    },
    {
     "id": 1622,
     "name": "",
     "type": "",
     "x": 544,
     "y": 1184,
     "width": 32,
     "height": 32,
     "rotation": 0,
     "visible": true,
     "properties": []
    },
    {
     "id": 1623,
     "name": "",
     "type": "",
     "x": 576,
     "y": 1184,
     "width": 32,
     "height": 32,
     "rotation": 0,
     "visible": true,
     "properties": []
    },
    {
     "id": 1624,
     "name": "",
     "type": "",
     "x": 608,
     "y": 1184,
     "width": 32,
     "height": 32,
     "rotation": 0,
     "visible": true,
     "properties": []
    },
    {
     "id": 1625,
     "name": "",
     "type": "",
     "x": 640,
     "y": 1184,
     "width": 32,
     "height": 32,
     "rotation": 0,
     "visible": true,
     "properties": []
    },
    {
     "id": 1626,
     "name": "",
     "type": "",
     "x": 672,
     "y": 1184,
     "width": 32,
     "height": 32,
     "rotation": 0,
     "visible": true,
     "properties": []
    },
    {
     "id": 1627,
     "name": "",
     "type": "",
     "x": 704,
     "y": 1184,
     "width": 32,
     "height": 32,
     "rotation": 0,
     "visible": true,
     "properties": []
    },
    {
     "id": 1628,
     "name": "",
     "type": "",
     "x": 736,
     "y": 1184,
     "width": 32,
     "height": 32,
     "rotation": 0,
     "visible": true,
     "properties": []
    },
    {
     "id": 1629,
     "name": "",
     "type": "",
     "x": 0,
     "y": 1216,
     "width": 32,
     "height": 32,
     "rotation": 0,
     "visible": true,
     "properties": []
    },
    {
     "id": 1630,
     "name": "",
     "type": "",
     "x": 32,
     "y": 1216,
     "width": 32,
     "height": 32,
     "rotation": 0,
     "visible": true,
     "properties": []
    },
    {
     "id": 1631,
     "name": "",
     "type": "",
     "x": 96,
     "y": 1216,
     "width": 32,
     "height": 32,
     "rotation": 0,
     "visible": true,
     "properties": []
    },
    {
     "id": 1632,
     "name": "",
     "type": "",
     "x": 256,
     "y": 1216,
     "width": 32,
     "height": 32,
     "rotation": 0,
     "visible": true,
     "properties": []
    },
    {
     "id": 1633,
     "name": "",
     "type": "",
     "x": 288,
     "y": 1216,
     "width": 32,
     "height": 32,
     "rotation": 0,
     "visible": true,
     "properties": []
    },
    {
     "id": 1634,
     "name": "",
     "type": "",
     "x": 320,
     "y": 1216,
     "width": 32,
     "height": 32,
     "rotation": 0,
     "visible": true,
     "properties": []
    },
    {
     "id": 1635,
     "name": "",
     "type": "",
     "x": 352,
     "y": 1216,
     "width": 32,
     "height": 32,
     "rotation": 0,
     "visible": true,
     "properties": []
    },
    {
     "id": 1636,
     "name": "",
     "type": "",
     "x": 384,
     "y": 1216,
     "width": 32,
     "height": 32,
     "rotation": 0,
     "visible": true,
     "properties": []
    },
    {
     "id": 1637,
     "name": "",
     "type": "",
     "x": 416,
     "y": 1216,
     "width": 32,
     "height": 32,
     "rotation": 0,
     "visible": true,
     "properties": []
    },
    {
     "id": 1638,
     "name": "",
     "type": "",
     "x": 448,
     "y": 1216,
     "width": 32,
     "height": 32,
     "rotation": 0,
     "visible": true,
     "properties": []
    },
    {
     "id": 1639,
     "name": "",
     "type": "",
     "x": 480,
     "y": 1216,
     "width": 32,
     "height": 32,
     "rotation": 0,
     "visible": true,
     "properties": []
    },
    {
     "id": 1640,
     "name": "",
     "type": "",
     "x": 512,
     "y": 1216,
     "width": 32,
     "height": 32,
     "rotation": 0,
     "visible": true,
     "properties": []
    },
    {
     "id": 1641,
     "name": "",
     "type": "",
     "x": 544,
     "y": 1216,
     "width": 32,
     "height": 32,
     "rotation": 0,
     "visible": true,
     "properties": []
    },
    {
     "id": 1642,
     "name": "",
     "type": "",
     "x": 576,
     "y": 1216,
     "width": 32,
     "height": 32,
     "rotation": 0,
     "visible": true,
     "properties": []
    },
    {
     "id": 1643,
     "name": "",
     "type": "",
     "x": 608,
     "y": 1216,
     "width": 32,
     "height": 32,
     "rotation": 0,
     "visible": true,
     "properties": []
    },
    {
     "id": 1644,
     "name": "",
     "type": "",
     "x": 640,
     "y": 1216,
     "width": 32,
     "height": 32,
     "rotation": 0,
     "visible": true,
     "properties": []
    },
    {
     "id": 1645,
     "name": "",
     "type": "",
     "x": 672,
     "y": 1216,
     "width": 32,
     "height": 32,
     "rotation": 0,
     "visible": true,
     "properties": []
    },
    {
     "id": 1646,
     "name": "",
     "type": "",
     "x": 704,
     "y": 1216,
     "width": 32,
     "height": 32,
     "rotation": 0,
     "visible": true,
     "properties": []
    },
    {
     "id": 1647,
     "name": "",
     "type": "",
     "x": 736,
     "y": 1216,
     "width": 32,
     "height": 32,
     "rotation": 0,
     "visible": true,
     "properties": []
    },
    {
     "id": 1648,
     "name": "",
     "type": "",
     "x": 0,
     "y": 1248,
     "width": 32,
     "height": 32,
     "rotation": 0,
     "visible": true,
     "properties": []
    },
    {
     "id": 1649,
     "name": "",
     "type": "",
     "x": 32,
     "y": 1248,
     "width": 32,
     "height": 32,
     "rotation": 0,
     "visible": true,
     "properties": []
    },
    {
     "id": 1650,
     "name": "",
     "type": "",
     "x": 256,
     "y": 1248,
     "width": 32,
     "height": 32,
     "rotation": 0,
     "visible": true,
     "properties": []
    },
    {
     "id": 1651,
     "name": "",
     "type": "",
     "x": 288,
     "y": 1248,
     "width": 32,
     "height": 32,
     "rotation": 0,
     "visible": true,
     "properties": []
    },
    {
     "id": 1652,
     "name": "",
     "type": "",
     "x": 320,
     "y": 1248,
     "width": 32,
     "height": 32,
     "rotation": 0,
     "visible": true,
     "properties": []
    },
    {
     "id": 1653,
     "name": "",
     "type": "",
     "x": 352,
     "y": 1248,
     "width": 32,
     "height": 32,
     "rotation": 0,
     "visible": true,
     "properties": []
    },
    {
     "id": 1654,
     "name": "",
     "type": "",
     "x": 384,
     "y": 1248,
     "width": 32,
     "height": 32,
     "rotation": 0,
     "visible": true,
     "properties": []
    },
    {
     "id": 1655,
     "name": "",
     "type": "",
     "x": 416,
     "y": 1248,
     "width": 32,
     "height": 32,
     "rotation": 0,
     "visible": true,
     "properties": []
    },
    {
     "id": 1656,
     "name": "",
     "type": "",
     "x": 448,
     "y": 1248,
     "width": 32,
     "height": 32,
     "rotation": 0,
     "visible": true,
     "properties": []
    },
    {
     "id": 1657,
     "name": "",
     "type": "",
     "x": 480,
     "y": 1248,
     "width": 32,
     "height": 32,
     "rotation": 0,
     "visible": true,
     "properties": []
    },
    {
     "id": 1658,
     "name": "",
     "type": "",
     "x": 512,
     "y": 1248,
     "width": 32,
     "height": 32,
     "rotation": 0,
     "visible": true,
     "properties": []
    },
    {
     "id": 1659,
     "name": "",
     "type": "",
     "x": 544,
     "y": 1248,
     "width": 32,
     "height": 32,
     "rotation": 0,
     "visible": true,
     "properties": []
    },
    {
     "id": 1660,
     "name": "",
     "type": "",
     "x": 576,
     "y": 1248,
     "width": 32,
     "height": 32,
     "rotation": 0,
     "visible": true,
     "properties": []
    },
    {
     "id": 1661,
     "name": "",
     "type": "",
     "x": 608,
     "y": 1248,
     "width": 32,
     "height": 32,
     "rotation": 0,
     "visible": true,
     "properties": []
    },
    {
     "id": 1662,
     "name": "",
     "type": "",
     "x": 640,
     "y": 1248,
     "width": 32,
     "height": 32,
     "rotation": 0,
     "visible": true,
     "properties": []
    },
    {
     "id": 1663,
     "name": "",
     "type": "",
     "x": 672,
     "y": 1248,
     "width": 32,
     "height": 32,
     "rotation": 0,
     "visible": true,
     "properties": []
    },
    {
     "id": 1664,
     "name": "",
     "type": "",
     "x": 704,
     "y": 1248,
     "width": 32,
     "height": 32,
     "rotation": 0,
     "visible": true,
     "properties": []
    },
    {
     "id": 1665,
     "name": "",
     "type": "",
     "x": 736,
     "y": 1248,
     "width": 32,
     "height": 32,
     "rotation": 0,
     "visible": true,
     "properties": []
    },
    {
     "id": 1666,
     "name": "",
     "type": "",
     "x": 0,
     "y": 1280,
     "width": 32,
     "height": 32,
     "rotation": 0,
     "visible": true,
     "properties": []
    },
    {
     "id": 1667,
     "name": "",
     "type": "",
     "x": 32,
     "y": 1280,
     "width": 32,
     "height": 32,
     "rotation": 0,
     "visible": true,
     "properties": []
    },
    {
     "id": 1668,
     "name": "",
     "type": "",
     "x": 64,
     "y": 1280,
     "width": 32,
     "height": 32,
     "rotation": 0,
     "visible": true,
     "properties": []
    },
    {
     "id": 1669,
     "name": "",
     "type": "",
     "x": 288,
     "y": 1280,
     "width": 32,
     "height": 32,
     "rotation": 0,
     "visible": true,
     "properties": []
    },
    {
     "id": 1670,
     "name": "",
     "type": "",
     "x": 320,
     "y": 1280,
     "width": 32,
     "height": 32,
     "rotation": 0,
     "visible": true,
     "properties": []
    },
    {
     "id": 1671,
     "name": "",
     "type": "",
     "x": 352,
     "y": 1280,
     "width": 32,
     "height": 32,
     "rotation": 0,
     "visible": true,
     "properties": []
    },
    {
     "id": 1672,
     "name": "",
     "type": "",
     "x": 384,
     "y": 1280,
     "width": 32,
     "height": 32,
     "rotation": 0,
     "visible": true,
     "properties": []
    },
    {
     "id": 1673,
     "name": "",
     "type": "",
     "x": 416,
     "y": 1280,
     "width": 32,
     "height": 32,
     "rotation": 0,
     "visible": true,
     "properties": []
    },
    {
     "id": 1674,
     "name": "",
     "type": "",
     "x": 448,
     "y": 1280,
     "width": 32,
     "height": 32,
     "rotation": 0,
     "visible": true,
     "properties": []
    },
    {
     "id": 1675,
     "name": "",
     "type": "",
     "x": 480,
     "y": 1280,
     "width": 32,
     "height": 32,
     "rotation": 0,
     "visible": true,
     "properties": []
    },
    {
     "id": 1676,
     "name": "",
     "type": "",
     "x": 512,
     "y": 1280,
     "width": 32,
     "height": 32,
     "rotation": 0,
     "visible": true,
     "properties": []
    },
    {
     "id": 1677,
     "name": "",
     "type": "",
     "x": 544,
     "y": 1280,
     "width": 32,
     "height": 32,
     "rotation": 0,
     "visible": true,
     "properties": []
    },
    {
     "id": 1678,
     "name": "",
     "type": "",
     "x": 576,
     "y": 1280,
     "width": 32,
     "height": 32,
     "rotation": 0,
     "visible": true,
     "properties": []
    },
    {
     "id": 1679,
     "name": "",
     "type": "",
     "x": 608,
     "y": 1280,
     "width": 32,
     "height": 32,
     "rotation": 0,
     "visible": true,
     "properties": []
    },
    {
     "id": 1680,
     "name": "",
     "type": "",
     "x": 640,
     "y": 1280,
     "width": 32,
     "height": 32,
     "rotation": 0,
     "visible": true,
     "properties": []
    },
    {
     "id": 1681,
     "name": "",
     "type": "",
     "x": 672,
     "y": 1280,
     "width": 32,
     "height": 32,
     "rotation": 0,
     "visible": true,
     "properties": []
    },
    {
     "id": 1682,
     "name": "",
     "type": "",
     "x": 704,
     "y": 1280,
     "width": 32,
     "height": 32,
     "rotation": 0,
     "visible": true,
     "properties": []
    },
    {
     "id": 1683,
     "name": "",
     "type": "",
     "x": 736,
     "y": 1280,
     "width": 32,
     "height": 32,
     "rotation": 0,
     "visible": true,
     "properties": []
    },
    {
     "id": 1684,
     "name": "",
     "type": "",
     "x": 0,
     "y": 1312,
     "width": 32,
     "height": 32,
     "rotation": 0,
     "visible": true,
     "properties": []
    },
    {
     "id": 1685,
     "name": "",
     "type": "",
     "x": 32,
     "y": 1312,
     "width": 32,
     "height": 32,
     "rotation": 0,
     "visible": true,
     "properties": []
    },
    {
     "id": 1686,
     "name": "",
     "type": "",
     "x": 96,
     "y": 1312,
     "width": 32,
     "height": 32,
     "rotation": 0,
     "visible": true,
     "properties": []
    },
    {
     "id": 1687,
     "name": "",
     "type": "",
     "x": 224,
     "y": 1312,
     "width": 32,
     "height": 32,
     "rotation": 0,
     "visible": true,
     "properties": []
    },
    {
     "id": 1688,
     "name": "",
     "type": "",
     "x": 288,
     "y": 1312,
     "width": 32,
     "height": 32,
     "rotation": 0,
     "visible": true,
     "properties": []
    },
    {
     "id": 1689,
     "name": "",
     "type": "",
     "x": 320,
     "y": 1312,
     "width": 32,
     "height": 32,
     "rotation": 0,
     "visible": true,
     "properties": []
    },
    {
     "id": 1690,
     "name": "",
     "type": "",
     "x": 352,
     "y": 1312,
     "width": 32,
     "height": 32,
     "rotation": 0,
     "visible": true,
     "properties": []
    },
    {
     "id": 1691,
     "name": "",
     "type": "",
     "x": 384,
     "y": 1312,
     "width": 32,
     "height": 32,
     "rotation": 0,
     "visible": true,
     "properties": []
    },
    {
     "id": 1692,
     "name": "",
     "type": "",
     "x": 416,
     "y": 1312,
     "width": 32,
     "height": 32,
     "rotation": 0,
     "visible": true,
     "properties": []
    },
    {
     "id": 1693,
     "name": "",
     "type": "",
     "x": 448,
     "y": 1312,
     "width": 32,
     "height": 32,
     "rotation": 0,
     "visible": true,
     "properties": []
    },
    {
     "id": 1694,
     "name": "",
     "type": "",
     "x": 480,
     "y": 1312,
     "width": 32,
     "height": 32,
     "rotation": 0,
     "visible": true,
     "properties": []
    },
    {
     "id": 1695,
     "name": "",
     "type": "",
     "x": 512,
     "y": 1312,
     "width": 32,
     "height": 32,
     "rotation": 0,
     "visible": true,
     "properties": []
    },
    {
     "id": 1696,
     "name": "",
     "type": "",
     "x": 544,
     "y": 1312,
     "width": 32,
     "height": 32,
     "rotation": 0,
     "visible": true,
     "properties": []
    },
    {
     "id": 1697,
     "name": "",
     "type": "",
     "x": 576,
     "y": 1312,
     "width": 32,
     "height": 32,
     "rotation": 0,
     "visible": true,
     "properties": []
    },
    {
     "id": 1698,
     "name": "",
     "type": "",
     "x": 608,
     "y": 1312,
     "width": 32,
     "height": 32,
     "rotation": 0,
     "visible": true,
     "properties": []
    },
    {
     "id": 1699,
     "name": "",
     "type": "",
     "x": 640,
     "y": 1312,
     "width": 32,
     "height": 32,
     "rotation": 0,
     "visible": true,
     "properties": []
    },
    {
     "id": 1700,
     "name": "",
     "type": "",
     "x": 672,
     "y": 1312,
     "width": 32,
     "height": 32,
     "rotation": 0,
     "visible": true,
     "properties": []
    },
    {
     "id": 1701,
     "name": "",
     "type": "",
     "x": 704,
     "y": 1312,
     "width": 32,
     "height": 32,
     "rotation": 0,
     "visible": true,
     "properties": []
    },
    {
     "id": 1702,
     "name": "",
     "type": "",
     "x": 736,
     "y": 1312,
     "width": 32,
     "height": 32,
     "rotation": 0,
     "visible": true,
     "properties": []
    },
    {
     "id": 1703,
     "name": "",
     "type": "",
     "x": 0,
     "y": 1344,
     "width": 32,
     "height": 32,
     "rotation": 0,
     "visible": true,
     "properties": []
    },
    {
     "id": 1704,
     "name": "",
     "type": "",
     "x": 32,
     "y": 1344,
     "width": 32,
     "height": 32,
     "rotation": 0,
     "visible": true,
     "properties": []
    },
    {
     "id": 1705,
     "name": "",
     "type": "",
     "x": 64,
     "y": 1344,
     "width": 32,
     "height": 32,
     "rotation": 0,
     "visible": true,
     "properties": []
    },
    {
     "id": 1706,
     "name": "",
     "type": "",
     "x": 320,
     "y": 1344,
     "width": 32,
     "height": 32,
     "rotation": 0,
     "visible": true,
     "properties": []
    },
    {
     "id": 1707,
     "name": "",
     "type": "",
     "x": 352,
     "y": 1344,
     "width": 32,
     "height": 32,
     "rotation": 0,
     "visible": true,
     "properties": []
    },
    {
     "id": 1708,
     "name": "",
     "type": "",
     "x": 384,
     "y": 1344,
     "width": 32,
     "height": 32,
     "rotation": 0,
     "visible": true,
     "properties": []
    },
    {
     "id": 1709,
     "name": "",
     "type": "",
     "x": 608,
     "y": 1344,
     "width": 32,
     "height": 32,
     "rotation": 0,
     "visible": true,
     "properties": []
    },
    {
     "id": 1710,
     "name": "",
     "type": "",
     "x": 704,
     "y": 1344,
     "width": 32,
     "height": 32,
     "rotation": 0,
     "visible": true,
     "properties": []
    },
    {
     "id": 1711,
     "name": "",
     "type": "",
     "x": 736,
     "y": 1344,
     "width": 32,
     "height": 32,
     "rotation": 0,
     "visible": true,
     "properties": []
    },
    {
     "id": 1712,
     "name": "",
     "type": "",
     "x": 0,
     "y": 1376,
     "width": 32,
     "height": 32,
     "rotation": 0,
     "visible": true,
     "properties": []
    },
    {
     "id": 1713,
     "name": "",
     "type": "",
     "x": 32,
     "y": 1376,
     "width": 32,
     "height": 32,
     "rotation": 0,
     "visible": true,
     "properties": []
    },
    {
     "id": 1714,
     "name": "",
     "type": "",
     "x": 96,
     "y": 1376,
     "width": 32,
     "height": 32,
     "rotation": 0,
     "visible": true,
     "properties": []
    },
    {
     "id": 1715,
     "name": "",
     "type": "",
     "x": 352,
     "y": 1376,
     "width": 32,
     "height": 32,
     "rotation": 0,
     "visible": true,
     "properties": []
    },
    {
     "id": 1716,
     "name": "",
     "type": "",
     "x": 384,
     "y": 1376,
     "width": 32,
     "height": 32,
     "rotation": 0,
     "visible": true,
     "properties": []
    },
    {
     "id": 1717,
     "name": "",
     "type": "",
     "x": 704,
     "y": 1376,
     "width": 32,
     "height": 32,
     "rotation": 0,
     "visible": true,
     "properties": []
    },
    {
     "id": 1718,
     "name": "",
     "type": "",
     "x": 736,
     "y": 1376,
     "width": 32,
     "height": 32,
     "rotation": 0,
     "visible": true,
     "properties": []
    },
    {
     "id": 1719,
     "name": "",
     "type": "",
     "x": 0,
     "y": 1408,
     "width": 32,
     "height": 32,
     "rotation": 0,
     "visible": true,
     "properties": []
    },
    {
     "id": 1720,
     "name": "",
     "type": "",
     "x": 32,
     "y": 1408,
     "width": 32,
     "height": 32,
     "rotation": 0,
     "visible": true,
     "properties": []
    },
    {
     "id": 1721,
     "name": "",
     "type": "",
     "x": 352,
     "y": 1408,
     "width": 32,
     "height": 32,
     "rotation": 0,
     "visible": true,
     "properties": []
    },
    {
     "id": 1722,
     "name": "",
     "type": "",
     "x": 384,
     "y": 1408,
     "width": 32,
     "height": 32,
     "rotation": 0,
     "visible": true,
     "properties": []
    },
    {
     "id": 1723,
     "name": "",
     "type": "",
     "x": 704,
     "y": 1408,
     "width": 32,
     "height": 32,
     "rotation": 0,
     "visible": true,
     "properties": []
    },
    {
     "id": 1724,
     "name": "",
     "type": "",
     "x": 736,
     "y": 1408,
     "width": 32,
     "height": 32,
     "rotation": 0,
     "visible": true,
     "properties": []
    },
    {
     "id": 1725,
     "name": "",
     "type": "",
     "x": 0,
     "y": 1440,
     "width": 32,
     "height": 32,
     "rotation": 0,
     "visible": true,
     "properties": []
    },
    {
     "id": 1726,
     "name": "",
     "type": "",
     "x": 32,
     "y": 1440,
     "width": 32,
     "height": 32,
     "rotation": 0,
     "visible": true,
     "properties": []
    },
    {
     "id": 1727,
     "name": "",
     "type": "",
     "x": 64,
     "y": 1440,
     "width": 32,
     "height": 32,
     "rotation": 0,
     "visible": true,
     "properties": []
    },
    {
     "id": 1728,
     "name": "",
     "type": "",
     "x": 96,
     "y": 1440,
     "width": 32,
     "height": 32,
     "rotation": 0,
     "visible": true,
     "properties": []
    },
    {
     "id": 1729,
     "name": "",
     "type": "",
     "x": 128,
     "y": 1440,
     "width": 32,
     "height": 32,
     "rotation": 0,
     "visible": true,
     "properties": []
    },
    {
     "id": 1730,
     "name": "",
     "type": "",
     "x": 160,
     "y": 1440,
     "width": 32,
     "height": 32,
     "rotation": 0,
     "visible": true,
     "properties": []
    },
    {
     "id": 1731,
     "name": "",
     "type": "",
     "x": 384,
     "y": 1440,
     "width": 32,
     "height": 32,
     "rotation": 0,
     "visible": true,
     "properties": []
    },
    {
     "id": 1732,
     "name": "",
     "type": "",
     "x": 416,
     "y": 1440,
     "width": 32,
     "height": 32,
     "rotation": 0,
     "visible": true,
     "properties": []
    },
    {
     "id": 1733,
     "name": "",
     "type": "",
     "x": 448,
     "y": 1440,
     "width": 32,
     "height": 32,
     "rotation": 0,
     "visible": true,
     "properties": []
    },
    {
     "id": 1734,
     "name": "",
     "type": "",
     "x": 704,
     "y": 1440,
     "width": 32,
     "height": 32,
     "rotation": 0,
     "visible": true,
     "properties": []
    },
    {
     "id": 1735,
     "name": "",
     "type": "",
     "x": 736,
     "y": 1440,
     "width": 32,
     "height": 32,
     "rotation": 0,
     "visible": true,
     "properties": []
    },
    {
     "id": 1736,
     "name": "",
     "type": "",
     "x": 0,
     "y": 1472,
     "width": 32,
     "height": 32,
     "rotation": 0,
     "visible": true,
     "properties": []
    },
    {
     "id": 1737,
     "name": "",
     "type": "",
     "x": 32,
     "y": 1472,
     "width": 32,
     "height": 32,
     "rotation": 0,
     "visible": true,
     "properties": []
    },
    {
     "id": 1738,
     "name": "",
     "type": "",
     "x": 64,
     "y": 1472,
     "width": 32,
     "height": 32,
     "rotation": 0,
     "visible": true,
     "properties": []
    },
    {
     "id": 1739,
     "name": "",
     "type": "",
     "x": 96,
     "y": 1472,
     "width": 32,
     "height": 32,
     "rotation": 0,
     "visible": true,
     "properties": []
    },
    {
     "id": 1740,
     "name": "",
     "type": "",
     "x": 128,
     "y": 1472,
     "width": 32,
     "height": 32,
     "rotation": 0,
     "visible": true,
     "properties": []
    },
    {
     "id": 1741,
     "name": "",
     "type": "",
     "x": 160,
     "y": 1472,
     "width": 32,
     "height": 32,
     "rotation": 0,
     "visible": true,
     "properties": []
    },
    {
     "id": 1742,
     "name": "",
     "type": "",
     "x": 384,
     "y": 1472,
     "width": 32,
     "height": 32,
     "rotation": 0,
     "visible": true,
     "properties": []
    },
    {
     "id": 1743,
     "name": "",
     "type": "",
     "x": 416,
     "y": 1472,
     "width": 32,
     "height": 32,
     "rotation": 0,
     "visible": true,
     "properties": []
    },
    {
     "id": 1744,
     "name": "",
     "type": "",
     "x": 448,
     "y": 1472,
     "width": 32,
     "height": 32,
     "rotation": 0,
     "visible": true,
     "properties": []
    },
    {
     "id": 1745,
     "name": "",
     "type": "",
     "x": 704,
     "y": 1472,
     "width": 32,
     "height": 32,
     "rotation": 0,
     "visible": true,
     "properties": []
    },
    {
     "id": 1746,
     "name": "",
     "type": "",
     "x": 736,
     "y": 1472,
     "width": 32,
     "height": 32,
     "rotation": 0,
     "visible": true,
     "properties": []
    },
    {
     "id": 1747,
     "name": "",
     "type": "",
     "x": 0,
     "y": 1504,
     "width": 32,
     "height": 32,
     "rotation": 0,
     "visible": true,
     "properties": []
    },
    {
     "id": 1748,
     "name": "",
     "type": "",
     "x": 32,
     "y": 1504,
     "width": 32,
     "height": 32,
     "rotation": 0,
     "visible": true,
     "properties": []
    },
    {
     "id": 1749,
     "name": "",
     "type": "",
     "x": 64,
     "y": 1504,
     "width": 32,
     "height": 32,
     "rotation": 0,
     "visible": true,
     "properties": []
    },
    {
     "id": 1750,
     "name": "",
     "type": "",
     "x": 96,
     "y": 1504,
     "width": 32,
     "height": 32,
     "rotation": 0,
     "visible": true,
     "properties": []
    },
    {
     "id": 1751,
     "name": "",
     "type": "",
     "x": 128,
     "y": 1504,
     "width": 32,
     "height": 32,
     "rotation": 0,
     "visible": true,
     "properties": []
    },
    {
     "id": 1752,
     "name": "",
     "type": "",
     "x": 160,
     "y": 1504,
     "width": 32,
     "height": 32,
     "rotation": 0,
     "visible": true,
     "properties": []
    },
    {
     "id": 1753,
     "name": "",
     "type": "",
     "x": 192,
     "y": 1504,
     "width": 32,
     "height": 32,
     "rotation": 0,
     "visible": true,
     "properties": []
    },
    {
     "id": 1754,
     "name": "",
     "type": "",
     "x": 224,
     "y": 1504,
     "width": 32,
     "height": 32,
     "rotation": 0,
     "visible": true,
     "properties": []
    },
    {
     "id": 1755,
     "name": "",
     "type": "",
     "x": 256,
     "y": 1504,
     "width": 32,
     "height": 32,
     "rotation": 0,
     "visible": true,
     "properties": []
    },
    {
     "id": 1756,
     "name": "",
     "type": "",
     "x": 704,
     "y": 1504,
     "width": 32,
     "height": 32,
     "rotation": 0,
     "visible": true,
     "properties": []
    },
    {
     "id": 1757,
     "name": "",
     "type": "",
     "x": 736,
     "y": 1504,
     "width": 32,
     "height": 32,
     "rotation": 0,
     "visible": true,
     "properties": []
    },
    {
     "id": 1758,
     "name": "",
     "type": "",
     "x": 0,
     "y": 1536,
     "width": 32,
     "height": 32,
     "rotation": 0,
     "visible": true,
     "properties": []
    },
    {
     "id": 1759,
     "name": "",
     "type": "",
     "x": 32,
     "y": 1536,
     "width": 32,
     "height": 32,
     "rotation": 0,
     "visible": true,
     "properties": []
    },
    {
     "id": 1760,
     "name": "",
     "type": "",
     "x": 64,
     "y": 1536,
     "width": 32,
     "height": 32,
     "rotation": 0,
     "visible": true,
     "properties": []
    },
    {
     "id": 1761,
     "name": "",
     "type": "",
     "x": 96,
     "y": 1536,
     "width": 32,
     "height": 32,
     "rotation": 0,
     "visible": true,
     "properties": []
    },
    {
     "id": 1762,
     "name": "",
     "type": "",
     "x": 128,
     "y": 1536,
     "width": 32,
     "height": 32,
     "rotation": 0,
     "visible": true,
     "properties": []
    },
    {
     "id": 1763,
     "name": "",
     "type": "",
     "x": 160,
     "y": 1536,
     "width": 32,
     "height": 32,
     "rotation": 0,
     "visible": true,
     "properties": []
    },
    {
     "id": 1764,
     "name": "",
     "type": "",
     "x": 192,
     "y": 1536,
     "width": 32,
     "height": 32,
     "rotation": 0,
     "visible": true,
     "properties": []
    },
    {
     "id": 1765,
     "name": "",
     "type": "",
     "x": 224,
     "y": 1536,
     "width": 32,
     "height": 32,
     "rotation": 0,
     "visible": true,
     "properties": []
    },
    {
     "id": 1766,
     "name": "",
     "type": "",
     "x": 256,
     "y": 1536,
     "width": 32,
     "height": 32,
     "rotation": 0,
     "visible": true,
     "properties": []
    },
    {
     "id": 1767,
     "name": "",
     "type": "",
     "x": 704,
     "y": 1536,
     "width": 32,
     "height": 32,
     "rotation": 0,
     "visible": true,
     "properties": []
    },
    {
     "id": 1768,
     "name": "",
     "type": "",
     "x": 736,
     "y": 1536,
     "width": 32,
     "height": 32,
     "rotation": 0,
     "visible": true,
     "properties": []
    },
    {
     "id": 1769,
     "name": "",
     "type": "",
     "x": 0,
     "y": 1568,
     "width": 32,
     "height": 32,
     "rotation": 0,
     "visible": true,
     "properties": []
    },
    {
     "id": 1770,
     "name": "",
     "type": "",
     "x": 32,
     "y": 1568,
     "width": 32,
     "height": 32,
     "rotation": 0,
     "visible": true,
     "properties": []
    },
    {
     "id": 1771,
     "name": "",
     "type": "",
     "x": 64,
     "y": 1568,
     "width": 32,
     "height": 32,
     "rotation": 0,
     "visible": true,
     "properties": []
    },
    {
     "id": 1772,
     "name": "",
     "type": "",
     "x": 96,
     "y": 1568,
     "width": 32,
     "height": 32,
     "rotation": 0,
     "visible": true,
     "properties": []
    },
    {
     "id": 1773,
     "name": "",
     "type": "",
     "x": 128,
     "y": 1568,
     "width": 32,
     "height": 32,
     "rotation": 0,
     "visible": true,
     "properties": []
    },
    {
     "id": 1774,
     "name": "",
     "type": "",
     "x": 160,
     "y": 1568,
     "width": 32,
     "height": 32,
     "rotation": 0,
     "visible": true,
     "properties": []
    },
    {
     "id": 1775,
     "name": "",
     "type": "",
     "x": 192,
     "y": 1568,
     "width": 32,
     "height": 32,
     "rotation": 0,
     "visible": true,
     "properties": []
    },
    {
     "id": 1776,
     "name": "",
     "type": "",
     "x": 224,
     "y": 1568,
     "width": 32,
     "height": 32,
     "rotation": 0,
     "visible": true,
     "properties": []
    },
    {
     "id": 1777,
     "name": "",
     "type": "",
     "x": 256,
     "y": 1568,
     "width": 32,
     "height": 32,
     "rotation": 0,
     "visible": true,
     "properties": []
    },
    {
     "id": 1778,
     "name": "",
     "type": "",
     "x": 704,
     "y": 1568,
     "width": 32,
     "height": 32,
     "rotation": 0,
     "visible": true,
     "properties": []
    },
    {
     "id": 1779,
     "name": "",
     "type": "",
     "x": 736,
     "y": 1568,
     "width": 32,
     "height": 32,
     "rotation": 0,
     "visible": true,
     "properties": []
    },
    {
     "id": 1780,
     "name": "",
     "type": "",
     "x": 0,
     "y": 1600,
     "width": 32,
     "height": 32,
     "rotation": 0,
     "visible": true,
     "properties": []
    },
    {
     "id": 1781,
     "name": "",
     "type": "",
     "x": 32,
     "y": 1600,
     "width": 32,
     "height": 32,
     "rotation": 0,
     "visible": true,
     "properties": []
    },
    {
     "id": 1782,
     "name": "",
     "type": "",
     "x": 64,
     "y": 1600,
     "width": 32,
     "height": 32,
     "rotation": 0,
     "visible": true,
     "properties": []
    },
    {
     "id": 1783,
     "name": "",
     "type": "",
     "x": 96,
     "y": 1600,
     "width": 32,
     "height": 32,
     "rotation": 0,
     "visible": true,
     "properties": []
    },
    {
     "id": 1784,
     "name": "",
     "type": "",
     "x": 128,
     "y": 1600,
     "width": 32,
     "height": 32,
     "rotation": 0,
     "visible": true,
     "properties": []
    },
    {
     "id": 1785,
     "name": "",
     "type": "",
     "x": 160,
     "y": 1600,
     "width": 32,
     "height": 32,
     "rotation": 0,
     "visible": true,
     "properties": []
    },
    {
     "id": 1786,
     "name": "",
     "type": "",
     "x": 192,
     "y": 1600,
     "width": 32,
     "height": 32,
     "rotation": 0,
     "visible": true,
     "properties": []
    },
    {
     "id": 1787,
     "name": "",
     "type": "",
     "x": 224,
     "y": 1600,
     "width": 32,
     "height": 32,
     "rotation": 0,
     "visible": true,
     "properties": []
    },
    {
     "id": 1788,
     "name": "",
     "type": "",
     "x": 256,
     "y": 1600,
     "width": 32,
     "height": 32,
     "rotation": 0,
     "visible": true,
     "properties": []
    },
    {
     "id": 1789,
     "name": "",
     "type": "",
     "x": 704,
     "y": 1600,
     "width": 32,
     "height": 32,
     "rotation": 0,
     "visible": true,
     "properties": []
    },
    {
     "id": 1790,
     "name": "",
     "type": "",
     "x": 736,
     "y": 1600,
     "width": 32,
     "height": 32,
     "rotation": 0,
     "visible": true,
     "properties": []
    },
    {
     "id": 1791,
     "name": "",
     "type": "",
     "x": 0,
     "y": 1632,
     "width": 32,
     "height": 32,
     "rotation": 0,
     "visible": true,
     "properties": []
    },
    {
     "id": 1792,
     "name": "",
     "type": "",
     "x": 32,
     "y": 1632,
     "width": 32,
     "height": 32,
     "rotation": 0,
     "visible": true,
     "properties": []
    },
    {
     "id": 1793,
     "name": "",
     "type": "",
     "x": 64,
     "y": 1632,
     "width": 32,
     "height": 32,
     "rotation": 0,
     "visible": true,
     "properties": []
    },
    {
     "id": 1794,
     "name": "",
     "type": "",
     "x": 96,
     "y": 1632,
     "width": 32,
     "height": 32,
     "rotation": 0,
     "visible": true,
     "properties": []
    },
    {
     "id": 1795,
     "name": "",
     "type": "",
     "x": 128,
     "y": 1632,
     "width": 32,
     "height": 32,
     "rotation": 0,
     "visible": true,
     "properties": []
    },
    {
     "id": 1796,
     "name": "",
     "type": "",
     "x": 160,
     "y": 1632,
     "width": 32,
     "height": 32,
     "rotation": 0,
     "visible": true,
     "properties": []
    },
    {
     "id": 1797,
     "name": "",
     "type": "",
     "x": 192,
     "y": 1632,
     "width": 32,
     "height": 32,
     "rotation": 0,
     "visible": true,
     "properties": []
    },
    {
     "id": 1798,
     "name": "",
     "type": "",
     "x": 224,
     "y": 1632,
     "width": 32,
     "height": 32,
     "rotation": 0,
     "visible": true,
     "properties": []
    },
    {
     "id": 1799,
     "name": "",
     "type": "",
     "x": 256,
     "y": 1632,
     "width": 32,
     "height": 32,
     "rotation": 0,
     "visible": true,
     "properties": []
    },
    {
     "id": 1800,
     "name": "",
     "type": "",
     "x": 704,
     "y": 1632,
     "width": 32,
     "height": 32,
     "rotation": 0,
     "visible": true,
     "properties": []
    },
    {
     "id": 1801,
     "name": "",
     "type": "",
     "x": 736,
     "y": 1632,
     "width": 32,
     "height": 32,
     "rotation": 0,
     "visible": true,
     "properties": []
    },
    {
     "id": 1802,
     "name": "",
     "type": "",
     "x": 0,
     "y": 1664,
     "width": 32,
     "height": 32,
     "rotation": 0,
     "visible": true,
     "properties": []
    },
    {
     "id": 1803,
     "name": "",
     "type": "",
     "x": 32,
     "y": 1664,
     "width": 32,
     "height": 32,
     "rotation": 0,
     "visible": true,
     "properties": []
    },
    {
     "id": 1804,
     "name": "",
     "type": "",
     "x": 64,
     "y": 1664,
     "width": 32,
     "height": 32,
     "rotation": 0,
     "visible": true,
     "properties": []
    },
    {
     "id": 1805,
     "name": "",
     "type": "",
     "x": 160,
     "y": 1664,
     "width": 32,
     "height": 32,
     "rotation": 0,
     "visible": true,
     "properties": []
    },
    {
     "id": 1806,
     "name": "",
     "type": "",
     "x": 256,
     "y": 1664,
     "width": 32,
     "height": 32,
     "rotation": 0,
     "visible": true,
     "properties": []
    },
    {
     "id": 1807,
     "name": "",
     "type": "",
     "x": 480,
     "y": 1664,
     "width": 32,
     "height": 32,
     "rotation": 0,
     "visible": true,
     "properties": []
    },
    {
     "id": 1808,
     "name": "",
     "type": "",
     "x": 512,
     "y": 1664,
     "width": 32,
     "height": 32,
     "rotation": 0,
     "visible": true,
     "properties": []
    },
    {
     "id": 1809,
     "name": "",
     "type": "",
     "x": 544,
     "y": 1664,
     "width": 32,
     "height": 32,
     "rotation": 0,
     "visible": true,
     "properties": []
    },
    {
     "id": 1810,
     "name": "",
     "type": "",
     "x": 576,
     "y": 1664,
     "width": 32,
     "height": 32,
     "rotation": 0,
     "visible": true,
     "properties": []
    },
    {
     "id": 1811,
     "name": "",
     "type": "",
     "x": 608,
     "y": 1664,
     "width": 32,
     "height": 32,
     "rotation": 0,
     "visible": true,
     "properties": []
    },
    {
     "id": 1812,
     "name": "",
     "type": "",
     "x": 640,
     "y": 1664,
     "width": 32,
     "height": 32,
     "rotation": 0,
     "visible": true,
     "properties": []
    },
    {
     "id": 1813,
     "name": "",
     "type": "",
     "x": 672,
     "y": 1664,
     "width": 32,
     "height": 32,
     "rotation": 0,
     "visible": true,
     "properties": []
    },
    {
     "id": 1814,
     "name": "",
     "type": "",
     "x": 704,
     "y": 1664,
     "width": 32,
     "height": 32,
     "rotation": 0,
     "visible": true,
     "properties": []
    },
    {
     "id": 1815,
     "name": "",
     "type": "",
     "x": 736,
     "y": 1664,
     "width": 32,
     "height": 32,
     "rotation": 0,
     "visible": true,
     "properties": []
    },
    {
     "id": 1816,
     "name": "",
     "type": "",
     "x": 0,
     "y": 1696,
     "width": 32,
     "height": 32,
     "rotation": 0,
     "visible": true,
     "properties": []
    },
    {
     "id": 1817,
     "name": "",
     "type": "",
     "x": 32,
     "y": 1696,
     "width": 32,
     "height": 32,
     "rotation": 0,
     "visible": true,
     "properties": []
    },
    {
     "id": 1818,
     "name": "",
     "type": "",
     "x": 480,
     "y": 1696,
     "width": 32,
     "height": 32,
     "rotation": 0,
     "visible": true,
     "properties": []
    },
    {
     "id": 1819,
     "name": "",
     "type": "",
     "x": 512,
     "y": 1696,
     "width": 32,
     "height": 32,
     "rotation": 0,
     "visible": true,
     "properties": []
    },
    {
     "id": 1820,
     "name": "",
     "type": "",
     "x": 544,
     "y": 1696,
     "width": 32,
     "height": 32,
     "rotation": 0,
     "visible": true,
     "properties": []
    },
    {
     "id": 1821,
     "name": "",
     "type": "",
     "x": 576,
     "y": 1696,
     "width": 32,
     "height": 32,
     "rotation": 0,
     "visible": true,
     "properties": []
    },
    {
     "id": 1822,
     "name": "",
     "type": "",
     "x": 608,
     "y": 1696,
     "width": 32,
     "height": 32,
     "rotation": 0,
     "visible": true,
     "properties": []
    },
    {
     "id": 1823,
     "name": "",
     "type": "",
     "x": 640,
     "y": 1696,
     "width": 32,
     "height": 32,
     "rotation": 0,
     "visible": true,
     "properties": []
    },
    {
     "id": 1824,
     "name": "",
     "type": "",
     "x": 672,
     "y": 1696,
     "width": 32,
     "height": 32,
     "rotation": 0,
     "visible": true,
     "properties": []
    },
    {
     "id": 1825,
     "name": "",
     "type": "",
     "x": 704,
     "y": 1696,
     "width": 32,
     "height": 32,
     "rotation": 0,
     "visible": true,
     "properties": []
    },
    {
     "id": 1826,
     "name": "",
     "type": "",
     "x": 736,
     "y": 1696,
     "width": 32,
     "height": 32,
     "rotation": 0,
     "visible": true,
     "properties": []
    },
    {
     "id": 1827,
     "name": "",
     "type": "",
     "x": 0,
     "y": 1728,
     "width": 32,
     "height": 32,
     "rotation": 0,
     "visible": true,
     "properties": []
    },
    {
     "id": 1828,
     "name": "",
     "type": "",
     "x": 32,
     "y": 1728,
     "width": 32,
     "height": 32,
     "rotation": 0,
     "visible": true,
     "properties": []
    },
    {
     "id": 1829,
     "name": "",
     "type": "",
     "x": 480,
     "y": 1728,
     "width": 32,
     "height": 32,
     "rotation": 0,
     "visible": true,
     "properties": []
    },
    {
     "id": 1830,
     "name": "",
     "type": "",
     "x": 512,
     "y": 1728,
     "width": 32,
     "height": 32,
     "rotation": 0,
     "visible": true,
     "properties": []
    },
    {
     "id": 1831,
     "name": "",
     "type": "",
     "x": 544,
     "y": 1728,
     "width": 32,
     "height": 32,
     "rotation": 0,
     "visible": true,
     "properties": []
    },
    {
     "id": 1832,
     "name": "",
     "type": "",
     "x": 576,
     "y": 1728,
     "width": 32,
     "height": 32,
     "rotation": 0,
     "visible": true,
     "properties": []
    },
    {
     "id": 1833,
     "name": "",
     "type": "",
     "x": 608,
     "y": 1728,
     "width": 32,
     "height": 32,
     "rotation": 0,
     "visible": true,
     "properties": []
    },
    {
     "id": 1834,
     "name": "",
     "type": "",
     "x": 640,
     "y": 1728,
     "width": 32,
     "height": 32,
     "rotation": 0,
     "visible": true,
     "properties": []
    },
    {
     "id": 1835,
     "name": "",
     "type": "",
     "x": 672,
     "y": 1728,
     "width": 32,
     "height": 32,
     "rotation": 0,
     "visible": true,
     "properties": []
    },
    {
     "id": 1836,
     "name": "",
     "type": "",
     "x": 704,
     "y": 1728,
     "width": 32,
     "height": 32,
     "rotation": 0,
     "visible": true,
     "properties": []
    },
    {
     "id": 1837,
     "name": "",
     "type": "",
     "x": 736,
     "y": 1728,
     "width": 32,
     "height": 32,
     "rotation": 0,
     "visible": true,
     "properties": []
    },
    {
     "id": 1838,
     "name": "",
     "type": "",
     "x": 0,
     "y": 1760,
     "width": 32,
     "height": 32,
     "rotation": 0,
     "visible": true,
     "properties": []
    },
    {
     "id": 1839,
     "name": "",
     "type": "",
     "x": 32,
     "y": 1760,
     "width": 32,
     "height": 32,
     "rotation": 0,
     "visible": true,
     "properties": []
    },
    {
     "id": 1840,
     "name": "",
     "type": "",
     "x": 64,
     "y": 1760,
     "width": 32,
     "height": 32,
     "rotation": 0,
     "visible": true,
     "properties": []
    },
    {
     "id": 1841,
     "name": "",
     "type": "",
     "x": 96,
     "y": 1760,
     "width": 32,
     "height": 32,
     "rotation": 0,
     "visible": true,
     "properties": []
    },
    {
     "id": 1842,
     "name": "",
     "type": "",
     "x": 128,
     "y": 1760,
     "width": 32,
     "height": 32,
     "rotation": 0,
     "visible": true,
     "properties": []
    },
    {
     "id": 1843,
     "name": "",
     "type": "",
     "x": 160,
     "y": 1760,
     "width": 32,
     "height": 32,
     "rotation": 0,
     "visible": true,
     "properties": []
    },
    {
     "id": 1844,
     "name": "",
     "type": "",
     "x": 192,
     "y": 1760,
     "width": 32,
     "height": 32,
     "rotation": 0,
     "visible": true,
     "properties": []
    },
    {
     "id": 1845,
     "name": "",
     "type": "",
     "x": 224,
     "y": 1760,
     "width": 32,
     "height": 32,
     "rotation": 0,
     "visible": true,
     "properties": []
    },
    {
     "id": 1846,
     "name": "",
     "type": "",
     "x": 256,
     "y": 1760,
     "width": 32,
     "height": 32,
     "rotation": 0,
     "visible": true,
     "properties": []
    },
    {
     "id": 1847,
     "name": "",
     "type": "",
     "x": 288,
     "y": 1760,
     "width": 32,
     "height": 32,
     "rotation": 0,
     "visible": true,
     "properties": []
    },
    {
     "id": 1848,
     "name": "",
     "type": "",
     "x": 320,
     "y": 1760,
     "width": 32,
     "height": 32,
     "rotation": 0,
     "visible": true,
     "properties": []
    },
    {
     "id": 1849,
     "name": "",
     "type": "",
     "x": 352,
     "y": 1760,
     "width": 32,
     "height": 32,
     "rotation": 0,
     "visible": true,
     "properties": []
    },
    {
     "id": 1850,
     "name": "",
     "type": "",
     "x": 480,
     "y": 1760,
     "width": 32,
     "height": 32,
     "rotation": 0,
     "visible": true,
     "properties": []
    },
    {
     "id": 1851,
     "name": "",
     "type": "",
     "x": 512,
     "y": 1760,
     "width": 32,
     "height": 32,
     "rotation": 0,
     "visible": true,
     "properties": []
    },
    {
     "id": 1852,
     "name": "",
     "type": "",
     "x": 544,
     "y": 1760,
     "width": 32,
     "height": 32,
     "rotation": 0,
     "visible": true,
     "properties": []
    },
    {
     "id": 1853,
     "name": "",
     "type": "",
     "x": 576,
     "y": 1760,
     "width": 32,
     "height": 32,
     "rotation": 0,
     "visible": true,
     "properties": []
    },
    {
     "id": 1854,
     "name": "",
     "type": "",
     "x": 608,
     "y": 1760,
     "width": 32,
     "height": 32,
     "rotation": 0,
     "visible": true,
     "properties": []
    },
    {
     "id": 1855,
     "name": "",
     "type": "",
     "x": 640,
     "y": 1760,
     "width": 32,
     "height": 32,
     "rotation": 0,
     "visible": true,
     "properties": []
    },
    {
     "id": 1856,
     "name": "",
     "type": "",
     "x": 672,
     "y": 1760,
     "width": 32,
     "height": 32,
     "rotation": 0,
     "visible": true,
     "properties": []
    },
    {
     "id": 1857,
     "name": "",
     "type": "",
     "x": 704,
     "y": 1760,
     "width": 32,
     "height": 32,
     "rotation": 0,
     "visible": true,
     "properties": []
    },
    {
     "id": 1858,
     "name": "",
     "type": "",
     "x": 736,
     "y": 1760,
     "width": 32,
     "height": 32,
     "rotation": 0,
     "visible": true,
     "properties": []
    },
    {
     "id": 1859,
     "name": "",
     "type": "",
     "x": 0,
     "y": 1792,
     "width": 32,
     "height": 32,
     "rotation": 0,
     "visible": true,
     "properties": []
    },
    {
     "id": 1860,
     "name": "",
     "type": "",
     "x": 32,
     "y": 1792,
     "width": 32,
     "height": 32,
     "rotation": 0,
     "visible": true,
     "properties": []
    },
    {
     "id": 1861,
     "name": "",
     "type": "",
     "x": 64,
     "y": 1792,
     "width": 32,
     "height": 32,
     "rotation": 0,
     "visible": true,
     "properties": []
    },
    {
     "id": 1862,
     "name": "",
     "type": "",
     "x": 96,
     "y": 1792,
     "width": 32,
     "height": 32,
     "rotation": 0,
     "visible": true,
     "properties": []
    },
    {
     "id": 1863,
     "name": "",
     "type": "",
     "x": 128,
     "y": 1792,
     "width": 32,
     "height": 32,
     "rotation": 0,
     "visible": true,
     "properties": []
    },
    {
     "id": 1864,
     "name": "",
     "type": "",
     "x": 160,
     "y": 1792,
     "width": 32,
     "height": 32,
     "rotation": 0,
     "visible": true,
     "properties": []
    },
    {
     "id": 1865,
     "name": "",
     "type": "",
     "x": 192,
     "y": 1792,
     "width": 32,
     "height": 32,
     "rotation": 0,
     "visible": true,
     "properties": []
    },
    {
     "id": 1866,
     "name": "",
     "type": "",
     "x": 224,
     "y": 1792,
     "width": 32,
     "height": 32,
     "rotation": 0,
     "visible": true,
     "properties": []
    },
    {
     "id": 1867,
     "name": "",
     "type": "",
     "x": 256,
     "y": 1792,
     "width": 32,
     "height": 32,
     "rotation": 0,
     "visible": true,
     "properties": []
    },
    {
     "id": 1868,
     "name": "",
     "type": "",
     "x": 288,
     "y": 1792,
     "width": 32,
     "height": 32,
     "rotation": 0,
     "visible": true,
     "properties": []
    },
    {
     "id": 1869,
     "name": "",
     "type": "",
     "x": 320,
     "y": 1792,
     "width": 32,
     "height": 32,
     "rotation": 0,
     "visible": true,
     "properties": []
    },
    {
     "id": 1870,
     "name": "",
     "type": "",
     "x": 352,
     "y": 1792,
     "width": 32,
     "height": 32,
     "rotation": 0,
     "visible": true,
     "properties": []
    },
    {
     "id": 1871,
     "name": "",
     "type": "",
     "x": 480,
     "y": 1792,
     "width": 32,
     "height": 32,
     "rotation": 0,
     "visible": true,
     "properties": []
    },
    {
     "id": 1872,
     "name": "",
     "type": "",
     "x": 512,
     "y": 1792,
     "width": 32,
     "height": 32,
     "rotation": 0,
     "visible": true,
     "properties": []
    },
    {
     "id": 1873,
     "name": "",
     "type": "",
     "x": 544,
     "y": 1792,
     "width": 32,
     "height": 32,
     "rotation": 0,
     "visible": true,
     "properties": []
    },
    {
     "id": 1874,
     "name": "",
     "type": "",
     "x": 576,
     "y": 1792,
     "width": 32,
     "height": 32,
     "rotation": 0,
     "visible": true,
     "properties": []
    },
    {
     "id": 1875,
     "name": "",
     "type": "",
     "x": 608,
     "y": 1792,
     "width": 32,
     "height": 32,
     "rotation": 0,
     "visible": true,
     "properties": []
    },
    {
     "id": 1876,
     "name": "",
     "type": "",
     "x": 640,
     "y": 1792,
     "width": 32,
     "height": 32,
     "rotation": 0,
     "visible": true,
     "properties": []
    },
    {
     "id": 1877,
     "name": "",
     "type": "",
     "x": 672,
     "y": 1792,
     "width": 32,
     "height": 32,
     "rotation": 0,
     "visible": true,
     "properties": []
    },
    {
     "id": 1878,
     "name": "",
     "type": "",
     "x": 704,
     "y": 1792,
     "width": 32,
     "height": 32,
     "rotation": 0,
     "visible": true,
     "properties": []
    },
    {
     "id": 1879,
     "name": "",
     "type": "",
     "x": 736,
     "y": 1792,
     "width": 32,
     "height": 32,
     "rotation": 0,
     "visible": true,
     "properties": []
    },
    {
     "id": 1880,
     "name": "",
     "type": "",
     "x": 0,
     "y": 1824,
     "width": 32,
     "height": 32,
     "rotation": 0,
     "visible": true,
     "properties": []
    },
    {
     "id": 1881,
     "name": "",
     "type": "",
     "x": 32,
     "y": 1824,
     "width": 32,
     "height": 32,
     "rotation": 0,
     "visible": true,
     "properties": []
    },
    {
     "id": 1882,
     "name": "",
     "type": "",
     "x": 64,
     "y": 1824,
     "width": 32,
     "height": 32,
     "rotation": 0,
     "visible": true,
     "properties": []
    },
    {
     "id": 1883,
     "name": "",
     "type": "",
     "x": 96,
     "y": 1824,
     "width": 32,
     "height": 32,
     "rotation": 0,
     "visible": true,
     "properties": []
    },
    {
     "id": 1884,
     "name": "",
     "type": "",
     "x": 128,
     "y": 1824,
     "width": 32,
     "height": 32,
     "rotation": 0,
     "visible": true,
     "properties": []
    },
    {
     "id": 1885,
     "name": "",
     "type": "",
     "x": 160,
     "y": 1824,
     "width": 32,
     "height": 32,
     "rotation": 0,
     "visible": true,
     "properties": []
    },
    {
     "id": 1886,
     "name": "",
     "type": "",
     "x": 192,
     "y": 1824,
     "width": 32,
     "height": 32,
     "rotation": 0,
     "visible": true,
     "properties": []
    },
    {
     "id": 1887,
     "name": "",
     "type": "",
     "x": 224,
     "y": 1824,
     "width": 32,
     "height": 32,
     "rotation": 0,
     "visible": true,
     "properties": []
    },
    {
     "id": 1888,
     "name": "",
     "type": "",
     "x": 256,
     "y": 1824,
     "width": 32,
     "height": 32,
     "rotation": 0,
     "visible": true,
     "properties": []
    },
    {
     "id": 1889,
     "name": "",
     "type": "",
     "x": 288,
     "y": 1824,
     "width": 32,
     "height": 32,
     "rotation": 0,
     "visible": true,
     "properties": []
    },
    {
     "id": 1890,
     "name": "",
     "type": "",
     "x": 320,
     "y": 1824,
     "width": 32,
     "height": 32,
     "rotation": 0,
     "visible": true,
     "properties": []
    },
    {
     "id": 1891,
     "name": "",
     "type": "",
     "x": 352,
     "y": 1824,
     "width": 32,
     "height": 32,
     "rotation": 0,
     "visible": true,
     "properties": []
    },
    {
     "id": 1892,
     "name": "",
     "type": "",
     "x": 480,
     "y": 1824,
     "width": 32,
     "height": 32,
     "rotation": 0,
     "visible": true,
     "properties": []
    },
    {
     "id": 1893,
     "name": "",
     "type": "",
     "x": 512,
     "y": 1824,
     "width": 32,
     "height": 32,
     "rotation": 0,
     "visible": true,
     "properties": []
    },
    {
     "id": 1894,
     "name": "",
     "type": "",
     "x": 544,
     "y": 1824,
     "width": 32,
     "height": 32,
     "rotation": 0,
     "visible": true,
     "properties": []
    },
    {
     "id": 1895,
     "name": "",
     "type": "",
     "x": 576,
     "y": 1824,
     "width": 32,
     "height": 32,
     "rotation": 0,
     "visible": true,
     "properties": []
    },
    {
     "id": 1896,
     "name": "",
     "type": "",
     "x": 608,
     "y": 1824,
     "width": 32,
     "height": 32,
     "rotation": 0,
     "visible": true,
     "properties": []
    },
    {
     "id": 1897,
     "name": "",
     "type": "",
     "x": 640,
     "y": 1824,
     "width": 32,
     "height": 32,
     "rotation": 0,
     "visible": true,
     "properties": []
    },
    {
     "id": 1898,
     "name": "",
     "type": "",
     "x": 672,
     "y": 1824,
     "width": 32,
     "height": 32,
     "rotation": 0,
     "visible": true,
     "properties": []
    },
    {
     "id": 1899,
     "name": "",
     "type": "",
     "x": 704,
     "y": 1824,
     "width": 32,
     "height": 32,
     "rotation": 0,
     "visible": true,
     "properties": []
    },
    {
     "id": 1900,
     "name": "",
     "type": "",
     "x": 736,
     "y": 1824,
     "width": 32,
     "height": 32,
     "rotation": 0,
     "visible": true,
     "properties": []
    },
    {
     "id": 1901,
     "name": "",
     "type": "",
     "x": 0,
     "y": 1856,
     "width": 32,
     "height": 32,
     "rotation": 0,
     "visible": true,
     "properties": []
    },
    {
     "id": 1902,
     "name": "",
     "type": "",
     "x": 32,
     "y": 1856,
     "width": 32,
     "height": 32,
     "rotation": 0,
     "visible": true,
     "properties": []
    },
    {
     "id": 1903,
     "name": "",
     "type": "",
     "x": 64,
     "y": 1856,
     "width": 32,
     "height": 32,
     "rotation": 0,
     "visible": true,
     "properties": []
    },
    {
     "id": 1904,
     "name": "",
     "type": "",
     "x": 96,
     "y": 1856,
     "width": 32,
     "height": 32,
     "rotation": 0,
     "visible": true,
     "properties": []
    },
    {
     "id": 1905,
     "name": "",
     "type": "",
     "x": 128,
     "y": 1856,
     "width": 32,
     "height": 32,
     "rotation": 0,
     "visible": true,
     "properties": []
    },
    {
     "id": 1906,
     "name": "",
     "type": "",
     "x": 160,
     "y": 1856,
     "width": 32,
     "height": 32,
     "rotation": 0,
     "visible": true,
     "properties": []
    },
    {
     "id": 1907,
     "name": "",
     "type": "",
     "x": 192,
     "y": 1856,
     "width": 32,
     "height": 32,
     "rotation": 0,
     "visible": true,
     "properties": []
    },
    {
     "id": 1908,
     "name": "",
     "type": "",
     "x": 224,
     "y": 1856,
     "width": 32,
     "height": 32,
     "rotation": 0,
     "visible": true,
     "properties": []
    },
    {
     "id": 1909,
     "name": "",
     "type": "",
     "x": 256,
     "y": 1856,
     "width": 32,
     "height": 32,
     "rotation": 0,
     "visible": true,
     "properties": []
    },
    {
     "id": 1910,
     "name": "",
     "type": "",
     "x": 288,
     "y": 1856,
     "width": 32,
     "height": 32,
     "rotation": 0,
     "visible": true,
     "properties": []
    },
    {
     "id": 1911,
     "name": "",
     "type": "",
     "x": 320,
     "y": 1856,
     "width": 32,
     "height": 32,
     "rotation": 0,
     "visible": true,
     "properties": []
    },
    {
     "id": 1912,
     "name": "",
     "type": "",
     "x": 352,
     "y": 1856,
     "width": 32,
     "height": 32,
     "rotation": 0,
     "visible": true,
     "properties": []
    },
    {
     "id": 1913,
     "name": "",
     "type": "",
     "x": 480,
     "y": 1856,
     "width": 32,
     "height": 32,
     "rotation": 0,
     "visible": true,
     "properties": []
    },
    {
     "id": 1914,
     "name": "",
     "type": "",
     "x": 512,
     "y": 1856,
     "width": 32,
     "height": 32,
     "rotation": 0,
     "visible": true,
     "properties": []
    },
    {
     "id": 1915,
     "name": "",
     "type": "",
     "x": 544,
     "y": 1856,
     "width": 32,
     "height": 32,
     "rotation": 0,
     "visible": true,
     "properties": []
    },
    {
     "id": 1916,
     "name": "",
     "type": "",
     "x": 576,
     "y": 1856,
     "width": 32,
     "height": 32,
     "rotation": 0,
     "visible": true,
     "properties": []
    },
    {
     "id": 1917,
     "name": "",
     "type": "",
     "x": 608,
     "y": 1856,
     "width": 32,
     "height": 32,
     "rotation": 0,
     "visible": true,
     "properties": []
    },
    {
     "id": 1918,
     "name": "",
     "type": "",
     "x": 640,
     "y": 1856,
     "width": 32,
     "height": 32,
     "rotation": 0,
     "visible": true,
     "properties": []
    },
    {
     "id": 1919,
     "name": "",
     "type": "",
     "x": 672,
     "y": 1856,
     "width": 32,
     "height": 32,
     "rotation": 0,
     "visible": true,
     "properties": []
    },
    {
     "id": 1920,
     "name": "",
     "type": "",
     "x": 704,
     "y": 1856,
     "width": 32,
     "height": 32,
     "rotation": 0,
     "visible": true,
     "properties": []
    },
    {
     "id": 1921,
     "name": "",
     "type": "",
     "x": 736,
     "y": 1856,
     "width": 32,
     "height": 32,
     "rotation": 0,
     "visible": true,
     "properties": []
    },
    {
     "id": 1922,
     "name": "",
     "type": "",
     "x": 0,
     "y": 1888,
     "width": 32,
     "height": 32,
     "rotation": 0,
     "visible": true,
     "properties": []
    },
    {
     "id": 1923,
     "name": "",
     "type": "",
     "x": 32,
     "y": 1888,
     "width": 32,
     "height": 32,
     "rotation": 0,
     "visible": true,
     "properties": []
    },
    {
     "id": 1924,
     "name": "",
     "type": "",
     "x": 64,
     "y": 1888,
     "width": 32,
     "height": 32,
     "rotation": 0,
     "visible": true,
     "properties": []
    },
    {
     "id": 1925,
     "name": "",
     "type": "",
     "x": 96,
     "y": 1888,
     "width": 32,
     "height": 32,
     "rotation": 0,
     "visible": true,
     "properties": []
    },
    {
     "id": 1926,
     "name": "",
     "type": "",
     "x": 128,
     "y": 1888,
     "width": 32,
     "height": 32,
     "rotation": 0,
     "visible": true,
     "properties": []
    },
    {
     "id": 1927,
     "name": "",
     "type": "",
     "x": 160,
     "y": 1888,
     "width": 32,
     "height": 32,
     "rotation": 0,
     "visible": true,
     "properties": []
    },
    {
     "id": 1928,
     "name": "",
     "type": "",
     "x": 192,
     "y": 1888,
     "width": 32,
     "height": 32,
     "rotation": 0,
     "visible": true,
     "properties": []
    },
    {
     "id": 1929,
     "name": "",
     "type": "",
     "x": 224,
     "y": 1888,
     "width": 32,
     "height": 32,
     "rotation": 0,
     "visible": true,
     "properties": []
    },
    {
     "id": 1930,
     "name": "",
     "type": "",
     "x": 256,
     "y": 1888,
     "width": 32,
     "height": 32,
     "rotation": 0,
     "visible": true,
     "properties": []
    },
    {
     "id": 1931,
     "name": "",
     "type": "",
     "x": 288,
     "y": 1888,
     "width": 32,
     "height": 32,
     "rotation": 0,
     "visible": true,
     "properties": []
    },
    {
     "id": 1932,
     "name": "",
     "type": "",
     "x": 320,
     "y": 1888,
     "width": 32,
     "height": 32,
     "rotation": 0,
     "visible": true,
     "properties": []
    },
    {
     "id": 1933,
     "name": "",
     "type": "",
     "x": 352,
     "y": 1888,
     "width": 32,
     "height": 32,
     "rotation": 0,
     "visible": true,
     "properties": []
    },
    {
     "id": 1934,
     "name": "",
     "type": "",
     "x": 480,
     "y": 1888,
     "width": 32,
     "height": 32,
     "rotation": 0,
     "visible": true,
     "properties": []
    },
    {
     "id": 1935,
     "name": "",
     "type": "",
     "x": 512,
     "y": 1888,
     "width": 32,
     "height": 32,
     "rotation": 0,
     "visible": true,
     "properties": []
    },
    {
     "id": 1936,
     "name": "",
     "type": "",
     "x": 544,
     "y": 1888,
     "width": 32,
     "height": 32,
     "rotation": 0,
     "visible": true,
     "properties": []
    },
    {
     "id": 1937,
     "name": "",
     "type": "",
     "x": 576,
     "y": 1888,
     "width": 32,
     "height": 32,
     "rotation": 0,
     "visible": true,
     "properties": []
    },
    {
     "id": 1938,
     "name": "",
     "type": "",
     "x": 608,
     "y": 1888,
     "width": 32,
     "height": 32,
     "rotation": 0,
     "visible": true,
     "properties": []
    },
    {
     "id": 1939,
     "name": "",
     "type": "",
     "x": 640,
     "y": 1888,
     "width": 32,
     "height": 32,
     "rotation": 0,
     "visible": true,
     "properties": []
    },
    {
     "id": 1940,
     "name": "",
     "type": "",
     "x": 672,
     "y": 1888,
     "width": 32,
     "height": 32,
     "rotation": 0,
     "visible": true,
     "properties": []
    },
    {
     "id": 1941,
     "name": "",
     "type": "",
     "x": 704,
     "y": 1888,
     "width": 32,
     "height": 32,
     "rotation": 0,
     "visible": true,
     "properties": []
    },
    {
     "id": 1942,
     "name": "",
     "type": "",
     "x": 736,
     "y": 1888,
     "width": 32,
     "height": 32,
     "rotation": 0,
     "visible": true,
     "properties": []
    },
    {
     "id": 1943,
     "name": "",
     "type": "",
     "x": 0,
     "y": 1920,
     "width": 32,
     "height": 32,
     "rotation": 0,
     "visible": true,
     "properties": []
    },
    {
     "id": 1944,
     "name": "",
     "type": "",
     "x": 32,
     "y": 1920,
     "width": 32,
     "height": 32,
     "rotation": 0,
     "visible": true,
     "properties": []
    },
    {
     "id": 1945,
     "name": "",
     "type": "",
     "x": 64,
     "y": 1920,
     "width": 32,
     "height": 32,
     "rotation": 0,
     "visible": true,
     "properties": []
    },
    {
     "id": 1946,
     "name": "",
     "type": "",
     "x": 96,
     "y": 1920,
     "width": 32,
     "height": 32,
     "rotation": 0,
     "visible": true,
     "properties": []
    },
    {
     "id": 1947,
     "name": "",
     "type": "",
     "x": 128,
     "y": 1920,
     "width": 32,
     "height": 32,
     "rotation": 0,
     "visible": true,
     "properties": []
    },
    {
     "id": 1948,
     "name": "",
     "type": "",
     "x": 160,
     "y": 1920,
     "width": 32,
     "height": 32,
     "rotation": 0,
     "visible": true,
     "properties": []
    },
    {
     "id": 1949,
     "name": "",
     "type": "",
     "x": 192,
     "y": 1920,
     "width": 32,
     "height": 32,
     "rotation": 0,
     "visible": true,
     "properties": []
    },
    {
     "id": 1950,
     "name": "",
     "type": "",
     "x": 224,
     "y": 1920,
     "width": 32,
     "height": 32,
     "rotation": 0,
     "visible": true,
     "properties": []
    },
    {
     "id": 1951,
     "name": "",
     "type": "",
     "x": 256,
     "y": 1920,
     "width": 32,
     "height": 32,
     "rotation": 0,
     "visible": true,
     "properties": []
    },
    {
     "id": 1952,
     "name": "",
     "type": "",
     "x": 288,
     "y": 1920,
     "width": 32,
     "height": 32,
     "rotation": 0,
     "visible": true,
     "properties": []
    },
    {
     "id": 1953,
     "name": "",
     "type": "",
     "x": 320,
     "y": 1920,
     "width": 32,
     "height": 32,
     "rotation": 0,
     "visible": true,
     "properties": []
    },
    {
     "id": 1954,
     "name": "",
     "type": "",
     "x": 352,
     "y": 1920,
     "width": 32,
     "height": 32,
     "rotation": 0,
     "visible": true,
     "properties": []
    },
    {
     "id": 1955,
     "name": "",
     "type": "",
     "x": 480,
     "y": 1920,
     "width": 32,
     "height": 32,
     "rotation": 0,
     "visible": true,
     "properties": []
    },
    {
     "id": 1956,
     "name": "",
     "type": "",
     "x": 512,
     "y": 1920,
     "width": 32,
     "height": 32,
     "rotation": 0,
     "visible": true,
     "properties": []
    },
    {
     "id": 1957,
     "name": "",
     "type": "",
     "x": 544,
     "y": 1920,
     "width": 32,
     "height": 32,
     "rotation": 0,
     "visible": true,
     "properties": []
    },
    {
     "id": 1958,
     "name": "",
     "type": "",
     "x": 576,
     "y": 1920,
     "width": 32,
     "height": 32,
     "rotation": 0,
     "visible": true,
     "properties": []
    },
    {
     "id": 1959,
     "name": "",
     "type": "",
     "x": 608,
     "y": 1920,
     "width": 32,
     "height": 32,
     "rotation": 0,
     "visible": true,
     "properties": []
    },
    {
     "id": 1960,
     "name": "",
     "type": "",
     "x": 640,
     "y": 1920,
     "width": 32,
     "height": 32,
     "rotation": 0,
     "visible": true,
     "properties": []
    },
    {
     "id": 1961,
     "name": "",
     "type": "",
     "x": 672,
     "y": 1920,
     "width": 32,
     "height": 32,
     "rotation": 0,
     "visible": true,
     "properties": []
    },
    {
     "id": 1962,
     "name": "",
     "type": "",
     "x": 704,
     "y": 1920,
     "width": 32,
     "height": 32,
     "rotation": 0,
     "visible": true,
     "properties": []
    },
    {
     "id": 1963,
     "name": "",
     "type": "",
     "x": 736,
     "y": 1920,
     "width": 32,
     "height": 32,
     "rotation": 0,
     "visible": true,
     "properties": []
    },
    {
     "id": 1964,
     "name": "",
     "type": "",
     "x": 0,
     "y": 1952,
     "width": 32,
     "height": 32,
     "rotation": 0,
     "visible": true,
     "properties": []
    },
    {
     "id": 1965,
     "name": "",
     "type": "",
     "x": 32,
     "y": 1952,
     "width": 32,
     "height": 32,
     "rotation": 0,
     "visible": true,
     "properties": []
    },
    {
     "id": 1966,
     "name": "",
     "type": "",
     "x": 64,
     "y": 1952,
     "width": 32,
     "height": 32,
     "rotation": 0,
     "visible": true,
     "properties": []
    },
    {
     "id": 1967,
     "name": "",
     "type": "",
     "x": 96,
     "y": 1952,
     "width": 32,
     "height": 32,
     "rotation": 0,
     "visible": true,
     "properties": []
    },
    {
     "id": 1968,
     "name": "",
     "type": "",
     "x": 128,
     "y": 1952,
     "width": 32,
     "height": 32,
     "rotation": 0,
     "visible": true,
     "properties": []
    },
    {
     "id": 1969,
     "name": "",
     "type": "",
     "x": 160,
     "y": 1952,
     "width": 32,
     "height": 32,
     "rotation": 0,
     "visible": true,
     "properties": []
    },
    {
     "id": 1970,
     "name": "",
     "type": "",
     "x": 192,
     "y": 1952,
     "width": 32,
     "height": 32,
     "rotation": 0,
     "visible": true,
     "properties": []
    },
    {
     "id": 1971,
     "name": "",
     "type": "",
     "x": 224,
     "y": 1952,
     "width": 32,
     "height": 32,
     "rotation": 0,
     "visible": true,
     "properties": []
    },
    {
     "id": 1972,
     "name": "",
     "type": "",
     "x": 256,
     "y": 1952,
     "width": 32,
     "height": 32,
     "rotation": 0,
     "visible": true,
     "properties": []
    },
    {
     "id": 1973,
     "name": "",
     "type": "",
     "x": 352,
     "y": 1952,
     "width": 32,
     "height": 32,
     "rotation": 0,
     "visible": true,
     "properties": []
    },
    {
     "id": 1974,
     "name": "",
     "type": "",
     "x": 480,
     "y": 1952,
     "width": 32,
     "height": 32,
     "rotation": 0,
     "visible": true,
     "properties": []
    },
    {
     "id": 1975,
     "name": "",
     "type": "",
     "x": 576,
     "y": 1952,
     "width": 32,
     "height": 32,
     "rotation": 0,
     "visible": true,
     "properties": []
    },
    {
     "id": 1976,
     "name": "",
     "type": "",
     "x": 608,
     "y": 1952,
     "width": 32,
     "height": 32,
     "rotation": 0,
     "visible": true,
     "properties": []
    },
    {
     "id": 1977,
     "name": "",
     "type": "",
     "x": 640,
     "y": 1952,
     "width": 32,
     "height": 32,
     "rotation": 0,
     "visible": true,
     "properties": []
    },
    {
     "id": 1978,
     "name": "",
     "type": "",
     "x": 672,
     "y": 1952,
     "width": 32,
     "height": 32,
     "rotation": 0,
     "visible": true,
     "properties": []
    },
    {
     "id": 1979,
     "name": "",
     "type": "",
     "x": 704,
     "y": 1952,
     "width": 32,
     "height": 32,
     "rotation": 0,
     "visible": true,
     "properties": []
    },
    {
     "id": 1980,
     "name": "",
     "type": "",
     "x": 736,
     "y": 1952,
     "width": 32,
     "height": 32,
     "rotation": 0,
     "visible": true,
     "properties": []
    },
    {
     "id": 1981,
     "name": "",
     "type": "",
     "x": 0,
     "y": 1984,
     "width": 32,
     "height": 32,
     "rotation": 0,
     "visible": true,
     "properties": []
    },
    {
     "id": 1982,
     "name": "",
     "type": "",
     "x": 32,
     "y": 1984,
     "width": 32,
     "height": 32,
     "rotation": 0,
     "visible": true,
     "properties": []
    },
    {
     "id": 1983,
     "name": "",
     "type": "",
     "x": 64,
     "y": 1984,
     "width": 32,
     "height": 32,
     "rotation": 0,
     "visible": true,
     "properties": []
    },
    {
     "id": 1984,
     "name": "",
     "type": "",
     "x": 96,
     "y": 1984,
     "width": 32,
     "height": 32,
     "rotation": 0,
     "visible": true,
     "properties": []
    },
    {
     "id": 1985,
     "name": "",
     "type": "",
     "x": 128,
     "y": 1984,
     "width": 32,
     "height": 32,
     "rotation": 0,
     "visible": true,
     "properties": []
    },
    {
     "id": 1986,
     "name": "",
     "type": "",
     "x": 160,
     "y": 1984,
     "width": 32,
     "height": 32,
     "rotation": 0,
     "visible": true,
     "properties": []
    },
    {
     "id": 1987,
     "name": "",
     "type": "",
     "x": 192,
     "y": 1984,
     "width": 32,
     "height": 32,
     "rotation": 0,
     "visible": true,
     "properties": []
    },
    {
     "id": 1988,
     "name": "",
     "type": "",
     "x": 224,
     "y": 1984,
     "width": 32,
     "height": 32,
     "rotation": 0,
     "visible": true,
     "properties": []
    },
    {
     "id": 1989,
     "name": "",
     "type": "",
     "x": 608,
     "y": 1984,
     "width": 32,
     "height": 32,
     "rotation": 0,
     "visible": true,
     "properties": []
    },
    {
     "id": 1990,
     "name": "",
     "type": "",
     "x": 640,
     "y": 1984,
     "width": 32,
     "height": 32,
     "rotation": 0,
     "visible": true,
     "properties": []
    },
    {
     "id": 1991,
     "name": "",
     "type": "",
     "x": 672,
     "y": 1984,
     "width": 32,
     "height": 32,
     "rotation": 0,
     "visible": true,
     "properties": []
    },
    {
     "id": 1992,
     "name": "",
     "type": "",
     "x": 704,
     "y": 1984,
     "width": 32,
     "height": 32,
     "rotation": 0,
     "visible": true,
     "properties": []
    },
    {
     "id": 1993,
     "name": "",
     "type": "",
     "x": 736,
     "y": 1984,
     "width": 32,
     "height": 32,
     "rotation": 0,
     "visible": true,
     "properties": []
    },
    {
     "id": 1994,
     "name": "",
     "type": "",
     "x": 0,
     "y": 2016,
     "width": 32,
     "height": 32,
     "rotation": 0,
     "visible": true,
     "properties": []
    },
    {
     "id": 1995,
     "name": "",
     "type": "",
     "x": 32,
     "y": 2016,
     "width": 32,
     "height": 32,
     "rotation": 0,
     "visible": true,
     "properties": []
    },
    {
     "id": 1996,
     "name": "",
     "type": "",
     "x": 64,
     "y": 2016,
     "width": 32,
     "height": 32,
     "rotation": 0,
     "visible": true,
     "properties": []
    },
    {
     "id": 1997,
     "name": "",
     "type": "",
     "x": 96,
     "y": 2016,
     "width": 32,
     "height": 32,
     "rotation": 0,
     "visible": true,
     "properties": []
    },
    {
     "id": 1998,
     "name": "",
     "type": "",
     "x": 128,
     "y": 2016,
     "width": 32,
     "height": 32,
     "rotation": 0,
     "visible": true,
     "properties": []
    },
    {
     "id": 1999,
     "name": "",
     "type": "",
     "x": 160,
     "y": 2016,
     "width": 32,
     "height": 32,
     "rotation": 0,
     "visible": true,
     "properties": []
    },
    {
     "id": 2000,
     "name": "",
     "type": "",
     "x": 192,
     "y": 2016,
     "width": 32,
     "height": 32,
     "rotation": 0,
     "visible": true,
     "properties": []
    },
    {
     "id": 2001,
     "name": "",
     "type": "",
     "x": 224,
     "y": 2016,
     "width": 32,
     "height": 32,
     "rotation": 0,
     "visible": true,
     "properties": []
    },
    {
     "id": 2002,
     "name": "",
     "type": "",
     "x": 608,
     "y": 2016,
     "width": 32,
     "height": 32,
     "rotation": 0,
     "visible": true,
     "properties": []
    },
    {
     "id": 2003,
     "name": "",
     "type": "",
     "x": 640,
     "y": 2016,
     "width": 32,
     "height": 32,
     "rotation": 0,
     "visible": true,
     "properties": []
    },
    {
     "id": 2004,
     "name": "",
     "type": "",
     "x": 672,
     "y": 2016,
     "width": 32,
     "height": 32,
     "rotation": 0,
     "visible": true,
     "properties": []
    },
    {
     "id": 2005,
     "name": "",
     "type": "",
     "x": 704,
     "y": 2016,
     "width": 32,
     "height": 32,
     "rotation": 0,
     "visible": true,
     "properties": []
    },
    {
     "id": 2006,
     "name": "",
     "type": "",
     "x": 736,
     "y": 2016,
     "width": 32,
     "height": 32,
     "rotation": 0,
     "visible": true,
     "properties": []
    },
    {
     "id": 2007,
     "name": "",
     "type": "",
     "x": 0,
     "y": 2048,
     "width": 32,
     "height": 32,
     "rotation": 0,
     "visible": true,
     "properties": []
    },
    {
     "id": 2008,
     "name": "",
     "type": "",
     "x": 32,
     "y": 2048,
     "width": 32,
     "height": 32,
     "rotation": 0,
     "visible": true,
     "properties": []
    },
    {
     "id": 2009,
     "name": "",
     "type": "",
     "x": 64,
     "y": 2048,
     "width": 32,
     "height": 32,
     "rotation": 0,
     "visible": true,
     "properties": []
    },
    {
     "id": 2010,
     "name": "",
     "type": "",
     "x": 96,
     "y": 2048,
     "width": 32,
     "height": 32,
     "rotation": 0,
     "visible": true,
     "properties": []
    },
    {
     "id": 2011,
     "name": "",
     "type": "",
     "x": 128,
     "y": 2048,
     "width": 32,
     "height": 32,
     "rotation": 0,
     "visible": true,
     "properties": []
    },
    {
     "id": 2012,
     "name": "",
     "type": "",
     "x": 160,
     "y": 2048,
     "width": 32,
     "height": 32,
     "rotation": 0,
     "visible": true,
     "properties": []
    },
    {
     "id": 2013,
     "name": "",
     "type": "",
     "x": 192,
     "y": 2048,
     "width": 32,
     "height": 32,
     "rotation": 0,
     "visible": true,
     "properties": []
    },
    {
     "id": 2014,
     "name": "",
     "type": "",
     "x": 224,
     "y": 2048,
     "width": 32,
     "height": 32,
     "rotation": 0,
     "visible": true,
     "properties": []
    },
    {
     "id": 2015,
     "name": "",
     "type": "",
     "x": 352,
     "y": 2048,
     "width": 32,
     "height": 32,
     "rotation": 0,
     "visible": true,
     "properties": []
    },
    {
     "id": 2016,
     "name": "",
     "type": "",
     "x": 384,
     "y": 2048,
     "width": 32,
     "height": 32,
     "rotation": 0,
     "visible": true,
     "properties": []
    },
    {
     "id": 2017,
     "name": "",
     "type": "",
     "x": 608,
     "y": 2048,
     "width": 32,
     "height": 32,
     "rotation": 0,
     "visible": true,
     "properties": []
    },
    {
     "id": 2018,
     "name": "",
     "type": "",
     "x": 640,
     "y": 2048,
     "width": 32,
     "height": 32,
     "rotation": 0,
     "visible": true,
     "properties": []
    },
    {
     "id": 2019,
     "name": "",
     "type": "",
     "x": 672,
     "y": 2048,
     "width": 32,
     "height": 32,
     "rotation": 0,
     "visible": true,
     "properties": []
    },
    {
     "id": 2020,
     "name": "",
     "type": "",
     "x": 704,
     "y": 2048,
     "width": 32,
     "height": 32,
     "rotation": 0,
     "visible": true,
     "properties": []
    },
    {
     "id": 2021,
     "name": "",
     "type": "",
     "x": 736,
     "y": 2048,
     "width": 32,
     "height": 32,
     "rotation": 0,
     "visible": true,
     "properties": []
    },
    {
     "id": 2022,
     "name": "",
     "type": "",
     "x": 0,
     "y": 2080,
     "width": 32,
     "height": 32,
     "rotation": 0,
     "visible": true,
     "properties": []
    },
    {
     "id": 2023,
     "name": "",
     "type": "",
     "x": 32,
     "y": 2080,
     "width": 32,
     "height": 32,
     "rotation": 0,
     "visible": true,
     "properties": []
    },
    {
     "id": 2024,
     "name": "",
     "type": "",
     "x": 64,
     "y": 2080,
     "width": 32,
     "height": 32,
     "rotation": 0,
     "visible": true,
     "properties": []
    },
    {
     "id": 2025,
     "name": "",
     "type": "",
     "x": 96,
     "y": 2080,
     "width": 32,
     "height": 32,
     "rotation": 0,
     "visible": true,
     "properties": []
    },
    {
     "id": 2026,
     "name": "",
     "type": "",
     "x": 128,
     "y": 2080,
     "width": 32,
     "height": 32,
     "rotation": 0,
     "visible": true,
     "properties": []
    },
    {
     "id": 2027,
     "name": "",
     "type": "",
     "x": 160,
     "y": 2080,
     "width": 32,
     "height": 32,
     "rotation": 0,
     "visible": true,
     "properties": []
    },
    {
     "id": 2028,
     "name": "",
     "type": "",
     "x": 192,
     "y": 2080,
     "width": 32,
     "height": 32,
     "rotation": 0,
     "visible": true,
     "properties": []
    },
    {
     "id": 2029,
     "name": "",
     "type": "",
     "x": 224,
     "y": 2080,
     "width": 32,
     "height": 32,
     "rotation": 0,
     "visible": true,
     "properties": []
    },
    {
     "id": 2030,
     "name": "",
     "type": "",
     "x": 352,
     "y": 2080,
     "width": 32,
     "height": 32,
     "rotation": 0,
     "visible": true,
     "properties": []
    },
    {
     "id": 2031,
     "name": "",
     "type": "",
     "x": 384,
     "y": 2080,
     "width": 32,
     "height": 32,
     "rotation": 0,
     "visible": true,
     "properties": []
    },
    {
     "id": 2032,
     "name": "",
     "type": "",
     "x": 608,
     "y": 2080,
     "width": 32,
     "height": 32,
     "rotation": 0,
     "visible": true,
     "properties": []
    },
    {
     "id": 2033,
     "name": "",
     "type": "",
     "x": 640,
     "y": 2080,
     "width": 32,
     "height": 32,
     "rotation": 0,
     "visible": true,
     "properties": []
    },
    {
     "id": 2034,
     "name": "",
     "type": "",
     "x": 672,
     "y": 2080,
     "width": 32,
     "height": 32,
     "rotation": 0,
     "visible": true,
     "properties": []
    },
    {
     "id": 2035,
     "name": "",
     "type": "",
     "x": 704,
     "y": 2080,
     "width": 32,
     "height": 32,
     "rotation": 0,
     "visible": true,
     "properties": []
    },
    {
     "id": 2036,
     "name": "",
     "type": "",
     "x": 736,
     "y": 2080,
     "width": 32,
     "height": 32,
     "rotation": 0,
     "visible": true,
     "properties": []
    },
    {
     "id": 2037,
     "name": "",
     "type": "",
     "x": 0,
     "y": 2112,
     "width": 32,
     "height": 32,
     "rotation": 0,
     "visible": true,
     "properties": []
    },
    {
     "id": 2038,
     "name": "",
     "type": "",
     "x": 32,
     "y": 2112,
     "width": 32,
     "height": 32,
     "rotation": 0,
     "visible": true,
     "properties": []
    },
    {
     "id": 2039,
     "name": "",
     "type": "",
     "x": 64,
     "y": 2112,
     "width": 32,
     "height": 32,
     "rotation": 0,
     "visible": true,
     "properties": []
    },
    {
     "id": 2040,
     "name": "",
     "type": "",
     "x": 96,
     "y": 2112,
     "width": 32,
     "height": 32,
     "rotation": 0,
     "visible": true,
     "properties": []
    },
    {
     "id": 2041,
     "name": "",
     "type": "",
     "x": 128,
     "y": 2112,
     "width": 32,
     "height": 32,
     "rotation": 0,
     "visible": true,
     "properties": []
    },
    {
     "id": 2042,
     "name": "",
     "type": "",
     "x": 160,
     "y": 2112,
     "width": 32,
     "height": 32,
     "rotation": 0,
     "visible": true,
     "properties": []
    },
    {
     "id": 2043,
     "name": "",
     "type": "",
     "x": 192,
     "y": 2112,
     "width": 32,
     "height": 32,
     "rotation": 0,
     "visible": true,
     "properties": []
    },
    {
     "id": 2044,
     "name": "",
     "type": "",
     "x": 224,
     "y": 2112,
     "width": 32,
     "height": 32,
     "rotation": 0,
     "visible": true,
     "properties": []
    },
    {
     "id": 2045,
     "name": "",
     "type": "",
     "x": 256,
     "y": 2112,
     "width": 32,
     "height": 32,
     "rotation": 0,
     "visible": true,
     "properties": []
    },
    {
     "id": 2046,
     "name": "",
     "type": "",
     "x": 384,
     "y": 2112,
     "width": 32,
     "height": 32,
     "rotation": 0,
     "visible": true,
     "properties": []
    },
    {
     "id": 2047,
     "name": "",
     "type": "",
     "x": 608,
     "y": 2112,
     "width": 32,
     "height": 32,
     "rotation": 0,
     "visible": true,
     "properties": []
    },
    {
     "id": 2048,
     "name": "",
     "type": "",
     "x": 640,
     "y": 2112,
     "width": 32,
     "height": 32,
     "rotation": 0,
     "visible": true,
     "properties": []
    },
    {
     "id": 2049,
     "name": "",
     "type": "",
     "x": 672,
     "y": 2112,
     "width": 32,
     "height": 32,
     "rotation": 0,
     "visible": true,
     "properties": []
    },
    {
     "id": 2050,
     "name": "",
     "type": "",
     "x": 704,
     "y": 2112,
     "width": 32,
     "height": 32,
     "rotation": 0,
     "visible": true,
     "properties": []
    },
    {
     "id": 2051,
     "name": "",
     "type": "",
     "x": 736,
     "y": 2112,
     "width": 32,
     "height": 32,
     "rotation": 0,
     "visible": true,
     "properties": []
    },
    {
     "id": 2052,
     "name": "",
     "type": "",
     "x": 0,
     "y": 2144,
     "width": 32,
     "height": 32,
     "rotation": 0,
     "visible": true,
     "properties": []
    },
    {
     "id": 2053,
     "name": "",
     "type": "",
     "x": 32,
     "y": 2144,
     "width": 32,
     "height": 32,
     "rotation": 0,
     "visible": true,
     "properties": []
    },
    {
     "id": 2054,
     "name": "",
     "type": "",
     "x": 64,
     "y": 2144,
     "width": 32,
     "height": 32,
     "rotation": 0,
     "visible": true,
     "properties": []
    },
    {
     "id": 2055,
     "name": "",
     "type": "",
     "x": 96,
     "y": 2144,
     "width": 32,
     "height": 32,
     "rotation": 0,
     "visible": true,
     "properties": []
    },
    {
     "id": 2056,
     "name": "",
     "type": "",
     "x": 128,
     "y": 2144,
     "width": 32,
     "height": 32,
     "rotation": 0,
     "visible": true,
     "properties": []
    },
    {
     "id": 2057,
     "name": "",
     "type": "",
     "x": 160,
     "y": 2144,
     "width": 32,
     "height": 32,
     "rotation": 0,
     "visible": true,
     "properties": []
    },
    {
     "id": 2058,
     "name": "",
     "type": "",
     "x": 192,
     "y": 2144,
     "width": 32,
     "height": 32,
     "rotation": 0,
     "visible": true,
     "properties": []
    },
    {
     "id": 2059,
     "name": "",
     "type": "",
     "x": 224,
     "y": 2144,
     "width": 32,
     "height": 32,
     "rotation": 0,
     "visible": true,
     "properties": []
    },
    {
     "id": 2060,
     "name": "",
     "type": "",
     "x": 256,
     "y": 2144,
     "width": 32,
     "height": 32,
     "rotation": 0,
     "visible": true,
     "properties": []
    },
    {
     "id": 2061,
     "name": "",
     "type": "",
     "x": 384,
     "y": 2144,
     "width": 32,
     "height": 32,
     "rotation": 0,
     "visible": true,
     "properties": []
    },
    {
     "id": 2062,
     "name": "",
     "type": "",
     "x": 608,
     "y": 2144,
     "width": 32,
     "height": 32,
     "rotation": 0,
     "visible": true,
     "properties": []
    },
    {
     "id": 2063,
     "name": "",
     "type": "",
     "x": 640,
     "y": 2144,
     "width": 32,
     "height": 32,
     "rotation": 0,
     "visible": true,
     "properties": []
    },
    {
     "id": 2064,
     "name": "",
     "type": "",
     "x": 672,
     "y": 2144,
     "width": 32,
     "height": 32,
     "rotation": 0,
     "visible": true,
     "properties": []
    },
    {
     "id": 2065,
     "name": "",
     "type": "",
     "x": 704,
     "y": 2144,
     "width": 32,
     "height": 32,
     "rotation": 0,
     "visible": true,
     "properties": []
    },
    {
     "id": 2066,
     "name": "",
     "type": "",
     "x": 736,
     "y": 2144,
     "width": 32,
     "height": 32,
     "rotation": 0,
     "visible": true,
     "properties": []
    },
    {
     "id": 2067,
     "name": "",
     "type": "",
     "x": 0,
     "y": 2176,
     "width": 32,
     "height": 32,
     "rotation": 0,
     "visible": true,
     "properties": []
    },
    {
     "id": 2068,
     "name": "",
     "type": "",
     "x": 32,
     "y": 2176,
     "width": 32,
     "height": 32,
     "rotation": 0,
     "visible": true,
     "properties": []
    },
    {
     "id": 2069,
     "name": "",
     "type": "",
     "x": 64,
     "y": 2176,
     "width": 32,
     "height": 32,
     "rotation": 0,
     "visible": true,
     "properties": []
    },
    {
     "id": 2070,
     "name": "",
     "type": "",
     "x": 96,
     "y": 2176,
     "width": 32,
     "height": 32,
     "rotation": 0,
     "visible": true,
     "properties": []
    },
    {
     "id": 2071,
     "name": "",
     "type": "",
     "x": 128,
     "y": 2176,
     "width": 32,
     "height": 32,
     "rotation": 0,
     "visible": true,
     "properties": []
    },
    {
     "id": 2072,
     "name": "",
     "type": "",
     "x": 160,
     "y": 2176,
     "width": 32,
     "height": 32,
     "rotation": 0,
     "visible": true,
     "properties": []
    },
    {
     "id": 2073,
     "name": "",
     "type": "",
     "x": 192,
     "y": 2176,
     "width": 32,
     "height": 32,
     "rotation": 0,
     "visible": true,
     "properties": []
    },
    {
     "id": 2074,
     "name": "",
     "type": "",
     "x": 224,
     "y": 2176,
     "width": 32,
     "height": 32,
     "rotation": 0,
     "visible": true,
     "properties": []
    },
    {
     "id": 2075,
     "name": "",
     "type": "",
     "x": 256,
     "y": 2176,
     "width": 32,
     "height": 32,
     "rotation": 0,
     "visible": true,
     "properties": []
    },
    {
     "id": 2076,
     "name": "",
     "type": "",
     "x": 384,
     "y": 2176,
     "width": 32,
     "height": 32,
     "rotation": 0,
     "visible": true,
     "properties": []
    },
    {
     "id": 2077,
     "name": "",
     "type": "",
     "x": 480,
     "y": 2176,
     "width": 32,
     "height": 32,
     "rotation": 0,
     "visible": true,
     "properties": []
    },
    {
     "id": 2078,
     "name": "",
     "type": "",
     "x": 512,
     "y": 2176,
     "width": 32,
     "height": 32,
     "rotation": 0,
     "visible": true,
     "properties": []
    },
    {
     "id": 2079,
     "name": "",
     "type": "",
     "x": 608,
     "y": 2176,
     "width": 32,
     "height": 32,
     "rotation": 0,
     "visible": true,
     "properties": []
    },
    {
     "id": 2080,
     "name": "",
     "type": "",
     "x": 640,
     "y": 2176,
     "width": 32,
     "height": 32,
     "rotation": 0,
     "visible": true,
     "properties": []
    },
    {
     "id": 2081,
     "name": "",
     "type": "",
     "x": 672,
     "y": 2176,
     "width": 32,
     "height": 32,
     "rotation": 0,
     "visible": true,
     "properties": []
    },
    {
     "id": 2082,
     "name": "",
     "type": "",
     "x": 704,
     "y": 2176,
     "width": 32,
     "height": 32,
     "rotation": 0,
     "visible": true,
     "properties": []
    },
    {
     "id": 2083,
     "name": "",
     "type": "",
     "x": 736,
     "y": 2176,
     "width": 32,
     "height": 32,
     "rotation": 0,
     "visible": true,
     "properties": []
    },
    {
     "id": 2084,
     "name": "",
     "type": "",
     "x": 0,
     "y": 2208,
     "width": 32,
     "height": 32,
     "rotation": 0,
     "visible": true,
     "properties": []
    },
    {
     "id": 2085,
     "name": "",
     "type": "",
     "x": 32,
     "y": 2208,
     "width": 32,
     "height": 32,
     "rotation": 0,
     "visible": true,
     "properties": []
    },
    {
     "id": 2086,
     "name": "",
     "type": "",
     "x": 64,
     "y": 2208,
     "width": 32,
     "height": 32,
     "rotation": 0,
     "visible": true,
     "properties": []
    },
    {
     "id": 2087,
     "name": "",
     "type": "",
     "x": 96,
     "y": 2208,
     "width": 32,
     "height": 32,
     "rotation": 0,
     "visible": true,
     "properties": []
    },
    {
     "id": 2088,
     "name": "",
     "type": "",
     "x": 128,
     "y": 2208,
     "width": 32,
     "height": 32,
     "rotation": 0,
     "visible": true,
     "properties": []
    },
    {
     "id": 2089,
     "name": "",
     "type": "",
     "x": 160,
     "y": 2208,
     "width": 32,
     "height": 32,
     "rotation": 0,
     "visible": true,
     "properties": []
    },
    {
     "id": 2090,
     "name": "",
     "type": "",
     "x": 192,
     "y": 2208,
     "width": 32,
     "height": 32,
     "rotation": 0,
     "visible": true,
     "properties": []
    },
    {
     "id": 2091,
     "name": "",
     "type": "",
     "x": 224,
     "y": 2208,
     "width": 32,
     "height": 32,
     "rotation": 0,
     "visible": true,
     "properties": []
    },
    {
     "id": 2092,
     "name": "",
     "type": "",
     "x": 256,
     "y": 2208,
     "width": 32,
     "height": 32,
     "rotation": 0,
     "visible": true,
     "properties": []
    },
    {
     "id": 2093,
     "name": "",
     "type": "",
     "x": 384,
     "y": 2208,
     "width": 32,
     "height": 32,
     "rotation": 0,
     "visible": true,
     "properties": []
    },
    {
     "id": 2094,
     "name": "",
     "type": "",
     "x": 480,
     "y": 2208,
     "width": 32,
     "height": 32,
     "rotation": 0,
     "visible": true,
     "properties": []
    },
    {
     "id": 2095,
     "name": "",
     "type": "",
     "x": 512,
     "y": 2208,
     "width": 32,
     "height": 32,
     "rotation": 0,
     "visible": true,
     "properties": []
    },
    {
     "id": 2096,
     "name": "",
     "type": "",
     "x": 608,
     "y": 2208,
     "width": 32,
     "height": 32,
     "rotation": 0,
     "visible": true,
     "properties": []
    },
    {
     "id": 2097,
     "name": "",
     "type": "",
     "x": 640,
     "y": 2208,
     "width": 32,
     "height": 32,
     "rotation": 0,
     "visible": true,
     "properties": []
    },
    {
     "id": 2098,
     "name": "",
     "type": "",
     "x": 672,
     "y": 2208,
     "width": 32,
     "height": 32,
     "rotation": 0,
     "visible": true,
     "properties": []
    },
    {
     "id": 2099,
     "name": "",
     "type": "",
     "x": 704,
     "y": 2208,
     "width": 32,
     "height": 32,
     "rotation": 0,
     "visible": true,
     "properties": []
    },
    {
     "id": 2100,
     "name": "",
     "type": "",
     "x": 736,
     "y": 2208,
     "width": 32,
     "height": 32,
     "rotation": 0,
     "visible": true,
     "properties": []
    },
    {
     "id": 2101,
     "name": "",
     "type": "",
     "x": 0,
     "y": 2240,
     "width": 32,
     "height": 32,
     "rotation": 0,
     "visible": true,
     "properties": []
    },
    {
     "id": 2102,
     "name": "",
     "type": "",
     "x": 32,
     "y": 2240,
     "width": 32,
     "height": 32,
     "rotation": 0,
     "visible": true,
     "properties": []
    },
    {
     "id": 2103,
     "name": "",
     "type": "",
     "x": 64,
     "y": 2240,
     "width": 32,
     "height": 32,
     "rotation": 0,
     "visible": true,
     "properties": []
    },
    {
     "id": 2104,
     "name": "",
     "type": "",
     "x": 96,
     "y": 2240,
     "width": 32,
     "height": 32,
     "rotation": 0,
     "visible": true,
     "properties": []
    },
    {
     "id": 2105,
     "name": "",
     "type": "",
     "x": 128,
     "y": 2240,
     "width": 32,
     "height": 32,
     "rotation": 0,
     "visible": true,
     "properties": []
    },
    {
     "id": 2106,
     "name": "",
     "type": "",
     "x": 160,
     "y": 2240,
     "width": 32,
     "height": 32,
     "rotation": 0,
     "visible": true,
     "properties": []
    },
    {
     "id": 2107,
     "name": "",
     "type": "",
     "x": 192,
     "y": 2240,
     "width": 32,
     "height": 32,
     "rotation": 0,
     "visible": true,
     "properties": []
    },
    {
     "id": 2108,
     "name": "",
     "type": "",
     "x": 224,
     "y": 2240,
     "width": 32,
     "height": 32,
     "rotation": 0,
     "visible": true,
     "properties": []
    },
    {
     "id": 2109,
     "name": "",
     "type": "",
     "x": 352,
     "y": 2240,
     "width": 32,
     "height": 32,
     "rotation": 0,
     "visible": true,
     "properties": []
    },
    {
     "id": 2110,
     "name": "",
     "type": "",
     "x": 384,
     "y": 2240,
     "width": 32,
     "height": 32,
     "rotation": 0,
     "visible": true,
     "properties": []
    },
    {
     "id": 2111,
     "name": "",
     "type": "",
     "x": 512,
     "y": 2240,
     "width": 32,
     "height": 32,
     "rotation": 0,
     "visible": true,
     "properties": []
    },
    {
     "id": 2112,
     "name": "",
     "type": "",
     "x": 608,
     "y": 2240,
     "width": 32,
     "height": 32,
     "rotation": 0,
     "visible": true,
     "properties": []
    },
    {
     "id": 2113,
     "name": "",
     "type": "",
     "x": 640,
     "y": 2240,
     "width": 32,
     "height": 32,
     "rotation": 0,
     "visible": true,
     "properties": []
    },
    {
     "id": 2114,
     "name": "",
     "type": "",
     "x": 672,
     "y": 2240,
     "width": 32,
     "height": 32,
     "rotation": 0,
     "visible": true,
     "properties": []
    },
    {
     "id": 2115,
     "name": "",
     "type": "",
     "x": 704,
     "y": 2240,
     "width": 32,
     "height": 32,
     "rotation": 0,
     "visible": true,
     "properties": []
    },
    {
     "id": 2116,
     "name": "",
     "type": "",
     "x": 736,
     "y": 2240,
     "width": 32,
     "height": 32,
     "rotation": 0,
     "visible": true,
     "properties": []
    },
    {
     "id": 2117,
     "name": "",
     "type": "",
     "x": 0,
     "y": 2272,
     "width": 32,
     "height": 32,
     "rotation": 0,
     "visible": true,
     "properties": []
    },
    {
     "id": 2118,
     "name": "",
     "type": "",
     "x": 32,
     "y": 2272,
     "width": 32,
     "height": 32,
     "rotation": 0,
     "visible": true,
     "properties": []
    },
    {
     "id": 2119,
     "name": "",
     "type": "",
     "x": 64,
     "y": 2272,
     "width": 32,
     "height": 32,
     "rotation": 0,
     "visible": true,
     "properties": []
    },
    {
     "id": 2120,
     "name": "",
     "type": "",
     "x": 96,
     "y": 2272,
     "width": 32,
     "height": 32,
     "rotation": 0,
     "visible": true,
     "properties": []
    },
    {
     "id": 2121,
     "name": "",
     "type": "",
     "x": 128,
     "y": 2272,
     "width": 32,
     "height": 32,
     "rotation": 0,
     "visible": true,
     "properties": []
    },
    {
     "id": 2122,
     "name": "",
     "type": "",
     "x": 160,
     "y": 2272,
     "width": 32,
     "height": 32,
     "rotation": 0,
     "visible": true,
     "properties": []
    },
    {
     "id": 2123,
     "name": "",
     "type": "",
     "x": 192,
     "y": 2272,
     "width": 32,
     "height": 32,
     "rotation": 0,
     "visible": true,
     "properties": []
    },
    {
     "id": 2124,
     "name": "",
     "type": "",
     "x": 224,
     "y": 2272,
     "width": 32,
     "height": 32,
     "rotation": 0,
     "visible": true,
     "properties": []
    },
    {
     "id": 2125,
     "name": "",
     "type": "",
     "x": 352,
     "y": 2272,
     "width": 32,
     "height": 32,
     "rotation": 0,
     "visible": true,
     "properties": []
    },
    {
     "id": 2126,
     "name": "",
     "type": "",
     "x": 384,
     "y": 2272,
     "width": 32,
     "height": 32,
     "rotation": 0,
     "visible": true,
     "properties": []
    },
    {
     "id": 2127,
     "name": "",
     "type": "",
     "x": 512,
     "y": 2272,
     "width": 32,
     "height": 32,
     "rotation": 0,
     "visible": true,
     "properties": []
    },
    {
     "id": 2128,
     "name": "",
     "type": "",
     "x": 608,
     "y": 2272,
     "width": 32,
     "height": 32,
     "rotation": 0,
     "visible": true,
     "properties": []
    },
    {
     "id": 2129,
     "name": "",
     "type": "",
     "x": 640,
     "y": 2272,
     "width": 32,
     "height": 32,
     "rotation": 0,
     "visible": true,
     "properties": []
    },
    {
     "id": 2130,
     "name": "",
     "type": "",
     "x": 672,
     "y": 2272,
     "width": 32,
     "height": 32,
     "rotation": 0,
     "visible": true,
     "properties": []
    },
    {
     "id": 2131,
     "name": "",
     "type": "",
     "x": 704,
     "y": 2272,
     "width": 32,
     "height": 32,
     "rotation": 0,
     "visible": true,
     "properties": []
    },
    {
     "id": 2132,
     "name": "",
     "type": "",
     "x": 736,
     "y": 2272,
     "width": 32,
     "height": 32,
     "rotation": 0,
     "visible": true,
     "properties": []
    },
    {
     "id": 2133,
     "name": "",
     "type": "",
     "x": 0,
     "y": 2304,
     "width": 32,
     "height": 32,
     "rotation": 0,
     "visible": true,
     "properties": []
    },
    {
     "id": 2134,
     "name": "",
     "type": "",
     "x": 32,
     "y": 2304,
     "width": 32,
     "height": 32,
     "rotation": 0,
     "visible": true,
     "properties": []
    },
    {
     "id": 2135,
     "name": "",
     "type": "",
     "x": 64,
     "y": 2304,
     "width": 32,
     "height": 32,
     "rotation": 0,
     "visible": true,
     "properties": []
    },
    {
     "id": 2136,
     "name": "",
     "type": "",
     "x": 96,
     "y": 2304,
     "width": 32,
     "height": 32,
     "rotation": 0,
     "visible": true,
     "properties": []
    },
    {
     "id": 2137,
     "name": "",
     "type": "",
     "x": 128,
     "y": 2304,
     "width": 32,
     "height": 32,
     "rotation": 0,
     "visible": true,
     "properties": []
    },
    {
     "id": 2138,
     "name": "",
     "type": "",
     "x": 160,
     "y": 2304,
     "width": 32,
     "height": 32,
     "rotation": 0,
     "visible": true,
     "properties": []
    },
    {
     "id": 2139,
     "name": "",
     "type": "",
     "x": 192,
     "y": 2304,
     "width": 32,
     "height": 32,
     "rotation": 0,
     "visible": true,
     "properties": []
    },
    {
     "id": 2140,
     "name": "",
     "type": "",
     "x": 224,
     "y": 2304,
     "width": 32,
     "height": 32,
     "rotation": 0,
     "visible": true,
     "properties": []
    },
    {
     "id": 2141,
     "name": "",
     "type": "",
     "x": 480,
     "y": 2304,
     "width": 32,
     "height": 32,
     "rotation": 0,
     "visible": true,
     "properties": []
    },
    {
     "id": 2142,
     "name": "",
     "type": "",
     "x": 608,
     "y": 2304,
     "width": 32,
     "height": 32,
     "rotation": 0,
     "visible": true,
     "properties": []
    },
    {
     "id": 2143,
     "name": "",
     "type": "",
     "x": 640,
     "y": 2304,
     "width": 32,
     "height": 32,
     "rotation": 0,
     "visible": true,
     "properties": []
    },
    {
     "id": 2144,
     "name": "",
     "type": "",
     "x": 672,
     "y": 2304,
     "width": 32,
     "height": 32,
     "rotation": 0,
     "visible": true,
     "properties": []
    },
    {
     "id": 2145,
     "name": "",
     "type": "",
     "x": 704,
     "y": 2304,
     "width": 32,
     "height": 32,
     "rotation": 0,
     "visible": true,
     "properties": []
    },
    {
     "id": 2146,
     "name": "",
     "type": "",
     "x": 736,
     "y": 2304,
     "width": 32,
     "height": 32,
     "rotation": 0,
     "visible": true,
     "properties": []
    },
    {
     "id": 2147,
     "name": "",
     "type": "",
     "x": 0,
     "y": 2336,
     "width": 32,
     "height": 32,
     "rotation": 0,
     "visible": true,
     "properties": []
    },
    {
     "id": 2148,
     "name": "",
     "type": "",
     "x": 32,
     "y": 2336,
     "width": 32,
     "height": 32,
     "rotation": 0,
     "visible": true,
     "properties": []
    },
    {
     "id": 2149,
     "name": "",
     "type": "",
     "x": 64,
     "y": 2336,
     "width": 32,
     "height": 32,
     "rotation": 0,
     "visible": true,
     "properties": []
    },
    {
     "id": 2150,
     "name": "",
     "type": "",
     "x": 96,
     "y": 2336,
     "width": 32,
     "height": 32,
     "rotation": 0,
     "visible": true,
     "properties": []
    },
    {
     "id": 2151,
     "name": "",
     "type": "",
     "x": 128,
     "y": 2336,
     "width": 32,
     "height": 32,
     "rotation": 0,
     "visible": true,
     "properties": []
    },
    {
     "id": 2152,
     "name": "",
     "type": "",
     "x": 160,
     "y": 2336,
     "width": 32,
     "height": 32,
     "rotation": 0,
     "visible": true,
     "properties": []
    },
    {
     "id": 2153,
     "name": "",
     "type": "",
     "x": 192,
     "y": 2336,
     "width": 32,
     "height": 32,
     "rotation": 0,
     "visible": true,
     "properties": []
    },
    {
     "id": 2154,
     "name": "",
     "type": "",
     "x": 224,
     "y": 2336,
     "width": 32,
     "height": 32,
     "rotation": 0,
     "visible": true,
     "properties": []
    },
    {
     "id": 2155,
     "name": "",
     "type": "",
     "x": 256,
     "y": 2336,
     "width": 32,
     "height": 32,
     "rotation": 0,
     "visible": true,
     "properties": []
    },
    {
     "id": 2156,
     "name": "",
     "type": "",
     "x": 480,
     "y": 2336,
     "width": 32,
     "height": 32,
     "rotation": 0,
     "visible": true,
     "properties": []
    },
    {
     "id": 2157,
     "name": "",
     "type": "",
     "x": 608,
     "y": 2336,
     "width": 32,
     "height": 32,
     "rotation": 0,
     "visible": true,
     "properties": []
    },
    {
     "id": 2158,
     "name": "",
     "type": "",
     "x": 672,
     "y": 2336,
     "width": 32,
     "height": 32,
     "rotation": 0,
     "visible": true,
     "properties": []
    },
    {
     "id": 2159,
     "name": "",
     "type": "",
     "x": 704,
     "y": 2336,
     "width": 32,
     "height": 32,
     "rotation": 0,
     "visible": true,
     "properties": []
    },
    {
     "id": 2160,
     "name": "",
     "type": "",
     "x": 736,
     "y": 2336,
     "width": 32,
     "height": 32,
     "rotation": 0,
     "visible": true,
     "properties": []
    },
    {
     "id": 2161,
     "name": "",
     "type": "",
     "x": 0,
     "y": 2368,
     "width": 32,
     "height": 32,
     "rotation": 0,
     "visible": true,
     "properties": []
    },
    {
     "id": 2162,
     "name": "",
     "type": "",
     "x": 32,
     "y": 2368,
     "width": 32,
     "height": 32,
     "rotation": 0,
     "visible": true,
     "properties": []
    },
    {
     "id": 2163,
     "name": "",
     "type": "",
     "x": 64,
     "y": 2368,
     "width": 32,
     "height": 32,
     "rotation": 0,
     "visible": true,
     "properties": []
    },
    {
     "id": 2164,
     "name": "",
     "type": "",
     "x": 96,
     "y": 2368,
     "width": 32,
     "height": 32,
     "rotation": 0,
     "visible": true,
     "properties": []
    },
    {
     "id": 2165,
     "name": "",
     "type": "",
     "x": 128,
     "y": 2368,
     "width": 32,
     "height": 32,
     "rotation": 0,
     "visible": true,
     "properties": []
    },
    {
     "id": 2166,
     "name": "",
     "type": "",
     "x": 160,
     "y": 2368,
     "width": 32,
     "height": 32,
     "rotation": 0,
     "visible": true,
     "properties": []
    },
    {
     "id": 2167,
     "name": "",
     "type": "",
     "x": 192,
     "y": 2368,
     "width": 32,
     "height": 32,
     "rotation": 0,
     "visible": true,
     "properties": []
    },
    {
     "id": 2168,
     "name": "",
     "type": "",
     "x": 224,
     "y": 2368,
     "width": 32,
     "height": 32,
     "rotation": 0,
     "visible": true,
     "properties": []
    },
    {
     "id": 2169,
     "name": "",
     "type": "",
     "x": 256,
     "y": 2368,
     "width": 32,
     "height": 32,
     "rotation": 0,
     "visible": true,
     "properties": []
    },
    {
     "id": 2170,
     "name": "",
     "type": "",
     "x": 288,
     "y": 2368,
     "width": 32,
     "height": 32,
     "rotation": 0,
     "visible": true,
     "properties": []
    },
    {
     "id": 2171,
     "name": "",
     "type": "",
     "x": 704,
     "y": 2368,
     "width": 32,
     "height": 32,
     "rotation": 0,
     "visible": true,
     "properties": []
    },
    {
     "id": 2172,
     "name": "",
     "type": "",
     "x": 736,
     "y": 2368,
     "width": 32,
     "height": 32,
     "rotation": 0,
     "visible": true,
     "properties": []
    },
    {
     "id": 2173,
     "name": "",
     "type": "",
     "x": 0,
     "y": 2400,
     "width": 32,
     "height": 32,
     "rotation": 0,
     "visible": true,
     "properties": []
    },
    {
     "id": 2174,
     "name": "",
     "type": "",
     "x": 32,
     "y": 2400,
     "width": 32,
     "height": 32,
     "rotation": 0,
     "visible": true,
     "properties": []
    },
    {
     "id": 2175,
     "name": "",
     "type": "",
     "x": 64,
     "y": 2400,
     "width": 32,
     "height": 32,
     "rotation": 0,
     "visible": true,
     "properties": []
    },
    {
     "id": 2176,
     "name": "",
     "type": "",
     "x": 96,
     "y": 2400,
     "width": 32,
     "height": 32,
     "rotation": 0,
     "visible": true,
     "properties": []
    },
    {
     "id": 2177,
     "name": "",
     "type": "",
     "x": 128,
     "y": 2400,
     "width": 32,
     "height": 32,
     "rotation": 0,
     "visible": true,
     "properties": []
    },
    {
     "id": 2178,
     "name": "",
     "type": "",
     "x": 160,
     "y": 2400,
     "width": 32,
     "height": 32,
     "rotation": 0,
     "visible": true,
     "properties": []
    },
    {
     "id": 2179,
     "name": "",
     "type": "",
     "x": 192,
     "y": 2400,
     "width": 32,
     "height": 32,
     "rotation": 0,
     "visible": true,
     "properties": []
    },
    {
     "id": 2180,
     "name": "",
     "type": "",
     "x": 224,
     "y": 2400,
     "width": 32,
     "height": 32,
     "rotation": 0,
     "visible": true,
     "properties": []
    },
    {
     "id": 2181,
     "name": "",
     "type": "",
     "x": 256,
     "y": 2400,
     "width": 32,
     "height": 32,
     "rotation": 0,
     "visible": true,
     "properties": []
    },
    {
     "id": 2182,
     "name": "",
     "type": "",
     "x": 288,
     "y": 2400,
     "width": 32,
     "height": 32,
     "rotation": 0,
     "visible": true,
     "properties": []
    },
    {
     "id": 2183,
     "name": "",
     "type": "",
     "x": 704,
     "y": 2400,
     "width": 32,
     "height": 32,
     "rotation": 0,
     "visible": true,
     "properties": []
    },
    {
     "id": 2184,
     "name": "",
     "type": "",
     "x": 736,
     "y": 2400,
     "width": 32,
     "height": 32,
     "rotation": 0,
     "visible": true,
     "properties": []
    },
    {
     "id": 2185,
     "name": "",
     "type": "",
     "x": 0,
     "y": 2432,
     "width": 32,
     "height": 32,
     "rotation": 0,
     "visible": true,
     "properties": []
    },
    {
     "id": 2186,
     "name": "",
     "type": "",
     "x": 32,
     "y": 2432,
     "width": 32,
     "height": 32,
     "rotation": 0,
     "visible": true,
     "properties": []
    },
    {
     "id": 2187,
     "name": "",
     "type": "",
     "x": 64,
     "y": 2432,
     "width": 32,
     "height": 32,
     "rotation": 0,
     "visible": true,
     "properties": []
    },
    {
     "id": 2188,
     "name": "",
     "type": "",
     "x": 96,
     "y": 2432,
     "width": 32,
     "height": 32,
     "rotation": 0,
     "visible": true,
     "properties": []
    },
    {
     "id": 2189,
     "name": "",
     "type": "",
     "x": 128,
     "y": 2432,
     "width": 32,
     "height": 32,
     "rotation": 0,
     "visible": true,
     "properties": []
    },
    {
     "id": 2190,
     "name": "",
     "type": "",
     "x": 160,
     "y": 2432,
     "width": 32,
     "height": 32,
     "rotation": 0,
     "visible": true,
     "properties": []
    },
    {
     "id": 2191,
     "name": "",
     "type": "",
     "x": 192,
     "y": 2432,
     "width": 32,
     "height": 32,
     "rotation": 0,
     "visible": true,
     "properties": []
    },
    {
     "id": 2192,
     "name": "",
     "type": "",
     "x": 224,
     "y": 2432,
     "width": 32,
     "height": 32,
     "rotation": 0,
     "visible": true,
     "properties": []
    },
    {
     "id": 2193,
     "name": "",
     "type": "",
     "x": 256,
     "y": 2432,
     "width": 32,
     "height": 32,
     "rotation": 0,
     "visible": true,
     "properties": []
    },
    {
     "id": 2194,
     "name": "",
     "type": "",
     "x": 288,
     "y": 2432,
     "width": 32,
     "height": 32,
     "rotation": 0,
     "visible": true,
     "properties": []
    },
    {
     "id": 2195,
     "name": "",
     "type": "",
     "x": 704,
     "y": 2432,
     "width": 32,
     "height": 32,
     "rotation": 0,
     "visible": true,
     "properties": []
    },
    {
     "id": 2196,
     "name": "",
     "type": "",
     "x": 736,
     "y": 2432,
     "width": 32,
     "height": 32,
     "rotation": 0,
     "visible": true,
     "properties": []
    },
    {
     "id": 2197,
     "name": "",
     "type": "",
     "x": 0,
     "y": 2464,
     "width": 32,
     "height": 32,
     "rotation": 0,
     "visible": true,
     "properties": []
    },
    {
     "id": 2198,
     "name": "",
     "type": "",
     "x": 32,
     "y": 2464,
     "width": 32,
     "height": 32,
     "rotation": 0,
     "visible": true,
     "properties": []
    },
    {
     "id": 2199,
     "name": "",
     "type": "",
     "x": 64,
     "y": 2464,
     "width": 32,
     "height": 32,
     "rotation": 0,
     "visible": true,
     "properties": []
    },
    {
     "id": 2200,
     "name": "",
     "type": "",
     "x": 96,
     "y": 2464,
     "width": 32,
     "height": 32,
     "rotation": 0,
     "visible": true,
     "properties": []
    },
    {
     "id": 2201,
     "name": "",
     "type": "",
     "x": 128,
     "y": 2464,
     "width": 32,
     "height": 32,
     "rotation": 0,
     "visible": true,
     "properties": []
    },
    {
     "id": 2202,
     "name": "",
     "type": "",
     "x": 160,
     "y": 2464,
     "width": 32,
     "height": 32,
     "rotation": 0,
     "visible": true,
     "properties": []
    },
    {
     "id": 2203,
     "name": "",
     "type": "",
     "x": 192,
     "y": 2464,
     "width": 32,
     "height": 32,
     "rotation": 0,
     "visible": true,
     "properties": []
    },
    {
     "id": 2204,
     "name": "",
     "type": "",
     "x": 224,
     "y": 2464,
     "width": 32,
     "height": 32,
     "rotation": 0,
     "visible": true,
     "properties": []
    },
    {
     "id": 2205,
     "name": "",
     "type": "",
     "x": 704,
     "y": 2464,
     "width": 32,
     "height": 32,
     "rotation": 0,
     "visible": true,
     "properties": []
    },
    {
     "id": 2206,
     "name": "",
     "type": "",
     "x": 736,
     "y": 2464,
     "width": 32,
     "height": 32,
     "rotation": 0,
     "visible": true,
     "properties": []
    },
    {
     "id": 2207,
     "name": "",
     "type": "",
     "x": 0,
     "y": 2496,
     "width": 32,
     "height": 32,
     "rotation": 0,
     "visible": true,
     "properties": []
    },
    {
     "id": 2208,
     "name": "",
     "type": "",
     "x": 32,
     "y": 2496,
     "width": 32,
     "height": 32,
     "rotation": 0,
     "visible": true,
     "properties": []
    },
    {
     "id": 2209,
     "name": "",
     "type": "",
     "x": 64,
     "y": 2496,
     "width": 32,
     "height": 32,
     "rotation": 0,
     "visible": true,
     "properties": []
    },
    {
     "id": 2210,
     "name": "",
     "type": "",
     "x": 96,
     "y": 2496,
     "width": 32,
     "height": 32,
     "rotation": 0,
     "visible": true,
     "properties": []
    },
    {
     "id": 2211,
     "name": "",
     "type": "",
     "x": 128,
     "y": 2496,
     "width": 32,
     "height": 32,
     "rotation": 0,
     "visible": true,
     "properties": []
    },
    {
     "id": 2212,
     "name": "",
     "type": "",
     "x": 160,
     "y": 2496,
     "width": 32,
     "height": 32,
     "rotation": 0,
     "visible": true,
     "properties": []
    },
    {
     "id": 2213,
     "name": "",
     "type": "",
     "x": 192,
     "y": 2496,
     "width": 32,
     "height": 32,
     "rotation": 0,
     "visible": true,
     "properties": []
    },
    {
     "id": 2214,
     "name": "",
     "type": "",
     "x": 224,
     "y": 2496,
     "width": 32,
     "height": 32,
     "rotation": 0,
     "visible": true,
     "properties": []
    },
    {
     "id": 2215,
     "name": "",
     "type": "",
     "x": 704,
     "y": 2496,
     "width": 32,
     "height": 32,
     "rotation": 0,
     "visible": true,
     "properties": []
    },
    {
     "id": 2216,
     "name": "",
     "type": "",
     "x": 736,
     "y": 2496,
     "width": 32,
     "height": 32,
     "rotation": 0,
     "visible": true,
     "properties": []
    },
    {
     "id": 2217,
     "name": "",
     "type": "",
     "x": 0,
     "y": 2528,
     "width": 32,
     "height": 32,
     "rotation": 0,
     "visible": true,
     "properties": []
    },
    {
     "id": 2218,
     "name": "",
     "type": "",
     "x": 32,
     "y": 2528,
     "width": 32,
     "height": 32,
     "rotation": 0,
     "visible": true,
     "properties": []
    },
    {
     "id": 2219,
     "name": "",
     "type": "",
     "x": 64,
     "y": 2528,
     "width": 32,
     "height": 32,
     "rotation": 0,
     "visible": true,
     "properties": []
    },
    {
     "id": 2220,
     "name": "",
     "type": "",
     "x": 96,
     "y": 2528,
     "width": 32,
     "height": 32,
     "rotation": 0,
     "visible": true,
     "properties": []
    },
    {
     "id": 2221,
     "name": "",
     "type": "",
     "x": 128,
     "y": 2528,
     "width": 32,
     "height": 32,
     "rotation": 0,
     "visible": true,
     "properties": []
    },
    {
     "id": 2222,
     "name": "",
     "type": "",
     "x": 160,
     "y": 2528,
     "width": 32,
     "height": 32,
     "rotation": 0,
     "visible": true,
     "properties": []
    },
    {
     "id": 2223,
     "name": "",
     "type": "",
     "x": 192,
     "y": 2528,
     "width": 32,
     "height": 32,
     "rotation": 0,
     "visible": true,
     "properties": []
    },
    {
     "id": 2224,
     "name": "",
     "type": "",
     "x": 224,
     "y": 2528,
     "width": 32,
     "height": 32,
     "rotation": 0,
     "visible": true,
     "properties": []
    },
    {
     "id": 2225,
     "name": "",
     "type": "",
     "x": 512,
     "y": 2528,
     "width": 32,
     "height": 32,
     "rotation": 0,
     "visible": true,
     "properties": []
    },
    {
     "id": 2226,
     "name": "",
     "type": "",
     "x": 544,
     "y": 2528,
     "width": 32,
     "height": 32,
     "rotation": 0,
     "visible": true,
     "properties": []
    },
    {
     "id": 2227,
     "name": "",
     "type": "",
     "x": 576,
     "y": 2528,
     "width": 32,
     "height": 32,
     "rotation": 0,
     "visible": true,
     "properties": []
    },
    {
     "id": 2228,
     "name": "",
     "type": "",
     "x": 608,
     "y": 2528,
     "width": 32,
     "height": 32,
     "rotation": 0,
     "visible": true,
     "properties": []
    },
    {
     "id": 2229,
     "name": "",
     "type": "",
     "x": 640,
     "y": 2528,
     "width": 32,
     "height": 32,
     "rotation": 0,
     "visible": true,
     "properties": []
    },
    {
     "id": 2230,
     "name": "",
     "type": "",
     "x": 672,
     "y": 2528,
     "width": 32,
     "height": 32,
     "rotation": 0,
     "visible": true,
     "properties": []
    },
    {
     "id": 2231,
     "name": "",
     "type": "",
     "x": 704,
     "y": 2528,
     "width": 32,
     "height": 32,
     "rotation": 0,
     "visible": true,
     "properties": []
    },
    {
     "id": 2232,
     "name": "",
     "type": "",
     "x": 736,
     "y": 2528,
     "width": 32,
     "height": 32,
     "rotation": 0,
     "visible": true,
     "properties": []
    },
    {
     "id": 2233,
     "name": "",
     "type": "",
     "x": 0,
     "y": 2560,
     "width": 32,
     "height": 32,
     "rotation": 0,
     "visible": true,
     "properties": []
    },
    {
     "id": 2234,
     "name": "",
     "type": "",
     "x": 32,
     "y": 2560,
     "width": 32,
     "height": 32,
     "rotation": 0,
     "visible": true,
     "properties": []
    },
    {
     "id": 2235,
     "name": "",
     "type": "",
     "x": 64,
     "y": 2560,
     "width": 32,
     "height": 32,
     "rotation": 0,
     "visible": true,
     "properties": []
    },
    {
     "id": 2236,
     "name": "",
     "type": "",
     "x": 96,
     "y": 2560,
     "width": 32,
     "height": 32,
     "rotation": 0,
     "visible": true,
     "properties": []
    },
    {
     "id": 2237,
     "name": "",
     "type": "",
     "x": 128,
     "y": 2560,
     "width": 32,
     "height": 32,
     "rotation": 0,
     "visible": true,
     "properties": []
    },
    {
     "id": 2238,
     "name": "",
     "type": "",
     "x": 160,
     "y": 2560,
     "width": 32,
     "height": 32,
     "rotation": 0,
     "visible": true,
     "properties": []
    },
    {
     "id": 2239,
     "name": "",
     "type": "",
     "x": 192,
     "y": 2560,
     "width": 32,
     "height": 32,
     "rotation": 0,
     "visible": true,
     "properties": []
    },
    {
     "id": 2240,
     "name": "",
     "type": "",
     "x": 224,
     "y": 2560,
     "width": 32,
     "height": 32,
     "rotation": 0,
     "visible": true,
     "properties": []
    },
    {
     "id": 2241,
     "name": "",
     "type": "",
     "x": 512,
     "y": 2560,
     "width": 32,
     "height": 32,
     "rotation": 0,
     "visible": true,
     "properties": []
    },
    {
     "id": 2242,
     "name": "",
     "type": "",
     "x": 544,
     "y": 2560,
     "width": 32,
     "height": 32,
     "rotation": 0,
     "visible": true,
     "properties": []
    },
    {
     "id": 2243,
     "name": "",
     "type": "",
     "x": 576,
     "y": 2560,
     "width": 32,
     "height": 32,
     "rotation": 0,
     "visible": true,
     "properties": []
    },
    {
     "id": 2244,
     "name": "",
     "type": "",
     "x": 608,
     "y": 2560,
     "width": 32,
     "height": 32,
     "rotation": 0,
     "visible": true,
     "properties": []
    },
    {
     "id": 2245,
     "name": "",
     "type": "",
     "x": 640,
     "y": 2560,
     "width": 32,
     "height": 32,
     "rotation": 0,
     "visible": true,
     "properties": []
    },
    {
     "id": 2246,
     "name": "",
     "type": "",
     "x": 672,
     "y": 2560,
     "width": 32,
     "height": 32,
     "rotation": 0,
     "visible": true,
     "properties": []
    },
    {
     "id": 2247,
     "name": "",
     "type": "",
     "x": 704,
     "y": 2560,
     "width": 32,
     "height": 32,
     "rotation": 0,
     "visible": true,
     "properties": []
    },
    {
     "id": 2248,
     "name": "",
     "type": "",
     "x": 736,
     "y": 2560,
     "width": 32,
     "height": 32,
     "rotation": 0,
     "visible": true,
     "properties": []
    },
    {
     "id": 2249,
     "name": "",
     "type": "",
     "x": 0,
     "y": 2592,
     "width": 32,
     "height": 32,
     "rotation": 0,
     "visible": true,
     "properties": []
    },
    {
     "id": 2250,
     "name": "",
     "type": "",
     "x": 32,
     "y": 2592,
     "width": 32,
     "height": 32,
     "rotation": 0,
     "visible": true,
     "properties": []
    },
    {
     "id": 2251,
     "name": "",
     "type": "",
     "x": 64,
     "y": 2592,
     "width": 32,
     "height": 32,
     "rotation": 0,
     "visible": true,
     "properties": []
    },
    {
     "id": 2252,
     "name": "",
     "type": "",
     "x": 96,
     "y": 2592,
     "width": 32,
     "height": 32,
     "rotation": 0,
     "visible": true,
     "properties": []
    },
    {
     "id": 2253,
     "name": "",
     "type": "",
     "x": 128,
     "y": 2592,
     "width": 32,
     "height": 32,
     "rotation": 0,
     "visible": true,
     "properties": []
    },
    {
     "id": 2254,
     "name": "",
     "type": "",
     "x": 160,
     "y": 2592,
     "width": 32,
     "height": 32,
     "rotation": 0,
     "visible": true,
     "properties": []
    },
    {
     "id": 2255,
     "name": "",
     "type": "",
     "x": 192,
     "y": 2592,
     "width": 32,
     "height": 32,
     "rotation": 0,
     "visible": true,
     "properties": []
    },
    {
     "id": 2256,
     "name": "",
     "type": "",
     "x": 224,
     "y": 2592,
     "width": 32,
     "height": 32,
     "rotation": 0,
     "visible": true,
     "properties": []
    },
    {
     "id": 2257,
     "name": "",
     "type": "",
     "x": 512,
     "y": 2592,
     "width": 32,
     "height": 32,
     "rotation": 0,
     "visible": true,
     "properties": []
    },
    {
     "id": 2258,
     "name": "",
     "type": "",
     "x": 544,
     "y": 2592,
     "width": 32,
     "height": 32,
     "rotation": 0,
     "visible": true,
     "properties": []
    },
    {
     "id": 2259,
     "name": "",
     "type": "",
     "x": 576,
     "y": 2592,
     "width": 32,
     "height": 32,
     "rotation": 0,
     "visible": true,
     "properties": []
    },
    {
     "id": 2260,
     "name": "",
     "type": "",
     "x": 608,
     "y": 2592,
     "width": 32,
     "height": 32,
     "rotation": 0,
     "visible": true,
     "properties": []
    },
    {
     "id": 2261,
     "name": "",
     "type": "",
     "x": 640,
     "y": 2592,
     "width": 32,
     "height": 32,
     "rotation": 0,
     "visible": true,
     "properties": []
    },
    {
     "id": 2262,
     "name": "",
     "type": "",
     "x": 672,
     "y": 2592,
     "width": 32,
     "height": 32,
     "rotation": 0,
     "visible": true,
     "properties": []
    },
    {
     "id": 2263,
     "name": "",
     "type": "",
     "x": 704,
     "y": 2592,
     "width": 32,
     "height": 32,
     "rotation": 0,
     "visible": true,
     "properties": []
    },
    {
     "id": 2264,
     "name": "",
     "type": "",
     "x": 736,
     "y": 2592,
     "width": 32,
     "height": 32,
     "rotation": 0,
     "visible": true,
     "properties": []
    },
    {
     "id": 2265,
     "name": "",
     "type": "",
     "x": 0,
     "y": 2624,
     "width": 32,
     "height": 32,
     "rotation": 0,
     "visible": true,
     "properties": []
    },
    {
     "id": 2266,
     "name": "",
     "type": "",
     "x": 32,
     "y": 2624,
     "width": 32,
     "height": 32,
     "rotation": 0,
     "visible": true,
     "properties": []
    },
    {
     "id": 2267,
     "name": "",
     "type": "",
     "x": 64,
     "y": 2624,
     "width": 32,
     "height": 32,
     "rotation": 0,
     "visible": true,
     "properties": []
    },
    {
     "id": 2268,
     "name": "",
     "type": "",
     "x": 96,
     "y": 2624,
     "width": 32,
     "height": 32,
     "rotation": 0,
     "visible": true,
     "properties": []
    },
    {
     "id": 2269,
     "name": "",
     "type": "",
     "x": 128,
     "y": 2624,
     "width": 32,
     "height": 32,
     "rotation": 0,
     "visible": true,
     "properties": []
    },
    {
     "id": 2270,
     "name": "",
     "type": "",
     "x": 160,
     "y": 2624,
     "width": 32,
     "height": 32,
     "rotation": 0,
     "visible": true,
     "properties": []
    },
    {
     "id": 2271,
     "name": "",
     "type": "",
     "x": 192,
     "y": 2624,
     "width": 32,
     "height": 32,
     "rotation": 0,
     "visible": true,
     "properties": []
    },
    {
     "id": 2272,
     "name": "",
     "type": "",
     "x": 224,
     "y": 2624,
     "width": 32,
     "height": 32,
     "rotation": 0,
     "visible": true,
     "properties": []
    },
    {
     "id": 2273,
     "name": "",
     "type": "",
     "x": 512,
     "y": 2624,
     "width": 32,
     "height": 32,
     "rotation": 0,
     "visible": true,
     "properties": []
    },
    {
     "id": 2274,
     "name": "",
     "type": "",
     "x": 544,
     "y": 2624,
     "width": 32,
     "height": 32,
     "rotation": 0,
     "visible": true,
     "properties": []
    },
    {
     "id": 2275,
     "name": "",
     "type": "",
     "x": 576,
     "y": 2624,
     "width": 32,
     "height": 32,
     "rotation": 0,
     "visible": true,
     "properties": []
    },
    {
     "id": 2276,
     "name": "",
     "type": "",
     "x": 608,
     "y": 2624,
     "width": 32,
     "height": 32,
     "rotation": 0,
     "visible": true,
     "properties": []
    },
    {
     "id": 2277,
     "name": "",
     "type": "",
     "x": 640,
     "y": 2624,
     "width": 32,
     "height": 32,
     "rotation": 0,
     "visible": true,
     "properties": []
    },
    {
     "id": 2278,
     "name": "",
     "type": "",
     "x": 672,
     "y": 2624,
     "width": 32,
     "height": 32,
     "rotation": 0,
     "visible": true,
     "properties": []
    },
    {
     "id": 2279,
     "name": "",
     "type": "",
     "x": 704,
     "y": 2624,
     "width": 32,
     "height": 32,
     "rotation": 0,
     "visible": true,
     "properties": []
    },
    {
     "id": 2280,
     "name": "",
     "type": "",
     "x": 736,
     "y": 2624,
     "width": 32,
     "height": 32,
     "rotation": 0,
     "visible": true,
     "properties": []
    },
    {
     "id": 2281,
     "name": "",
     "type": "",
     "x": 0,
     "y": 2656,
     "width": 32,
     "height": 32,
     "rotation": 0,
     "visible": true,
     "properties": []
    },
    {
     "id": 2282,
     "name": "",
     "type": "",
     "x": 32,
     "y": 2656,
     "width": 32,
     "height": 32,
     "rotation": 0,
     "visible": true,
     "properties": []
    },
    {
     "id": 2283,
     "name": "",
     "type": "",
     "x": 704,
     "y": 2656,
     "width": 32,
     "height": 32,
     "rotation": 0,
     "visible": true,
     "properties": []
    },
    {
     "id": 2284,
     "name": "",
     "type": "",
     "x": 736,
     "y": 2656,
     "width": 32,
     "height": 32,
     "rotation": 0,
     "visible": true,
     "properties": []
    },
    {
     "id": 2285,
     "name": "",
     "type": "",
     "x": 0,
     "y": 2688,
     "width": 32,
     "height": 32,
     "rotation": 0,
     "visible": true,
     "properties": []
    },
    {
     "id": 2286,
     "name": "",
     "type": "",
     "x": 32,
     "y": 2688,
     "width": 32,
     "height": 32,
     "rotation": 0,
     "visible": true,
     "properties": []
    },
    {
     "id": 2287,
     "name": "",
     "type": "",
     "x": 704,
     "y": 2688,
     "width": 32,
     "height": 32,
     "rotation": 0,
     "visible": true,
     "properties": []
    },
    {
     "id": 2288,
     "name": "",
     "type": "",
     "x": 736,
     "y": 2688,
     "width": 32,
     "height": 32,
     "rotation": 0,
     "visible": true,
     "properties": []
    },
    {
     "id": 2289,
     "name": "",
     "type": "",
     "x": 0,
     "y": 2720,
     "width": 32,
     "height": 32,
     "rotation": 0,
     "visible": true,
     "properties": []
    },
    {
     "id": 2290,
     "name": "",
     "type": "",
     "x": 32,
     "y": 2720,
     "width": 32,
     "height": 32,
     "rotation": 0,
     "visible": true,
     "properties": []
    },
    {
     "id": 2291,
     "name": "",
     "type": "",
     "x": 704,
     "y": 2720,
     "width": 32,
     "height": 32,
     "rotation": 0,
     "visible": true,
     "properties": []
    },
    {
     "id": 2292,
     "name": "",
     "type": "",
     "x": 736,
     "y": 2720,
     "width": 32,
     "height": 32,
     "rotation": 0,
     "visible": true,
     "properties": []
    },
    {
     "id": 2293,
     "name": "",
     "type": "",
     "x": 0,
     "y": 2752,
     "width": 32,
     "height": 32,
     "rotation": 0,
     "visible": true,
     "properties": []
    },
    {
     "id": 2294,
     "name": "",
     "type": "",
     "x": 32,
     "y": 2752,
     "width": 32,
     "height": 32,
     "rotation": 0,
     "visible": true,
     "properties": []
    },
    {
     "id": 2295,
     "name": "",
     "type": "",
     "x": 704,
     "y": 2752,
     "width": 32,
     "height": 32,
     "rotation": 0,
     "visible": true,
     "properties": []
    },
    {
     "id": 2296,
     "name": "",
     "type": "",
     "x": 736,
     "y": 2752,
     "width": 32,
     "height": 32,
     "rotation": 0,
     "visible": true,
     "properties": []
    },
    {
     "id": 2297,
     "name": "",
     "type": "",
     "x": 0,
     "y": 2784,
     "width": 32,
     "height": 32,
     "rotation": 0,
     "visible": true,
     "properties": []
    },
    {
     "id": 2298,
     "name": "",
     "type": "",
     "x": 32,
     "y": 2784,
     "width": 32,
     "height": 32,
     "rotation": 0,
     "visible": true,
     "properties": []
    },
    {
     "id": 2299,
     "name": "",
     "type": "",
     "x": 704,
     "y": 2784,
     "width": 32,
     "height": 32,
     "rotation": 0,
     "visible": true,
     "properties": []
    },
    {
     "id": 2300,
     "name": "",
     "type": "",
     "x": 736,
     "y": 2784,
     "width": 32,
     "height": 32,
     "rotation": 0,
     "visible": true,
     "properties": []
    },
    {
     "id": 2301,
     "name": "",
     "type": "",
     "x": 0,
     "y": 2816,
     "width": 32,
     "height": 32,
     "rotation": 0,
     "visible": true,
     "properties": []
    },
    {
     "id": 2302,
     "name": "",
     "type": "",
     "x": 32,
     "y": 2816,
     "width": 32,
     "height": 32,
     "rotation": 0,
     "visible": true,
     "properties": []
    },
    {
     "id": 2303,
     "name": "",
     "type": "",
     "x": 704,
     "y": 2816,
     "width": 32,
     "height": 32,
     "rotation": 0,
     "visible": true,
     "properties": []
    },
    {
     "id": 2304,
     "name": "",
     "type": "",
     "x": 736,
     "y": 2816,
     "width": 32,
     "height": 32,
     "rotation": 0,
     "visible": true,
     "properties": []
    },
    {
     "id": 2305,
     "name": "",
     "type": "",
     "x": 0,
     "y": 2848,
     "width": 32,
     "height": 32,
     "rotation": 0,
     "visible": true,
     "properties": []
    },
    {
     "id": 2306,
     "name": "",
     "type": "",
     "x": 32,
     "y": 2848,
     "width": 32,
     "height": 32,
     "rotation": 0,
     "visible": true,
     "properties": []
    },
    {
     "id": 2307,
     "name": "",
     "type": "",
     "x": 704,
     "y": 2848,
     "width": 32,
     "height": 32,
     "rotation": 0,
     "visible": true,
     "properties": []
    },
    {
     "id": 2308,
     "name": "",
     "type": "",
     "x": 736,
     "y": 2848,
     "width": 32,
     "height": 32,
     "rotation": 0,
     "visible": true,
     "properties": []
    },
    {
     "id": 2309,
     "name": "",
     "type": "",
     "x": 0,
     "y": 2880,
     "width": 32,
     "height": 32,
     "rotation": 0,
     "visible": true,
     "properties": []
    },
    {
     "id": 2310,
     "name": "",
     "type": "",
     "x": 32,
     "y": 2880,
     "width": 32,
     "height": 32,
     "rotation": 0,
     "visible": true,
     "properties": []
    },
    {
     "id": 2311,
     "name": "",
     "type": "",
     "x": 64,
     "y": 2880,
     "width": 32,
     "height": 32,
     "rotation": 0,
     "visible": true,
     "properties": []
    },
    {
     "id": 2312,
     "name": "",
     "type": "",
     "x": 96,
     "y": 2880,
     "width": 32,
     "height": 32,
     "rotation": 0,
     "visible": true,
     "properties": []
    },
    {
     "id": 2313,
     "name": "",
     "type": "",
     "x": 128,
     "y": 2880,
     "width": 32,
     "height": 32,
     "rotation": 0,
     "visible": true,
     "properties": []
    },
    {
     "id": 2314,
     "name": "",
     "type": "",
     "x": 160,
     "y": 2880,
     "width": 32,
     "height": 32,
     "rotation": 0,
     "visible": true,
     "properties": []
    },
    {
     "id": 2315,
     "name": "",
     "type": "",
     "x": 192,
     "y": 2880,
     "width": 32,
     "height": 32,
     "rotation": 0,
     "visible": true,
     "properties": []
    },
    {
     "id": 2316,
     "name": "",
     "type": "",
     "x": 320,
     "y": 2880,
     "width": 32,
     "height": 32,
     "rotation": 0,
     "visible": true,
     "properties": []
    },
    {
     "id": 2317,
     "name": "",
     "type": "",
     "x": 352,
     "y": 2880,
     "width": 32,
     "height": 32,
     "rotation": 0,
     "visible": true,
     "properties": []
    },
    {
     "id": 2318,
     "name": "",
     "type": "",
     "x": 384,
     "y": 2880,
     "width": 32,
     "height": 32,
     "rotation": 0,
     "visible": true,
     "properties": []
    },
    {
     "id": 2319,
     "name": "",
     "type": "",
     "x": 416,
     "y": 2880,
     "width": 32,
     "height": 32,
     "rotation": 0,
     "visible": true,
     "properties": []
    },
    {
     "id": 2320,
     "name": "",
     "type": "",
     "x": 448,
     "y": 2880,
     "width": 32,
     "height": 32,
     "rotation": 0,
     "visible": true,
     "properties": []
    },
    {
     "id": 2321,
     "name": "",
     "type": "",
     "x": 480,
     "y": 2880,
     "width": 32,
     "height": 32,
     "rotation": 0,
     "visible": true,
     "properties": []
    },
    {
     "id": 2322,
     "name": "",
     "type": "",
     "x": 512,
     "y": 2880,
     "width": 32,
     "height": 32,
     "rotation": 0,
     "visible": true,
     "properties": []
    },
    {
     "id": 2323,
     "name": "",
     "type": "",
     "x": 544,
     "y": 2880,
     "width": 32,
     "height": 32,
     "rotation": 0,
     "visible": true,
     "properties": []
    },
    {
     "id": 2324,
     "name": "",
     "type": "",
     "x": 576,
     "y": 2880,
     "width": 32,
     "height": 32,
     "rotation": 0,
     "visible": true,
     "properties": []
    },
    {
     "id": 2325,
     "name": "",
     "type": "",
     "x": 608,
     "y": 2880,
     "width": 32,
     "height": 32,
     "rotation": 0,
     "visible": true,
     "properties": []
    },
    {
     "id": 2326,
     "name": "",
     "type": "",
     "x": 640,
     "y": 2880,
     "width": 32,
     "height": 32,
     "rotation": 0,
     "visible": true,
     "properties": []
    },
    {
     "id": 2327,
     "name": "",
     "type": "",
     "x": 672,
     "y": 2880,
     "width": 32,
     "height": 32,
     "rotation": 0,
     "visible": true,
     "properties": []
    },
    {
     "id": 2328,
     "name": "",
     "type": "",
     "x": 704,
     "y": 2880,
     "width": 32,
     "height": 32,
     "rotation": 0,
     "visible": true,
     "properties": []
    },
    {
     "id": 2329,
     "name": "",
     "type": "",
     "x": 736,
     "y": 2880,
     "width": 32,
     "height": 32,
     "rotation": 0,
     "visible": true,
     "properties": []
    },
    {
     "id": 2330,
     "name": "",
     "type": "",
     "x": 0,
     "y": 2912,
     "width": 32,
     "height": 32,
     "rotation": 0,
     "visible": true,
     "properties": []
    },
    {
     "id": 2331,
     "name": "",
     "type": "",
     "x": 32,
     "y": 2912,
     "width": 32,
     "height": 32,
     "rotation": 0,
     "visible": true,
     "properties": []
    },
    {
     "id": 2332,
     "name": "",
     "type": "",
     "x": 64,
     "y": 2912,
     "width": 32,
     "height": 32,
     "rotation": 0,
     "visible": true,
     "properties": []
    },
    {
     "id": 2333,
     "name": "",
     "type": "",
     "x": 96,
     "y": 2912,
     "width": 32,
     "height": 32,
     "rotation": 0,
     "visible": true,
     "properties": []
    },
    {
     "id": 2334,
     "name": "",
     "type": "",
     "x": 128,
     "y": 2912,
     "width": 32,
     "height": 32,
     "rotation": 0,
     "visible": true,
     "properties": []
    },
    {
     "id": 2335,
     "name": "",
     "type": "",
     "x": 160,
     "y": 2912,
     "width": 32,
     "height": 32,
     "rotation": 0,
     "visible": true,
     "properties": []
    },
    {
     "id": 2336,
     "name": "",
     "type": "",
     "x": 192,
     "y": 2912,
     "width": 32,
     "height": 32,
     "rotation": 0,
     "visible": true,
     "properties": []
    },
    {
     "id": 2337,
     "name": "",
     "type": "",
     "x": 320,
     "y": 2912,
     "width": 32,
     "height": 32,
     "rotation": 0,
     "visible": true,
     "properties": []
    },
    {
     "id": 2338,
     "name": "",
     "type": "",
     "x": 352,
     "y": 2912,
     "width": 32,
     "height": 32,
     "rotation": 0,
     "visible": true,
     "properties": []
    },
    {
     "id": 2339,
     "name": "",
     "type": "",
     "x": 384,
     "y": 2912,
     "width": 32,
     "height": 32,
     "rotation": 0,
     "visible": true,
     "properties": []
    },
    {
     "id": 2340,
     "name": "",
     "type": "",
     "x": 416,
     "y": 2912,
     "width": 32,
     "height": 32,
     "rotation": 0,
     "visible": true,
     "properties": []
    },
    {
     "id": 2341,
     "name": "",
     "type": "",
     "x": 448,
     "y": 2912,
     "width": 32,
     "height": 32,
     "rotation": 0,
     "visible": true,
     "properties": []
    },
    {
     "id": 2342,
     "name": "",
     "type": "",
     "x": 480,
     "y": 2912,
     "width": 32,
     "height": 32,
     "rotation": 0,
     "visible": true,
     "properties": []
    },
    {
     "id": 2343,
     "name": "",
     "type": "",
     "x": 512,
     "y": 2912,
     "width": 32,
     "height": 32,
     "rotation": 0,
     "visible": true,
     "properties": []
    },
    {
     "id": 2344,
     "name": "",
     "type": "",
     "x": 544,
     "y": 2912,
     "width": 32,
     "height": 32,
     "rotation": 0,
     "visible": true,
     "properties": []
    },
    {
     "id": 2345,
     "name": "",
     "type": "",
     "x": 576,
     "y": 2912,
     "width": 32,
     "height": 32,
     "rotation": 0,
     "visible": true,
     "properties": []
    },
    {
     "id": 2346,
     "name": "",
     "type": "",
     "x": 608,
     "y": 2912,
     "width": 32,
     "height": 32,
     "rotation": 0,
     "visible": true,
     "properties": []
    },
    {
     "id": 2347,
     "name": "",
     "type": "",
     "x": 640,
     "y": 2912,
     "width": 32,
     "height": 32,
     "rotation": 0,
     "visible": true,
     "properties": []
    },
    {
     "id": 2348,
     "name": "",
     "type": "",
     "x": 672,
     "y": 2912,
     "width": 32,
     "height": 32,
     "rotation": 0,
     "visible": true,
     "properties": []
    },
    {
     "id": 2349,
     "name": "",
     "type": "",
     "x": 704,
     "y": 2912,
     "width": 32,
     "height": 32,
     "rotation": 0,
     "visible": true,
     "properties": []
    },
    {
     "id": 2350,
     "name": "",
     "type": "",
     "x": 736,
     "y": 2912,
     "width": 32,
     "height": 32,
     "rotation": 0,
     "visible": true,
     "properties": []
    },
    {
     "id": 2351,
     "name": "",
     "type": "",
     "x": 0,
     "y": 2944,
     "width": 32,
     "height": 32,
     "rotation": 0,
     "visible": true,
     "properties": []
    },
    {
     "id": 2352,
     "name": "",
     "type": "",
     "x": 32,
     "y": 2944,
     "width": 32,
     "height": 32,
     "rotation": 0,
     "visible": true,
     "properties": []
    },
    {
     "id": 2353,
     "name": "",
     "type": "",
     "x": 64,
     "y": 2944,
     "width": 32,
     "height": 32,
     "rotation": 0,
     "visible": true,
     "properties": []
    },
    {
     "id": 2354,
     "name": "",
     "type": "",
     "x": 96,
     "y": 2944,
     "width": 32,
     "height": 32,
     "rotation": 0,
     "visible": true,
     "properties": []
    },
    {
     "id": 2355,
     "name": "",
     "type": "",
     "x": 128,
     "y": 2944,
     "width": 32,
     "height": 32,
     "rotation": 0,
     "visible": true,
     "properties": []
    },
    {
     "id": 2356,
     "name": "",
     "type": "",
     "x": 160,
     "y": 2944,
     "width": 32,
     "height": 32,
     "rotation": 0,
     "visible": true,
     "properties": []
    },
    {
     "id": 2357,
     "name": "",
     "type": "",
     "x": 192,
     "y": 2944,
     "width": 32,
     "height": 32,
     "rotation": 0,
     "visible": true,
     "properties": []
    },
    {
     "id": 2358,
     "name": "",
     "type": "",
     "x": 320,
     "y": 2944,
     "width": 32,
     "height": 32,
     "rotation": 0,
     "visible": true,
     "properties": []
    },
    {
     "id": 2359,
     "name": "",
     "type": "",
     "x": 352,
     "y": 2944,
     "width": 32,
     "height": 32,
     "rotation": 0,
     "visible": true,
     "properties": []
    },
    {
     "id": 2360,
     "name": "",
     "type": "",
     "x": 384,
     "y": 2944,
     "width": 32,
     "height": 32,
     "rotation": 0,
     "visible": true,
     "properties": []
    },
    {
     "id": 2361,
     "name": "",
     "type": "",
     "x": 416,
     "y": 2944,
     "width": 32,
     "height": 32,
     "rotation": 0,
     "visible": true,
     "properties": []
    },
    {
     "id": 2362,
     "name": "",
     "type": "",
     "x": 448,
     "y": 2944,
     "width": 32,
     "height": 32,
     "rotation": 0,
     "visible": true,
     "properties": []
    },
    {
     "id": 2363,
     "name": "",
     "type": "",
     "x": 480,
     "y": 2944,
     "width": 32,
     "height": 32,
     "rotation": 0,
     "visible": true,
     "properties": []
    },
    {
     "id": 2364,
     "name": "",
     "type": "",
     "x": 512,
     "y": 2944,
     "width": 32,
     "height": 32,
     "rotation": 0,
     "visible": true,
     "properties": []
    },
    {
     "id": 2365,
     "name": "",
     "type": "",
     "x": 544,
     "y": 2944,
     "width": 32,
     "height": 32,
     "rotation": 0,
     "visible": true,
     "properties": []
    },
    {
     "id": 2366,
     "name": "",
     "type": "",
     "x": 576,
     "y": 2944,
     "width": 32,
     "height": 32,
     "rotation": 0,
     "visible": true,
     "properties": []
    },
    {
     "id": 2367,
     "name": "",
     "type": "",
     "x": 608,
     "y": 2944,
     "width": 32,
     "height": 32,
     "rotation": 0,
     "visible": true,
     "properties": []
    },
    {
     "id": 2368,
     "name": "",
     "type": "",
     "x": 640,
     "y": 2944,
     "width": 32,
     "height": 32,
     "rotation": 0,
     "visible": true,
     "properties": []
    },
    {
     "id": 2369,
     "name": "",
     "type": "",
     "x": 672,
     "y": 2944,
     "width": 32,
     "height": 32,
     "rotation": 0,
     "visible": true,
     "properties": []
    },
    {
     "id": 2370,
     "name": "",
     "type": "",
     "x": 704,
     "y": 2944,
     "width": 32,
     "height": 32,
     "rotation": 0,
     "visible": true,
     "properties": []
    },
    {
     "id": 2371,
     "name": "",
     "type": "",
     "x": 736,
     "y": 2944,
     "width": 32,
     "height": 32,
     "rotation": 0,
     "visible": true,
     "properties": []
    },
    {
     "id": 2372,
     "name": "",
     "type": "",
     "x": 0,
     "y": 2976,
     "width": 32,
     "height": 32,
     "rotation": 0,
     "visible": true,
     "properties": []
    },
    {
     "id": 2373,
     "name": "",
     "type": "",
     "x": 32,
     "y": 2976,
     "width": 32,
     "height": 32,
     "rotation": 0,
     "visible": true,
     "properties": []
    },
    {
     "id": 2374,
     "name": "",
     "type": "",
     "x": 64,
     "y": 2976,
     "width": 32,
     "height": 32,
     "rotation": 0,
     "visible": true,
     "properties": []
    },
    {
     "id": 2375,
     "name": "",
     "type": "",
     "x": 96,
     "y": 2976,
     "width": 32,
     "height": 32,
     "rotation": 0,
     "visible": true,
     "properties": []
    },
    {
     "id": 2376,
     "name": "",
     "type": "",
     "x": 128,
     "y": 2976,
     "width": 32,
     "height": 32,
     "rotation": 0,
     "visible": true,
     "properties": []
    },
    {
     "id": 2377,
     "name": "",
     "type": "",
     "x": 160,
     "y": 2976,
     "width": 32,
     "height": 32,
     "rotation": 0,
     "visible": true,
     "properties": []
    },
    {
     "id": 2378,
     "name": "",
     "type": "",
     "x": 192,
     "y": 2976,
     "width": 32,
     "height": 32,
     "rotation": 0,
     "visible": true,
     "properties": []
    },
    {
     "id": 2379,
     "name": "",
     "type": "",
     "x": 320,
     "y": 2976,
     "width": 32,
     "height": 32,
     "rotation": 0,
     "visible": true,
     "properties": []
    },
    {
     "id": 2380,
     "name": "",
     "type": "",
     "x": 352,
     "y": 2976,
     "width": 32,
     "height": 32,
     "rotation": 0,
     "visible": true,
     "properties": []
    },
    {
     "id": 2381,
     "name": "",
     "type": "",
     "x": 384,
     "y": 2976,
     "width": 32,
     "height": 32,
     "rotation": 0,
     "visible": true,
     "properties": []
    },
    {
     "id": 2382,
     "name": "",
     "type": "",
     "x": 416,
     "y": 2976,
     "width": 32,
     "height": 32,
     "rotation": 0,
     "visible": true,
     "properties": []
    },
    {
     "id": 2383,
     "name": "",
     "type": "",
     "x": 448,
     "y": 2976,
     "width": 32,
     "height": 32,
     "rotation": 0,
     "visible": true,
     "properties": []
    },
    {
     "id": 2384,
     "name": "",
     "type": "",
     "x": 480,
     "y": 2976,
     "width": 32,
     "height": 32,
     "rotation": 0,
     "visible": true,
     "properties": []
    },
    {
     "id": 2385,
     "name": "",
     "type": "",
     "x": 512,
     "y": 2976,
     "width": 32,
     "height": 32,
     "rotation": 0,
     "visible": true,
     "properties": []
    },
    {
     "id": 2386,
     "name": "",
     "type": "",
     "x": 544,
     "y": 2976,
     "width": 32,
     "height": 32,
     "rotation": 0,
     "visible": true,
     "properties": []
    },
    {
     "id": 2387,
     "name": "",
     "type": "",
     "x": 576,
     "y": 2976,
     "width": 32,
     "height": 32,
     "rotation": 0,
     "visible": true,
     "properties": []
    },
    {
     "id": 2388,
     "name": "",
     "type": "",
     "x": 608,
     "y": 2976,
     "width": 32,
     "height": 32,
     "rotation": 0,
     "visible": true,
     "properties": []
    },
    {
     "id": 2389,
     "name": "",
     "type": "",
     "x": 640,
     "y": 2976,
     "width": 32,
     "height": 32,
     "rotation": 0,
     "visible": true,
     "properties": []
    },
    {
     "id": 2390,
     "name": "",
     "type": "",
     "x": 672,
     "y": 2976,
     "width": 32,
     "height": 32,
     "rotation": 0,
     "visible": true,
     "properties": []
    },
    {
     "id": 2391,
     "name": "",
     "type": "",
     "x": 704,
     "y": 2976,
     "width": 32,
     "height": 32,
     "rotation": 0,
     "visible": true,
     "properties": []
    },
    {
     "id": 2392,
     "name": "",
     "type": "",
     "x": 736,
     "y": 2976,
     "width": 32,
     "height": 32,
     "rotation": 0,
     "visible": true,
     "properties": []
    },
    {
     "id": 2393,
     "name": "",
     "type": "",
     "x": 0,
     "y": 3008,
     "width": 32,
     "height": 32,
     "rotation": 0,
     "visible": true,
     "properties": []
    },
    {
     "id": 2394,
     "name": "",
     "type": "",
     "x": 32,
     "y": 3008,
     "width": 32,
     "height": 32,
     "rotation": 0,
     "visible": true,
     "properties": []
    },
    {
     "id": 2395,
     "name": "",
     "type": "",
     "x": 64,
     "y": 3008,
     "width": 32,
     "height": 32,
     "rotation": 0,
     "visible": true,
     "properties": []
    },
    {
     "id": 2396,
     "name": "",
     "type": "",
     "x": 96,
     "y": 3008,
     "width": 32,
     "height": 32,
     "rotation": 0,
     "visible": true,
     "properties": []
    },
    {
     "id": 2397,
     "name": "",
     "type": "",
     "x": 128,
     "y": 3008,
     "width": 32,
     "height": 32,
     "rotation": 0,
     "visible": true,
     "properties": []
    },
    {
     "id": 2398,
     "name": "",
     "type": "",
     "x": 192,
     "y": 3008,
     "width": 32,
     "height": 32,
     "rotation": 0,
     "visible": true,
     "properties": []
    },
    {
     "id": 2399,
     "name": "",
     "type": "",
     "x": 608,
     "y": 3008,
     "width": 32,
     "height": 32,
     "rotation": 0,
     "visible": true,
     "properties": []
    },
    {
     "id": 2400,
     "name": "",
     "type": "",
     "x": 640,
     "y": 3008,
     "width": 32,
     "height": 32,
     "rotation": 0,
     "visible": true,
     "properties": []
    },
    {
     "id": 2401,
     "name": "",
     "type": "",
     "x": 672,
     "y": 3008,
     "width": 32,
     "height": 32,
     "rotation": 0,
     "visible": true,
     "properties": []
    },
    {
     "id": 2402,
     "name": "",
     "type": "",
     "x": 704,
     "y": 3008,
     "width": 32,
     "height": 32,
     "rotation": 0,
     "visible": true,
     "properties": []
    },
    {
     "id": 2403,
     "name": "",
     "type": "",
     "x": 736,
     "y": 3008,
     "width": 32,
     "height": 32,
     "rotation": 0,
     "visible": true,
     "properties": []
    },
    {
     "id": 2404,
     "name": "",
     "type": "",
     "x": 0,
     "y": 3040,
     "width": 32,
     "height": 32,
     "rotation": 0,
     "visible": true,
     "properties": []
    },
    {
     "id": 2405,
     "name": "",
     "type": "",
     "x": 32,
     "y": 3040,
     "width": 32,
     "height": 32,
     "rotation": 0,
     "visible": true,
     "properties": []
    },
    {
     "id": 2406,
     "name": "",
     "type": "",
     "x": 64,
     "y": 3040,
     "width": 32,
     "height": 32,
     "rotation": 0,
     "visible": true,
     "properties": []
    },
    {
     "id": 2407,
     "name": "",
     "type": "",
     "x": 96,
     "y": 3040,
     "width": 32,
     "height": 32,
     "rotation": 0,
     "visible": true,
     "properties": []
    },
    {
     "id": 2408,
     "name": "",
     "type": "",
     "x": 128,
     "y": 3040,
     "width": 32,
     "height": 32,
     "rotation": 0,
     "visible": true,
     "properties": []
    },
    {
     "id": 2409,
     "name": "",
     "type": "",
     "x": 608,
     "y": 3040,
     "width": 32,
     "height": 32,
     "rotation": 0,
     "visible": true,
     "properties": []
    },
    {
     "id": 2410,
     "name": "",
     "type": "",
     "x": 640,
     "y": 3040,
     "width": 32,
     "height": 32,
     "rotation": 0,
     "visible": true,
     "properties": []
    },
    {
     "id": 2411,
     "name": "",
     "type": "",
     "x": 672,
     "y": 3040,
     "width": 32,
     "height": 32,
     "rotation": 0,
     "visible": true,
     "properties": []
    },
    {
     "id": 2412,
     "name": "",
     "type": "",
     "x": 704,
     "y": 3040,
     "width": 32,
     "height": 32,
     "rotation": 0,
     "visible": true,
     "properties": []
    },
    {
     "id": 2413,
     "name": "",
     "type": "",
     "x": 736,
     "y": 3040,
     "width": 32,
     "height": 32,
     "rotation": 0,
     "visible": true,
     "properties": []
    },
    {
     "id": 2414,
     "name": "",
     "type": "",
     "x": 0,
     "y": 3072,
     "width": 32,
     "height": 32,
     "rotation": 0,
     "visible": true,
     "properties": []
    },
    {
     "id": 2415,
     "name": "",
     "type": "",
     "x": 32,
     "y": 3072,
     "width": 32,
     "height": 32,
     "rotation": 0,
     "visible": true,
     "properties": []
    },
    {
     "id": 2416,
     "name": "",
     "type": "",
     "x": 64,
     "y": 3072,
     "width": 32,
     "height": 32,
     "rotation": 0,
     "visible": true,
     "properties": []
    },
    {
     "id": 2417,
     "name": "",
     "type": "",
     "x": 96,
     "y": 3072,
     "width": 32,
     "height": 32,
     "rotation": 0,
     "visible": true,
     "properties": []
    },
    {
     "id": 2418,
     "name": "",
     "type": "",
     "x": 128,
     "y": 3072,
     "width": 32,
     "height": 32,
     "rotation": 0,
     "visible": true,
     "properties": []
    },
    {
     "id": 2419,
     "name": "",
     "type": "",
     "x": 608,
     "y": 3072,
     "width": 32,
     "height": 32,
     "rotation": 0,
     "visible": true,
     "properties": []
    },
    {
     "id": 2420,
     "name": "",
     "type": "",
     "x": 640,
     "y": 3072,
     "width": 32,
     "height": 32,
     "rotation": 0,
     "visible": true,
     "properties": []
    },
    {
     "id": 2421,
     "name": "",
     "type": "",
     "x": 672,
     "y": 3072,
     "width": 32,
     "height": 32,
     "rotation": 0,
     "visible": true,
     "properties": []
    },
    {
     "id": 2422,
     "name": "",
     "type": "",
     "x": 704,
     "y": 3072,
     "width": 32,
     "height": 32,
     "rotation": 0,
     "visible": true,
     "properties": []
    },
    {
     "id": 2423,
     "name": "",
     "type": "",
     "x": 736,
     "y": 3072,
     "width": 32,
     "height": 32,
     "rotation": 0,
     "visible": true,
     "properties": []
    },
    {
     "id": 2424,
     "name": "",
     "type": "",
     "x": 0,
     "y": 3104,
     "width": 32,
     "height": 32,
     "rotation": 0,
     "visible": true,
     "properties": []
    },
    {
     "id": 2425,
     "name": "",
     "type": "",
     "x": 32,
     "y": 3104,
     "width": 32,
     "height": 32,
     "rotation": 0,
     "visible": true,
     "properties": []
    },
    {
     "id": 2426,
     "name": "",
     "type": "",
     "x": 64,
     "y": 3104,
     "width": 32,
     "height": 32,
     "rotation": 0,
     "visible": true,
     "properties": []
    },
    {
     "id": 2427,
     "name": "",
     "type": "",
     "x": 96,
     "y": 3104,
     "width": 32,
     "height": 32,
     "rotation": 0,
     "visible": true,
     "properties": []
    },
    {
     "id": 2428,
     "name": "",
     "type": "",
     "x": 128,
     "y": 3104,
     "width": 32,
     "height": 32,
     "rotation": 0,
     "visible": true,
     "properties": []
    },
    {
     "id": 2429,
     "name": "",
     "type": "",
     "x": 608,
     "y": 3104,
     "width": 32,
     "height": 32,
     "rotation": 0,
     "visible": true,
     "properties": []
    },
    {
     "id": 2430,
     "name": "",
     "type": "",
     "x": 640,
     "y": 3104,
     "width": 32,
     "height": 32,
     "rotation": 0,
     "visible": true,
     "properties": []
    },
    {
     "id": 2431,
     "name": "",
     "type": "",
     "x": 672,
     "y": 3104,
     "width": 32,
     "height": 32,
     "rotation": 0,
     "visible": true,
     "properties": []
    },
    {
     "id": 2432,
     "name": "",
     "type": "",
     "x": 704,
     "y": 3104,
     "width": 32,
     "height": 32,
     "rotation": 0,
     "visible": true,
     "properties": []
    },
    {
     "id": 2433,
     "name": "",
     "type": "",
     "x": 736,
     "y": 3104,
     "width": 32,
     "height": 32,
     "rotation": 0,
     "visible": true,
     "properties": []
    },
    {
     "id": 2434,
     "name": "",
     "type": "",
     "x": 0,
     "y": 3136,
     "width": 32,
     "height": 32,
     "rotation": 0,
     "visible": true,
     "properties": []
    },
    {
     "id": 2435,
     "name": "",
     "type": "",
     "x": 32,
     "y": 3136,
     "width": 32,
     "height": 32,
     "rotation": 0,
     "visible": true,
     "properties": []
    },
    {
     "id": 2436,
     "name": "",
     "type": "",
     "x": 64,
     "y": 3136,
     "width": 32,
     "height": 32,
     "rotation": 0,
     "visible": true,
     "properties": []
    },
    {
     "id": 2437,
     "name": "",
     "type": "",
     "x": 96,
     "y": 3136,
     "width": 32,
     "height": 32,
     "rotation": 0,
     "visible": true,
     "properties": []
    },
    {
     "id": 2438,
     "name": "",
     "type": "",
     "x": 128,
     "y": 3136,
     "width": 32,
     "height": 32,
     "rotation": 0,
     "visible": true,
     "properties": []
    },
    {
     "id": 2439,
     "name": "",
     "type": "",
     "x": 608,
     "y": 3136,
     "width": 32,
     "height": 32,
     "rotation": 0,
     "visible": true,
     "properties": []
    },
    {
     "id": 2440,
     "name": "",
     "type": "",
     "x": 640,
     "y": 3136,
     "width": 32,
     "height": 32,
     "rotation": 0,
     "visible": true,
     "properties": []
    },
    {
     "id": 2441,
     "name": "",
     "type": "",
     "x": 672,
     "y": 3136,
     "width": 32,
     "height": 32,
     "rotation": 0,
     "visible": true,
     "properties": []
    },
    {
     "id": 2442,
     "name": "",
     "type": "",
     "x": 704,
     "y": 3136,
     "width": 32,
     "height": 32,
     "rotation": 0,
     "visible": true,
     "properties": []
    },
    {
     "id": 2443,
     "name": "",
     "type": "",
     "x": 736,
     "y": 3136,
     "width": 32,
     "height": 32,
     "rotation": 0,
     "visible": true,
     "properties": []
    },
    {
     "id": 2444,
     "name": "",
     "type": "",
     "x": 0,
     "y": 3168,
     "width": 32,
     "height": 32,
     "rotation": 0,
     "visible": true,
     "properties": []
    },
    {
     "id": 2445,
     "name": "",
     "type": "",
     "x": 32,
     "y": 3168,
     "width": 32,
     "height": 32,
     "rotation": 0,
     "visible": true,
     "properties": []
    },
    {
     "id": 2446,
     "name": "",
     "type": "",
     "x": 64,
     "y": 3168,
     "width": 32,
     "height": 32,
     "rotation": 0,
     "visible": true,
     "properties": []
    },
    {
     "id": 2447,
     "name": "",
     "type": "",
     "x": 96,
     "y": 3168,
     "width": 32,
     "height": 32,
     "rotation": 0,
     "visible": true,
     "properties": []
    },
    {
     "id": 2448,
     "name": "",
     "type": "",
     "x": 128,
     "y": 3168,
     "width": 32,
     "height": 32,
     "rotation": 0,
     "visible": true,
     "properties": []
    },
    {
     "id": 2449,
     "name": "",
     "type": "",
     "x": 608,
     "y": 3168,
     "width": 32,
     "height": 32,
     "rotation": 0,
     "visible": true,
     "properties": []
    },
    {
     "id": 2450,
     "name": "",
     "type": "",
     "x": 640,
     "y": 3168,
     "width": 32,
     "height": 32,
     "rotation": 0,
     "visible": true,
     "properties": []
    },
    {
     "id": 2451,
     "name": "",
     "type": "",
     "x": 672,
     "y": 3168,
     "width": 32,
     "height": 32,
     "rotation": 0,
     "visible": true,
     "properties": []
    },
    {
     "id": 2452,
     "name": "",
     "type": "",
     "x": 704,
     "y": 3168,
     "width": 32,
     "height": 32,
     "rotation": 0,
     "visible": true,
     "properties": []
    },
    {
     "id": 2453,
     "name": "",
     "type": "",
     "x": 736,
     "y": 3168,
     "width": 32,
     "height": 32,
     "rotation": 0,
     "visible": true,
     "properties": []
    },
    {
     "id": 2454,
     "name": "",
     "type": "",
     "x": 0,
     "y": 3200,
     "width": 32,
     "height": 32,
     "rotation": 0,
     "visible": true,
     "properties": []
    },
    {
     "id": 2455,
     "name": "",
     "type": "",
     "x": 32,
     "y": 3200,
     "width": 32,
     "height": 32,
     "rotation": 0,
     "visible": true,
     "properties": []
    },
    {
     "id": 2456,
     "name": "",
     "type": "",
     "x": 64,
     "y": 3200,
     "width": 32,
     "height": 32,
     "rotation": 0,
     "visible": true,
     "properties": []
    },
    {
     "id": 2457,
     "name": "",
     "type": "",
     "x": 96,
     "y": 3200,
     "width": 32,
     "height": 32,
     "rotation": 0,
     "visible": true,
     "properties": []
    },
    {
     "id": 2458,
     "name": "",
     "type": "",
     "x": 128,
     "y": 3200,
     "width": 32,
     "height": 32,
     "rotation": 0,
     "visible": true,
     "properties": []
    },
    {
     "id": 2459,
     "name": "",
     "type": "",
     "x": 608,
     "y": 3200,
     "width": 32,
     "height": 32,
     "rotation": 0,
     "visible": true,
     "properties": []
    },
    {
     "id": 2460,
     "name": "",
     "type": "",
     "x": 640,
     "y": 3200,
     "width": 32,
     "height": 32,
     "rotation": 0,
     "visible": true,
     "properties": []
    },
    {
     "id": 2461,
     "name": "",
     "type": "",
     "x": 672,
     "y": 3200,
     "width": 32,
     "height": 32,
     "rotation": 0,
     "visible": true,
     "properties": []
    },
    {
     "id": 2462,
     "name": "",
     "type": "",
     "x": 704,
     "y": 3200,
     "width": 32,
     "height": 32,
     "rotation": 0,
     "visible": true,
     "properties": []
    },
    {
     "id": 2463,
     "name": "",
     "type": "",
     "x": 736,
     "y": 3200,
     "width": 32,
     "height": 32,
     "rotation": 0,
     "visible": true,
     "properties": []
    },
    {
     "id": 2464,
     "name": "",
     "type": "",
     "x": 0,
     "y": 3232,
     "width": 32,
     "height": 32,
     "rotation": 0,
     "visible": true,
     "properties": []
    },
    {
     "id": 2465,
     "name": "",
     "type": "",
     "x": 32,
     "y": 3232,
     "width": 32,
     "height": 32,
     "rotation": 0,
     "visible": true,
     "properties": []
    },
    {
     "id": 2466,
     "name": "",
     "type": "",
     "x": 64,
     "y": 3232,
     "width": 32,
     "height": 32,
     "rotation": 0,
     "visible": true,
     "properties": []
    },
    {
     "id": 2467,
     "name": "",
     "type": "",
     "x": 96,
     "y": 3232,
     "width": 32,
     "height": 32,
     "rotation": 0,
     "visible": true,
     "properties": []
    },
    {
     "id": 2468,
     "name": "",
     "type": "",
     "x": 128,
     "y": 3232,
     "width": 32,
     "height": 32,
     "rotation": 0,
     "visible": true,
     "properties": []
    },
    {
     "id": 2469,
     "name": "",
     "type": "",
     "x": 608,
     "y": 3232,
     "width": 32,
     "height": 32,
     "rotation": 0,
     "visible": true,
     "properties": []
    },
    {
     "id": 2470,
     "name": "",
     "type": "",
     "x": 640,
     "y": 3232,
     "width": 32,
     "height": 32,
     "rotation": 0,
     "visible": true,
     "properties": []
    },
    {
     "id": 2471,
     "name": "",
     "type": "",
     "x": 672,
     "y": 3232,
     "width": 32,
     "height": 32,
     "rotation": 0,
     "visible": true,
     "properties": []
    },
    {
     "id": 2472,
     "name": "",
     "type": "",
     "x": 704,
     "y": 3232,
     "width": 32,
     "height": 32,
     "rotation": 0,
     "visible": true,
     "properties": []
    },
    {
     "id": 2473,
     "name": "",
     "type": "",
     "x": 736,
     "y": 3232,
     "width": 32,
     "height": 32,
     "rotation": 0,
     "visible": true,
     "properties": []
    },
    {
     "id": 2474,
     "name": "",
     "type": "",
     "x": 0,
     "y": 3264,
     "width": 32,
     "height": 32,
     "rotation": 0,
     "visible": true,
     "properties": []
    },
    {
     "id": 2475,
     "name": "",
     "type": "",
     "x": 32,
     "y": 3264,
     "width": 32,
     "height": 32,
     "rotation": 0,
     "visible": true,
     "properties": []
    },
    {
     "id": 2476,
     "name": "",
     "type": "",
     "x": 64,
     "y": 3264,
     "width": 32,
     "height": 32,
     "rotation": 0,
     "visible": true,
     "properties": []
    },
    {
     "id": 2477,
     "name": "",
     "type": "",
     "x": 96,
     "y": 3264,
     "width": 32,
     "height": 32,
     "rotation": 0,
     "visible": true,
     "properties": []
    },
    {
     "id": 2478,
     "name": "",
     "type": "",
     "x": 128,
     "y": 3264,
     "width": 32,
     "height": 32,
     "rotation": 0,
     "visible": true,
     "properties": []
    },
    {
     "id": 2479,
     "name": "",
     "type": "",
     "x": 608,
     "y": 3264,
     "width": 32,
     "height": 32,
     "rotation": 0,
     "visible": true,
     "properties": []
    },
    {
     "id": 2480,
     "name": "",
     "type": "",
     "x": 640,
     "y": 3264,
     "width": 32,
     "height": 32,
     "rotation": 0,
     "visible": true,
     "properties": []
    },
    {
     "id": 2481,
     "name": "",
     "type": "",
     "x": 672,
     "y": 3264,
     "width": 32,
     "height": 32,
     "rotation": 0,
     "visible": true,
     "properties": []
    },
    {
     "id": 2482,
     "name": "",
     "type": "",
     "x": 704,
     "y": 3264,
     "width": 32,
     "height": 32,
     "rotation": 0,
     "visible": true,
     "properties": []
    },
    {
     "id": 2483,
     "name": "",
     "type": "",
     "x": 736,
     "y": 3264,
     "width": 32,
     "height": 32,
     "rotation": 0,
     "visible": true,
     "properties": []
    },
    {
     "id": 2484,
     "name": "",
     "type": "",
     "x": 0,
     "y": 3296,
     "width": 32,
     "height": 32,
     "rotation": 0,
     "visible": true,
     "properties": []
    },
    {
     "id": 2485,
     "name": "",
     "type": "",
     "x": 32,
     "y": 3296,
     "width": 32,
     "height": 32,
     "rotation": 0,
     "visible": true,
     "properties": []
    },
    {
     "id": 2486,
     "name": "",
     "type": "",
     "x": 608,
     "y": 3296,
     "width": 32,
     "height": 32,
     "rotation": 0,
     "visible": true,
     "properties": []
    },
    {
     "id": 2487,
     "name": "",
     "type": "",
     "x": 640,
     "y": 3296,
     "width": 32,
     "height": 32,
     "rotation": 0,
     "visible": true,
     "properties": []
    },
    {
     "id": 2488,
     "name": "",
     "type": "",
     "x": 672,
     "y": 3296,
     "width": 32,
     "height": 32,
     "rotation": 0,
     "visible": true,
     "properties": []
    },
    {
     "id": 2489,
     "name": "",
     "type": "",
     "x": 704,
     "y": 3296,
     "width": 32,
     "height": 32,
     "rotation": 0,
     "visible": true,
     "properties": []
    },
    {
     "id": 2490,
     "name": "",
     "type": "",
     "x": 736,
     "y": 3296,
     "width": 32,
     "height": 32,
     "rotation": 0,
     "visible": true,
     "properties": []
    },
    {
     "id": 2491,
     "name": "",
     "type": "",
     "x": 0,
     "y": 3328,
     "width": 32,
     "height": 32,
     "rotation": 0,
     "visible": true,
     "properties": []
    },
    {
     "id": 2492,
     "name": "",
     "type": "",
     "x": 32,
     "y": 3328,
     "width": 32,
     "height": 32,
     "rotation": 0,
     "visible": true,
     "properties": []
    },
    {
     "id": 2493,
     "name": "",
     "type": "",
     "x": 608,
     "y": 3328,
     "width": 32,
     "height": 32,
     "rotation": 0,
     "visible": true,
     "properties": []
    },
    {
     "id": 2494,
     "name": "",
     "type": "",
     "x": 640,
     "y": 3328,
     "width": 32,
     "height": 32,
     "rotation": 0,
     "visible": true,
     "properties": []
    },
    {
     "id": 2495,
     "name": "",
     "type": "",
     "x": 672,
     "y": 3328,
     "width": 32,
     "height": 32,
     "rotation": 0,
     "visible": true,
     "properties": []
    },
    {
     "id": 2496,
     "name": "",
     "type": "",
     "x": 704,
     "y": 3328,
     "width": 32,
     "height": 32,
     "rotation": 0,
     "visible": true,
     "properties": []
    },
    {
     "id": 2497,
     "name": "",
     "type": "",
     "x": 736,
     "y": 3328,
     "width": 32,
     "height": 32,
     "rotation": 0,
     "visible": true,
     "properties": []
    },
    {
     "id": 2498,
     "name": "",
     "type": "",
     "x": 0,
     "y": 3360,
     "width": 32,
     "height": 32,
     "rotation": 0,
     "visible": true,
     "properties": []
    },
    {
     "id": 2499,
     "name": "",
     "type": "",
     "x": 32,
     "y": 3360,
     "width": 32,
     "height": 32,
     "rotation": 0,
     "visible": true,
     "properties": []
    },
    {
     "id": 2500,
     "name": "",
     "type": "",
     "x": 608,
     "y": 3360,
     "width": 32,
     "height": 32,
     "rotation": 0,
     "visible": true,
     "properties": []
    },
    {
     "id": 2501,
     "name": "",
     "type": "",
     "x": 640,
     "y": 3360,
     "width": 32,
     "height": 32,
     "rotation": 0,
     "visible": true,
     "properties": []
    },
    {
     "id": 2502,
     "name": "",
     "type": "",
     "x": 672,
     "y": 3360,
     "width": 32,
     "height": 32,
     "rotation": 0,
     "visible": true,
     "properties": []
    },
    {
     "id": 2503,
     "name": "",
     "type": "",
     "x": 704,
     "y": 3360,
     "width": 32,
     "height": 32,
     "rotation": 0,
     "visible": true,
     "properties": []
    },
    {
     "id": 2504,
     "name": "",
     "type": "",
     "x": 736,
     "y": 3360,
     "width": 32,
     "height": 32,
     "rotation": 0,
     "visible": true,
     "properties": []
    },
    {
     "id": 2505,
     "name": "",
     "type": "",
     "x": 0,
     "y": 3392,
     "width": 32,
     "height": 32,
     "rotation": 0,
     "visible": true,
     "properties": []
    },
    {
     "id": 2506,
     "name": "",
     "type": "",
     "x": 32,
     "y": 3392,
     "width": 32,
     "height": 32,
     "rotation": 0,
     "visible": true,
     "properties": []
    },
    {
     "id": 2507,
     "name": "",
     "type": "",
     "x": 608,
     "y": 3392,
     "width": 32,
     "height": 32,
     "rotation": 0,
     "visible": true,
     "properties": []
    },
    {
     "id": 2508,
     "name": "",
     "type": "",
     "x": 640,
     "y": 3392,
     "width": 32,
     "height": 32,
     "rotation": 0,
     "visible": true,
     "properties": []
    },
    {
     "id": 2509,
     "name": "",
     "type": "",
     "x": 672,
     "y": 3392,
     "width": 32,
     "height": 32,
     "rotation": 0,
     "visible": true,
     "properties": []
    },
    {
     "id": 2510,
     "name": "",
     "type": "",
     "x": 704,
     "y": 3392,
     "width": 32,
     "height": 32,
     "rotation": 0,
     "visible": true,
     "properties": []
    },
    {
     "id": 2511,
     "name": "",
     "type": "",
     "x": 736,
     "y": 3392,
     "width": 32,
     "height": 32,
     "rotation": 0,
     "visible": true,
     "properties": []
    },
    {
     "id": 2512,
     "name": "",
     "type": "",
     "x": 0,
     "y": 3424,
     "width": 32,
     "height": 32,
     "rotation": 0,
     "visible": true,
     "properties": []
    },
    {
     "id": 2513,
     "name": "",
     "type": "",
     "x": 32,
     "y": 3424,
     "width": 32,
     "height": 32,
     "rotation": 0,
     "visible": true,
     "properties": []
    },
    {
     "id": 2514,
     "name": "",
     "type": "",
     "x": 608,
     "y": 3424,
     "width": 32,
     "height": 32,
     "rotation": 0,
     "visible": true,
     "properties": []
    },
    {
     "id": 2515,
     "name": "",
     "type": "",
     "x": 640,
     "y": 3424,
     "width": 32,
     "height": 32,
     "rotation": 0,
     "visible": true,
     "properties": []
    },
    {
     "id": 2516,
     "name": "",
     "type": "",
     "x": 672,
     "y": 3424,
     "width": 32,
     "height": 32,
     "rotation": 0,
     "visible": true,
     "properties": []
    },
    {
     "id": 2517,
     "name": "",
     "type": "",
     "x": 704,
     "y": 3424,
     "width": 32,
     "height": 32,
     "rotation": 0,
     "visible": true,
     "properties": []
    },
    {
     "id": 2518,
     "name": "",
     "type": "",
     "x": 736,
     "y": 3424,
     "width": 32,
     "height": 32,
     "rotation": 0,
     "visible": true,
     "properties": []
    },
    {
     "id": 2519,
     "name": "",
     "type": "",
     "x": 0,
     "y": 3456,
     "width": 32,
     "height": 32,
     "rotation": 0,
     "visible": true,
     "properties": []
    },
    {
     "id": 2520,
     "name": "",
     "type": "",
     "x": 32,
     "y": 3456,
     "width": 32,
     "height": 32,
     "rotation": 0,
     "visible": true,
     "properties": []
    },
    {
     "id": 2521,
     "name": "",
     "type": "",
     "x": 64,
     "y": 3456,
     "width": 32,
     "height": 32,
     "rotation": 0,
     "visible": true,
     "properties": []
    },
    {
     "id": 2522,
     "name": "",
     "type": "",
     "x": 96,
     "y": 3456,
     "width": 32,
     "height": 32,
     "rotation": 0,
     "visible": true,
     "properties": []
    },
    {
     "id": 2523,
     "name": "",
     "type": "",
     "x": 128,
     "y": 3456,
     "width": 32,
     "height": 32,
     "rotation": 0,
     "visible": true,
     "properties": []
    },
    {
     "id": 2524,
     "name": "",
     "type": "",
     "x": 160,
     "y": 3456,
     "width": 32,
     "height": 32,
     "rotation": 0,
     "visible": true,
     "properties": []
    },
    {
     "id": 2525,
     "name": "",
     "type": "",
     "x": 192,
     "y": 3456,
     "width": 32,
     "height": 32,
     "rotation": 0,
     "visible": true,
     "properties": []
    },
    {
     "id": 2526,
     "name": "",
     "type": "",
     "x": 224,
     "y": 3456,
     "width": 32,
     "height": 32,
     "rotation": 0,
     "visible": true,
     "properties": []
    },
    {
     "id": 2527,
     "name": "",
     "type": "",
     "x": 256,
     "y": 3456,
     "width": 32,
     "height": 32,
     "rotation": 0,
     "visible": true,
     "properties": []
    },
    {
     "id": 2528,
     "name": "",
     "type": "",
     "x": 288,
     "y": 3456,
     "width": 32,
     "height": 32,
     "rotation": 0,
     "visible": true,
     "properties": []
    },
    {
     "id": 2529,
     "name": "",
     "type": "",
     "x": 320,
     "y": 3456,
     "width": 32,
     "height": 32,
     "rotation": 0,
     "visible": true,
     "properties": []
    },
    {
     "id": 2530,
     "name": "",
     "type": "",
     "x": 352,
     "y": 3456,
     "width": 32,
     "height": 32,
     "rotation": 0,
     "visible": true,
     "properties": []
    },
    {
     "id": 2531,
     "name": "",
     "type": "",
     "x": 384,
     "y": 3456,
     "width": 32,
     "height": 32,
     "rotation": 0,
     "visible": true,
     "properties": []
    },
    {
     "id": 2532,
     "name": "",
     "type": "",
     "x": 512,
     "y": 3456,
     "width": 32,
     "height": 32,
     "rotation": 0,
     "visible": true,
     "properties": []
    },
    {
     "id": 2533,
     "name": "",
     "type": "",
     "x": 544,
     "y": 3456,
     "width": 32,
     "height": 32,
     "rotation": 0,
     "visible": true,
     "properties": []
    },
    {
     "id": 2534,
     "name": "",
     "type": "",
     "x": 576,
     "y": 3456,
     "width": 32,
     "height": 32,
     "rotation": 0,
     "visible": true,
     "properties": []
    },
    {
     "id": 2535,
     "name": "",
     "type": "",
     "x": 608,
     "y": 3456,
     "width": 32,
     "height": 32,
     "rotation": 0,
     "visible": true,
     "properties": []
    },
    {
     "id": 2536,
     "name": "",
     "type": "",
     "x": 640,
     "y": 3456,
     "width": 32,
     "height": 32,
     "rotation": 0,
     "visible": true,
     "properties": []
    },
    {
     "id": 2537,
     "name": "",
     "type": "",
     "x": 672,
     "y": 3456,
     "width": 32,
     "height": 32,
     "rotation": 0,
     "visible": true,
     "properties": []
    },
    {
     "id": 2538,
     "name": "",
     "type": "",
     "x": 704,
     "y": 3456,
     "width": 32,
     "height": 32,
     "rotation": 0,
     "visible": true,
     "properties": []
    },
    {
     "id": 2539,
     "name": "",
     "type": "",
     "x": 736,
     "y": 3456,
     "width": 32,
     "height": 32,
     "rotation": 0,
     "visible": true,
     "properties": []
    },
    {
     "id": 2540,
     "name": "",
     "type": "",
     "x": 0,
     "y": 3488,
     "width": 32,
     "height": 32,
     "rotation": 0,
     "visible": true,
     "properties": []
    },
    {
     "id": 2541,
     "name": "",
     "type": "",
     "x": 32,
     "y": 3488,
     "width": 32,
     "height": 32,
     "rotation": 0,
     "visible": true,
     "properties": []
    },
    {
     "id": 2542,
     "name": "",
     "type": "",
     "x": 64,
     "y": 3488,
     "width": 32,
     "height": 32,
     "rotation": 0,
     "visible": true,
     "properties": []
    },
    {
     "id": 2543,
     "name": "",
     "type": "",
     "x": 96,
     "y": 3488,
     "width": 32,
     "height": 32,
     "rotation": 0,
     "visible": true,
     "properties": []
    },
    {
     "id": 2544,
     "name": "",
     "type": "",
     "x": 128,
     "y": 3488,
     "width": 32,
     "height": 32,
     "rotation": 0,
     "visible": true,
     "properties": []
    },
    {
     "id": 2545,
     "name": "",
     "type": "",
     "x": 160,
     "y": 3488,
     "width": 32,
     "height": 32,
     "rotation": 0,
     "visible": true,
     "properties": []
    },
    {
     "id": 2546,
     "name": "",
     "type": "",
     "x": 192,
     "y": 3488,
     "width": 32,
     "height": 32,
     "rotation": 0,
     "visible": true,
     "properties": []
    },
    {
     "id": 2547,
     "name": "",
     "type": "",
     "x": 224,
     "y": 3488,
     "width": 32,
     "height": 32,
     "rotation": 0,
     "visible": true,
     "properties": []
    },
    {
     "id": 2548,
     "name": "",
     "type": "",
     "x": 256,
     "y": 3488,
     "width": 32,
     "height": 32,
     "rotation": 0,
     "visible": true,
     "properties": []
    },
    {
     "id": 2549,
     "name": "",
     "type": "",
     "x": 288,
     "y": 3488,
     "width": 32,
     "height": 32,
     "rotation": 0,
     "visible": true,
     "properties": []
    },
    {
     "id": 2550,
     "name": "",
     "type": "",
     "x": 320,
     "y": 3488,
     "width": 32,
     "height": 32,
     "rotation": 0,
     "visible": true,
     "properties": []
    },
    {
     "id": 2551,
     "name": "",
     "type": "",
     "x": 352,
     "y": 3488,
     "width": 32,
     "height": 32,
     "rotation": 0,
     "visible": true,
     "properties": []
    },
    {
     "id": 2552,
     "name": "",
     "type": "",
     "x": 384,
     "y": 3488,
     "width": 32,
     "height": 32,
     "rotation": 0,
     "visible": true,
     "properties": []
    },
    {
     "id": 2553,
     "name": "",
     "type": "",
     "x": 512,
     "y": 3488,
     "width": 32,
     "height": 32,
     "rotation": 0,
     "visible": true,
     "properties": []
    },
    {
     "id": 2554,
     "name": "",
     "type": "",
     "x": 544,
     "y": 3488,
     "width": 32,
     "height": 32,
     "rotation": 0,
     "visible": true,
     "properties": []
    },
    {
     "id": 2555,
     "name": "",
     "type": "",
     "x": 576,
     "y": 3488,
     "width": 32,
     "height": 32,
     "rotation": 0,
     "visible": true,
     "properties": []
    },
    {
     "id": 2556,
     "name": "",
     "type": "",
     "x": 608,
     "y": 3488,
     "width": 32,
     "height": 32,
     "rotation": 0,
     "visible": true,
     "properties": []
    },
    {
     "id": 2557,
     "name": "",
     "type": "",
     "x": 640,
     "y": 3488,
     "width": 32,
     "height": 32,
     "rotation": 0,
     "visible": true,
     "properties": []
    },
    {
     "id": 2558,
     "name": "",
     "type": "",
     "x": 672,
     "y": 3488,
     "width": 32,
     "height": 32,
     "rotation": 0,
     "visible": true,
     "properties": []
    },
    {
     "id": 2559,
     "name": "",
     "type": "",
     "x": 704,
     "y": 3488,
     "width": 32,
     "height": 32,
     "rotation": 0,
     "visible": true,
     "properties": []
    },
    {
     "id": 2560,
     "name": "",
     "type": "",
     "x": 736,
     "y": 3488,
     "width": 32,
     "height": 32,
     "rotation": 0,
     "visible": true,
     "properties": []
    },
    {
     "id": 2561,
     "name": "",
     "type": "",
     "x": 0,
     "y": 3520,
     "width": 32,
     "height": 32,
     "rotation": 0,
     "visible": true,
     "properties": []
    },
    {
     "id": 2562,
     "name": "",
     "type": "",
     "x": 32,
     "y": 3520,
     "width": 32,
     "height": 32,
     "rotation": 0,
     "visible": true,
     "properties": []
    },
    {
     "id": 2563,
     "name": "",
     "type": "",
     "x": 64,
     "y": 3520,
     "width": 32,
     "height": 32,
     "rotation": 0,
     "visible": true,
     "properties": []
    },
    {
     "id": 2564,
     "name": "",
     "type": "",
     "x": 96,
     "y": 3520,
     "width": 32,
     "height": 32,
     "rotation": 0,
     "visible": true,
     "properties": []
    },
    {
     "id": 2565,
     "name": "",
     "type": "",
     "x": 128,
     "y": 3520,
     "width": 32,
     "height": 32,
     "rotation": 0,
     "visible": true,
     "properties": []
    },
    {
     "id": 2566,
     "name": "",
     "type": "",
     "x": 160,
     "y": 3520,
     "width": 32,
     "height": 32,
     "rotation": 0,
     "visible": true,
     "properties": []
    },
    {
     "id": 2567,
     "name": "",
     "type": "",
     "x": 192,
     "y": 3520,
     "width": 32,
     "height": 32,
     "rotation": 0,
     "visible": true,
     "properties": []
    },
    {
     "id": 2568,
     "name": "",
     "type": "",
     "x": 224,
     "y": 3520,
     "width": 32,
     "height": 32,
     "rotation": 0,
     "visible": true,
     "properties": []
    },
    {
     "id": 2569,
     "name": "",
     "type": "",
     "x": 256,
     "y": 3520,
     "width": 32,
     "height": 32,
     "rotation": 0,
     "visible": true,
     "properties": []
    },
    {
     "id": 2570,
     "name": "",
     "type": "",
     "x": 288,
     "y": 3520,
     "width": 32,
     "height": 32,
     "rotation": 0,
     "visible": true,
     "properties": []
    },
    {
     "id": 2571,
     "name": "",
     "type": "",
     "x": 320,
     "y": 3520,
     "width": 32,
     "height": 32,
     "rotation": 0,
     "visible": true,
     "properties": []
    },
    {
     "id": 2572,
     "name": "",
     "type": "",
     "x": 352,
     "y": 3520,
     "width": 32,
     "height": 32,
     "rotation": 0,
     "visible": true,
     "properties": []
    },
    {
     "id": 2573,
     "name": "",
     "type": "",
     "x": 384,
     "y": 3520,
     "width": 32,
     "height": 32,
     "rotation": 0,
     "visible": true,
     "properties": []
    },
    {
     "id": 2574,
     "name": "",
     "type": "",
     "x": 512,
     "y": 3520,
     "width": 32,
     "height": 32,
     "rotation": 0,
     "visible": true,
     "properties": []
    },
    {
     "id": 2575,
     "name": "",
     "type": "",
     "x": 544,
     "y": 3520,
     "width": 32,
     "height": 32,
     "rotation": 0,
     "visible": true,
     "properties": []
    },
    {
     "id": 2576,
     "name": "",
     "type": "",
     "x": 576,
     "y": 3520,
     "width": 32,
     "height": 32,
     "rotation": 0,
     "visible": true,
     "properties": []
    },
    {
     "id": 2577,
     "name": "",
     "type": "",
     "x": 608,
     "y": 3520,
     "width": 32,
     "height": 32,
     "rotation": 0,
     "visible": true,
     "properties": []
    },
    {
     "id": 2578,
     "name": "",
     "type": "",
     "x": 640,
     "y": 3520,
     "width": 32,
     "height": 32,
     "rotation": 0,
     "visible": true,
     "properties": []
    },
    {
     "id": 2579,
     "name": "",
     "type": "",
     "x": 672,
     "y": 3520,
     "width": 32,
     "height": 32,
     "rotation": 0,
     "visible": true,
     "properties": []
    },
    {
     "id": 2580,
     "name": "",
     "type": "",
     "x": 704,
     "y": 3520,
     "width": 32,
     "height": 32,
     "rotation": 0,
     "visible": true,
     "properties": []
    },
    {
     "id": 2581,
     "name": "",
     "type": "",
     "x": 736,
     "y": 3520,
     "width": 32,
     "height": 32,
     "rotation": 0,
     "visible": true,
     "properties": []
    },
    {
     "id": 2582,
     "name": "",
     "type": "",
     "x": 0,
     "y": 3552,
     "width": 32,
     "height": 32,
     "rotation": 0,
     "visible": true,
     "properties": []
    },
    {
     "id": 2583,
     "name": "",
     "type": "",
     "x": 32,
     "y": 3552,
     "width": 32,
     "height": 32,
     "rotation": 0,
     "visible": true,
     "properties": []
    },
    {
     "id": 2584,
     "name": "",
     "type": "",
     "x": 64,
     "y": 3552,
     "width": 32,
     "height": 32,
     "rotation": 0,
     "visible": true,
     "properties": []
    },
    {
     "id": 2585,
     "name": "",
     "type": "",
     "x": 96,
     "y": 3552,
     "width": 32,
     "height": 32,
     "rotation": 0,
     "visible": true,
     "properties": []
    },
    {
     "id": 2586,
     "name": "",
     "type": "",
     "x": 128,
     "y": 3552,
     "width": 32,
     "height": 32,
     "rotation": 0,
     "visible": true,
     "properties": []
    },
    {
     "id": 2587,
     "name": "",
     "type": "",
     "x": 160,
     "y": 3552,
     "width": 32,
     "height": 32,
     "rotation": 0,
     "visible": true,
     "properties": []
    },
    {
     "id": 2588,
     "name": "",
     "type": "",
     "x": 192,
     "y": 3552,
     "width": 32,
     "height": 32,
     "rotation": 0,
     "visible": true,
     "properties": []
    },
    {
     "id": 2589,
     "name": "",
     "type": "",
     "x": 224,
     "y": 3552,
     "width": 32,
     "height": 32,
     "rotation": 0,
     "visible": true,
     "properties": []
    },
    {
     "id": 2590,
     "name": "",
     "type": "",
     "x": 256,
     "y": 3552,
     "width": 32,
     "height": 32,
     "rotation": 0,
     "visible": true,
     "properties": []
    },
    {
     "id": 2591,
     "name": "",
     "type": "",
     "x": 288,
     "y": 3552,
     "width": 32,
     "height": 32,
     "rotation": 0,
     "visible": true,
     "properties": []
    },
    {
     "id": 2592,
     "name": "",
     "type": "",
     "x": 320,
     "y": 3552,
     "width": 32,
     "height": 32,
     "rotation": 0,
     "visible": true,
     "properties": []
    },
    {
     "id": 2593,
     "name": "",
     "type": "",
     "x": 352,
     "y": 3552,
     "width": 32,
     "height": 32,
     "rotation": 0,
     "visible": true,
     "properties": []
    },
    {
     "id": 2594,
     "name": "",
     "type": "",
     "x": 384,
     "y": 3552,
     "width": 32,
     "height": 32,
     "rotation": 0,
     "visible": true,
     "properties": []
    },
    {
     "id": 2595,
     "name": "",
     "type": "",
     "x": 512,
     "y": 3552,
     "width": 32,
     "height": 32,
     "rotation": 0,
     "visible": true,
     "properties": []
    },
    {
     "id": 2596,
     "name": "",
     "type": "",
     "x": 544,
     "y": 3552,
     "width": 32,
     "height": 32,
     "rotation": 0,
     "visible": true,
     "properties": []
    },
    {
     "id": 2597,
     "name": "",
     "type": "",
     "x": 576,
     "y": 3552,
     "width": 32,
     "height": 32,
     "rotation": 0,
     "visible": true,
     "properties": []
    },
    {
     "id": 2598,
     "name": "",
     "type": "",
     "x": 608,
     "y": 3552,
     "width": 32,
     "height": 32,
     "rotation": 0,
     "visible": true,
     "properties": []
    },
    {
     "id": 2599,
     "name": "",
     "type": "",
     "x": 640,
     "y": 3552,
     "width": 32,
     "height": 32,
     "rotation": 0,
     "visible": true,
     "properties": []
    },
    {
     "id": 2600,
     "name": "",
     "type": "",
     "x": 672,
     "y": 3552,
     "width": 32,
     "height": 32,
     "rotation": 0,
     "visible": true,
     "properties": []
    },
    {
     "id": 2601,
     "name": "",
     "type": "",
     "x": 704,
     "y": 3552,
     "width": 32,
     "height": 32,
     "rotation": 0,
     "visible": true,
     "properties": []
    },
    {
     "id": 2602,
     "name": "",
     "type": "",
     "x": 736,
     "y": 3552,
     "width": 32,
     "height": 32,
     "rotation": 0,
     "visible": true,
     "properties": []
    },
    {
     "id": 2603,
     "name": "",
     "type": "",
     "x": 0,
     "y": 3584,
     "width": 32,
     "height": 32,
     "rotation": 0,
     "visible": true,
     "properties": []
    },
    {
     "id": 2604,
     "name": "",
     "type": "",
     "x": 32,
     "y": 3584,
     "width": 32,
     "height": 32,
     "rotation": 0,
     "visible": true,
     "properties": []
    },
    {
     "id": 2605,
     "name": "",
     "type": "",
     "x": 384,
     "y": 3584,
     "width": 32,
     "height": 32,
     "rotation": 0,
     "visible": true,
     "properties": []
    },
    {
     "id": 2606,
     "name": "",
     "type": "",
     "x": 704,
     "y": 3584,
     "width": 32,
     "height": 32,
     "rotation": 0,
     "visible": true,
     "properties": []
    },
    {
     "id": 2607,
     "name": "",
     "type": "",
     "x": 736,
     "y": 3584,
     "width": 32,
     "height": 32,
     "rotation": 0,
     "visible": true,
     "properties": []
    },
    {
     "id": 2608,
     "name": "",
     "type": "",
     "x": 0,
     "y": 3616,
     "width": 32,
     "height": 32,
     "rotation": 0,
     "visible": true,
     "properties": []
    },
    {
     "id": 2609,
     "name": "",
     "type": "",
     "x": 32,
     "y": 3616,
     "width": 32,
     "height": 32,
     "rotation": 0,
     "visible": true,
     "properties": []
    },
    {
     "id": 2610,
     "name": "",
     "type": "",
     "x": 704,
     "y": 3616,
     "width": 32,
     "height": 32,
     "rotation": 0,
     "visible": true,
     "properties": []
    },
    {
     "id": 2611,
     "name": "",
     "type": "",
     "x": 736,
     "y": 3616,
     "width": 32,
     "height": 32,
     "rotation": 0,
     "visible": true,
     "properties": []
    },
    {
     "id": 2612,
     "name": "",
     "type": "",
     "x": 0,
     "y": 3648,
     "width": 32,
     "height": 32,
     "rotation": 0,
     "visible": true,
     "properties": []
    },
    {
     "id": 2613,
     "name": "",
     "type": "",
     "x": 32,
     "y": 3648,
     "width": 32,
     "height": 32,
     "rotation": 0,
     "visible": true,
     "properties": []
    },
    {
     "id": 2614,
     "name": "",
     "type": "",
     "x": 704,
     "y": 3648,
     "width": 32,
     "height": 32,
     "rotation": 0,
     "visible": true,
     "properties": []
    },
    {
     "id": 2615,
     "name": "",
     "type": "",
     "x": 736,
     "y": 3648,
     "width": 32,
     "height": 32,
     "rotation": 0,
     "visible": true,
     "properties": []
    },
    {
     "id": 2616,
     "name": "",
     "type": "",
     "x": 0,
     "y": 3680,
     "width": 32,
     "height": 32,
     "rotation": 0,
     "visible": true,
     "properties": []
    },
    {
     "id": 2617,
     "name": "",
     "type": "",
     "x": 32,
     "y": 3680,
     "width": 32,
     "height": 32,
     "rotation": 0,
     "visible": true,
     "properties": []
    },
    {
     "id": 2618,
     "name": "",
     "type": "",
     "x": 704,
     "y": 3680,
     "width": 32,
     "height": 32,
     "rotation": 0,
     "visible": true,
     "properties": []
    },
    {
     "id": 2619,
     "name": "",
     "type": "",
     "x": 736,
     "y": 3680,
     "width": 32,
     "height": 32,
     "rotation": 0,
     "visible": true,
     "properties": []
    },
    {
     "id": 2620,
     "name": "",
     "type": "",
     "x": 0,
     "y": 3712,
     "width": 32,
     "height": 32,
     "rotation": 0,
     "visible": true,
     "properties": []
    },
    {
     "id": 2621,
     "name": "",
     "type": "",
     "x": 32,
     "y": 3712,
     "width": 32,
     "height": 32,
     "rotation": 0,
     "visible": true,
     "properties": []
    },
    {
     "id": 2622,
     "name": "",
     "type": "",
     "x": 704,
     "y": 3712,
     "width": 32,
     "height": 32,
     "rotation": 0,
     "visible": true,
     "properties": []
    },
    {
     "id": 2623,
     "name": "",
     "type": "",
     "x": 736,
     "y": 3712,
     "width": 32,
     "height": 32,
     "rotation": 0,
     "visible": true,
     "properties": []
    },
    {
     "id": 2624,
     "name": "",
     "type": "",
     "x": 0,
     "y": 3744,
     "width": 32,
     "height": 32,
     "rotation": 0,
     "visible": true,
     "properties": []
    },
    {
     "id": 2625,
     "name": "",
     "type": "",
     "x": 32,
     "y": 3744,
     "width": 32,
     "height": 32,
     "rotation": 0,
     "visible": true,
     "properties": []
    },
    {
     "id": 2626,
     "name": "",
     "type": "",
     "x": 704,
     "y": 3744,
     "width": 32,
     "height": 32,
     "rotation": 0,
     "visible": true,
     "properties": []
    },
    {
     "id": 2627,
     "name": "",
     "type": "",
     "x": 736,
     "y": 3744,
     "width": 32,
     "height": 32,
     "rotation": 0,
     "visible": true,
     "properties": []
    },
    {
     "id": 2628,
     "name": "",
     "type": "",
     "x": 0,
     "y": 3776,
     "width": 32,
     "height": 32,
     "rotation": 0,
     "visible": true,
     "properties": []
    },
    {
     "id": 2629,
     "name": "",
     "type": "",
     "x": 32,
     "y": 3776,
     "width": 32,
     "height": 32,
     "rotation": 0,
     "visible": true,
     "properties": []
    },
    {
     "id": 2630,
     "name": "",
     "type": "",
     "x": 64,
     "y": 3776,
     "width": 32,
     "height": 32,
     "rotation": 0,
     "visible": true,
     "properties": []
    },
    {
     "id": 2631,
     "name": "",
     "type": "",
     "x": 96,
     "y": 3776,
     "width": 32,
     "height": 32,
     "rotation": 0,
     "visible": true,
     "properties": []
    },
    {
     "id": 2632,
     "name": "",
     "type": "",
     "x": 128,
     "y": 3776,
     "width": 32,
     "height": 32,
     "rotation": 0,
     "visible": true,
     "properties": []
    },
    {
     "id": 2633,
     "name": "",
     "type": "",
     "x": 160,
     "y": 3776,
     "width": 32,
     "height": 32,
     "rotation": 0,
     "visible": true,
     "properties": []
    },
    {
     "id": 2634,
     "name": "",
     "type": "",
     "x": 192,
     "y": 3776,
     "width": 32,
     "height": 32,
     "rotation": 0,
     "visible": true,
     "properties": []
    },
    {
     "id": 2635,
     "name": "",
     "type": "",
     "x": 224,
     "y": 3776,
     "width": 32,
     "height": 32,
     "rotation": 0,
     "visible": true,
     "properties": []
    },
    {
     "id": 2636,
     "name": "",
     "type": "",
     "x": 256,
     "y": 3776,
     "width": 32,
     "height": 32,
     "rotation": 0,
     "visible": true,
     "properties": []
    },
    {
     "id": 2637,
     "name": "",
     "type": "",
     "x": 288,
     "y": 3776,
     "width": 32,
     "height": 32,
     "rotation": 0,
     "visible": true,
     "properties": []
    },
    {
     "id": 2638,
     "name": "",
     "type": "",
     "x": 320,
     "y": 3776,
     "width": 32,
     "height": 32,
     "rotation": 0,
     "visible": true,
     "properties": []
    },
    {
     "id": 2639,
     "name": "",
     "type": "",
     "x": 352,
     "y": 3776,
     "width": 32,
     "height": 32,
     "rotation": 0,
     "visible": true,
     "properties": []
    },
    {
     "id": 2640,
     "name": "",
     "type": "",
     "x": 480,
     "y": 3776,
     "width": 32,
     "height": 32,
     "rotation": 0,
     "visible": true,
     "properties": []
    },
    {
     "id": 2641,
     "name": "",
     "type": "",
     "x": 512,
     "y": 3776,
     "width": 32,
     "height": 32,
     "rotation": 0,
     "visible": true,
     "properties": []
    },
    {
     "id": 2642,
     "name": "",
     "type": "",
     "x": 544,
     "y": 3776,
     "width": 32,
     "height": 32,
     "rotation": 0,
     "visible": true,
     "properties": []
    },
    {
     "id": 2643,
     "name": "",
     "type": "",
     "x": 576,
     "y": 3776,
     "width": 32,
     "height": 32,
     "rotation": 0,
     "visible": true,
     "properties": []
    },
    {
     "id": 2644,
     "name": "",
     "type": "",
     "x": 608,
     "y": 3776,
     "width": 32,
     "height": 32,
     "rotation": 0,
     "visible": true,
     "properties": []
    },
    {
     "id": 2645,
     "name": "",
     "type": "",
     "x": 640,
     "y": 3776,
     "width": 32,
     "height": 32,
     "rotation": 0,
     "visible": true,
     "properties": []
    },
    {
     "id": 2646,
     "name": "",
     "type": "",
     "x": 672,
     "y": 3776,
     "width": 32,
     "height": 32,
     "rotation": 0,
     "visible": true,
     "properties": []
    },
    {
     "id": 2647,
     "name": "",
     "type": "",
     "x": 704,
     "y": 3776,
     "width": 32,
     "height": 32,
     "rotation": 0,
     "visible": true,
     "properties": []
    },
    {
     "id": 2648,
     "name": "",
     "type": "",
     "x": 736,
     "y": 3776,
     "width": 32,
     "height": 32,
     "rotation": 0,
     "visible": true,
     "properties": []
    },
    {
     "id": 2649,
     "name": "",
     "type": "",
     "x": 0,
     "y": 3808,
     "width": 32,
     "height": 32,
     "rotation": 0,
     "visible": true,
     "properties": []
    },
    {
     "id": 2650,
     "name": "",
     "type": "",
     "x": 32,
     "y": 3808,
     "width": 32,
     "height": 32,
     "rotation": 0,
     "visible": true,
     "properties": []
    },
    {
     "id": 2651,
     "name": "",
     "type": "",
     "x": 64,
     "y": 3808,
     "width": 32,
     "height": 32,
     "rotation": 0,
     "visible": true,
     "properties": []
    },
    {
     "id": 2652,
     "name": "",
     "type": "",
     "x": 96,
     "y": 3808,
     "width": 32,
     "height": 32,
     "rotation": 0,
     "visible": true,
     "properties": []
    },
    {
     "id": 2653,
     "name": "",
     "type": "",
     "x": 128,
     "y": 3808,
     "width": 32,
     "height": 32,
     "rotation": 0,
     "visible": true,
     "properties": []
    },
    {
     "id": 2654,
     "name": "",
     "type": "",
     "x": 160,
     "y": 3808,
     "width": 32,
     "height": 32,
     "rotation": 0,
     "visible": true,
     "properties": []
    },
    {
     "id": 2655,
     "name": "",
     "type": "",
     "x": 192,
     "y": 3808,
     "width": 32,
     "height": 32,
     "rotation": 0,
     "visible": true,
     "properties": []
    },
    {
     "id": 2656,
     "name": "",
     "type": "",
     "x": 224,
     "y": 3808,
     "width": 32,
     "height": 32,
     "rotation": 0,
     "visible": true,
     "properties": []
    },
    {
     "id": 2657,
     "name": "",
     "type": "",
     "x": 256,
     "y": 3808,
     "width": 32,
     "height": 32,
     "rotation": 0,
     "visible": true,
     "properties": []
    },
    {
     "id": 2658,
     "name": "",
     "type": "",
     "x": 288,
     "y": 3808,
     "width": 32,
     "height": 32,
     "rotation": 0,
     "visible": true,
     "properties": []
    },
    {
     "id": 2659,
     "name": "",
     "type": "",
     "x": 320,
     "y": 3808,
     "width": 32,
     "height": 32,
     "rotation": 0,
     "visible": true,
     "properties": []
    },
    {
     "id": 2660,
     "name": "",
     "type": "",
     "x": 352,
     "y": 3808,
     "width": 32,
     "height": 32,
     "rotation": 0,
     "visible": true,
     "properties": []
    },
    {
     "id": 2661,
     "name": "",
     "type": "",
     "x": 480,
     "y": 3808,
     "width": 32,
     "height": 32,
     "rotation": 0,
     "visible": true,
     "properties": []
    },
    {
     "id": 2662,
     "name": "",
     "type": "",
     "x": 512,
     "y": 3808,
     "width": 32,
     "height": 32,
     "rotation": 0,
     "visible": true,
     "properties": []
    },
    {
     "id": 2663,
     "name": "",
     "type": "",
     "x": 544,
     "y": 3808,
     "width": 32,
     "height": 32,
     "rotation": 0,
     "visible": true,
     "properties": []
    },
    {
     "id": 2664,
     "name": "",
     "type": "",
     "x": 576,
     "y": 3808,
     "width": 32,
     "height": 32,
     "rotation": 0,
     "visible": true,
     "properties": []
    },
    {
     "id": 2665,
     "name": "",
     "type": "",
     "x": 608,
     "y": 3808,
     "width": 32,
     "height": 32,
     "rotation": 0,
     "visible": true,
     "properties": []
    },
    {
     "id": 2666,
     "name": "",
     "type": "",
     "x": 640,
     "y": 3808,
     "width": 32,
     "height": 32,
     "rotation": 0,
     "visible": true,
     "properties": []
    },
    {
     "id": 2667,
     "name": "",
     "type": "",
     "x": 672,
     "y": 3808,
     "width": 32,
     "height": 32,
     "rotation": 0,
     "visible": true,
     "properties": []
    },
    {
     "id": 2668,
     "name": "",
     "type": "",
     "x": 704,
     "y": 3808,
     "width": 32,
     "height": 32,
     "rotation": 0,
     "visible": true,
     "properties": []
    },
    {
     "id": 2669,
     "name": "",
     "type": "",
     "x": 736,
     "y": 3808,
     "width": 32,
     "height": 32,
     "rotation": 0,
     "visible": true,
     "properties": []
    },
    {
     "id": 2670,
     "name": "",
     "type": "",
     "x": 0,
     "y": 3840,
     "width": 32,
     "height": 32,
     "rotation": 0,
     "visible": true,
     "properties": []
    },
    {
     "id": 2671,
     "name": "",
     "type": "",
     "x": 32,
     "y": 3840,
     "width": 32,
     "height": 32,
     "rotation": 0,
     "visible": true,
     "properties": []
    },
    {
     "id": 2672,
     "name": "",
     "type": "",
     "x": 64,
     "y": 3840,
     "width": 32,
     "height": 32,
     "rotation": 0,
     "visible": true,
     "properties": []
    },
    {
     "id": 2673,
     "name": "",
     "type": "",
     "x": 96,
     "y": 3840,
     "width": 32,
     "height": 32,
     "rotation": 0,
     "visible": true,
     "properties": []
    },
    {
     "id": 2674,
     "name": "",
     "type": "",
     "x": 128,
     "y": 3840,
     "width": 32,
     "height": 32,
     "rotation": 0,
     "visible": true,
     "properties": []
    },
    {
     "id": 2675,
     "name": "",
     "type": "",
     "x": 160,
     "y": 3840,
     "width": 32,
     "height": 32,
     "rotation": 0,
     "visible": true,
     "properties": []
    },
    {
     "id": 2676,
     "name": "",
     "type": "",
     "x": 192,
     "y": 3840,
     "width": 32,
     "height": 32,
     "rotation": 0,
     "visible": true,
     "properties": []
    },
    {
     "id": 2677,
     "name": "",
     "type": "",
     "x": 224,
     "y": 3840,
     "width": 32,
     "height": 32,
     "rotation": 0,
     "visible": true,
     "properties": []
    },
    {
     "id": 2678,
     "name": "",
     "type": "",
     "x": 256,
     "y": 3840,
     "width": 32,
     "height": 32,
     "rotation": 0,
     "visible": true,
     "properties": []
    },
    {
     "id": 2679,
     "name": "",
     "type": "",
     "x": 288,
     "y": 3840,
     "width": 32,
     "height": 32,
     "rotation": 0,
     "visible": true,
     "properties": []
    },
    {
     "id": 2680,
     "name": "",
     "type": "",
     "x": 320,
     "y": 3840,
     "width": 32,
     "height": 32,
     "rotation": 0,
     "visible": true,
     "properties": []
    },
    {
     "id": 2681,
     "name": "",
     "type": "",
     "x": 352,
     "y": 3840,
     "width": 32,
     "height": 32,
     "rotation": 0,
     "visible": true,
     "properties": []
    },
    {
     "id": 2682,
     "name": "",
     "type": "",
     "x": 480,
     "y": 3840,
     "width": 32,
     "height": 32,
     "rotation": 0,
     "visible": true,
     "properties": []
    },
    {
     "id": 2683,
     "name": "",
     "type": "",
     "x": 512,
     "y": 3840,
     "width": 32,
     "height": 32,
     "rotation": 0,
     "visible": true,
     "properties": []
    },
    {
     "id": 2684,
     "name": "",
     "type": "",
     "x": 544,
     "y": 3840,
     "width": 32,
     "height": 32,
     "rotation": 0,
     "visible": true,
     "properties": []
    },
    {
     "id": 2685,
     "name": "",
     "type": "",
     "x": 576,
     "y": 3840,
     "width": 32,
     "height": 32,
     "rotation": 0,
     "visible": true,
     "properties": []
    },
    {
     "id": 2686,
     "name": "",
     "type": "",
     "x": 608,
     "y": 3840,
     "width": 32,
     "height": 32,
     "rotation": 0,
     "visible": true,
     "properties": []
    },
    {
     "id": 2687,
     "name": "",
     "type": "",
     "x": 640,
     "y": 3840,
     "width": 32,
     "height": 32,
     "rotation": 0,
     "visible": true,
     "properties": []
    },
    {
     "id": 2688,
     "name": "",
     "type": "",
     "x": 672,
     "y": 3840,
     "width": 32,
     "height": 32,
     "rotation": 0,
     "visible": true,
     "properties": []
    },
    {
     "id": 2689,
     "name": "",
     "type": "",
     "x": 704,
     "y": 3840,
     "width": 32,
     "height": 32,
     "rotation": 0,
     "visible": true,
     "properties": []
    },
    {
     "id": 2690,
     "name": "",
     "type": "",
     "x": 736,
     "y": 3840,
     "width": 32,
     "height": 32,
     "rotation": 0,
     "visible": true,
     "properties": []
    },
    {
     "id": 2691,
     "name": "",
     "type": "",
     "x": 0,
     "y": 3872,
     "width": 32,
     "height": 32,
     "rotation": 0,
     "visible": true,
     "properties": []
    },
    {
     "id": 2692,
     "name": "",
     "type": "",
     "x": 32,
     "y": 3872,
     "width": 32,
     "height": 32,
     "rotation": 0,
     "visible": true,
     "properties": []
    },
    {
     "id": 2693,
     "name": "",
     "type": "",
     "x": 64,
     "y": 3872,
     "width": 32,
     "height": 32,
     "rotation": 0,
     "visible": true,
     "properties": []
    },
    {
     "id": 2694,
     "name": "",
     "type": "",
     "x": 96,
     "y": 3872,
     "width": 32,
     "height": 32,
     "rotation": 0,
     "visible": true,
     "properties": []
    },
    {
     "id": 2695,
     "name": "",
     "type": "",
     "x": 128,
     "y": 3872,
     "width": 32,
     "height": 32,
     "rotation": 0,
     "visible": true,
     "properties": []
    },
    {
     "id": 2696,
     "name": "",
     "type": "",
     "x": 160,
     "y": 3872,
     "width": 32,
     "height": 32,
     "rotation": 0,
     "visible": true,
     "properties": []
    },
    {
     "id": 2697,
     "name": "",
     "type": "",
     "x": 192,
     "y": 3872,
     "width": 32,
     "height": 32,
     "rotation": 0,
     "visible": true,
     "properties": []
    },
    {
     "id": 2698,
     "name": "",
     "type": "",
     "x": 224,
     "y": 3872,
     "width": 32,
     "height": 32,
     "rotation": 0,
     "visible": true,
     "properties": []
    },
    {
     "id": 2699,
     "name": "",
     "type": "",
     "x": 256,
     "y": 3872,
     "width": 32,
     "height": 32,
     "rotation": 0,
     "visible": true,
     "properties": []
    },
    {
     "id": 2700,
     "name": "",
     "type": "",
     "x": 288,
     "y": 3872,
     "width": 32,
     "height": 32,
     "rotation": 0,
     "visible": true,
     "properties": []
    },
    {
     "id": 2701,
     "name": "",
     "type": "",
     "x": 320,
     "y": 3872,
     "width": 32,
     "height": 32,
     "rotation": 0,
     "visible": true,
     "properties": []
    },
    {
     "id": 2702,
     "name": "",
     "type": "",
     "x": 352,
     "y": 3872,
     "width": 32,
     "height": 32,
     "rotation": 0,
     "visible": true,
     "properties": []
    },
    {
     "id": 2703,
     "name": "",
     "type": "",
     "x": 480,
     "y": 3872,
     "width": 32,
     "height": 32,
     "rotation": 0,
     "visible": true,
     "properties": []
    },
    {
     "id": 2704,
     "name": "",
     "type": "",
     "x": 512,
     "y": 3872,
     "width": 32,
     "height": 32,
     "rotation": 0,
     "visible": true,
     "properties": []
    },
    {
     "id": 2705,
     "name": "",
     "type": "",
     "x": 544,
     "y": 3872,
     "width": 32,
     "height": 32,
     "rotation": 0,
     "visible": true,
     "properties": []
    },
    {
     "id": 2706,
     "name": "",
     "type": "",
     "x": 576,
     "y": 3872,
     "width": 32,
     "height": 32,
     "rotation": 0,
     "visible": true,
     "properties": []
    },
    {
     "id": 2707,
     "name": "",
     "type": "",
     "x": 608,
     "y": 3872,
     "width": 32,
     "height": 32,
     "rotation": 0,
     "visible": true,
     "properties": []
    },
    {
     "id": 2708,
     "name": "",
     "type": "",
     "x": 640,
     "y": 3872,
     "width": 32,
     "height": 32,
     "rotation": 0,
     "visible": true,
     "properties": []
    },
    {
     "id": 2709,
     "name": "",
     "type": "",
     "x": 672,
     "y": 3872,
     "width": 32,
     "height": 32,
     "rotation": 0,
     "visible": true,
     "properties": []
    },
    {
     "id": 2710,
     "name": "",
     "type": "",
     "x": 704,
     "y": 3872,
     "width": 32,
     "height": 32,
     "rotation": 0,
     "visible": true,
     "properties": []
    },
    {
     "id": 2711,
     "name": "",
     "type": "",
     "x": 736,
     "y": 3872,
     "width": 32,
     "height": 32,
     "rotation": 0,
     "visible": true,
     "properties": []
    },
    {
     "id": 2712,
     "name": "",
     "type": "",
     "x": 0,
     "y": 3904,
     "width": 32,
     "height": 32,
     "rotation": 0,
     "visible": true,
     "properties": []
    },
    {
     "id": 2713,
     "name": "",
     "type": "",
     "x": 32,
     "y": 3904,
     "width": 32,
     "height": 32,
     "rotation": 0,
     "visible": true,
     "properties": []
    },
    {
     "id": 2714,
     "name": "",
     "type": "",
     "x": 64,
     "y": 3904,
     "width": 32,
     "height": 32,
     "rotation": 0,
     "visible": true,
     "properties": []
    },
    {
     "id": 2715,
     "name": "",
     "type": "",
     "x": 96,
     "y": 3904,
     "width": 32,
     "height": 32,
     "rotation": 0,
     "visible": true,
     "properties": []
    },
    {
     "id": 2716,
     "name": "",
     "type": "",
     "x": 128,
     "y": 3904,
     "width": 32,
     "height": 32,
     "rotation": 0,
     "visible": true,
     "properties": []
    },
    {
     "id": 2717,
     "name": "",
     "type": "",
     "x": 160,
     "y": 3904,
     "width": 32,
     "height": 32,
     "rotation": 0,
     "visible": true,
     "properties": []
    },
    {
     "id": 2718,
     "name": "",
     "type": "",
     "x": 192,
     "y": 3904,
     "width": 32,
     "height": 32,
     "rotation": 0,
     "visible": true,
     "properties": []
    },
    {
     "id": 2719,
     "name": "",
     "type": "",
     "x": 224,
     "y": 3904,
     "width": 32,
     "height": 32,
     "rotation": 0,
     "visible": true,
     "properties": []
    },
    {
     "id": 2720,
     "name": "",
     "type": "",
     "x": 256,
     "y": 3904,
     "width": 32,
     "height": 32,
     "rotation": 0,
     "visible": true,
     "properties": []
    },
    {
     "id": 2721,
     "name": "",
     "type": "",
     "x": 288,
     "y": 3904,
     "width": 32,
     "height": 32,
     "rotation": 0,
     "visible": true,
     "properties": []
    },
    {
     "id": 2722,
     "name": "",
     "type": "",
     "x": 320,
     "y": 3904,
     "width": 32,
     "height": 32,
     "rotation": 0,
     "visible": true,
     "properties": []
    },
    {
     "id": 2723,
     "name": "",
     "type": "",
     "x": 352,
     "y": 3904,
     "width": 32,
     "height": 32,
     "rotation": 0,
     "visible": true,
     "properties": []
    },
    {
     "id": 2724,
     "name": "",
     "type": "",
     "x": 480,
     "y": 3904,
     "width": 32,
     "height": 32,
     "rotation": 0,
     "visible": true,
     "properties": []
    },
    {
     "id": 2725,
     "name": "",
     "type": "",
     "x": 512,
     "y": 3904,
     "width": 32,
     "height": 32,
     "rotation": 0,
     "visible": true,
     "properties": []
    },
    {
     "id": 2726,
     "name": "",
     "type": "",
     "x": 544,
     "y": 3904,
     "width": 32,
     "height": 32,
     "rotation": 0,
     "visible": true,
     "properties": []
    },
    {
     "id": 2727,
     "name": "",
     "type": "",
     "x": 576,
     "y": 3904,
     "width": 32,
     "height": 32,
     "rotation": 0,
     "visible": true,
     "properties": []
    },
    {
     "id": 2728,
     "name": "",
     "type": "",
     "x": 608,
     "y": 3904,
     "width": 32,
     "height": 32,
     "rotation": 0,
     "visible": true,
     "properties": []
    },
    {
     "id": 2729,
     "name": "",
     "type": "",
     "x": 640,
     "y": 3904,
     "width": 32,
     "height": 32,
     "rotation": 0,
     "visible": true,
     "properties": []
    },
    {
     "id": 2730,
     "name": "",
     "type": "",
     "x": 672,
     "y": 3904,
     "width": 32,
     "height": 32,
     "rotation": 0,
     "visible": true,
     "properties": []
    },
    {
     "id": 2731,
     "name": "",
     "type": "",
     "x": 704,
     "y": 3904,
     "width": 32,
     "height": 32,
     "rotation": 0,
     "visible": true,
     "properties": []
    },
    {
     "id": 2732,
     "name": "",
     "type": "",
     "x": 736,
     "y": 3904,
     "width": 32,
     "height": 32,
     "rotation": 0,
     "visible": true,
     "properties": []
    },
    {
     "id": 2733,
     "name": "",
     "type": "",
     "x": 0,
     "y": 3936,
     "width": 32,
     "height": 32,
     "rotation": 0,
     "visible": true,
     "properties": []
    },
    {
     "id": 2734,
     "name": "",
     "type": "",
     "x": 32,
     "y": 3936,
     "width": 32,
     "height": 32,
     "rotation": 0,
     "visible": true,
     "properties": []
    },
    {
     "id": 2735,
     "name": "",
     "type": "",
     "x": 352,
     "y": 3936,
     "width": 32,
     "height": 32,
     "rotation": 0,
     "visible": true,
     "properties": []
    },
    {
     "id": 2736,
     "name": "",
     "type": "",
     "x": 480,
     "y": 3936,
     "width": 32,
     "height": 32,
     "rotation": 0,
     "visible": true,
     "properties": []
    },
    {
     "id": 2737,
     "name": "",
     "type": "",
     "x": 704,
     "y": 3936,
     "width": 32,
     "height": 32,
     "rotation": 0,
     "visible": true,
     "properties": []
    },
    {
     "id": 2738,
     "name": "",
     "type": "",
     "x": 736,
     "y": 3936,
     "width": 32,
     "height": 32,
     "rotation": 0,
     "visible": true,
     "properties": []
    },
    {
     "id": 2739,
     "name": "",
     "type": "",
     "x": 0,
     "y": 3968,
     "width": 32,
     "height": 32,
     "rotation": 0,
     "visible": true,
     "properties": []
    },
    {
     "id": 2740,
     "name": "",
     "type": "",
     "x": 32,
     "y": 3968,
     "width": 32,
     "height": 32,
     "rotation": 0,
     "visible": true,
     "properties": []
    },
    {
     "id": 2741,
     "name": "",
     "type": "",
     "x": 704,
     "y": 3968,
     "width": 32,
     "height": 32,
     "rotation": 0,
     "visible": true,
     "properties": []
    },
    {
     "id": 2742,
     "name": "",
     "type": "",
     "x": 736,
     "y": 3968,
     "width": 32,
     "height": 32,
     "rotation": 0,
     "visible": true,
     "properties": []
    },
    {
     "id": 2743,
     "name": "",
     "type": "",
     "x": 0,
     "y": 4000,
     "width": 32,
     "height": 32,
     "rotation": 0,
     "visible": true,
     "properties": []
    },
    {
     "id": 2744,
     "name": "",
     "type": "",
     "x": 32,
     "y": 4000,
     "width": 32,
     "height": 32,
     "rotation": 0,
     "visible": true,
     "properties": []
    },
    {
     "id": 2745,
     "name": "",
     "type": "",
     "x": 704,
     "y": 4000,
     "width": 32,
     "height": 32,
     "rotation": 0,
     "visible": true,
     "properties": []
    },
    {
     "id": 2746,
     "name": "",
     "type": "",
     "x": 736,
     "y": 4000,
     "width": 32,
     "height": 32,
     "rotation": 0,
     "visible": true,
     "properties": []
    },
    {
     "id": 2747,
     "name": "",
     "type": "",
     "x": 0,
     "y": 4032,
     "width": 32,
     "height": 32,
     "rotation": 0,
     "visible": true,
     "properties": []
    },
    {
     "id": 2748,
     "name": "",
     "type": "",
     "x": 32,
     "y": 4032,
     "width": 32,
     "height": 32,
     "rotation": 0,
     "visible": true,
     "properties": []
    },
    {
     "id": 2749,
     "name": "",
     "type": "",
     "x": 704,
     "y": 4032,
     "width": 32,
     "height": 32,
     "rotation": 0,
     "visible": true,
     "properties": []
    },
    {
     "id": 2750,
     "name": "",
     "type": "",
     "x": 736,
     "y": 4032,
     "width": 32,
     "height": 32,
     "rotation": 0,
     "visible": true,
     "properties": []
    },
    {
     "id": 2751,
     "name": "",
     "type": "",
     "x": 0,
     "y": 4064,
     "width": 32,
     "height": 32,
     "rotation": 0,
     "visible": true,
     "properties": []
    },
    {
     "id": 2752,
     "name": "",
     "type": "",
     "x": 32,
     "y": 4064,
     "width": 32,
     "height": 32,
     "rotation": 0,
     "visible": true,
     "properties": []
    },
    {
     "id": 2753,
     "name": "",
     "type": "",
     "x": 160,
     "y": 4064,
     "width": 32,
     "height": 32,
     "rotation": 0,
     "visible": true,
     "properties": []
    },
    {
     "id": 2754,
     "name": "",
     "type": "",
     "x": 192,
     "y": 4064,
     "width": 32,
     "height": 32,
     "rotation": 0,
     "visible": true,
     "properties": []
    },
    {
     "id": 2755,
     "name": "",
     "type": "",
     "x": 224,
     "y": 4064,
     "width": 32,
     "height": 32,
     "rotation": 0,
     "visible": true,
     "properties": []
    },
    {
     "id": 2756,
     "name": "",
     "type": "",
     "x": 256,
     "y": 4064,
     "width": 32,
     "height": 32,
     "rotation": 0,
     "visible": true,
     "properties": []
    },
    {
     "id": 2757,
     "name": "",
     "type": "",
     "x": 384,
     "y": 4064,
     "width": 32,
     "height": 32,
     "rotation": 0,
     "visible": true,
     "properties": []
    },
    {
     "id": 2758,
     "name": "",
     "type": "",
     "x": 416,
     "y": 4064,
     "width": 32,
     "height": 32,
     "rotation": 0,
     "visible": true,
     "properties": []
    },
    {
     "id": 2759,
     "name": "",
     "type": "",
     "x": 448,
     "y": 4064,
     "width": 32,
     "height": 32,
     "rotation": 0,
     "visible": true,
     "properties": []
    },
    {
     "id": 2760,
     "name": "",
     "type": "",
     "x": 480,
     "y": 4064,
     "width": 32,
     "height": 32,
     "rotation": 0,
     "visible": true,
     "properties": []
    },
    {
     "id": 2761,
     "name": "",
     "type": "",
     "x": 512,
     "y": 4064,
     "width": 32,
     "height": 32,
     "rotation": 0,
     "visible": true,
     "properties": []
    },
    {
     "id": 2762,
     "name": "",
     "type": "",
     "x": 544,
     "y": 4064,
     "width": 32,
     "height": 32,
     "rotation": 0,
     "visible": true,
     "properties": []
    },
    {
     "id": 2763,
     "name": "",
     "type": "",
     "x": 576,
     "y": 4064,
     "width": 32,
     "height": 32,
     "rotation": 0,
     "visible": true,
     "properties": []
    },
    {
     "id": 2764,
     "name": "",
     "type": "",
     "x": 608,
     "y": 4064,
     "width": 32,
     "height": 32,
     "rotation": 0,
     "visible": true,
     "properties": []
    },
    {
     "id": 2765,
     "name": "",
     "type": "",
     "x": 640,
     "y": 4064,
     "width": 32,
     "height": 32,
     "rotation": 0,
     "visible": true,
     "properties": []
    },
    {
     "id": 2766,
     "name": "",
     "type": "",
     "x": 672,
     "y": 4064,
     "width": 32,
     "height": 32,
     "rotation": 0,
     "visible": true,
     "properties": []
    },
    {
     "id": 2767,
     "name": "",
     "type": "",
     "x": 704,
     "y": 4064,
     "width": 32,
     "height": 32,
     "rotation": 0,
     "visible": true,
     "properties": []
    },
    {
     "id": 2768,
     "name": "",
     "type": "",
     "x": 736,
     "y": 4064,
     "width": 32,
     "height": 32,
     "rotation": 0,
     "visible": true,
     "properties": []
    },
    {
     "id": 2769,
     "name": "",
     "type": "",
     "x": 0,
     "y": 4096,
     "width": 32,
     "height": 32,
     "rotation": 0,
     "visible": true,
     "properties": []
    },
    {
     "id": 2770,
     "name": "",
     "type": "",
     "x": 32,
     "y": 4096,
     "width": 32,
     "height": 32,
     "rotation": 0,
     "visible": true,
     "properties": []
    },
    {
     "id": 2771,
     "name": "",
     "type": "",
     "x": 160,
     "y": 4096,
     "width": 32,
     "height": 32,
     "rotation": 0,
     "visible": true,
     "properties": []
    },
    {
     "id": 2772,
     "name": "",
     "type": "",
     "x": 192,
     "y": 4096,
     "width": 32,
     "height": 32,
     "rotation": 0,
     "visible": true,
     "properties": []
    },
    {
     "id": 2773,
     "name": "",
     "type": "",
     "x": 224,
     "y": 4096,
     "width": 32,
     "height": 32,
     "rotation": 0,
     "visible": true,
     "properties": []
    },
    {
     "id": 2774,
     "name": "",
     "type": "",
     "x": 256,
     "y": 4096,
     "width": 32,
     "height": 32,
     "rotation": 0,
     "visible": true,
     "properties": []
    },
    {
     "id": 2775,
     "name": "",
     "type": "",
     "x": 384,
     "y": 4096,
     "width": 32,
     "height": 32,
     "rotation": 0,
     "visible": true,
     "properties": []
    },
    {
     "id": 2776,
     "name": "",
     "type": "",
     "x": 416,
     "y": 4096,
     "width": 32,
     "height": 32,
     "rotation": 0,
     "visible": true,
     "properties": []
    },
    {
     "id": 2777,
     "name": "",
     "type": "",
     "x": 448,
     "y": 4096,
     "width": 32,
     "height": 32,
     "rotation": 0,
     "visible": true,
     "properties": []
    },
    {
     "id": 2778,
     "name": "",
     "type": "",
     "x": 480,
     "y": 4096,
     "width": 32,
     "height": 32,
     "rotation": 0,
     "visible": true,
     "properties": []
    },
    {
     "id": 2779,
     "name": "",
     "type": "",
     "x": 512,
     "y": 4096,
     "width": 32,
     "height": 32,
     "rotation": 0,
     "visible": true,
     "properties": []
    },
    {
     "id": 2780,
     "name": "",
     "type": "",
     "x": 544,
     "y": 4096,
     "width": 32,
     "height": 32,
     "rotation": 0,
     "visible": true,
     "properties": []
    },
    {
     "id": 2781,
     "name": "",
     "type": "",
     "x": 576,
     "y": 4096,
     "width": 32,
     "height": 32,
     "rotation": 0,
     "visible": true,
     "properties": []
    },
    {
     "id": 2782,
     "name": "",
     "type": "",
     "x": 608,
     "y": 4096,
     "width": 32,
     "height": 32,
     "rotation": 0,
     "visible": true,
     "properties": []
    },
    {
     "id": 2783,
     "name": "",
     "type": "",
     "x": 640,
     "y": 4096,
     "width": 32,
     "height": 32,
     "rotation": 0,
     "visible": true,
     "properties": []
    },
    {
     "id": 2784,
     "name": "",
     "type": "",
     "x": 672,
     "y": 4096,
     "width": 32,
     "height": 32,
     "rotation": 0,
     "visible": true,
     "properties": []
    },
    {
     "id": 2785,
     "name": "",
     "type": "",
     "x": 704,
     "y": 4096,
     "width": 32,
     "height": 32,
     "rotation": 0,
     "visible": true,
     "properties": []
    },
    {
     "id": 2786,
     "name": "",
     "type": "",
     "x": 736,
     "y": 4096,
     "width": 32,
     "height": 32,
     "rotation": 0,
     "visible": true,
     "properties": []
    },
    {
     "id": 2787,
     "name": "",
     "type": "",
     "x": 0,
     "y": 4128,
     "width": 32,
     "height": 32,
     "rotation": 0,
     "visible": true,
     "properties": []
    },
    {
     "id": 2788,
     "name": "",
     "type": "",
     "x": 32,
     "y": 4128,
     "width": 32,
     "height": 32,
     "rotation": 0,
     "visible": true,
     "properties": []
    },
    {
     "id": 2789,
     "name": "",
     "type": "",
     "x": 160,
     "y": 4128,
     "width": 32,
     "height": 32,
     "rotation": 0,
     "visible": true,
     "properties": []
    },
    {
     "id": 2790,
     "name": "",
     "type": "",
     "x": 192,
     "y": 4128,
     "width": 32,
     "height": 32,
     "rotation": 0,
     "visible": true,
     "properties": []
    },
    {
     "id": 2791,
     "name": "",
     "type": "",
     "x": 224,
     "y": 4128,
     "width": 32,
     "height": 32,
     "rotation": 0,
     "visible": true,
     "properties": []
    },
    {
     "id": 2792,
     "name": "",
     "type": "",
     "x": 256,
     "y": 4128,
     "width": 32,
     "height": 32,
     "rotation": 0,
     "visible": true,
     "properties": []
    },
    {
     "id": 2793,
     "name": "",
     "type": "",
     "x": 384,
     "y": 4128,
     "width": 32,
     "height": 32,
     "rotation": 0,
     "visible": true,
     "properties": []
    },
    {
     "id": 2794,
     "name": "",
     "type": "",
     "x": 416,
     "y": 4128,
     "width": 32,
     "height": 32,
     "rotation": 0,
     "visible": true,
     "properties": []
    },
    {
     "id": 2795,
     "name": "",
     "type": "",
     "x": 448,
     "y": 4128,
     "width": 32,
     "height": 32,
     "rotation": 0,
     "visible": true,
     "properties": []
    },
    {
     "id": 2796,
     "name": "",
     "type": "",
     "x": 480,
     "y": 4128,
     "width": 32,
     "height": 32,
     "rotation": 0,
     "visible": true,
     "properties": []
    },
    {
     "id": 2797,
     "name": "",
     "type": "",
     "x": 512,
     "y": 4128,
     "width": 32,
     "height": 32,
     "rotation": 0,
     "visible": true,
     "properties": []
    },
    {
     "id": 2798,
     "name": "",
     "type": "",
     "x": 544,
     "y": 4128,
     "width": 32,
     "height": 32,
     "rotation": 0,
     "visible": true,
     "properties": []
    },
    {
     "id": 2799,
     "name": "",
     "type": "",
     "x": 576,
     "y": 4128,
     "width": 32,
     "height": 32,
     "rotation": 0,
     "visible": true,
     "properties": []
    },
    {
     "id": 2800,
     "name": "",
     "type": "",
     "x": 608,
     "y": 4128,
     "width": 32,
     "height": 32,
     "rotation": 0,
     "visible": true,
     "properties": []
    },
    {
     "id": 2801,
     "name": "",
     "type": "",
     "x": 640,
     "y": 4128,
     "width": 32,
     "height": 32,
     "rotation": 0,
     "visible": true,
     "properties": []
    },
    {
     "id": 2802,
     "name": "",
     "type": "",
     "x": 672,
     "y": 4128,
     "width": 32,
     "height": 32,
     "rotation": 0,
     "visible": true,
     "properties": []
    },
    {
     "id": 2803,
     "name": "",
     "type": "",
     "x": 704,
     "y": 4128,
     "width": 32,
     "height": 32,
     "rotation": 0,
     "visible": true,
     "properties": []
    },
    {
     "id": 2804,
     "name": "",
     "type": "",
     "x": 736,
     "y": 4128,
     "width": 32,
     "height": 32,
     "rotation": 0,
     "visible": true,
     "properties": []
    },
    {
     "id": 2805,
     "name": "",
     "type": "",
     "x": 0,
     "y": 4160,
     "width": 32,
     "height": 32,
     "rotation": 0,
     "visible": true,
     "properties": []
    },
    {
     "id": 2806,
     "name": "",
     "type": "",
     "x": 32,
     "y": 4160,
     "width": 32,
     "height": 32,
     "rotation": 0,
     "visible": true,
     "properties": []
    },
    {
     "id": 2807,
     "name": "",
     "type": "",
     "x": 160,
     "y": 4160,
     "width": 32,
     "height": 32,
     "rotation": 0,
     "visible": true,
     "properties": []
    },
    {
     "id": 2808,
     "name": "",
     "type": "",
     "x": 192,
     "y": 4160,
     "width": 32,
     "height": 32,
     "rotation": 0,
     "visible": true,
     "properties": []
    },
    {
     "id": 2809,
     "name": "",
     "type": "",
     "x": 224,
     "y": 4160,
     "width": 32,
     "height": 32,
     "rotation": 0,
     "visible": true,
     "properties": []
    },
    {
     "id": 2810,
     "name": "",
     "type": "",
     "x": 256,
     "y": 4160,
     "width": 32,
     "height": 32,
     "rotation": 0,
     "visible": true,
     "properties": []
    },
    {
     "id": 2811,
     "name": "",
     "type": "",
     "x": 384,
     "y": 4160,
     "width": 32,
     "height": 32,
     "rotation": 0,
     "visible": true,
     "properties": []
    },
    {
     "id": 2812,
     "name": "",
     "type": "",
     "x": 416,
     "y": 4160,
     "width": 32,
     "height": 32,
     "rotation": 0,
     "visible": true,
     "properties": []
    },
    {
     "id": 2813,
     "name": "",
     "type": "",
     "x": 448,
     "y": 4160,
     "width": 32,
     "height": 32,
     "rotation": 0,
     "visible": true,
     "properties": []
    },
    {
     "id": 2814,
     "name": "",
     "type": "",
     "x": 480,
     "y": 4160,
     "width": 32,
     "height": 32,
     "rotation": 0,
     "visible": true,
     "properties": []
    },
    {
     "id": 2815,
     "name": "",
     "type": "",
     "x": 512,
     "y": 4160,
     "width": 32,
     "height": 32,
     "rotation": 0,
     "visible": true,
     "properties": []
    },
    {
     "id": 2816,
     "name": "",
     "type": "",
     "x": 544,
     "y": 4160,
     "width": 32,
     "height": 32,
     "rotation": 0,
     "visible": true,
     "properties": []
    },
    {
     "id": 2817,
     "name": "",
     "type": "",
     "x": 576,
     "y": 4160,
     "width": 32,
     "height": 32,
     "rotation": 0,
     "visible": true,
     "properties": []
    },
    {
     "id": 2818,
     "name": "",
     "type": "",
     "x": 608,
     "y": 4160,
     "width": 32,
     "height": 32,
     "rotation": 0,
     "visible": true,
     "properties": []
    },
    {
     "id": 2819,
     "name": "",
     "type": "",
     "x": 640,
     "y": 4160,
     "width": 32,
     "height": 32,
     "rotation": 0,
     "visible": true,
     "properties": []
    },
    {
     "id": 2820,
     "name": "",
     "type": "",
     "x": 672,
     "y": 4160,
     "width": 32,
     "height": 32,
     "rotation": 0,
     "visible": true,
     "properties": []
    },
    {
     "id": 2821,
     "name": "",
     "type": "",
     "x": 704,
     "y": 4160,
     "width": 32,
     "height": 32,
     "rotation": 0,
     "visible": true,
     "properties": []
    },
    {
     "id": 2822,
     "name": "",
     "type": "",
     "x": 736,
     "y": 4160,
     "width": 32,
     "height": 32,
     "rotation": 0,
     "visible": true,
     "properties": []
    },
    {
     "id": 2823,
     "name": "",
     "type": "",
     "x": 0,
     "y": 4192,
     "width": 32,
     "height": 32,
     "rotation": 0,
     "visible": true,
     "properties": []
    },
    {
     "id": 2824,
     "name": "",
     "type": "",
     "x": 32,
     "y": 4192,
     "width": 32,
     "height": 32,
     "rotation": 0,
     "visible": true,
     "properties": []
    },
    {
     "id": 2825,
     "name": "",
     "type": "",
     "x": 256,
     "y": 4192,
     "width": 32,
     "height": 32,
     "rotation": 0,
     "visible": true,
     "properties": []
    },
    {
     "id": 2826,
     "name": "",
     "type": "",
     "x": 384,
     "y": 4192,
     "width": 32,
     "height": 32,
     "rotation": 0,
     "visible": true,
     "properties": []
    },
    {
     "id": 2827,
     "name": "",
     "type": "",
     "x": 704,
     "y": 4192,
     "width": 32,
     "height": 32,
     "rotation": 0,
     "visible": true,
     "properties": []
    },
    {
     "id": 2828,
     "name": "",
     "type": "",
     "x": 736,
     "y": 4192,
     "width": 32,
     "height": 32,
     "rotation": 0,
     "visible": true,
     "properties": []
    },
    {
     "id": 2829,
     "name": "",
     "type": "",
     "x": 0,
     "y": 4224,
     "width": 32,
     "height": 32,
     "rotation": 0,
     "visible": true,
     "properties": []
    },
    {
     "id": 2830,
     "name": "",
     "type": "",
     "x": 32,
     "y": 4224,
     "width": 32,
     "height": 32,
     "rotation": 0,
     "visible": true,
     "properties": []
    },
    {
     "id": 2831,
     "name": "",
     "type": "",
     "x": 64,
     "y": 4224,
     "width": 32,
     "height": 32,
     "rotation": 0,
     "visible": true,
     "properties": []
    },
    {
     "id": 2832,
     "name": "",
     "type": "",
     "x": 96,
     "y": 4224,
     "width": 32,
     "height": 32,
     "rotation": 0,
     "visible": true,
     "properties": []
    },
    {
     "id": 2833,
     "name": "",
     "type": "",
     "x": 704,
     "y": 4224,
     "width": 32,
     "height": 32,
     "rotation": 0,
     "visible": true,
     "properties": []
    },
    {
     "id": 2834,
     "name": "",
     "type": "",
     "x": 736,
     "y": 4224,
     "width": 32,
     "height": 32,
     "rotation": 0,
     "visible": true,
     "properties": []
    },
    {
     "id": 2835,
     "name": "",
     "type": "",
     "x": 0,
     "y": 4256,
     "width": 32,
     "height": 32,
     "rotation": 0,
     "visible": true,
     "properties": []
    },
    {
     "id": 2836,
     "name": "",
     "type": "",
     "x": 32,
     "y": 4256,
     "width": 32,
     "height": 32,
     "rotation": 0,
     "visible": true,
     "properties": []
    },
    {
     "id": 2837,
     "name": "",
     "type": "",
     "x": 64,
     "y": 4256,
     "width": 32,
     "height": 32,
     "rotation": 0,
     "visible": true,
     "properties": []
    },
    {
     "id": 2838,
     "name": "",
     "type": "",
     "x": 96,
     "y": 4256,
     "width": 32,
     "height": 32,
     "rotation": 0,
     "visible": true,
     "properties": []
    },
    {
     "id": 2839,
     "name": "",
     "type": "",
     "x": 704,
     "y": 4256,
     "width": 32,
     "height": 32,
     "rotation": 0,
     "visible": true,
     "properties": []
    },
    {
     "id": 2840,
     "name": "",
     "type": "",
     "x": 736,
     "y": 4256,
     "width": 32,
     "height": 32,
     "rotation": 0,
     "visible": true,
     "properties": []
    },
    {
     "id": 2841,
     "name": "",
     "type": "",
     "x": 0,
     "y": 4288,
     "width": 32,
     "height": 32,
     "rotation": 0,
     "visible": true,
     "properties": []
    },
    {
     "id": 2842,
     "name": "",
     "type": "",
     "x": 32,
     "y": 4288,
     "width": 32,
     "height": 32,
     "rotation": 0,
     "visible": true,
     "properties": []
    },
    {
     "id": 2843,
     "name": "",
     "type": "",
     "x": 64,
     "y": 4288,
     "width": 32,
     "height": 32,
     "rotation": 0,
     "visible": true,
     "properties": []
    },
    {
     "id": 2844,
     "name": "",
     "type": "",
     "x": 96,
     "y": 4288,
     "width": 32,
     "height": 32,
     "rotation": 0,
     "visible": true,
     "properties": []
    },
    {
     "id": 2845,
     "name": "",
     "type": "",
     "x": 704,
     "y": 4288,
     "width": 32,
     "height": 32,
     "rotation": 0,
     "visible": true,
     "properties": []
    },
    {
     "id": 2846,
     "name": "",
     "type": "",
     "x": 736,
     "y": 4288,
     "width": 32,
     "height": 32,
     "rotation": 0,
     "visible": true,
     "properties": []
    },
    {
     "id": 2847,
     "name": "",
     "type": "",
     "x": 0,
     "y": 4320,
     "width": 32,
     "height": 32,
     "rotation": 0,
     "visible": true,
     "properties": []
    },
    {
     "id": 2848,
     "name": "",
     "type": "",
     "x": 32,
     "y": 4320,
     "width": 32,
     "height": 32,
     "rotation": 0,
     "visible": true,
     "properties": []
    },
    {
     "id": 2849,
     "name": "",
     "type": "",
     "x": 64,
     "y": 4320,
     "width": 32,
     "height": 32,
     "rotation": 0,
     "visible": true,
     "properties": []
    },
    {
     "id": 2850,
     "name": "",
     "type": "",
     "x": 96,
     "y": 4320,
     "width": 32,
     "height": 32,
     "rotation": 0,
     "visible": true,
     "properties": []
    },
    {
     "id": 2851,
     "name": "",
     "type": "",
     "x": 704,
     "y": 4320,
     "width": 32,
     "height": 32,
     "rotation": 0,
     "visible": true,
     "properties": []
    },
    {
     "id": 2852,
     "name": "",
     "type": "",
     "x": 736,
     "y": 4320,
     "width": 32,
     "height": 32,
     "rotation": 0,
     "visible": true,
     "properties": []
    },
    {
     "id": 2853,
     "name": "",
     "type": "",
     "x": 0,
     "y": 4352,
     "width": 32,
     "height": 32,
     "rotation": 0,
     "visible": true,
     "properties": []
    },
    {
     "id": 2854,
     "name": "",
     "type": "",
     "x": 32,
     "y": 4352,
     "width": 32,
     "height": 32,
     "rotation": 0,
     "visible": true,
     "properties": []
    },
    {
     "id": 2855,
     "name": "",
     "type": "",
     "x": 64,
     "y": 4352,
     "width": 32,
     "height": 32,
     "rotation": 0,
     "visible": true,
     "properties": []
    },
    {
     "id": 2856,
     "name": "",
     "type": "",
     "x": 96,
     "y": 4352,
     "width": 32,
     "height": 32,
     "rotation": 0,
     "visible": true,
     "properties": []
    },
    {
     "id": 2857,
     "name": "",
     "type": "",
     "x": 128,
     "y": 4352,
     "width": 32,
     "height": 32,
     "rotation": 0,
     "visible": true,
     "properties": []
    },
    {
     "id": 2858,
     "name": "",
     "type": "",
     "x": 160,
     "y": 4352,
     "width": 32,
     "height": 32,
     "rotation": 0,
     "visible": true,
     "properties": []
    },
    {
     "id": 2859,
     "name": "",
     "type": "",
     "x": 288,
     "y": 4352,
     "width": 32,
     "height": 32,
     "rotation": 0,
     "visible": true,
     "properties": []
    },
    {
     "id": 2860,
     "name": "",
     "type": "",
     "x": 320,
     "y": 4352,
     "width": 32,
     "height": 32,
     "rotation": 0,
     "visible": true,
     "properties": []
    },
    {
     "id": 2861,
     "name": "",
     "type": "",
     "x": 352,
     "y": 4352,
     "width": 32,
     "height": 32,
     "rotation": 0,
     "visible": true,
     "properties": []
    },
    {
     "id": 2862,
     "name": "",
     "type": "",
     "x": 384,
     "y": 4352,
     "width": 32,
     "height": 32,
     "rotation": 0,
     "visible": true,
     "properties": []
    },
    {
     "id": 2863,
     "name": "",
     "type": "",
     "x": 416,
     "y": 4352,
     "width": 32,
     "height": 32,
     "rotation": 0,
     "visible": true,
     "properties": []
    },
    {
     "id": 2864,
     "name": "",
     "type": "",
     "x": 448,
     "y": 4352,
     "width": 32,
     "height": 32,
     "rotation": 0,
     "visible": true,
     "properties": []
    },
    {
     "id": 2865,
     "name": "",
     "type": "",
     "x": 480,
     "y": 4352,
     "width": 32,
     "height": 32,
     "rotation": 0,
     "visible": true,
     "properties": []
    },
    {
     "id": 2866,
     "name": "",
     "type": "",
     "x": 512,
     "y": 4352,
     "width": 32,
     "height": 32,
     "rotation": 0,
     "visible": true,
     "properties": []
    },
    {
     "id": 2867,
     "name": "",
     "type": "",
     "x": 544,
     "y": 4352,
     "width": 32,
     "height": 32,
     "rotation": 0,
     "visible": true,
     "properties": []
    },
    {
     "id": 2868,
     "name": "",
     "type": "",
     "x": 576,
     "y": 4352,
     "width": 32,
     "height": 32,
     "rotation": 0,
     "visible": true,
     "properties": []
    },
    {
     "id": 2869,
     "name": "",
     "type": "",
     "x": 608,
     "y": 4352,
     "width": 32,
     "height": 32,
     "rotation": 0,
     "visible": true,
     "properties": []
    },
    {
     "id": 2870,
     "name": "",
     "type": "",
     "x": 640,
     "y": 4352,
     "width": 32,
     "height": 32,
     "rotation": 0,
     "visible": true,
     "properties": []
    },
    {
     "id": 2871,
     "name": "",
     "type": "",
     "x": 672,
     "y": 4352,
     "width": 32,
     "height": 32,
     "rotation": 0,
     "visible": true,
     "properties": []
    },
    {
     "id": 2872,
     "name": "",
     "type": "",
     "x": 704,
     "y": 4352,
     "width": 32,
     "height": 32,
     "rotation": 0,
     "visible": true,
     "properties": []
    },
    {
     "id": 2873,
     "name": "",
     "type": "",
     "x": 736,
     "y": 4352,
     "width": 32,
     "height": 32,
     "rotation": 0,
     "visible": true,
     "properties": []
    },
    {
     "id": 2874,
     "name": "",
     "type": "",
     "x": 0,
     "y": 4384,
     "width": 32,
     "height": 32,
     "rotation": 0,
     "visible": true,
     "properties": []
    },
    {
     "id": 2875,
     "name": "",
     "type": "",
     "x": 32,
     "y": 4384,
     "width": 32,
     "height": 32,
     "rotation": 0,
     "visible": true,
     "properties": []
    },
    {
     "id": 2876,
     "name": "",
     "type": "",
     "x": 64,
     "y": 4384,
     "width": 32,
     "height": 32,
     "rotation": 0,
     "visible": true,
     "properties": []
    },
    {
     "id": 2877,
     "name": "",
     "type": "",
     "x": 96,
     "y": 4384,
     "width": 32,
     "height": 32,
     "rotation": 0,
     "visible": true,
     "properties": []
    },
    {
     "id": 2878,
     "name": "",
     "type": "",
     "x": 128,
     "y": 4384,
     "width": 32,
     "height": 32,
     "rotation": 0,
     "visible": true,
     "properties": []
    },
    {
     "id": 2879,
     "name": "",
     "type": "",
     "x": 160,
     "y": 4384,
     "width": 32,
     "height": 32,
     "rotation": 0,
     "visible": true,
     "properties": []
    },
    {
     "id": 2880,
     "name": "",
     "type": "",
     "x": 288,
     "y": 4384,
     "width": 32,
     "height": 32,
     "rotation": 0,
     "visible": true,
     "properties": []
    },
    {
     "id": 2881,
     "name": "",
     "type": "",
     "x": 320,
     "y": 4384,
     "width": 32,
     "height": 32,
     "rotation": 0,
     "visible": true,
     "properties": []
    },
    {
     "id": 2882,
     "name": "",
     "type": "",
     "x": 352,
     "y": 4384,
     "width": 32,
     "height": 32,
     "rotation": 0,
     "visible": true,
     "properties": []
    },
    {
     "id": 2883,
     "name": "",
     "type": "",
     "x": 384,
     "y": 4384,
     "width": 32,
     "height": 32,
     "rotation": 0,
     "visible": true,
     "properties": []
    },
    {
     "id": 2884,
     "name": "",
     "type": "",
     "x": 416,
     "y": 4384,
     "width": 32,
     "height": 32,
     "rotation": 0,
     "visible": true,
     "properties": []
    },
    {
     "id": 2885,
     "name": "",
     "type": "",
     "x": 448,
     "y": 4384,
     "width": 32,
     "height": 32,
     "rotation": 0,
     "visible": true,
     "properties": []
    },
    {
     "id": 2886,
     "name": "",
     "type": "",
     "x": 480,
     "y": 4384,
     "width": 32,
     "height": 32,
     "rotation": 0,
     "visible": true,
     "properties": []
    },
    {
     "id": 2887,
     "name": "",
     "type": "",
     "x": 512,
     "y": 4384,
     "width": 32,
     "height": 32,
     "rotation": 0,
     "visible": true,
     "properties": []
    },
    {
     "id": 2888,
     "name": "",
     "type": "",
     "x": 544,
     "y": 4384,
     "width": 32,
     "height": 32,
     "rotation": 0,
     "visible": true,
     "properties": []
    },
    {
     "id": 2889,
     "name": "",
     "type": "",
     "x": 576,
     "y": 4384,
     "width": 32,
     "height": 32,
     "rotation": 0,
     "visible": true,
     "properties": []
    },
    {
     "id": 2890,
     "name": "",
     "type": "",
     "x": 608,
     "y": 4384,
     "width": 32,
     "height": 32,
     "rotation": 0,
     "visible": true,
     "properties": []
    },
    {
     "id": 2891,
     "name": "",
     "type": "",
     "x": 640,
     "y": 4384,
     "width": 32,
     "height": 32,
     "rotation": 0,
     "visible": true,
     "properties": []
    },
    {
     "id": 2892,
     "name": "",
     "type": "",
     "x": 672,
     "y": 4384,
     "width": 32,
     "height": 32,
     "rotation": 0,
     "visible": true,
     "properties": []
    },
    {
     "id": 2893,
     "name": "",
     "type": "",
     "x": 704,
     "y": 4384,
     "width": 32,
     "height": 32,
     "rotation": 0,
     "visible": true,
     "properties": []
    },
    {
     "id": 2894,
     "name": "",
     "type": "",
     "x": 736,
     "y": 4384,
     "width": 32,
     "height": 32,
     "rotation": 0,
     "visible": true,
     "properties": []
    },
    {
     "id": 2895,
     "name": "",
     "type": "",
     "x": 0,
     "y": 4416,
     "width": 32,
     "height": 32,
     "rotation": 0,
     "visible": true,
     "properties": []
    },
    {
     "id": 2896,
     "name": "",
     "type": "",
     "x": 32,
     "y": 4416,
     "width": 32,
     "height": 32,
     "rotation": 0,
     "visible": true,
     "properties": []
    },
    {
     "id": 2897,
     "name": "",
     "type": "",
     "x": 64,
     "y": 4416,
     "width": 32,
     "height": 32,
     "rotation": 0,
     "visible": true,
     "properties": []
    },
    {
     "id": 2898,
     "name": "",
     "type": "",
     "x": 96,
     "y": 4416,
     "width": 32,
     "height": 32,
     "rotation": 0,
     "visible": true,
     "properties": []
    },
    {
     "id": 2899,
     "name": "",
     "type": "",
     "x": 128,
     "y": 4416,
     "width": 32,
     "height": 32,
     "rotation": 0,
     "visible": true,
     "properties": []
    },
    {
     "id": 2900,
     "name": "",
     "type": "",
     "x": 160,
     "y": 4416,
     "width": 32,
     "height": 32,
     "rotation": 0,
     "visible": true,
     "properties": []
    },
    {
     "id": 2901,
     "name": "",
     "type": "",
     "x": 288,
     "y": 4416,
     "width": 32,
     "height": 32,
     "rotation": 0,
     "visible": true,
     "properties": []
    },
    {
     "id": 2902,
     "name": "",
     "type": "",
     "x": 320,
     "y": 4416,
     "width": 32,
     "height": 32,
     "rotation": 0,
     "visible": true,
     "properties": []
    },
    {
     "id": 2903,
     "name": "",
     "type": "",
     "x": 352,
     "y": 4416,
     "width": 32,
     "height": 32,
     "rotation": 0,
     "visible": true,
     "properties": []
    },
    {
     "id": 2904,
     "name": "",
     "type": "",
     "x": 384,
     "y": 4416,
     "width": 32,
     "height": 32,
     "rotation": 0,
     "visible": true,
     "properties": []
    },
    {
     "id": 2905,
     "name": "",
     "type": "",
     "x": 416,
     "y": 4416,
     "width": 32,
     "height": 32,
     "rotation": 0,
     "visible": true,
     "properties": []
    },
    {
     "id": 2906,
     "name": "",
     "type": "",
     "x": 448,
     "y": 4416,
     "width": 32,
     "height": 32,
     "rotation": 0,
     "visible": true,
     "properties": []
    },
    {
     "id": 2907,
     "name": "",
     "type": "",
     "x": 480,
     "y": 4416,
     "width": 32,
     "height": 32,
     "rotation": 0,
     "visible": true,
     "properties": []
    },
    {
     "id": 2908,
     "name": "",
     "type": "",
     "x": 512,
     "y": 4416,
     "width": 32,
     "height": 32,
     "rotation": 0,
     "visible": true,
     "properties": []
    },
    {
     "id": 2909,
     "name": "",
     "type": "",
     "x": 544,
     "y": 4416,
     "width": 32,
     "height": 32,
     "rotation": 0,
     "visible": true,
     "properties": []
    },
    {
     "id": 2910,
     "name": "",
     "type": "",
     "x": 576,
     "y": 4416,
     "width": 32,
     "height": 32,
     "rotation": 0,
     "visible": true,
     "properties": []
    },
    {
     "id": 2911,
     "name": "",
     "type": "",
     "x": 608,
     "y": 4416,
     "width": 32,
     "height": 32,
     "rotation": 0,
     "visible": true,
     "properties": []
    },
    {
     "id": 2912,
     "name": "",
     "type": "",
     "x": 640,
     "y": 4416,
     "width": 32,
     "height": 32,
     "rotation": 0,
     "visible": true,
     "properties": []
    },
    {
     "id": 2913,
     "name": "",
     "type": "",
     "x": 672,
     "y": 4416,
     "width": 32,
     "height": 32,
     "rotation": 0,
     "visible": true,
     "properties": []
    },
    {
     "id": 2914,
     "name": "",
     "type": "",
     "x": 704,
     "y": 4416,
     "width": 32,
     "height": 32,
     "rotation": 0,
     "visible": true,
     "properties": []
    },
    {
     "id": 2915,
     "name": "",
     "type": "",
     "x": 736,
     "y": 4416,
     "width": 32,
     "height": 32,
     "rotation": 0,
     "visible": true,
     "properties": []
    },
    {
     "id": 2916,
     "name": "",
     "type": "",
     "x": 0,
     "y": 4448,
     "width": 32,
     "height": 32,
     "rotation": 0,
     "visible": true,
     "properties": []
    },
    {
     "id": 2917,
     "name": "",
     "type": "",
     "x": 32,
     "y": 4448,
     "width": 32,
     "height": 32,
     "rotation": 0,
     "visible": true,
     "properties": []
    },
    {
     "id": 2918,
     "name": "",
     "type": "",
     "x": 64,
     "y": 4448,
     "width": 32,
     "height": 32,
     "rotation": 0,
     "visible": true,
     "properties": []
    },
    {
     "id": 2919,
     "name": "",
     "type": "",
     "x": 96,
     "y": 4448,
     "width": 32,
     "height": 32,
     "rotation": 0,
     "visible": true,
     "properties": []
    },
    {
     "id": 2920,
     "name": "",
     "type": "",
     "x": 128,
     "y": 4448,
     "width": 32,
     "height": 32,
     "rotation": 0,
     "visible": true,
     "properties": []
    },
    {
     "id": 2921,
     "name": "",
     "type": "",
     "x": 160,
     "y": 4448,
     "width": 32,
     "height": 32,
     "rotation": 0,
     "visible": true,
     "properties": []
    },
    {
     "id": 2922,
     "name": "",
     "type": "",
     "x": 288,
     "y": 4448,
     "width": 32,
     "height": 32,
     "rotation": 0,
     "visible": true,
     "properties": []
    },
    {
     "id": 2923,
     "name": "",
     "type": "",
     "x": 320,
     "y": 4448,
     "width": 32,
     "height": 32,
     "rotation": 0,
     "visible": true,
     "properties": []
    },
    {
     "id": 2924,
     "name": "",
     "type": "",
     "x": 352,
     "y": 4448,
     "width": 32,
     "height": 32,
     "rotation": 0,
     "visible": true,
     "properties": []
    },
    {
     "id": 2925,
     "name": "",
     "type": "",
     "x": 384,
     "y": 4448,
     "width": 32,
     "height": 32,
     "rotation": 0,
     "visible": true,
     "properties": []
    },
    {
     "id": 2926,
     "name": "",
     "type": "",
     "x": 416,
     "y": 4448,
     "width": 32,
     "height": 32,
     "rotation": 0,
     "visible": true,
     "properties": []
    },
    {
     "id": 2927,
     "name": "",
     "type": "",
     "x": 448,
     "y": 4448,
     "width": 32,
     "height": 32,
     "rotation": 0,
     "visible": true,
     "properties": []
    },
    {
     "id": 2928,
     "name": "",
     "type": "",
     "x": 480,
     "y": 4448,
     "width": 32,
     "height": 32,
     "rotation": 0,
     "visible": true,
     "properties": []
    },
    {
     "id": 2929,
     "name": "",
     "type": "",
     "x": 512,
     "y": 4448,
     "width": 32,
     "height": 32,
     "rotation": 0,
     "visible": true,
     "properties": []
    },
    {
     "id": 2930,
     "name": "",
     "type": "",
     "x": 544,
     "y": 4448,
     "width": 32,
     "height": 32,
     "rotation": 0,
     "visible": true,
     "properties": []
    },
    {
     "id": 2931,
     "name": "",
     "type": "",
     "x": 576,
     "y": 4448,
     "width": 32,
     "height": 32,
     "rotation": 0,
     "visible": true,
     "properties": []
    },
    {
     "id": 2932,
     "name": "",
     "type": "",
     "x": 608,
     "y": 4448,
     "width": 32,
     "height": 32,
     "rotation": 0,
     "visible": true,
     "properties": []
    },
    {
     "id": 2933,
     "name": "",
     "type": "",
     "x": 640,
     "y": 4448,
     "width": 32,
     "height": 32,
     "rotation": 0,
     "visible": true,
     "properties": []
    },
    {
     "id": 2934,
     "name": "",
     "type": "",
     "x": 672,
     "y": 4448,
     "width": 32,
     "height": 32,
     "rotation": 0,
     "visible": true,
     "properties": []
    },
    {
     "id": 2935,
     "name": "",
     "type": "",
     "x": 704,
     "y": 4448,
     "width": 32,
     "height": 32,
     "rotation": 0,
     "visible": true,
     "properties": []
    },
    {
     "id": 2936,
     "name": "",
     "type": "",
     "x": 736,
     "y": 4448,
     "width": 32,
     "height": 32,
     "rotation": 0,
     "visible": true,
     "properties": []
    },
    {
     "id": 2937,
     "name": "",
     "type": "",
     "x": 0,
     "y": 4480,
     "width": 32,
     "height": 32,
     "rotation": 0,
     "visible": true,
     "properties": []
    },
    {
     "id": 2938,
     "name": "",
     "type": "",
     "x": 32,
     "y": 4480,
     "width": 32,
     "height": 32,
     "rotation": 0,
     "visible": true,
     "properties": []
    },
    {
     "id": 2939,
     "name": "",
     "type": "",
     "x": 64,
     "y": 4480,
     "width": 32,
     "height": 32,
     "rotation": 0,
     "visible": true,
     "properties": []
    },
    {
     "id": 2940,
     "name": "",
     "type": "",
     "x": 160,
     "y": 4480,
     "width": 32,
     "height": 32,
     "rotation": 0,
     "visible": true,
     "properties": []
    },
    {
     "id": 2941,
     "name": "",
     "type": "",
     "x": 288,
     "y": 4480,
     "width": 32,
     "height": 32,
     "rotation": 0,
     "visible": true,
     "properties": []
    },
    {
     "id": 2942,
     "name": "",
     "type": "",
     "x": 672,
     "y": 4480,
     "width": 32,
     "height": 32,
     "rotation": 0,
     "visible": true,
     "properties": []
    },
    {
     "id": 2943,
     "name": "",
     "type": "",
     "x": 704,
     "y": 4480,
     "width": 32,
     "height": 32,
     "rotation": 0,
     "visible": true,
     "properties": []
    },
    {
     "id": 2944,
     "name": "",
     "type": "",
     "x": 736,
     "y": 4480,
     "width": 32,
     "height": 32,
     "rotation": 0,
     "visible": true,
     "properties": []
    },
    {
     "id": 2945,
     "name": "",
     "type": "",
     "x": 0,
     "y": 4512,
     "width": 32,
     "height": 32,
     "rotation": 0,
     "visible": true,
     "properties": []
    },
    {
     "id": 2946,
     "name": "",
     "type": "",
     "x": 32,
     "y": 4512,
     "width": 32,
     "height": 32,
     "rotation": 0,
     "visible": true,
     "properties": []
    },
    {
     "id": 2947,
     "name": "",
     "type": "",
     "x": 704,
     "y": 4512,
     "width": 32,
     "height": 32,
     "rotation": 0,
     "visible": true,
     "properties": []
    },
    {
     "id": 2948,
     "name": "",
     "type": "",
     "x": 736,
     "y": 4512,
     "width": 32,
     "height": 32,
     "rotation": 0,
     "visible": true,
     "properties": []
    },
    {
     "id": 2949,
     "name": "",
     "type": "",
     "x": 0,
     "y": 4544,
     "width": 32,
     "height": 32,
     "rotation": 0,
     "visible": true,
     "properties": []
    },
    {
     "id": 2950,
     "name": "",
     "type": "",
     "x": 32,
     "y": 4544,
     "width": 32,
     "height": 32,
     "rotation": 0,
     "visible": true,
     "properties": []
    },
    {
     "id": 2951,
     "name": "",
     "type": "",
     "x": 64,
     "y": 4544,
     "width": 32,
     "height": 32,
     "rotation": 0,
     "visible": true,
     "properties": []
    },
    {
     "id": 2952,
     "name": "",
     "type": "",
     "x": 96,
     "y": 4544,
     "width": 32,
     "height": 32,
     "rotation": 0,
     "visible": true,
     "properties": []
    },
    {
     "id": 2953,
     "name": "",
     "type": "",
     "x": 640,
     "y": 4544,
     "width": 32,
     "height": 32,
     "rotation": 0,
     "visible": true,
     "properties": []
    },
    {
     "id": 2954,
     "name": "",
     "type": "",
     "x": 672,
     "y": 4544,
     "width": 32,
     "height": 32,
     "rotation": 0,
     "visible": true,
     "properties": []
    },
    {
     "id": 2955,
     "name": "",
     "type": "",
     "x": 704,
     "y": 4544,
     "width": 32,
     "height": 32,
     "rotation": 0,
     "visible": true,
     "properties": []
    },
    {
     "id": 2956,
     "name": "",
     "type": "",
     "x": 736,
     "y": 4544,
     "width": 32,
     "height": 32,
     "rotation": 0,
     "visible": true,
     "properties": []
    },
    {
     "id": 2957,
     "name": "",
     "type": "",
     "x": 0,
     "y": 4576,
     "width": 32,
     "height": 32,
     "rotation": 0,
     "visible": true,
     "properties": []
    },
    {
     "id": 2958,
     "name": "",
     "type": "",
     "x": 32,
     "y": 4576,
     "width": 32,
     "height": 32,
     "rotation": 0,
     "visible": true,
     "properties": []
    },
    {
     "id": 2959,
     "name": "",
     "type": "",
     "x": 64,
     "y": 4576,
     "width": 32,
     "height": 32,
     "rotation": 0,
     "visible": true,
     "properties": []
    },
    {
     "id": 2960,
     "name": "",
     "type": "",
     "x": 96,
     "y": 4576,
     "width": 32,
     "height": 32,
     "rotation": 0,
     "visible": true,
     "properties": []
    },
    {
     "id": 2961,
     "name": "",
     "type": "",
     "x": 640,
     "y": 4576,
     "width": 32,
     "height": 32,
     "rotation": 0,
     "visible": true,
     "properties": []
    },
    {
     "id": 2962,
     "name": "",
     "type": "",
     "x": 672,
     "y": 4576,
     "width": 32,
     "height": 32,
     "rotation": 0,
     "visible": true,
     "properties": []
    },
    {
     "id": 2963,
     "name": "",
     "type": "",
     "x": 704,
     "y": 4576,
     "width": 32,
     "height": 32,
     "rotation": 0,
     "visible": true,
     "properties": []
    },
    {
     "id": 2964,
     "name": "",
     "type": "",
     "x": 736,
     "y": 4576,
     "width": 32,
     "height": 32,
     "rotation": 0,
     "visible": true,
     "properties": []
    },
    {
     "id": 2965,
     "name": "",
     "type": "",
     "x": 0,
     "y": 4608,
     "width": 32,
     "height": 32,
     "rotation": 0,
     "visible": true,
     "properties": []
    },
    {
     "id": 2966,
     "name": "",
     "type": "",
     "x": 32,
     "y": 4608,
     "width": 32,
     "height": 32,
     "rotation": 0,
     "visible": true,
     "properties": []
    },
    {
     "id": 2967,
     "name": "",
     "type": "",
     "x": 64,
     "y": 4608,
     "width": 32,
     "height": 32,
     "rotation": 0,
     "visible": true,
     "properties": []
    },
    {
     "id": 2968,
     "name": "",
     "type": "",
     "x": 96,
     "y": 4608,
     "width": 32,
     "height": 32,
     "rotation": 0,
     "visible": true,
     "properties": []
    },
    {
     "id": 2969,
     "name": "",
     "type": "",
     "x": 128,
     "y": 4608,
     "width": 32,
     "height": 32,
     "rotation": 0,
     "visible": true,
     "properties": []
    },
    {
     "id": 2970,
     "name": "",
     "type": "",
     "x": 160,
     "y": 4608,
     "width": 32,
     "height": 32,
     "rotation": 0,
     "visible": true,
     "properties": []
    },
    {
     "id": 2971,
     "name": "",
     "type": "",
     "x": 640,
     "y": 4608,
     "width": 32,
     "height": 32,
     "rotation": 0,
     "visible": true,
     "properties": []
    },
    {
     "id": 2972,
     "name": "",
     "type": "",
     "x": 672,
     "y": 4608,
     "width": 32,
     "height": 32,
     "rotation": 0,
     "visible": true,
     "properties": []
    },
    {
     "id": 2973,
     "name": "",
     "type": "",
     "x": 704,
     "y": 4608,
     "width": 32,
     "height": 32,
     "rotation": 0,
     "visible": true,
     "properties": []
    },
    {
     "id": 2974,
     "name": "",
     "type": "",
     "x": 736,
     "y": 4608,
     "width": 32,
     "height": 32,
     "rotation": 0,
     "visible": true,
     "properties": []
    },
    {
     "id": 2975,
     "name": "",
     "type": "",
     "x": 0,
     "y": 4640,
     "width": 32,
     "height": 32,
     "rotation": 0,
     "visible": true,
     "properties": []
    },
    {
     "id": 2976,
     "name": "",
     "type": "",
     "x": 32,
     "y": 4640,
     "width": 32,
     "height": 32,
     "rotation": 0,
     "visible": true,
     "properties": []
    },
    {
     "id": 2977,
     "name": "",
     "type": "",
     "x": 64,
     "y": 4640,
     "width": 32,
     "height": 32,
     "rotation": 0,
     "visible": true,
     "properties": []
    },
    {
     "id": 2978,
     "name": "",
     "type": "",
     "x": 96,
     "y": 4640,
     "width": 32,
     "height": 32,
     "rotation": 0,
     "visible": true,
     "properties": []
    },
    {
     "id": 2979,
     "name": "",
     "type": "",
     "x": 128,
     "y": 4640,
     "width": 32,
     "height": 32,
     "rotation": 0,
     "visible": true,
     "properties": []
    },
    {
     "id": 2980,
     "name": "",
     "type": "",
     "x": 160,
     "y": 4640,
     "width": 32,
     "height": 32,
     "rotation": 0,
     "visible": true,
     "properties": []
    },
    {
     "id": 2981,
     "name": "",
     "type": "",
     "x": 192,
     "y": 4640,
     "width": 32,
     "height": 32,
     "rotation": 0,
     "visible": true,
     "properties": []
    },
    {
     "id": 2982,
     "name": "",
     "type": "",
     "x": 224,
     "y": 4640,
     "width": 32,
     "height": 32,
     "rotation": 0,
     "visible": true,
     "properties": []
    },
    {
     "id": 2983,
     "name": "",
     "type": "",
     "x": 256,
     "y": 4640,
     "width": 32,
     "height": 32,
     "rotation": 0,
     "visible": true,
     "properties": []
    },
    {
     "id": 2984,
     "name": "",
     "type": "",
     "x": 288,
     "y": 4640,
     "width": 32,
     "height": 32,
     "rotation": 0,
     "visible": true,
     "properties": []
    },
    {
     "id": 2985,
     "name": "",
     "type": "",
     "x": 320,
     "y": 4640,
     "width": 32,
     "height": 32,
     "rotation": 0,
     "visible": true,
     "properties": []
    },
    {
     "id": 2986,
     "name": "",
     "type": "",
     "x": 352,
     "y": 4640,
     "width": 32,
     "height": 32,
     "rotation": 0,
     "visible": true,
     "properties": []
    },
    {
     "id": 2987,
     "name": "",
     "type": "",
     "x": 384,
     "y": 4640,
     "width": 32,
     "height": 32,
     "rotation": 0,
     "visible": true,
     "properties": []
    },
    {
     "id": 2988,
     "name": "",
     "type": "",
     "x": 512,
     "y": 4640,
     "width": 32,
     "height": 32,
     "rotation": 0,
     "visible": true,
     "properties": []
    },
    {
     "id": 2989,
     "name": "",
     "type": "",
     "x": 544,
     "y": 4640,
     "width": 32,
     "height": 32,
     "rotation": 0,
     "visible": true,
     "properties": []
    },
    {
     "id": 2990,
     "name": "",
     "type": "",
     "x": 576,
     "y": 4640,
     "width": 32,
     "height": 32,
     "rotation": 0,
     "visible": true,
     "properties": []
    },
    {
     "id": 2991,
     "name": "",
     "type": "",
     "x": 608,
     "y": 4640,
     "width": 32,
     "height": 32,
     "rotation": 0,
     "visible": true,
     "properties": []
    },
    {
     "id": 2992,
     "name": "",
     "type": "",
     "x": 640,
     "y": 4640,
     "width": 32,
     "height": 32,
     "rotation": 0,
     "visible": true,
     "properties": []
    },
    {
     "id": 2993,
     "name": "",
     "type": "",
     "x": 672,
     "y": 4640,
     "width": 32,
     "height": 32,
     "rotation": 0,
     "visible": true,
     "properties": []
    },
    {
     "id": 2994,
     "name": "",
     "type": "",
     "x": 704,
     "y": 4640,
     "width": 32,
     "height": 32,
     "rotation": 0,
     "visible": true,
     "properties": []
    },
    {
     "id": 2995,
     "name": "",
     "type": "",
     "x": 736,
     "y": 4640,
     "width": 32,
     "height": 32,
     "rotation": 0,
     "visible": true,
     "properties": []
    },
    {
     "id": 2996,
     "name": "",
     "type": "",
     "x": 0,
     "y": 4672,
     "width": 32,
     "height": 32,
     "rotation": 0,
     "visible": true,
     "properties": []
    },
    {
     "id": 2997,
     "name": "",
     "type": "",
     "x": 32,
     "y": 4672,
     "width": 32,
     "height": 32,
     "rotation": 0,
     "visible": true,
     "properties": []
    },
    {
     "id": 2998,
     "name": "",
     "type": "",
     "x": 64,
     "y": 4672,
     "width": 32,
     "height": 32,
     "rotation": 0,
     "visible": true,
     "properties": []
    },
    {
     "id": 2999,
     "name": "",
     "type": "",
     "x": 96,
     "y": 4672,
     "width": 32,
     "height": 32,
     "rotation": 0,
     "visible": true,
     "properties": []
    },
    {
     "id": 3000,
     "name": "",
     "type": "",
     "x": 128,
     "y": 4672,
     "width": 32,
     "height": 32,
     "rotation": 0,
     "visible": true,
     "properties": []
    },
    {
     "id": 3001,
     "name": "",
     "type": "",
     "x": 160,
     "y": 4672,
     "width": 32,
     "height": 32,
     "rotation": 0,
     "visible": true,
     "properties": []
    },
    {
     "id": 3002,
     "name": "",
     "type": "",
     "x": 192,
     "y": 4672,
     "width": 32,
     "height": 32,
     "rotation": 0,
     "visible": true,
     "properties": []
    },
    {
     "id": 3003,
     "name": "",
     "type": "",
     "x": 224,
     "y": 4672,
     "width": 32,
     "height": 32,
     "rotation": 0,
     "visible": true,
     "properties": []
    },
    {
     "id": 3004,
     "name": "",
     "type": "",
     "x": 256,
     "y": 4672,
     "width": 32,
     "height": 32,
     "rotation": 0,
     "visible": true,
     "properties": []
    },
    {
     "id": 3005,
     "name": "",
     "type": "",
     "x": 288,
     "y": 4672,
     "width": 32,
     "height": 32,
     "rotation": 0,
     "visible": true,
     "properties": []
    },
    {
     "id": 3006,
     "name": "",
     "type": "",
     "x": 320,
     "y": 4672,
     "width": 32,
     "height": 32,
     "rotation": 0,
     "visible": true,
     "properties": []
    },
    {
     "id": 3007,
     "name": "",
     "type": "",
     "x": 352,
     "y": 4672,
     "width": 32,
     "height": 32,
     "rotation": 0,
     "visible": true,
     "properties": []
    },
    {
     "id": 3008,
     "name": "",
     "type": "",
     "x": 384,
     "y": 4672,
     "width": 32,
     "height": 32,
     "rotation": 0,
     "visible": true,
     "properties": []
    },
    {
     "id": 3009,
     "name": "",
     "type": "",
     "x": 512,
     "y": 4672,
     "width": 32,
     "height": 32,
     "rotation": 0,
     "visible": true,
     "properties": []
    },
    {
     "id": 3010,
     "name": "",
     "type": "",
     "x": 544,
     "y": 4672,
     "width": 32,
     "height": 32,
     "rotation": 0,
     "visible": true,
     "properties": []
    },
    {
     "id": 3011,
     "name": "",
     "type": "",
     "x": 576,
     "y": 4672,
     "width": 32,
     "height": 32,
     "rotation": 0,
     "visible": true,
     "properties": []
    },
    {
     "id": 3012,
     "name": "",
     "type": "",
     "x": 608,
     "y": 4672,
     "width": 32,
     "height": 32,
     "rotation": 0,
     "visible": true,
     "properties": []
    },
    {
     "id": 3013,
     "name": "",
     "type": "",
     "x": 640,
     "y": 4672,
     "width": 32,
     "height": 32,
     "rotation": 0,
     "visible": true,
     "properties": []
    },
    {
     "id": 3014,
     "name": "",
     "type": "",
     "x": 672,
     "y": 4672,
     "width": 32,
     "height": 32,
     "rotation": 0,
     "visible": true,
     "properties": []
    },
    {
     "id": 3015,
     "name": "",
     "type": "",
     "x": 704,
     "y": 4672,
     "width": 32,
     "height": 32,
     "rotation": 0,
     "visible": true,
     "properties": []
    },
    {
     "id": 3016,
     "name": "",
     "type": "",
     "x": 736,
     "y": 4672,
     "width": 32,
     "height": 32,
     "rotation": 0,
     "visible": true,
     "properties": []
    },
    {
     "id": 3017,
     "name": "",
     "type": "",
     "x": 0,
     "y": 4704,
     "width": 32,
     "height": 32,
     "rotation": 0,
     "visible": true,
     "properties": []
    },
    {
     "id": 3018,
     "name": "",
     "type": "",
     "x": 32,
     "y": 4704,
     "width": 32,
     "height": 32,
     "rotation": 0,
     "visible": true,
     "properties": []
    },
    {
     "id": 3019,
     "name": "",
     "type": "",
     "x": 64,
     "y": 4704,
     "width": 32,
     "height": 32,
     "rotation": 0,
     "visible": true,
     "properties": []
    },
    {
     "id": 3020,
     "name": "",
     "type": "",
     "x": 96,
     "y": 4704,
     "width": 32,
     "height": 32,
     "rotation": 0,
     "visible": true,
     "properties": []
    },
    {
     "id": 3021,
     "name": "",
     "type": "",
     "x": 128,
     "y": 4704,
     "width": 32,
     "height": 32,
     "rotation": 0,
     "visible": true,
     "properties": []
    },
    {
     "id": 3022,
     "name": "",
     "type": "",
     "x": 160,
     "y": 4704,
     "width": 32,
     "height": 32,
     "rotation": 0,
     "visible": true,
     "properties": []
    },
    {
     "id": 3023,
     "name": "",
     "type": "",
     "x": 192,
     "y": 4704,
     "width": 32,
     "height": 32,
     "rotation": 0,
     "visible": true,
     "properties": []
    },
    {
     "id": 3024,
     "name": "",
     "type": "",
     "x": 224,
     "y": 4704,
     "width": 32,
     "height": 32,
     "rotation": 0,
     "visible": true,
     "properties": []
    },
    {
     "id": 3025,
     "name": "",
     "type": "",
     "x": 256,
     "y": 4704,
     "width": 32,
     "height": 32,
     "rotation": 0,
     "visible": true,
     "properties": []
    },
    {
     "id": 3026,
     "name": "",
     "type": "",
     "x": 288,
     "y": 4704,
     "width": 32,
     "height": 32,
     "rotation": 0,
     "visible": true,
     "properties": []
    },
    {
     "id": 3027,
     "name": "",
     "type": "",
     "x": 320,
     "y": 4704,
     "width": 32,
     "height": 32,
     "rotation": 0,
     "visible": true,
     "properties": []
    },
    {
     "id": 3028,
     "name": "",
     "type": "",
     "x": 352,
     "y": 4704,
     "width": 32,
     "height": 32,
     "rotation": 0,
     "visible": true,
     "properties": []
    },
    {
     "id": 3029,
     "name": "",
     "type": "",
     "x": 384,
     "y": 4704,
     "width": 32,
     "height": 32,
     "rotation": 0,
     "visible": true,
     "properties": []
    },
    {
     "id": 3030,
     "name": "",
     "type": "",
     "x": 512,
     "y": 4704,
     "width": 32,
     "height": 32,
     "rotation": 0,
     "visible": true,
     "properties": []
    },
    {
     "id": 3031,
     "name": "",
     "type": "",
     "x": 544,
     "y": 4704,
     "width": 32,
     "height": 32,
     "rotation": 0,
     "visible": true,
     "properties": []
    },
    {
     "id": 3032,
     "name": "",
     "type": "",
     "x": 576,
     "y": 4704,
     "width": 32,
     "height": 32,
     "rotation": 0,
     "visible": true,
     "properties": []
    },
    {
     "id": 3033,
     "name": "",
     "type": "",
     "x": 608,
     "y": 4704,
     "width": 32,
     "height": 32,
     "rotation": 0,
     "visible": true,
     "properties": []
    },
    {
     "id": 3034,
     "name": "",
     "type": "",
     "x": 640,
     "y": 4704,
     "width": 32,
     "height": 32,
     "rotation": 0,
     "visible": true,
     "properties": []
    },
    {
     "id": 3035,
     "name": "",
     "type": "",
     "x": 672,
     "y": 4704,
     "width": 32,
     "height": 32,
     "rotation": 0,
     "visible": true,
     "properties": []
    },
    {
     "id": 3036,
     "name": "",
     "type": "",
     "x": 704,
     "y": 4704,
     "width": 32,
     "height": 32,
     "rotation": 0,
     "visible": true,
     "properties": []
    },
    {
     "id": 3037,
     "name": "",
     "type": "",
     "x": 736,
     "y": 4704,
     "width": 32,
     "height": 32,
     "rotation": 0,
     "visible": true,
     "properties": []
    },
    {
     "id": 3038,
     "name": "",
     "type": "",
     "x": 0,
     "y": 4736,
     "width": 32,
     "height": 32,
     "rotation": 0,
     "visible": true,
     "properties": []
    },
    {
     "id": 3039,
     "name": "",
     "type": "",
     "x": 32,
     "y": 4736,
     "width": 32,
     "height": 32,
     "rotation": 0,
     "visible": true,
     "properties": []
    },
    {
     "id": 3040,
     "name": "",
     "type": "",
     "x": 64,
     "y": 4736,
     "width": 32,
     "height": 32,
     "rotation": 0,
     "visible": true,
     "properties": []
    },
    {
     "id": 3041,
     "name": "",
     "type": "",
     "x": 96,
     "y": 4736,
     "width": 32,
     "height": 32,
     "rotation": 0,
     "visible": true,
     "properties": []
    },
    {
     "id": 3042,
     "name": "",
     "type": "",
     "x": 128,
     "y": 4736,
     "width": 32,
     "height": 32,
     "rotation": 0,
     "visible": true,
     "properties": []
    },
    {
     "id": 3043,
     "name": "",
     "type": "",
     "x": 160,
     "y": 4736,
     "width": 32,
     "height": 32,
     "rotation": 0,
     "visible": true,
     "properties": []
    },
    {
     "id": 3044,
     "name": "",
     "type": "",
     "x": 192,
     "y": 4736,
     "width": 32,
     "height": 32,
     "rotation": 0,
     "visible": true,
     "properties": []
    },
    {
     "id": 3045,
     "name": "",
     "type": "",
     "x": 224,
     "y": 4736,
     "width": 32,
     "height": 32,
     "rotation": 0,
     "visible": true,
     "properties": []
    },
    {
     "id": 3046,
     "name": "",
     "type": "",
     "x": 256,
     "y": 4736,
     "width": 32,
     "height": 32,
     "rotation": 0,
     "visible": true,
     "properties": []
    },
    {
     "id": 3047,
     "name": "",
     "type": "",
     "x": 288,
     "y": 4736,
     "width": 32,
     "height": 32,
     "rotation": 0,
     "visible": true,
     "properties": []
    },
    {
     "id": 3048,
     "name": "",
     "type": "",
     "x": 320,
     "y": 4736,
     "width": 32,
     "height": 32,
     "rotation": 0,
     "visible": true,
     "properties": []
    },
    {
     "id": 3049,
     "name": "",
     "type": "",
     "x": 352,
     "y": 4736,
     "width": 32,
     "height": 32,
     "rotation": 0,
     "visible": true,
     "properties": []
    },
    {
     "id": 3050,
     "name": "",
     "type": "",
     "x": 384,
     "y": 4736,
     "width": 32,
     "height": 32,
     "rotation": 0,
     "visible": true,
     "properties": []
    },
    {
     "id": 3051,
     "name": "",
     "type": "",
     "x": 512,
     "y": 4736,
     "width": 32,
     "height": 32,
     "rotation": 0,
     "visible": true,
     "properties": []
    },
    {
     "id": 3052,
     "name": "",
     "type": "",
     "x": 544,
     "y": 4736,
     "width": 32,
     "height": 32,
     "rotation": 0,
     "visible": true,
     "properties": []
    },
    {
     "id": 3053,
     "name": "",
     "type": "",
     "x": 576,
     "y": 4736,
     "width": 32,
     "height": 32,
     "rotation": 0,
     "visible": true,
     "properties": []
    },
    {
     "id": 3054,
     "name": "",
     "type": "",
     "x": 608,
     "y": 4736,
     "width": 32,
     "height": 32,
     "rotation": 0,
     "visible": true,
     "properties": []
    },
    {
     "id": 3055,
     "name": "",
     "type": "",
     "x": 640,
     "y": 4736,
     "width": 32,
     "height": 32,
     "rotation": 0,
     "visible": true,
     "properties": []
    },
    {
     "id": 3056,
     "name": "",
     "type": "",
     "x": 672,
     "y": 4736,
     "width": 32,
     "height": 32,
     "rotation": 0,
     "visible": true,
     "properties": []
    },
    {
     "id": 3057,
     "name": "",
     "type": "",
     "x": 704,
     "y": 4736,
     "width": 32,
     "height": 32,
     "rotation": 0,
     "visible": true,
     "properties": []
    },
    {
     "id": 3058,
     "name": "",
     "type": "",
     "x": 736,
     "y": 4736,
     "width": 32,
     "height": 32,
     "rotation": 0,
     "visible": true,
     "properties": []
    },
    {
     "id": 3059,
     "name": "",
     "type": "",
     "x": 0,
     "y": 4768,
     "width": 32,
     "height": 32,
     "rotation": 0,
     "visible": true,
     "properties": []
    },
    {
     "id": 3060,
     "name": "",
     "type": "",
     "x": 32,
     "y": 4768,
     "width": 32,
     "height": 32,
     "rotation": 0,
     "visible": true,
     "properties": []
    },
    {
     "id": 3061,
     "name": "",
     "type": "",
     "x": 64,
     "y": 4768,
     "width": 32,
     "height": 32,
     "rotation": 0,
     "visible": true,
     "properties": []
    },
    {
     "id": 3062,
     "name": "",
     "type": "",
     "x": 96,
     "y": 4768,
     "width": 32,
     "height": 32,
     "rotation": 0,
     "visible": true,
     "properties": []
    },
    {
     "id": 3063,
     "name": "",
     "type": "",
     "x": 128,
     "y": 4768,
     "width": 32,
     "height": 32,
     "rotation": 0,
     "visible": true,
     "properties": []
    },
    {
     "id": 3064,
     "name": "",
     "type": "",
     "x": 160,
     "y": 4768,
     "width": 32,
     "height": 32,
     "rotation": 0,
     "visible": true,
     "properties": []
    },
    {
     "id": 3065,
     "name": "",
     "type": "",
     "x": 192,
     "y": 4768,
     "width": 32,
     "height": 32,
     "rotation": 0,
     "visible": true,
     "properties": []
    },
    {
     "id": 3066,
     "name": "",
     "type": "",
     "x": 384,
     "y": 4768,
     "width": 32,
     "height": 32,
     "rotation": 0,
     "visible": true,
     "properties": []
    },
    {
     "id": 3067,
     "name": "",
     "type": "",
     "x": 512,
     "y": 4768,
     "width": 32,
     "height": 32,
     "rotation": 0,
     "visible": true,
     "properties": []
    },
    {
     "id": 3068,
     "name": "",
     "type": "",
     "x": 608,
     "y": 4768,
     "width": 32,
     "height": 32,
     "rotation": 0,
     "visible": true,
     "properties": []
    },
    {
     "id": 3069,
     "name": "",
     "type": "",
     "x": 640,
     "y": 4768,
     "width": 32,
     "height": 32,
     "rotation": 0,
     "visible": true,
     "properties": []
    },
    {
     "id": 3070,
     "name": "",
     "type": "",
     "x": 672,
     "y": 4768,
     "width": 32,
     "height": 32,
     "rotation": 0,
     "visible": true,
     "properties": []
    },
    {
     "id": 3071,
     "name": "",
     "type": "",
     "x": 704,
     "y": 4768,
     "width": 32,
     "height": 32,
     "rotation": 0,
     "visible": true,
     "properties": []
    },
    {
     "id": 3072,
     "name": "",
     "type": "",
     "x": 736,
     "y": 4768,
     "width": 32,
     "height": 32,
     "rotation": 0,
     "visible": true,
     "properties": []
    },
    {
     "id": 3073,
     "name": "",
     "type": "",
     "x": 0,
     "y": 4800,
     "width": 32,
     "height": 32,
     "rotation": 0,
     "visible": true,
     "properties": []
    },
    {
     "id": 3074,
     "name": "",
     "type": "",
     "x": 32,
     "y": 4800,
     "width": 32,
     "height": 32,
     "rotation": 0,
     "visible": true,
     "properties": []
    },
    {
     "id": 3075,
     "name": "",
     "type": "",
     "x": 64,
     "y": 4800,
     "width": 32,
     "height": 32,
     "rotation": 0,
     "visible": true,
     "properties": []
    },
    {
     "id": 3076,
     "name": "",
     "type": "",
     "x": 96,
     "y": 4800,
     "width": 32,
     "height": 32,
     "rotation": 0,
     "visible": true,
     "properties": []
    },
    {
     "id": 3077,
     "name": "",
     "type": "",
     "x": 128,
     "y": 4800,
     "width": 32,
     "height": 32,
     "rotation": 0,
     "visible": true,
     "properties": []
    },
    {
     "id": 3078,
     "name": "",
     "type": "",
     "x": 160,
     "y": 4800,
     "width": 32,
     "height": 32,
     "rotation": 0,
     "visible": true,
     "properties": []
    },
    {
     "id": 3079,
     "name": "",
     "type": "",
     "x": 192,
     "y": 4800,
     "width": 32,
     "height": 32,
     "rotation": 0,
     "visible": true,
     "properties": []
    },
    {
     "id": 3080,
     "name": "",
     "type": "",
     "x": 640,
     "y": 4800,
     "width": 32,
     "height": 32,
     "rotation": 0,
     "visible": true,
     "properties": []
    },
    {
     "id": 3081,
     "name": "",
     "type": "",
     "x": 672,
     "y": 4800,
     "width": 32,
     "height": 32,
     "rotation": 0,
     "visible": true,
     "properties": []
    },
    {
     "id": 3082,
     "name": "",
     "type": "",
     "x": 704,
     "y": 4800,
     "width": 32,
     "height": 32,
     "rotation": 0,
     "visible": true,
     "properties": []
    },
    {
     "id": 3083,
     "name": "",
     "type": "",
     "x": 736,
     "y": 4800,
     "width": 32,
     "height": 32,
     "rotation": 0,
     "visible": true,
     "properties": []
    },
    {
     "id": 3084,
     "name": "",
     "type": "",
     "x": 0,
     "y": 4832,
     "width": 32,
     "height": 32,
     "rotation": 0,
     "visible": true,
     "properties": []
    },
    {
     "id": 3085,
     "name": "",
     "type": "",
     "x": 32,
     "y": 4832,
     "width": 32,
     "height": 32,
     "rotation": 0,
     "visible": true,
     "properties": []
    },
    {
     "id": 3086,
     "name": "",
     "type": "",
     "x": 64,
     "y": 4832,
     "width": 32,
     "height": 32,
     "rotation": 0,
     "visible": true,
     "properties": []
    },
    {
     "id": 3087,
     "name": "",
     "type": "",
     "x": 96,
     "y": 4832,
     "width": 32,
     "height": 32,
     "rotation": 0,
     "visible": true,
     "properties": []
    },
    {
     "id": 3088,
     "name": "",
     "type": "",
     "x": 128,
     "y": 4832,
     "width": 32,
     "height": 32,
     "rotation": 0,
     "visible": true,
     "properties": []
    },
    {
     "id": 3089,
     "name": "",
     "type": "",
     "x": 160,
     "y": 4832,
     "width": 32,
     "height": 32,
     "rotation": 0,
     "visible": true,
     "properties": []
    },
    {
     "id": 3090,
     "name": "",
     "type": "",
     "x": 192,
     "y": 4832,
     "width": 32,
     "height": 32,
     "rotation": 0,
     "visible": true,
     "properties": []
    },
    {
     "id": 3091,
     "name": "",
     "type": "",
     "x": 640,
     "y": 4832,
     "width": 32,
     "height": 32,
     "rotation": 0,
     "visible": true,
     "properties": []
    },
    {
     "id": 3092,
     "name": "",
     "type": "",
     "x": 672,
     "y": 4832,
     "width": 32,
     "height": 32,
     "rotation": 0,
     "visible": true,
     "properties": []
    },
    {
     "id": 3093,
     "name": "",
     "type": "",
     "x": 704,
     "y": 4832,
     "width": 32,
     "height": 32,
     "rotation": 0,
     "visible": true,
     "properties": []
    },
    {
     "id": 3094,
     "name": "",
     "type": "",
     "x": 736,
     "y": 4832,
     "width": 32,
     "height": 32,
     "rotation": 0,
     "visible": true,
     "properties": []
    },
    {
     "id": 3095,
     "name": "",
     "type": "",
     "x": 0,
     "y": 4864,
     "width": 32,
     "height": 32,
     "rotation": 0,
     "visible": true,
     "properties": []
    },
    {
     "id": 3096,
     "name": "",
     "type": "",
     "x": 32,
     "y": 4864,
     "width": 32,
     "height": 32,
     "rotation": 0,
     "visible": true,
     "properties": []
    },
    {
     "id": 3097,
     "name": "",
     "type": "",
     "x": 64,
     "y": 4864,
     "width": 32,
     "height": 32,
     "rotation": 0,
     "visible": true,
     "properties": []
    },
    {
     "id": 3098,
     "name": "",
     "type": "",
     "x": 96,
     "y": 4864,
     "width": 32,
     "height": 32,
     "rotation": 0,
     "visible": true,
     "properties": []
    },
    {
     "id": 3099,
     "name": "",
     "type": "",
     "x": 128,
     "y": 4864,
     "width": 32,
     "height": 32,
     "rotation": 0,
     "visible": true,
     "properties": []
    },
    {
     "id": 3100,
     "name": "",
     "type": "",
     "x": 160,
     "y": 4864,
     "width": 32,
     "height": 32,
     "rotation": 0,
     "visible": true,
     "properties": []
    },
    {
     "id": 3101,
     "name": "",
     "type": "",
     "x": 192,
     "y": 4864,
     "width": 32,
     "height": 32,
     "rotation": 0,
     "visible": true,
     "properties": []
    },
    {
     "id": 3102,
     "name": "",
     "type": "",
     "x": 704,
     "y": 4864,
     "width": 32,
     "height": 32,
     "rotation": 0,
     "visible": true,
     "properties": []
    },
    {
     "id": 3103,
     "name": "",
     "type": "",
     "x": 736,
     "y": 4864,
     "width": 32,
     "height": 32,
     "rotation": 0,
     "visible": true,
     "properties": []
    },
    {
     "id": 3104,
     "name": "",
     "type": "",
     "x": 0,
     "y": 4896,
     "width": 32,
     "height": 32,
     "rotation": 0,
     "visible": true,
     "properties": []
    },
    {
     "id": 3105,
     "name": "",
     "type": "",
     "x": 32,
     "y": 4896,
     "width": 32,
     "height": 32,
     "rotation": 0,
     "visible": true,
     "properties": []
    },
    {
     "id": 3106,
     "name": "",
     "type": "",
     "x": 64,
     "y": 4896,
     "width": 32,
     "height": 32,
     "rotation": 0,
     "visible": true,
     "properties": []
    },
    {
     "id": 3107,
     "name": "",
     "type": "",
     "x": 96,
     "y": 4896,
     "width": 32,
     "height": 32,
     "rotation": 0,
     "visible": true,
     "properties": []
    },
    {
     "id": 3108,
     "name": "",
     "type": "",
     "x": 128,
     "y": 4896,
     "width": 32,
     "height": 32,
     "rotation": 0,
     "visible": true,
     "properties": []
    },
    {
     "id": 3109,
     "name": "",
     "type": "",
     "x": 160,
     "y": 4896,
     "width": 32,
     "height": 32,
     "rotation": 0,
     "visible": true,
     "properties": []
    },
    {
     "id": 3110,
     "name": "",
     "type": "",
     "x": 192,
     "y": 4896,
     "width": 32,
     "height": 32,
     "rotation": 0,
     "visible": true,
     "properties": []
    },
    {
     "id": 3111,
     "name": "",
     "type": "",
     "x": 320,
     "y": 4896,
     "width": 32,
     "height": 32,
     "rotation": 0,
     "visible": true,
     "properties": []
    },
    {
     "id": 3112,
     "name": "",
     "type": "",
     "x": 352,
     "y": 4896,
     "width": 32,
     "height": 32,
     "rotation": 0,
     "visible": true,
     "properties": []
    },
    {
     "id": 3113,
     "name": "",
     "type": "",
     "x": 384,
     "y": 4896,
     "width": 32,
     "height": 32,
     "rotation": 0,
     "visible": true,
     "properties": []
    },
    {
     "id": 3114,
     "name": "",
     "type": "",
     "x": 416,
     "y": 4896,
     "width": 32,
     "height": 32,
     "rotation": 0,
     "visible": true,
     "properties": []
    },
    {
     "id": 3115,
     "name": "",
     "type": "",
     "x": 448,
     "y": 4896,
     "width": 32,
     "height": 32,
     "rotation": 0,
     "visible": true,
     "properties": []
    },
    {
     "id": 3116,
     "name": "",
     "type": "",
     "x": 480,
     "y": 4896,
     "width": 32,
     "height": 32,
     "rotation": 0,
     "visible": true,
     "properties": []
    },
    {
     "id": 3117,
     "name": "",
     "type": "",
     "x": 512,
     "y": 4896,
     "width": 32,
     "height": 32,
     "rotation": 0,
     "visible": true,
     "properties": []
    },
    {
     "id": 3118,
     "name": "",
     "type": "",
     "x": 544,
     "y": 4896,
     "width": 32,
     "height": 32,
     "rotation": 0,
     "visible": true,
     "properties": []
    },
    {
     "id": 3119,
     "name": "",
     "type": "",
     "x": 576,
     "y": 4896,
     "width": 32,
     "height": 32,
     "rotation": 0,
     "visible": true,
     "properties": []
    },
    {
     "id": 3120,
     "name": "",
     "type": "",
     "x": 608,
     "y": 4896,
     "width": 32,
     "height": 32,
     "rotation": 0,
     "visible": true,
     "properties": []
    },
    {
     "id": 3121,
     "name": "",
     "type": "",
     "x": 640,
     "y": 4896,
     "width": 32,
     "height": 32,
     "rotation": 0,
     "visible": true,
     "properties": []
    },
    {
     "id": 3122,
     "name": "",
     "type": "",
     "x": 672,
     "y": 4896,
     "width": 32,
     "height": 32,
     "rotation": 0,
     "visible": true,
     "properties": []
    },
    {
     "id": 3123,
     "name": "",
     "type": "",
     "x": 704,
     "y": 4896,
     "width": 32,
     "height": 32,
     "rotation": 0,
     "visible": true,
     "properties": []
    },
    {
     "id": 3124,
     "name": "",
     "type": "",
     "x": 736,
     "y": 4896,
     "width": 32,
     "height": 32,
     "rotation": 0,
     "visible": true,
     "properties": []
    },
    {
     "id": 3125,
     "name": "",
     "type": "",
     "x": 0,
     "y": 4928,
     "width": 32,
     "height": 32,
     "rotation": 0,
     "visible": true,
     "properties": []
    },
    {
     "id": 3126,
     "name": "",
     "type": "",
     "x": 32,
     "y": 4928,
     "width": 32,
     "height": 32,
     "rotation": 0,
     "visible": true,
     "properties": []
    },
    {
     "id": 3127,
     "name": "",
     "type": "",
     "x": 64,
     "y": 4928,
     "width": 32,
     "height": 32,
     "rotation": 0,
     "visible": true,
     "properties": []
    },
    {
     "id": 3128,
     "name": "",
     "type": "",
     "x": 96,
     "y": 4928,
     "width": 32,
     "height": 32,
     "rotation": 0,
     "visible": true,
     "properties": []
    },
    {
     "id": 3129,
     "name": "",
     "type": "",
     "x": 128,
     "y": 4928,
     "width": 32,
     "height": 32,
     "rotation": 0,
     "visible": true,
     "properties": []
    },
    {
     "id": 3130,
     "name": "",
     "type": "",
     "x": 160,
     "y": 4928,
     "width": 32,
     "height": 32,
     "rotation": 0,
     "visible": true,
     "properties": []
    },
    {
     "id": 3131,
     "name": "",
     "type": "",
     "x": 192,
     "y": 4928,
     "width": 32,
     "height": 32,
     "rotation": 0,
     "visible": true,
     "properties": []
    },
    {
     "id": 3132,
     "name": "",
     "type": "",
     "x": 224,
     "y": 4928,
     "width": 32,
     "height": 32,
     "rotation": 0,
     "visible": true,
     "properties": []
    },
    {
     "id": 3133,
     "name": "",
     "type": "",
     "x": 256,
     "y": 4928,
     "width": 32,
     "height": 32,
     "rotation": 0,
     "visible": true,
     "properties": []
    },
    {
     "id": 3134,
     "name": "",
     "type": "",
     "x": 288,
     "y": 4928,
     "width": 32,
     "height": 32,
     "rotation": 0,
     "visible": true,
     "properties": []
    },
    {
     "id": 3135,
     "name": "",
     "type": "",
     "x": 320,
     "y": 4928,
     "width": 32,
     "height": 32,
     "rotation": 0,
     "visible": true,
     "properties": []
    },
    {
     "id": 3136,
     "name": "",
     "type": "",
     "x": 352,
     "y": 4928,
     "width": 32,
     "height": 32,
     "rotation": 0,
     "visible": true,
     "properties": []
    },
    {
     "id": 3137,
     "name": "",
     "type": "",
     "x": 384,
     "y": 4928,
     "width": 32,
     "height": 32,
     "rotation": 0,
     "visible": true,
     "properties": []
    },
    {
     "id": 3138,
     "name": "",
     "type": "",
     "x": 416,
     "y": 4928,
     "width": 32,
     "height": 32,
     "rotation": 0,
     "visible": true,
     "properties": []
    },
    {
     "id": 3139,
     "name": "",
     "type": "",
     "x": 448,
     "y": 4928,
     "width": 32,
     "height": 32,
     "rotation": 0,
     "visible": true,
     "properties": []
    },
    {
     "id": 3140,
     "name": "",
     "type": "",
     "x": 480,
     "y": 4928,
     "width": 32,
     "height": 32,
     "rotation": 0,
     "visible": true,
     "properties": []
    },
    {
     "id": 3141,
     "name": "",
     "type": "",
     "x": 512,
     "y": 4928,
     "width": 32,
     "height": 32,
     "rotation": 0,
     "visible": true,
     "properties": []
    },
    {
     "id": 3142,
     "name": "",
     "type": "",
     "x": 544,
     "y": 4928,
     "width": 32,
     "height": 32,
     "rotation": 0,
     "visible": true,
     "properties": []
    },
    {
     "id": 3143,
     "name": "",
     "type": "",
     "x": 576,
     "y": 4928,
     "width": 32,
     "height": 32,
     "rotation": 0,
     "visible": true,
     "properties": []
    },
    {
     "id": 3144,
     "name": "",
     "type": "",
     "x": 608,
     "y": 4928,
     "width": 32,
     "height": 32,
     "rotation": 0,
     "visible": true,
     "properties": []
    },
    {
     "id": 3145,
     "name": "",
     "type": "",
     "x": 640,
     "y": 4928,
     "width": 32,
     "height": 32,
     "rotation": 0,
     "visible": true,
     "properties": []
    },
    {
     "id": 3146,
     "name": "",
     "type": "",
     "x": 672,
     "y": 4928,
     "width": 32,
     "height": 32,
     "rotation": 0,
     "visible": true,
     "properties": []
    },
    {
     "id": 3147,
     "name": "",
     "type": "",
     "x": 704,
     "y": 4928,
     "width": 32,
     "height": 32,
     "rotation": 0,
     "visible": true,
     "properties": []
    },
    {
     "id": 3148,
     "name": "",
     "type": "",
     "x": 736,
     "y": 4928,
     "width": 32,
     "height": 32,
     "rotation": 0,
     "visible": true,
     "properties": []
    },
    {
     "id": 3149,
     "name": "",
     "type": "",
     "x": 0,
     "y": 4960,
     "width": 32,
     "height": 32,
     "rotation": 0,
     "visible": true,
     "properties": []
    },
    {
     "id": 3150,
     "name": "",
     "type": "",
     "x": 32,
     "y": 4960,
     "width": 32,
     "height": 32,
     "rotation": 0,
     "visible": true,
     "properties": []
    },
    {
     "id": 3151,
     "name": "",
     "type": "",
     "x": 64,
     "y": 4960,
     "width": 32,
     "height": 32,
     "rotation": 0,
     "visible": true,
     "properties": []
    },
    {
     "id": 3152,
     "name": "",
     "type": "",
     "x": 96,
     "y": 4960,
     "width": 32,
     "height": 32,
     "rotation": 0,
     "visible": true,
     "properties": []
    },
    {
     "id": 3153,
     "name": "",
     "type": "",
     "x": 128,
     "y": 4960,
     "width": 32,
     "height": 32,
     "rotation": 0,
     "visible": true,
     "properties": []
    },
    {
     "id": 3154,
     "name": "",
     "type": "",
     "x": 160,
     "y": 4960,
     "width": 32,
     "height": 32,
     "rotation": 0,
     "visible": true,
     "properties": []
    },
    {
     "id": 3155,
     "name": "",
     "type": "",
     "x": 192,
     "y": 4960,
     "width": 32,
     "height": 32,
     "rotation": 0,
     "visible": true,
     "properties": []
    },
    {
     "id": 3156,
     "name": "",
     "type": "",
     "x": 224,
     "y": 4960,
     "width": 32,
     "height": 32,
     "rotation": 0,
     "visible": true,
     "properties": []
    },
    {
     "id": 3157,
     "name": "",
     "type": "",
     "x": 256,
     "y": 4960,
     "width": 32,
     "height": 32,
     "rotation": 0,
     "visible": true,
     "properties": []
    },
    {
     "id": 3158,
     "name": "",
     "type": "",
     "x": 288,
     "y": 4960,
     "width": 32,
     "height": 32,
     "rotation": 0,
     "visible": true,
     "properties": []
    },
    {
     "id": 3159,
     "name": "",
     "type": "",
     "x": 320,
     "y": 4960,
     "width": 32,
     "height": 32,
     "rotation": 0,
     "visible": true,
     "properties": []
    },
    {
     "id": 3160,
     "name": "",
     "type": "",
     "x": 352,
     "y": 4960,
     "width": 32,
     "height": 32,
     "rotation": 0,
     "visible": true,
     "properties": []
    },
    {
     "id": 3161,
     "name": "",
     "type": "",
     "x": 384,
     "y": 4960,
     "width": 32,
     "height": 32,
     "rotation": 0,
     "visible": true,
     "properties": []
    },
    {
     "id": 3162,
     "name": "",
     "type": "",
     "x": 416,
     "y": 4960,
     "width": 32,
     "height": 32,
     "rotation": 0,
     "visible": true,
     "properties": []
    },
    {
     "id": 3163,
     "name": "",
     "type": "",
     "x": 448,
     "y": 4960,
     "width": 32,
     "height": 32,
     "rotation": 0,
     "visible": true,
     "properties": []
    },
    {
     "id": 3164,
     "name": "",
     "type": "",
     "x": 480,
     "y": 4960,
     "width": 32,
     "height": 32,
     "rotation": 0,
     "visible": true,
     "properties": []
    },
    {
     "id": 3165,
     "name": "",
     "type": "",
     "x": 512,
     "y": 4960,
     "width": 32,
     "height": 32,
     "rotation": 0,
     "visible": true,
     "properties": []
    },
    {
     "id": 3166,
     "name": "",
     "type": "",
     "x": 544,
     "y": 4960,
     "width": 32,
     "height": 32,
     "rotation": 0,
     "visible": true,
     "properties": []
    },
    {
     "id": 3167,
     "name": "",
     "type": "",
     "x": 576,
     "y": 4960,
     "width": 32,
     "height": 32,
     "rotation": 0,
     "visible": true,
     "properties": []
    },
    {
     "id": 3168,
     "name": "",
     "type": "",
     "x": 608,
     "y": 4960,
     "width": 32,
     "height": 32,
     "rotation": 0,
     "visible": true,
     "properties": []
    },
    {
     "id": 3169,
     "name": "",
     "type": "",
     "x": 640,
     "y": 4960,
     "width": 32,
     "height": 32,
     "rotation": 0,
     "visible": true,
     "properties": []
    },
    {
     "id": 3170,
     "name": "",
     "type": "",
     "x": 672,
     "y": 4960,
     "width": 32,
     "height": 32,
     "rotation": 0,
     "visible": true,
     "properties": []
    },
    {
     "id": 3171,
     "name": "",
     "type": "",
     "x": 704,
     "y": 4960,
     "width": 32,
     "height": 32,
     "rotation": 0,
     "visible": true,
     "properties": []
    },
    {
     "id": 3172,
     "name": "",
     "type": "",
     "x": 736,
     "y": 4960,
     "width": 32,
     "height": 32,
     "rotation": 0,
     "visible": true,
     "properties": []
    },
    {
     "id": 3173,
     "name": "",
     "type": "",
     "x": 0,
     "y": 4992,
     "width": 32,
     "height": 32,
     "rotation": 0,
     "visible": true,
     "properties": []
    },
    {
     "id": 3174,
     "name": "",
     "type": "",
     "x": 32,
     "y": 4992,
     "width": 32,
     "height": 32,
     "rotation": 0,
     "visible": true,
     "properties": []
    },
    {
     "id": 3175,
     "name": "",
     "type": "",
     "x": 64,
     "y": 4992,
     "width": 32,
     "height": 32,
     "rotation": 0,
     "visible": true,
     "properties": []
    },
    {
     "id": 3176,
     "name": "",
     "type": "",
     "x": 96,
     "y": 4992,
     "width": 32,
     "height": 32,
     "rotation": 0,
     "visible": true,
     "properties": []
    },
    {
     "id": 3177,
     "name": "",
     "type": "",
     "x": 128,
     "y": 4992,
     "width": 32,
     "height": 32,
     "rotation": 0,
     "visible": true,
     "properties": []
    },
    {
     "id": 3178,
     "name": "",
     "type": "",
     "x": 160,
     "y": 4992,
     "width": 32,
     "height": 32,
     "rotation": 0,
     "visible": true,
     "properties": []
    },
    {
     "id": 3179,
     "name": "",
     "type": "",
     "x": 192,
     "y": 4992,
     "width": 32,
     "height": 32,
     "rotation": 0,
     "visible": true,
     "properties": []
    },
    {
     "id": 3180,
     "name": "",
     "type": "",
     "x": 224,
     "y": 4992,
     "width": 32,
     "height": 32,
     "rotation": 0,
     "visible": true,
     "properties": []
    },
    {
     "id": 3181,
     "name": "",
     "type": "",
     "x": 256,
     "y": 4992,
     "width": 32,
     "height": 32,
     "rotation": 0,
     "visible": true,
     "properties": []
    },
    {
     "id": 3182,
     "name": "",
     "type": "",
     "x": 288,
     "y": 4992,
     "width": 32,
     "height": 32,
     "rotation": 0,
     "visible": true,
     "properties": []
    },
    {
     "id": 3183,
     "name": "",
     "type": "",
     "x": 320,
     "y": 4992,
     "width": 32,
     "height": 32,
     "rotation": 0,
     "visible": true,
     "properties": []
    },
    {
     "id": 3184,
     "name": "",
     "type": "",
     "x": 352,
     "y": 4992,
     "width": 32,
     "height": 32,
     "rotation": 0,
     "visible": true,
     "properties": []
    },
    {
     "id": 3185,
     "name": "",
     "type": "",
     "x": 384,
     "y": 4992,
     "width": 32,
     "height": 32,
     "rotation": 0,
     "visible": true,
     "properties": []
    },
    {
     "id": 3186,
     "name": "",
     "type": "",
     "x": 416,
     "y": 4992,
     "width": 32,
     "height": 32,
     "rotation": 0,
     "visible": true,
     "properties": []
    },
    {
     "id": 3187,
     "name": "",
     "type": "",
     "x": 448,
     "y": 4992,
     "width": 32,
     "height": 32,
     "rotation": 0,
     "visible": true,
     "properties": []
    },
    {
     "id": 3188,
     "name": "",
     "type": "",
     "x": 480,
     "y": 4992,
     "width": 32,
     "height": 32,
     "rotation": 0,
     "visible": true,
     "properties": []
    },
    {
     "id": 3189,
     "name": "",
     "type": "",
     "x": 512,
     "y": 4992,
     "width": 32,
     "height": 32,
     "rotation": 0,
     "visible": true,
     "properties": []
    },
    {
     "id": 3190,
     "name": "",
     "type": "",
     "x": 544,
     "y": 4992,
     "width": 32,
     "height": 32,
     "rotation": 0,
     "visible": true,
     "properties": []
    },
    {
     "id": 3191,
     "name": "",
     "type": "",
     "x": 576,
     "y": 4992,
     "width": 32,
     "height": 32,
     "rotation": 0,
     "visible": true,
     "properties": []
    },
    {
     "id": 3192,
     "name": "",
     "type": "",
     "x": 608,
     "y": 4992,
     "width": 32,
     "height": 32,
     "rotation": 0,
     "visible": true,
     "properties": []
    },
    {
     "id": 3193,
     "name": "",
     "type": "",
     "x": 640,
     "y": 4992,
     "width": 32,
     "height": 32,
     "rotation": 0,
     "visible": true,
     "properties": []
    },
    {
     "id": 3194,
     "name": "",
     "type": "",
     "x": 672,
     "y": 4992,
     "width": 32,
     "height": 32,
     "rotation": 0,
     "visible": true,
     "properties": []
    },
    {
     "id": 3195,
     "name": "",
     "type": "",
     "x": 704,
     "y": 4992,
     "width": 32,
     "height": 32,
     "rotation": 0,
     "visible": true,
     "properties": []
    },
    {
     "id": 3196,
     "name": "",
     "type": "",
     "x": 736,
     "y": 4992,
     "width": 32,
     "height": 32,
     "rotation": 0,
     "visible": true,
     "properties": []
    },
    {
     "id": 3197,
     "name": "",
     "type": "",
     "x": 0,
     "y": 5024,
     "width": 32,
     "height": 32,
     "rotation": 0,
     "visible": true,
     "properties": []
    },
    {
     "id": 3198,
     "name": "",
     "type": "",
     "x": 32,
     "y": 5024,
     "width": 32,
     "height": 32,
     "rotation": 0,
     "visible": true,
     "properties": []
    },
    {
     "id": 3199,
     "name": "",
     "type": "",
     "x": 64,
     "y": 5024,
     "width": 32,
     "height": 32,
     "rotation": 0,
     "visible": true,
     "properties": []
    },
    {
     "id": 3200,
     "name": "",
     "type": "",
     "x": 96,
     "y": 5024,
     "width": 32,
     "height": 32,
     "rotation": 0,
     "visible": true,
     "properties": []
    },
    {
     "id": 3201,
     "name": "",
     "type": "",
     "x": 128,
     "y": 5024,
     "width": 32,
     "height": 32,
     "rotation": 0,
     "visible": true,
     "properties": []
    },
    {
     "id": 3202,
     "name": "",
     "type": "",
     "x": 160,
     "y": 5024,
     "width": 32,
     "height": 32,
     "rotation": 0,
     "visible": true,
     "properties": []
    },
    {
     "id": 3203,
     "name": "",
     "type": "",
     "x": 192,
     "y": 5024,
     "width": 32,
     "height": 32,
     "rotation": 0,
     "visible": true,
     "properties": []
    },
    {
     "id": 3204,
     "name": "",
     "type": "",
     "x": 224,
     "y": 5024,
     "width": 32,
     "height": 32,
     "rotation": 0,
     "visible": true,
     "properties": []
    },
    {
     "id": 3205,
     "name": "",
     "type": "",
     "x": 256,
     "y": 5024,
     "width": 32,
     "height": 32,
     "rotation": 0,
     "visible": true,
     "properties": []
    },
    {
     "id": 3206,
     "name": "",
     "type": "",
     "x": 288,
     "y": 5024,
     "width": 32,
     "height": 32,
     "rotation": 0,
     "visible": true,
     "properties": []
    },
    {
     "id": 3207,
     "name": "",
     "type": "",
     "x": 320,
     "y": 5024,
     "width": 32,
     "height": 32,
     "rotation": 0,
     "visible": true,
     "properties": []
    },
    {
     "id": 3208,
     "name": "",
     "type": "",
     "x": 352,
     "y": 5024,
     "width": 32,
     "height": 32,
     "rotation": 0,
     "visible": true,
     "properties": []
    },
    {
     "id": 3209,
     "name": "",
     "type": "",
     "x": 384,
     "y": 5024,
     "width": 32,
     "height": 32,
     "rotation": 0,
     "visible": true,
     "properties": []
    },
    {
     "id": 3210,
     "name": "",
     "type": "",
     "x": 416,
     "y": 5024,
     "width": 32,
     "height": 32,
     "rotation": 0,
     "visible": true,
     "properties": []
    },
    {
     "id": 3211,
     "name": "",
     "type": "",
     "x": 448,
     "y": 5024,
     "width": 32,
     "height": 32,
     "rotation": 0,
     "visible": true,
     "properties": []
    },
    {
     "id": 3212,
     "name": "",
     "type": "",
     "x": 480,
     "y": 5024,
     "width": 32,
     "height": 32,
     "rotation": 0,
     "visible": true,
     "properties": []
    },
    {
     "id": 3213,
     "name": "",
     "type": "",
     "x": 512,
     "y": 5024,
     "width": 32,
     "height": 32,
     "rotation": 0,
     "visible": true,
     "properties": []
    },
    {
     "id": 3214,
     "name": "",
     "type": "",
     "x": 544,
     "y": 5024,
     "width": 32,
     "height": 32,
     "rotation": 0,
     "visible": true,
     "properties": []
    },
    {
     "id": 3215,
     "name": "",
     "type": "",
     "x": 576,
     "y": 5024,
     "width": 32,
     "height": 32,
     "rotation": 0,
     "visible": true,
     "properties": []
    },
    {
     "id": 3216,
     "name": "",
     "type": "",
     "x": 608,
     "y": 5024,
     "width": 32,
     "height": 32,
     "rotation": 0,
     "visible": true,
     "properties": []
    },
    {
     "id": 3217,
     "name": "",
     "type": "",
     "x": 640,
     "y": 5024,
     "width": 32,
     "height": 32,
     "rotation": 0,
     "visible": true,
     "properties": []
    },
    {
     "id": 3218,
     "name": "",
     "type": "",
     "x": 672,
     "y": 5024,
     "width": 32,
     "height": 32,
     "rotation": 0,
     "visible": true,
     "properties": []
    },
    {
     "id": 3219,
     "name": "",
     "type": "",
     "x": 704,
     "y": 5024,
     "width": 32,
     "height": 32,
     "rotation": 0,
     "visible": true,
     "properties": []
    },
    {
     "id": 3220,
     "name": "",
     "type": "",
     "x": 736,
     "y": 5024,
     "width": 32,
     "height": 32,
     "rotation": 0,
     "visible": true,
     "properties": []
    },
    {
     "id": 3221,
     "name": "",
     "type": "",
     "x": 0,
     "y": 5056,
     "width": 32,
     "height": 32,
     "rotation": 0,
     "visible": true,
     "properties": []
    },
    {
     "id": 3222,
     "name": "",
     "type": "",
     "x": 32,
     "y": 5056,
     "width": 32,
     "height": 32,
     "rotation": 0,
     "visible": true,
     "properties": []
    },
    {
     "id": 3223,
     "name": "",
     "type": "",
     "x": 64,
     "y": 5056,
     "width": 32,
     "height": 32,
     "rotation": 0,
     "visible": true,
     "properties": []
    },
    {
     "id": 3224,
     "name": "",
     "type": "",
     "x": 96,
     "y": 5056,
     "width": 32,
     "height": 32,
     "rotation": 0,
     "visible": true,
     "properties": []
    },
    {
     "id": 3225,
     "name": "",
     "type": "",
     "x": 128,
     "y": 5056,
     "width": 32,
     "height": 32,
     "rotation": 0,
     "visible": true,
     "properties": []
    },
    {
     "id": 3226,
     "name": "",
     "type": "",
     "x": 160,
     "y": 5056,
     "width": 32,
     "height": 32,
     "rotation": 0,
     "visible": true,
     "properties": []
    },
    {
     "id": 3227,
     "name": "",
     "type": "",
     "x": 192,
     "y": 5056,
     "width": 32,
     "height": 32,
     "rotation": 0,
     "visible": true,
     "properties": []
    },
    {
     "id": 3228,
     "name": "",
     "type": "",
     "x": 224,
     "y": 5056,
     "width": 32,
     "height": 32,
     "rotation": 0,
     "visible": true,
     "properties": []
    },
    {
     "id": 3229,
     "name": "",
     "type": "",
     "x": 256,
     "y": 5056,
     "width": 32,
     "height": 32,
     "rotation": 0,
     "visible": true,
     "properties": []
    },
    {
     "id": 3230,
     "name": "",
     "type": "",
     "x": 288,
     "y": 5056,
     "width": 32,
     "height": 32,
     "rotation": 0,
     "visible": true,
     "properties": []
    },
    {
     "id": 3231,
     "name": "",
     "type": "",
     "x": 320,
     "y": 5056,
     "width": 32,
     "height": 32,
     "rotation": 0,
     "visible": true,
     "properties": []
    },
    {
     "id": 3232,
     "name": "",
     "type": "",
     "x": 352,
     "y": 5056,
     "width": 32,
     "height": 32,
     "rotation": 0,
     "visible": true,
     "properties": []
    },
    {
     "id": 3233,
     "name": "",
     "type": "",
     "x": 384,
     "y": 5056,
     "width": 32,
     "height": 32,
     "rotation": 0,
     "visible": true,
     "properties": []
    },
    {
     "id": 3234,
     "name": "",
     "type": "",
     "x": 416,
     "y": 5056,
     "width": 32,
     "height": 32,
     "rotation": 0,
     "visible": true,
     "properties": []
    },
    {
     "id": 3235,
     "name": "",
     "type": "",
     "x": 448,
     "y": 5056,
     "width": 32,
     "height": 32,
     "rotation": 0,
     "visible": true,
     "properties": []
    },
    {
     "id": 3236,
     "name": "",
     "type": "",
     "x": 480,
     "y": 5056,
     "width": 32,
     "height": 32,
     "rotation": 0,
     "visible": true,
     "properties": []
    },
    {
     "id": 3237,
     "name": "",
     "type": "",
     "x": 512,
     "y": 5056,
     "width": 32,
     "height": 32,
     "rotation": 0,
     "visible": true,
     "properties": []
    },
    {
     "id": 3238,
     "name": "",
     "type": "",
     "x": 544,
     "y": 5056,
     "width": 32,
     "height": 32,
     "rotation": 0,
     "visible": true,
     "properties": []
    },
    {
     "id": 3239,
     "name": "",
     "type": "",
     "x": 576,
     "y": 5056,
     "width": 32,
     "height": 32,
     "rotation": 0,
     "visible": true,
     "properties": []
    },
    {
     "id": 3240,
     "name": "",
     "type": "",
     "x": 608,
     "y": 5056,
     "width": 32,
     "height": 32,
     "rotation": 0,
     "visible": true,
     "properties": []
    },
    {
     "id": 3241,
     "name": "",
     "type": "",
     "x": 640,
     "y": 5056,
     "width": 32,
     "height": 32,
     "rotation": 0,
     "visible": true,
     "properties": []
    },
    {
     "id": 3242,
     "name": "",
     "type": "",
     "x": 672,
     "y": 5056,
     "width": 32,
     "height": 32,
     "rotation": 0,
     "visible": true,
     "properties": []
    },
    {
     "id": 3243,
     "name": "",
     "type": "",
     "x": 704,
     "y": 5056,
     "width": 32,
     "height": 32,
     "rotation": 0,
     "visible": true,
     "properties": []
    },
    {
     "id": 3244,
     "name": "",
     "type": "",
     "x": 736,
     "y": 5056,
     "width": 32,
     "height": 32,
     "rotation": 0,
     "visible": true,
     "properties": []
    },
    {
     "id": 3245,
     "name": "",
     "type": "",
     "x": 0,
     "y": 5088,
     "width": 32,
     "height": 32,
     "rotation": 0,
     "visible": true,
     "properties": []
    },
    {
     "id": 3246,
     "name": "",
     "type": "",
     "x": 32,
     "y": 5088,
     "width": 32,
     "height": 32,
     "rotation": 0,
     "visible": true,
     "properties": []
    },
    {
     "id": 3247,
     "name": "",
     "type": "",
     "x": 64,
     "y": 5088,
     "width": 32,
     "height": 32,
     "rotation": 0,
     "visible": true,
     "properties": []
    },
    {
     "id": 3248,
     "name": "",
     "type": "",
     "x": 96,
     "y": 5088,
     "width": 32,
     "height": 32,
     "rotation": 0,
     "visible": true,
     "properties": []
    },
    {
     "id": 3249,
     "name": "",
     "type": "",
     "x": 128,
     "y": 5088,
     "width": 32,
     "height": 32,
     "rotation": 0,
     "visible": true,
     "properties": []
    },
    {
     "id": 3250,
     "name": "",
     "type": "",
     "x": 160,
     "y": 5088,
     "width": 32,
     "height": 32,
     "rotation": 0,
     "visible": true,
     "properties": []
    },
    {
     "id": 3251,
     "name": "",
     "type": "",
     "x": 192,
     "y": 5088,
     "width": 32,
     "height": 32,
     "rotation": 0,
     "visible": true,
     "properties": []
    },
    {
     "id": 3252,
     "name": "",
     "type": "",
     "x": 224,
     "y": 5088,
     "width": 32,
     "height": 32,
     "rotation": 0,
     "visible": true,
     "properties": []
    },
    {
     "id": 3253,
     "name": "",
     "type": "",
     "x": 256,
     "y": 5088,
     "width": 32,
     "height": 32,
     "rotation": 0,
     "visible": true,
     "properties": []
    },
    {
     "id": 3254,
     "name": "",
     "type": "",
     "x": 288,
     "y": 5088,
     "width": 32,
     "height": 32,
     "rotation": 0,
     "visible": true,
     "properties": []
    },
    {
     "id": 3255,
     "name": "",
     "type": "",
     "x": 320,
     "y": 5088,
     "width": 32,
     "height": 32,
     "rotation": 0,
     "visible": true,
     "properties": []
    },
    {
     "id": 3256,
     "name": "",
     "type": "",
     "x": 352,
     "y": 5088,
     "width": 32,
     "height": 32,
     "rotation": 0,
     "visible": true,
     "properties": []
    },
    {
     "id": 3257,
     "name": "",
     "type": "",
     "x": 384,
     "y": 5088,
     "width": 32,
     "height": 32,
     "rotation": 0,
     "visible": true,
     "properties": []
    },
    {
     "id": 3258,
     "name": "",
     "type": "",
     "x": 416,
     "y": 5088,
     "width": 32,
     "height": 32,
     "rotation": 0,
     "visible": true,
     "properties": []
    },
    {
     "id": 3259,
     "name": "",
     "type": "",
     "x": 448,
     "y": 5088,
     "width": 32,
     "height": 32,
     "rotation": 0,
     "visible": true,
     "properties": []
    },
    {
     "id": 3260,
     "name": "",
     "type": "",
     "x": 480,
     "y": 5088,
     "width": 32,
     "height": 32,
     "rotation": 0,
     "visible": true,
     "properties": []
    },
    {
     "id": 3261,
     "name": "",
     "type": "",
     "x": 512,
     "y": 5088,
     "width": 32,
     "height": 32,
     "rotation": 0,
     "visible": true,
     "properties": []
    },
    {
     "id": 3262,
     "name": "",
     "type": "",
     "x": 544,
     "y": 5088,
     "width": 32,
     "height": 32,
     "rotation": 0,
     "visible": true,
     "properties": []
    },
    {
     "id": 3263,
     "name": "",
     "type": "",
     "x": 576,
     "y": 5088,
     "width": 32,
     "height": 32,
     "rotation": 0,
     "visible": true,
     "properties": []
    },
    {
     "id": 3264,
     "name": "",
     "type": "",
     "x": 608,
     "y": 5088,
     "width": 32,
     "height": 32,
     "rotation": 0,
     "visible": true,
     "properties": []
    },
    {
     "id": 3265,
     "name": "",
     "type": "",
     "x": 640,
     "y": 5088,
     "width": 32,
     "height": 32,
     "rotation": 0,
     "visible": true,
     "properties": []
    },
    {
     "id": 3266,
     "name": "",
     "type": "",
     "x": 672,
     "y": 5088,
     "width": 32,
     "height": 32,
     "rotation": 0,
     "visible": true,
     "properties": []
    },
    {
     "id": 3267,
     "name": "",
     "type": "",
     "x": 704,
     "y": 5088,
     "width": 32,
     "height": 32,
     "rotation": 0,
     "visible": true,
     "properties": []
    },
    {
     "id": 3268,
     "name": "",
     "type": "",
     "x": 736,
     "y": 5088,
     "width": 32,
     "height": 32,
     "rotation": 0,
     "visible": true,
     "properties": []
    }
   ]
  },
  {
   "id": 5,
   "name": "eventi",
   "type": "objectgroup",
   "opacity": 1,
   "visible": true,
   "x": 0,
   "y": 0,
   "objects": [
    {
     "id": 1,
     "name": "npc_percorso_montepo_3_1",
     "type": "",
     "point": true,
     "x": 496,
     "y": 4800,
     "width": 0,
     "height": 0,
     "rotation": 0,
     "visible": true,
     "properties": [
      {
       "name": "type",
       "type": "string",
       "value": "npc"
      },
      {
       "name": "id",
       "type": "string",
       "value": "npc_percorso_montepo_3_1"
      },
      {
       "name": "nota_origine",
       "type": "string",
       "value": "OBJ_EVENT_GFX_POLICEMAN"
      }
     ]
    },
    {
     "id": 2,
     "name": "npc_percorso_montepo_3_2",
     "type": "",
     "point": true,
     "x": 272,
     "y": 4512,
     "width": 0,
     "height": 0,
     "rotation": 0,
     "visible": true,
     "properties": [
      {
       "name": "type",
       "type": "string",
       "value": "npc"
      },
      {
       "name": "id",
       "type": "string",
       "value": "npc_percorso_montepo_3_2"
      },
      {
       "name": "nota_origine",
       "type": "string",
       "value": "OBJ_EVENT_GFX_POLICEMAN"
      }
     ]
    },
    {
     "id": 3,
     "name": "npc_percorso_montepo_3_3",
     "type": "",
     "point": true,
     "x": 464,
     "y": 3968,
     "width": 0,
     "height": 0,
     "rotation": 0,
     "visible": true,
     "properties": [
      {
       "name": "type",
       "type": "string",
       "value": "npc"
      },
      {
       "name": "id",
       "type": "string",
       "value": "npc_percorso_montepo_3_3"
      },
      {
       "name": "nota_origine",
       "type": "string",
       "value": "OBJ_EVENT_GFX_POLICEMAN"
      }
     ]
    },
    {
     "id": 4,
     "name": "npc_percorso_montepo_3_4",
     "type": "",
     "point": true,
     "x": 528,
     "y": 3616,
     "width": 0,
     "height": 0,
     "rotation": 0,
     "visible": true,
     "properties": [
      {
       "name": "type",
       "type": "string",
       "value": "npc"
      },
      {
       "name": "id",
       "type": "string",
       "value": "npc_percorso_montepo_3_4"
      },
      {
       "name": "nota_origine",
       "type": "string",
       "value": "OBJ_EVENT_GFX_POLICEMAN"
      }
     ]
    },
    {
     "id": 5,
     "name": "npc_percorso_montepo_3_5",
     "type": "",
     "point": true,
     "x": 336,
     "y": 3040,
     "width": 0,
     "height": 0,
     "rotation": 0,
     "visible": true,
     "properties": [
      {
       "name": "type",
       "type": "string",
       "value": "npc"
      },
      {
       "name": "id",
       "type": "string",
       "value": "npc_percorso_montepo_3_5"
      },
      {
       "name": "nota_origine",
       "type": "string",
       "value": "OBJ_EVENT_GFX_POLICEMAN"
      }
     ]
    },
    {
     "id": 6,
     "name": "npc_percorso_montepo_3_6",
     "type": "",
     "point": true,
     "x": 464,
     "y": 1984,
     "width": 0,
     "height": 0,
     "rotation": 0,
     "visible": true,
     "properties": [
      {
       "name": "type",
       "type": "string",
       "value": "npc"
      },
      {
       "name": "id",
       "type": "string",
       "value": "npc_percorso_montepo_3_6"
      },
      {
       "name": "nota_origine",
       "type": "string",
       "value": "OBJ_EVENT_GFX_POLICEMAN"
      }
     ]
    },
    {
     "id": 7,
     "name": "npc_percorso_montepo_3_7",
     "type": "",
     "point": true,
     "x": 208,
     "y": 1152,
     "width": 0,
     "height": 0,
     "rotation": 0,
     "visible": true,
     "properties": [
      {
       "name": "type",
       "type": "string",
       "value": "npc"
      },
      {
       "name": "id",
       "type": "string",
       "value": "npc_percorso_montepo_3_7"
      },
      {
       "name": "nota_origine",
       "type": "string",
       "value": "OBJ_EVENT_GFX_POLICEMAN"
      }
     ]
    },
    {
     "id": 8,
     "name": "uscita_1",
     "type": "",
     "x": 160,
     "y": 896,
     "width": 32,
     "height": 32,
     "rotation": 0,
     "visible": true,
     "properties": [
      {
       "name": "type",
       "type": "string",
       "value": "uscita"
      },
      {
       "name": "nota_origine",
       "type": "string",
       "value": "verso MAP_VICTORY_ROAD_1F (da ricollegare a una tua mappa)"
      }
     ]
    },
    {
     "id": 9,
     "name": "uscita_2",
     "type": "",
     "x": 576,
     "y": 896,
     "width": 32,
     "height": 32,
     "rotation": 0,
     "visible": true,
     "properties": [
      {
       "name": "type",
       "type": "string",
       "value": "uscita"
      },
      {
       "name": "nota_origine",
       "type": "string",
       "value": "verso MAP_VICTORY_ROAD_2F (da ricollegare a una tua mappa)"
      }
     ]
    },
    {
     "id": 10,
     "name": "uscita_3",
     "type": "",
     "x": 256,
     "y": 4896,
     "width": 32,
     "height": 32,
     "rotation": 0,
     "visible": true,
     "properties": [
      {
       "name": "type",
       "type": "string",
       "value": "uscita"
      },
      {
       "name": "nota_origine",
       "type": "string",
       "value": "verso MAP_ROUTE22_NORTH_ENTRANCE (da ricollegare a una tua mappa)"
      }
     ]
    },
    {
     "id": 11,
     "name": "uscita_4",
     "type": "",
     "x": 288,
     "y": 4928,
     "width": 32,
     "height": 32,
     "rotation": 0,
     "visible": true,
     "properties": [
      {
       "name": "type",
       "type": "string",
       "value": "uscita"
      },
      {
       "name": "nota_origine",
       "type": "string",
       "value": "verso MAP_ROUTE22_NORTH_ENTRANCE (da ricollegare a una tua mappa)"
      }
     ]
    }
   ]
  }
 ]
}