{
 "compressionlevel": -1,
 "width": 24,
 "height": 50,
 "tilewidth": 32,
 "tileheight": 32,
 "infinite": false,
 "orientation": "orthogonal",
 "renderorder": "right-down",
 "type": "map",
 "version": "1.10",
 "tiledversion": "1.11.0",
 "nextlayerid": 6,
 "nextobjectid": 272,
 "tilesets": [
  {
   "firstgid": 1,
   "image": "../percorso_montepo_2_tileset.png",
   "imagewidth": 512,
   "imageheight": 160,
   "columns": 16,
   "tilecount": 78,
   "tilewidth": 32,
   "tileheight": 32,
   "name": "percorso_montepo_2_tileset",
   "margin": 0,
   "spacing": 0
  }
 ],
 "layers": [
  {
   "id": 1,
   "name": "ground",
   "type": "tilelayer",
   "width": 24,
   "height": 50,
   "data": [
    1,
    3,
    5,
    5,
    7,
    9,
    5,
    5,
    5,
    5,
    5,
    5,
    5,
    5,
    5,
    5,
    5,
    5,
    7,
    9,
    5,
    5,
    1,
    3,
    11,
    13,
    5,
    5,
    15,
    17,
    5,
    5,
    5,
    5,
    5,
    5,
    5,
    5,
    5,
    5,
    5,
    5,
    15,
    17,
    5,
    5,
    11,
    13,
    5,
    1,
    3,
    5,
    5,
    5,
    5,
    5,
    5,
    5,
    5,
    5,
    5,
    5,
    5,
    5,
    5,
    5,
    5,
    5,
    5,
    1,
    3,
    5,
    19,
    11,
    13,
    1,
    3,
    5,
    5,
    5,
    5,
    5,
    5,
    5,
    5,
    5,
    5,
    5,
    5,
    5,
    5,
    5,
    5,
    11,
    13,
    21,
    23,
    5,
    5,
    11,
    13,
    5,
    5,
    1,
    3,
    5,
    5,
    5,
    5,
    5,
    5,
    5,
    5,
    5,
    5,
    5,
    7,
    9,
    5,
    23,
    23,
    19,
    7,
    9,
    5,
    5,
    5,
    11,
    13,
    5,
    5,
    5,
    5,
    5,
    5,
    5,
    5,
    5,
    5,
    5,
    15,
    17,
    5,
    23,
    23,
    23,
    15,
    17,
    5,
    5,
    5,
    5,
    5,
    5,
    5,
    5,
    5,
    5,
    5,
    5,
    5,
    5,
    5,
    5,
    1,
    3,
    5,
    23,
    23,
    23,
    1,
    3,
    5,
    5,
    5,
    25,
    27,
    29,
    5,
    5,
    5,
    5,
    5,
    5,
    5,
    5,
    5,
    5,
    11,
    13,
    5,
    23,
    23,
    23,
    11,
    13,
    5,
    5,
    5,
    31,
    33,
    35,
    27,
    29,
    5,
    5,
    5,
    5,
    5,
    5,
    5,
    5,
    5,
    7,
    9,
    23,
    23,
    37,
    5,
    5,
    7,
    9,
    5,
    39,
    41,
    33,
    33,
    43,
    5,
    5,
    5,
    5,
    5,
    5,
    5,
    5,
    5,
    15,
    17,
    23,
    23,
    5,
    1,
    3,
    15,
    17,
    5,
    5,
    39,
    45,
    45,
    47,
    5,
    5,
    5,
    5,
    5,
    5,
    5,
    7,
    9,
    1,
    3,
    23,
    23,
    5,
    11,
    13,
    5,
    5,
    5,
    5,
    5,
    5,
    5,
    5,
    5,
    5,
    5,
    5,
    5,
    5,
    5,
    15,
    17,
    11,
    13,
    23,
    23,
    7,
    9,
    5,
    5,
    5,
    5,
    5,
    5,
    5,
    5,
    5,
    5,
    5,
    5,
    5,
    5,
    5,
    5,
    5,
    5,
    7,
    9,
    23,
    23,
    15,
    17,
    5,
    1,
    3,
    5,
    5,
    5,
    5,
    5,
    5,
    5,
    5,
    5,
    25,
    27,
    27,
    27,
    29,
    5,
    15,
    17,
    23,
    23,
    1,
    3,
    5,
    11,
    13,
    5,
    5,
    5,
    5,
    5,
    5,
    5,
    5,
    25,
    49,
    33,
    33,
    33,
    43,
    5,
    1,
    3,
    23,
    23,
    11,
    13,
    5,
    5,
    5,
    5,
    5,
    5,
    5,
    5,
    5,
    5,
    5,
    31,
    33,
    33,
    33,
    51,
    47,
    5,
    11,
    13,
    23,
    23,
    5,
    7,
    9,
    5,
    5,
    5,
    5,
    5,
    5,
    5,
    5,
    5,
    5,
    39,
    41,
    33,
    33,
    43,
    5,
    5,
    1,
    3,
    23,
    23,
    5,
    15,
    17,
    5,
    5,
    5,
    5,
    5,
    5,
    5,
    5,
    5,
    5,
    5,
    39,
    45,
    45,
    47,
    5,
    5,
    11,
    13,
    23,
    23,
    5,
    1,
    3,
    5,
    5,
    5,
    5,
    5,
    5,
    5,
    5,
    5,
    5,
    5,
    5,
    5,
    5,
    5,
    5,
    7,
    9,
    5,
    23,
    23,
    5,
    11,
    13,
    5,
    5,
    5,
    5,
    5,
    5,
    5,
    5,
    5,
    5,
    5,
    5,
    5,
    5,
    5,
    5,
    15,
    17,
    5,
    23,
    23,
    7,
    9,
    5,
    5,
    5,
    5,
    5,
    5,
    5,
    5,
    5,
    5,
    5,
    5,
    5,
    5,
    5,
    5,
    5,
    1,
    3,
    5,
    23,
    23,
    15,
    17,
    5,
    5,
    25,
    27,
    27,
    27,
    27,
    29,
    5,
    5,
    5,
    5,
    5,
    5,
    5,
    5,
    5,
    11,
    13,
    5,
    53,
    23,
    1,
    3,
    5,
    5,
    31,
    33,
    33,
    33,
    33,
    35,
    29,
    5,
    5,
    5,
    5,
    5,
    5,
    5,
    5,
    5,
    1,
    3,
    5,
    37,
    11,
    13,
    5,
    5,
    39,
    41,
    33,
    33,
    33,
    33,
    43,
    5,
    5,
    5,
    5,
    5,
    5,
    5,
    5,
    5,
    11,
    13,
    5,
    5,
    5,
    1,
    3,
    5,
    5,
    39,
    41,
    33,
    33,
    33,
    43,
    5,
    5,
    5,
    5,
    5,
    5,
    5,
    1,
    3,
    5,
    1,
    3,
    7,
    9,
    11,
    13,
    5,
    5,
    5,
    39,
    45,
    45,
    45,
    47,
    5,
    5,
    5,
    5,
    5,
    5,
    5,
    11,
    13,
    5,
    11,
    13,
    15,
    17,
    7,
    9,
    5,
    5,
    5,
    5,
    5,
    5,
    5,
    5,
    5,
    5,
    5,
    5,
    5,
    5,
    5,
    5,
    5,
    1,
    3,
    5,
    5,
    5,
    15,
    17,
    5,
    5,
    5,
    5,
    5,
    5,
    5,
    5,
    5,
    5,
    5,
    5,
    5,
    5,
    5,
    5,
    5,
    11,
    13,
    5,
    5,
    1,
    3,
    5,
    5,
    5,
    5,
    5,
    5,
    5,
    5,
    5,
    5,
    5,
    5,
    5,
    5,
    5,
    5,
    5,
    5,
    1,
    3,
    5,
    5,
    11,
    13,
    5,
    5,
    5,
    5,
    5,
    5,
    5,
    5,
    5,
    5,
    5,
    5,
    5,
    5,
    5,
    5,
    5,
    5,
    11,
    13,
    5,
    1,
    3,
    5,
    5,
    5,
    5,
    5,
    5,
    5,
    5,
    5,
    5,
    5,
    5,
    5,
    5,
    5,
    5,
    5,
    5,
    5,
    5,
    7,
    9,
    11,
    13,
    5,
    5,
    5,
    5,
    5,
    5,
    5,
    5,
    5,
    5,
    5,
    5,
    5,
    5,
    5,
    5,
    5,
    7,
    9,
    5,
    15,
    17,
    5,
    7,
    9,
    5,
    7,
    9,
    5,
    5,
    5,
    5,
    5,
    5,
    5,
    5,
    5,
    5,
    5,
    5,
    5,
    15,
    17,
    1,
    3,
    5,
    5,
    15,
    17,
    5,
    15,
    17,
    1,
    3,
    5,
    5,
    5,
    5,
    5,
    5,
    5,
    5,
    5,
    5,
    5,
    5,
    5,
    11,
    13,
    5,
    19,
    1,
    3,
    5,
    5,
    5,
    11,
    13,
    5,
    5,
    5,
    5,
    5,
    5,
    5,
    5,
    5,
    5,
    5,
    5,
    5,
    1,
    3,
    21,
    23,
    11,
    13,
    5,
    5,
    5,
    5,
    5,
    5,
    5,
    5,
    5,
    5,
    5,
    5,
    5,
    5,
    5,
    1,
    3,
    5,
    11,
    13,
    23,
    23,
    1,
    3,
    5,
    5,
    5,
    5,
    5,
    25,
    27,
    27,
    29,
    5,
    5,
    5,
    5,
    5,
    5,
    11,
    13,
    5,
    7,
    9,
    23,
    23,
    11,
    13,
    5,
    5,
    5,
    25,
    27,
    49,
    33,
    33,
    43,
    5,
    5,
    5,
    5,
    1,
    3,
    5,
    5,
    5,
    15,
    17,
    23,
    23,
    1,
    3,
    5,
    5,
    5,
    31,
    33,
    33,
    33,
    51,
    47,
    5,
    5,
    5,
    5,
    11,
    13,
    5,
    5,
    1,
    3,
    5,
    23,
    23,
    11,
    13,
    5,
    5,
    5,
    39,
    45,
    45,
    45,
    47,
    5,
    5,
    5,
    5,
    5,
    5,
    5,
    7,
    9,
    11,
    13,
    5,
    23,
    23,
    5,
    1,
    3,
    5,
    5,
    5,
    5,
    5,
    5,
    5,
    5,
    5,
    5,
    5,
    5,
    5,
    5,
    15,
    17,
    5,
    5,
    5,
    23,
    23,
    5,
    11,
    13,
    5,
    5,
    5,
    5,
    5,
    5,
    5,
    5,
    5,
    5,
    5,
    5,
    5,
    1,
    3,
    5,
    5,
    5,
    21,
    23,
    23,
    5,
    7,
    9,
    5,
    1,
    3,
    5,
    5,
    5,
    5,
    5,
    5,
    5,
    5,
    5,
    5,
    11,
    13,
    5,
    5,
    21,
    23,
    23,
    23,
    5,
    15,
    17,
    5,
    11,
    13,
    5,
    5,
    5,
    5,
    5,
    5,
    5,
    5,
    5,
    7,
    9,
    5,
    5,
    5,
    23,
    23,
    23,
    23,
    1,
    3,
    5,
    5,
    5,
    1,
    3,
    5,
    5,
    5,
    5,
    5,
    5,
    5,
    5,
    15,
    17,
    5,
    5,
    21,
    23,
    23,
    23,
    37,
    11,
    13,
    7,
    9,
    5,
    11,
    13,
    5,
    5,
    5,
    55,
    57,
    59,
    61,
    5,
    1,
    3,
    5,
    5,
    23,
    23,
    23,
    23,
    5,
    1,
    3,
    15,
    17,
    5,
    5,
    5,
    5,
    5,
    5,
    63,
    65,
    65,
    67,
    5,
    11,
    13,
    5,
    5,
    23,
    23,
    23,
    23,
    5,
    11,
    13,
    5,
    5,
    5,
    5,
    5,
    5,
    5,
    5,
    63,
    65,
    65,
    67,
    5,
    5,
    1,
    3,
    5,
    23,
    23,
    23,
    23,
    1,
    3,
    5,
    5,
    55,
    57,
    69,
    69,
    69,
    69,
    69,
    69,
    65,
    65,
    67,
    5,
    5,
    11,
    13,
    5,
    53,
    23,
    23,
    23,
    11,
    13,
    5,
    5,
    63,
    71,
    73,
    73,
    73,
    73,
    73,
    75,
    65,
    77,
    67,
    5,
    5,
    1,
    3,
    5,
    5,
    53,
    23,
    23
   ],
   "opacity": 1,
   "visible": true,
   "x": 0,
   "y": 0
  },
  {
   "id": 2,
   "name": "deco_sotto",
   "type": "tilelayer",
   "width": 24,
   "height": 50,
   "data": [
    0,
    0,
    0,
    0,
    0,
    0,
    0,
    0,
    0,
    0,
    0,
    0,
    0,
    0,
    0,
    0,
    0,
    0,
    0,
    0,
    0,
    0,
    0,
    0,
    0,
    0,
    0,
    0,
    0,
    0,
    0,
    0,
    0,
    0,
    0,
    0,
    0,
    0,
    0,
    0,
    0,
    0,
    0,
    0,
    0,
    0,
    0,
    0,
    0,
    0,
    0,
    0,
    0,
    0,
    0,
    0,
    0,
    0,
    0,
    0,
    0,
    0,
    0,
    0,
    0,
    0,
    0,
    0,
    0,
    0,
    0,
    0,
    0,
    0,
    0,
    0,
    0,
    0,
    0,
    0,
    0,
    0,
    0,
    0,
    0,
    0,
    0,
    0,
    0,
    0,
    0,
    0,
    0,
    0,
    0,
    0,
    0,
    0,
    0,
    0,
    0,
    0,
    0,
    0,
    0,
    0,
    0,
    0,
    0,
    0,
    0,
    0,
    0,
    0,
    0,
    0,
    0,
    0,
    0,
    0,
    0,
    0,
    0,
    0,
    0,
    0,
    0,
    0,
    0,
    0,
    0,
    0,
    0,
    0,
    0,
    0,
    0,
    0,
    0,
    0,
    0,
    0,
    0,
    0,
    0,
    0,
    0,
    0,
    0,
    0,
    0,
    0,
    0,
    0,
    0,
    0,
    0,
    0,
    0,
    0,
    0,
    0,
    0,
    0,
    0,
    0,
    0,
    0,
    0,
    0,
    0,
    0,
    0,
    0,
    0,
    26,
    28,
    30,
    0,
    0,
    0,
    0,
    0,
    0,
    0,
    0,
    0,
    0,
    0,
    0,
    0,
    0,
    0,
    0,
    0,
    0,
    0,
    0,
    0,
    32,
    34,
    36,
    28,
    30,
    0,
    0,
    0,
    0,
    0,
    0,
    0,
    0,
    0,
    0,
    0,
    0,
    0,
    0,
    0,
    0,
    0,
    0,
    0,
    40,
    42,
    34,
    34,
    44,
    0,
    0,
    0,
    0,
    0,
    0,
    0,
    0,
    0,
    0,
    0,
    0,
    0,
    0,
    0,
    0,
    0,
    0,
    0,
    0,
    40,
    46,
    46,
    48,
    0,
    0,
    0,
    0,
    0,
    0,
    0,
    0,
    0,
    0,
    0,
    0,
    0,
    0,
    0,
    0,
    0,
    0,
    0,
    0,
    0,
    0,
    0,
    0,
    0,
    0,
    0,
    0,
    0,
    0,
    0,
    0,
    0,
    0,
    0,
    0,
    0,
    0,
    0,
    0,
    0,
    0,
    0,
    0,
    0,
    0,
    0,
    0,
    0,
    0,
    0,
    0,
    0,
    0,
    0,
    0,
    0,
    0,
    0,
    0,
    0,
    0,
    0,
    0,
    0,
    0,
    0,
    0,
    0,
    0,
    0,
    0,
    0,
    0,
    0,
    26,
    28,
    28,
    28,
    30,
    0,
    0,
    0,
    0,
    0,
    0,
    0,
    0,
    0,
    0,
    0,
    0,
    0,
    0,
    0,
    0,
    0,
    0,
    26,
    50,
    34,
    34,
    34,
    44,
    0,
    0,
    0,
    0,
    0,
    0,
    0,
    0,
    0,
    0,
    0,
    0,
    0,
    0,
    0,
    0,
    0,
    0,
    32,
    34,
    34,
    34,
    52,
    48,
    0,
    0,
    0,
    0,
    0,
    0,
    0,
    0,
    0,
    0,
    0,
    0,
    0,
    0,
    0,
    0,
    0,
    0,
    40,
    42,
    34,
    34,
    44,
    0,
    0,
    0,
    0,
    0,
    0,
    0,
    0,
    0,
    0,
    0,
    0,
    0,
    0,
    0,
    0,
    0,
    0,
    0,
    0,
    40,
    46,
    46,
    48,
    0,
    0,
    0,
    0,
    0,
    0,
    0,
    0,
    0,
    0,
    0,
    0,
    0,
    0,
    0,
    0,
    0,
    0,
    0,
    0,
    0,
    0,
    0,
    0,
    0,
    0,
    0,
    0,
    0,
    0,
    0,
    0,
    0,
    0,
    0,
    0,
    0,
    0,
    0,
    0,
    0,
    0,
    0,
    0,
    0,
    0,
    0,
    0,
    0,
    0,
    0,
    0,
    0,
    0,
    0,
    0,
    0,
    0,
    0,
    0,
    0,
    0,
    0,
    0,
    0,
    0,
    0,
    0,
    0,
    0,
    0,
    0,
    0,
    0,
    0,
    0,
    0,
    0,
    0,
    0,
    0,
    0,
    26,
    28,
    28,
    28,
    28,
    30,
    0,
    0,
    0,
    0,
    0,
    0,
    0,
    0,
    0,
    0,
    0,
    0,
    0,
    0,
    0,
    0,
    0,
    0,
    32,
    34,
    34,
    34,
    34,
    36,
    30,
    0,
    0,
    0,
    0,
    0,
    0,
    0,
    0,
    0,
    0,
    0,
    0,
    0,
    0,
    0,
    0,
    0,
    40,
    42,
    34,
    34,
    34,
    34,
    44,
    0,
    0,
    0,
    0,
    0,
    0,
    0,
    0,
    0,
    0,
    0,
    0,
    0,
    0,
    0,
    0,
    0,
    0,
    40,
    42,
    34,
    34,
    34,
    44,
    0,
    0,
    0,
    0,
    0,
    0,
    0,
    0,
    0,
    0,
    0,
    0,
    0,
    0,
    0,
    0,
    0,
    0,
    0,
    40,
    46,
    46,
    46,
    48,
    0,
    0,
    0,
    0,
    0,
    0,
    0,
    0,
    0,
    0,
    0,
    0,
    0,
    0,
    0,
    0,
    0,
    0,
    0,
    0,
    0,
    0,
    0,
    0,
    0,
    0,
    0,
    0,
    0,
    0,
    0,
    0,
    0,
    0,
    0,
    0,
    0,
    0,
    0,
    0,
    0,
    0,
    0,
    0,
    0,
    0,
    0,
    0,
    0,
    0,
    0,
    0,
    0,
    0,
    0,
    0,
    0,
    0,
    0,
    0,
    0,
    0,
    0,
    0,
    0,
    0,
    0,
    0,
    0,
    0,
    0,
    0,
    0,
    0,
    0,
    0,
    0,
    0,
    0,
    0,
    0,
    0,
    0,
    0,
    0,
    0,
    0,
    0,
    0,
    0,
    0,
    0,
    0,
    0,
    0,
    0,
    0,
    0,
    0,
    0,
    0,
    0,
    0,
    0,
    0,
    0,
    0,
    0,
    0,
    0,
    0,
    0,
    0,
    0,
    0,
    0,
    0,
    0,
    0,
    0,
    0,
    0,
    0,
    0,
    0,
    0,
    0,
    0,
    0,
    0,
    0,
    0,
    0,
    0,
    0,
    0,
    0,
    0,
    0,
    0,
    0,
    0,
    0,
    0,
    0,
    0,
    0,
    0,
    0,
    0,
    0,
    0,
    0,
    0,
    0,
    0,
    0,
    0,
    0,
    0,
    0,
    0,
    0,
    0,
    0,
    0,
    0,
    0,
    0,
    0,
    0,
    0,
    0,
    0,
    0,
    0,
    0,
    0,
    0,
    0,
    0,
    0,
    0,
    0,
    0,
    0,
    0,
    0,
    0,
    0,
    0,
    0,
    0,
    0,
    0,
    0,
    0,
    0,
    0,
    0,
    0,
    0,
    0,
    0,
    0,
    0,
    0,
    0,
    0,
    0,
    0,
    0,
    0,
    0,
    0,
    0,
    0,
    0,
    0,
    0,
    0,
    0,
    0,
    0,
    0,
    0,
    0,
    0,
    0,
    0,
    0,
    0,
    0,
    0,
    0,
    0,
    0,
    0,
    0,
    0,
    0,
    0,
    0,
    0,
    0,
    0,
    0,
    0,
    0,
    0,
    0,
    0,
    0,
    0,
    0,
    0,
    0,
    0,
    0,
    0,
    26,
    28,
    28,
    30,
    0,
    0,
    0,
    0,
    0,
    0,
    0,
    0,
    0,
    0,
    0,
    0,
    0,
    0,
    0,
    0,
    0,
    0,
    26,
    28,
    50,
    34,
    34,
    44,
    0,
    0,
    0,
    0,
    0,
    0,
    0,
    0,
    0,
    0,
    0,
    0,
    0,
    0,
    0,
    0,
    0,
    0,
    32,
    34,
    34,
    34,
    52,
    48,
    0,
    0,
    0,
    0,
    0,
    0,
    0,
    0,
    0,
    0,
    0,
    0,
    0,
    0,
    0,
    0,
    0,
    0,
    40,
    46,
    46,
    46,
    48,
    0,
    0,
    0,
    0,
    0,
    0,
    0,
    0,
    0,
    0,
    0,
    0,
    0,
    0,
    0,
    0,
    0,
    0,
    0,
    0,
    0,
    0,
    0,
    0,
    0,
    0,
    0,
    0,
    0,
    0,
    0,
    0,
    0,
    0,
    0,
    0,
    0,
    0,
    0,
    0,
    0,
    0,
    0,
    0,
    0,
    0,
    0,
    0,
    0,
    0,
    0,
    0,
    0,
    0,
    0,
    0,
    0,
    0,
    0,
    0,
    0,
    0,
    0,
    0,
    0,
    0,
    0,
    0,
    0,
    0,
    0,
    0,
    0,
    0,
    0,
    0,
    0,
    0,
    0,
    0,
    0,
    0,
    0,
    0,
    0,
    0,
    0,
    0,
    0,
    0,
    0,
    0,
    0,
    0,
    0,
    0,
    0,
    0,
    0,
    0,
    0,
    0,
    0,
    0,
    0,
    0,
    0,
    0,
    0,
    0,
    0,
    0,
    0,
    0,
    0,
    0,
    0,
    0,
    0,
    0,
    0,
    0,
    0,
    0,
    0,
    0,
    0,
    0,
    0,
    0,
    0,
    0,
    0,
    0,
    0,
    0,
    0,
    0,
    0,
    0,
    0,
    0,
    0,
    0,
    0,
    0,
    0,
    0,
    0,
    0,
    0,
    0,
    0,
    0,
    0,
    0,
    0,
    0,
    0,
    0,
    0,
    0,
    0,
    0,
    0,
    0,
    0,
    0,
    0,
    66,
    66,
    0,
    0,
    0,
    0,
    0,
    0,
    0,
    0,
    0,
    0,
    0,
    0,
    0,
    0,
    0,
    0,
    0,
    0,
    0,
    0,
    0,
    0,
    66,
    66,
    0,
    0,
    0,
    0,
    0,
    0,
    0,
    0,
    0,
    0,
    0,
    0,
    0,
    0,
    0,
    0,
    0,
    0,
    0,
    0,
    0,
    0,
    66,
    66,
    0,
    0,
    0,
    0,
    0,
    0,
    0,
    0,
    0,
    0,
    0,
    0,
    0,
    0,
    0,
    72,
    74,
    74,
    74,
    74,
    74,
    76,
    66,
    78,
    0,
    0,
    0,
    0,
    0,
    0,
    0,
    0,
    0,
    0
   ],
   "opacity": 1,
   "visible": true,
   "x": 0,
   "y": 0
  },
  {
   "id": 3,
   "name": "edifici",
   "type": "tilelayer",
   "width": 24,
   "height": 50,
   "data": [
    2,
    4,
    6,
    6,
    8,
    10,
    6,
    6,
    6,
    6,
    6,
    6,
    6,
    6,
    6,
    6,
    6,
    6,
    8,
    10,
    6,
    6,
    2,
    4,
    12,
    14,
    6,
    6,
    16,
    18,
    6,
    6,
    6,
    6,
    6,
    6,
    6,
    6,
    6,
    6,
    6,
    6,
    16,
    18,
    6,
    6,
    12,
    14,
    6,
    2,
    4,
    6,
    6,
    6,
    6,
    6,
    6,
    6,
    6,
    6,
    6,
    6,
    6,
    6,
    6,
    6,
    6,
    6,
    6,
    2,
    4,
    6,
    20,
    12,
    14,
    2,
    4,
    6,
    6,
    6,
    6,
    6,
    6,
    6,
    6,
    6,
    6,
    6,
    6,
    6,
    6,
    6,
    6,
    12,
    14,
    22,
    24,
    6,
    6,
    12,
    14,
    6,
    6,
    2,
    4,
    6,
    6,
    6,
    6,
    6,
    6,
    6,
    6,
    6,
    6,
    6,
    8,
    10,
    6,
    24,
    24,
    20,
    8,
    10,
    6,
    6,
    6,
    12,
    14,
    6,
    6,
    6,
    6,
    6,
    6,
    6,
    6,
    6,
    6,
    6,
    16,
    18,
    6,
    24,
    24,
    24,
    16,
    18,
    6,
    6,
    6,
    6,
    6,
    6,
    6,
    6,
    6,
    6,
    6,
    6,
    6,
    6,
    6,
    6,
    2,
    4,
    6,
    24,
    24,
    24,
    2,
    4,
    6,
    6,
    6,
    0,
    0,
    0,
    6,
    6,
    6,
    6,
    6,
    6,
    6,
    6,
    6,
    6,
    12,
    14,
    6,
    24,
    24,
    24,
    12,
    14,
    6,
    6,
    6,
    0,
    0,
    0,
    0,
    0,
    6,
    6,
    6,
    6,
    6,
    6,
    6,
    6,
    6,
    8,
    10,
    24,
    24,
    38,
    6,
    6,
    8,
    10,
    6,
    0,
    0,
    0,
    0,
    0,
    6,
    6,
    6,
    6,
    6,
    6,
    6,
    6,
    6,
    16,
    18,
    24,
    24,
    6,
    2,
    4,
    16,
    18,
    6,
    6,
    0,
    0,
    0,
    0,
    6,
    6,
    6,
    6,
    6,
    6,
    6,
    8,
    10,
    2,
    4,
    24,
    24,
    6,
    12,
    14,
    6,
    6,
    6,
    6,
    6,
    6,
    6,
    6,
    6,
    6,
    6,
    6,
    6,
    6,
    6,
    16,
    18,
    12,
    14,
    24,
    24,
    8,
    10,
    6,
    6,
    6,
    6,
    6,
    6,
    6,
    6,
    6,
    6,
    6,
    6,
    6,
    6,
    6,
    6,
    6,
    6,
    8,
    10,
    24,
    24,
    16,
    18,
    6,
    2,
    4,
    6,
    6,
    6,
    6,
    6,
    6,
    6,
    6,
    6,
    0,
    0,
    0,
    0,
    0,
    6,
    16,
    18,
    24,
    24,
    2,
    4,
    6,
    12,
    14,
    6,
    6,
    6,
    6,
    6,
    6,
    6,
    6,
    0,
    0,
    0,
    0,
    0,
    0,
    6,
    2,
    4,
    24,
    24,
    12,
    14,
    6,
    6,
    6,
    6,
    6,
    6,
    6,
    6,
    6,
    6,
    6,
    0,
    0,
    0,
    0,
    0,
    0,
    6,
    12,
    14,
    24,
    24,
    6,
    8,
    10,
    6,
    6,
    6,
    6,
    6,
    6,
    6,
    6,
    6,
    6,
    0,
    0,
    0,
    0,
    0,
    6,
    6,
    2,
    4,
    24,
    24,
    6,
    16,
    18,
    6,
    6,
    6,
    6,
    6,
    6,
    6,
    6,
    6,
    6,
    6,
    0,
    0,
    0,
    0,
    6,
    6,
    12,
    14,
    24,
    24,
    6,
    2,
    4,
    6,
    6,
    6,
    6,
    6,
    6,
    6,
    6,
    6,
    6,
    6,
    6,
    6,
    6,
    6,
    6,
    8,
    10,
    6,
    24,
    24,
    6,
    12,
    14,
    6,
    6,
    6,
    6,
    6,
    6,
    6,
    6,
    6,
    6,
    6,
    6,
    6,
    6,
    6,
    6,
    16,
    18,
    6,
    24,
    24,
    8,
    10,
    6,
    6,
    6,
    6,
    6,
    6,
    6,
    6,
    6,
    6,
    6,
    6,
    6,
    6,
    6,
    6,
    6,
    2,
    4,
    6,
    24,
    24,
    16,
    18,
    6,
    6,
    0,
    0,
    0,
    0,
    0,
    0,
    6,
    6,
    6,
    6,
    6,
    6,
    6,
    6,
    6,
    12,
    14,
    6,
    54,
    24,
    2,
    4,
    6,
    6,
    0,
    0,
    0,
    0,
    0,
    0,
    0,
    6,
    6,
    6,
    6,
    6,
    6,
    6,
    6,
    6,
    2,
    4,
    6,
    38,
    12,
    14,
    6,
    6,
    0,
    0,
    0,
    0,
    0,
    0,
    0,
    6,
    6,
    6,
    6,
    6,
    6,
    6,
    6,
    6,
    12,
    14,
    6,
    6,
    6,
    2,
    4,
    6,
    6,
    0,
    0,
    0,
    0,
    0,
    0,
    6,
    6,
    6,
    6,
    6,
    6,
    6,
    2,
    4,
    6,
    2,
    4,
    8,
    10,
    12,
    14,
    6,
    6,
    6,
    0,
    0,
    0,
    0,
    0,
    6,
    6,
    6,
    6,
    6,
    6,
    6,
    12,
    14,
    6,
    12,
    14,
    16,
    18,
    8,
    10,
    6,
    6,
    6,
    6,
    6,
    6,
    6,
    6,
    6,
    6,
    6,
    6,
    6,
    6,
    6,
    6,
    6,
    2,
    4,
    6,
    6,
    6,
    16,
    18,
    6,
    6,
    6,
    6,
    6,
    6,
    6,
    6,
    6,
    6,
    6,
    6,
    6,
    6,
    6,
    6,
    6,
    12,
    14,
    6,
    6,
    2,
    4,
    6,
    6,
    6,
    6,
    6,
    6,
    6,
    6,
    6,
    6,
    6,
    6,
    6,
    6,
    6,
    6,
    6,
    6,
    2,
    4,
    6,
    6,
    12,
    14,
    6,
    6,
    6,
    6,
    6,
    6,
    6,
    6,
    6,
    6,
    6,
    6,
    6,
    6,
    6,
    6,
    6,
    6,
    12,
    14,
    6,
    2,
    4,
    6,
    6,
    6,
    6,
    6,
    6,
    6,
    6,
    6,
    6,
    6,
    6,
    6,
    6,
    6,
    6,
    6,
    6,
    6,
    6,
    8,
    10,
    12,
    14,
    6,
    6,
    6,
    6,
    6,
    6,
    6,
    6,
    6,
    6,
    6,
    6,
    6,
    6,
    6,
    6,
    6,
    8,
    10,
    6,
    16,
    18,
    6,
    8,
    10,
    6,
    8,
    10,
    6,
    6,
    6,
    6,
    6,
    6,
    6,
    6,
    6,
    6,
    6,
    6,
    6,
    16,
    18,
    2,
    4,
    6,
    6,
    16,
    18,
    6,
    16,
    18,
    2,
    4,
    6,
    6,
    6,
    6,
    6,
    6,
    6,
    6,
    6,
    6,
    6,
    6,
    6,
    12,
    14,
    6,
    20,
    2,
    4,
    6,
    6,
    6,
    12,
    14,
    6,
    6,
    6,
    6,
    6,
    6,
    6,
    6,
    6,
    6,
    6,
    6,
    6,
    2,
    4,
    22,
    24,
    12,
    14,
    6,
    6,
    6,
    6,
    6,
    6,
    6,
    6,
    6,
    6,
    6,
    6,
    6,
    6,
    6,
    2,
    4,
    6,
    12,
    14,
    24,
    24,
    2,
    4,
    6,
    6,
    6,
    6,
    6,
    0,
    0,
    0,
    0,
    6,
    6,
    6,
    6,
    6,
    6,
    12,
    14,
    6,
    8,
    10,
    24,
    24,
    12,
    14,
    6,
    6,
    6,
    0,
    0,
    0,
    0,
    0,
    0,
    6,
    6,
    6,
    6,
    2,
    4,
    6,
    6,
    6,
    16,
    18,
    24,
    24,
    2,
    4,
    6,
    6,
    6,
    0,
    0,
    0,
    0,
    0,
    0,
    6,
    6,
    6,
    6,
    12,
    14,
    6,
    6,
    2,
    4,
    6,
    24,
    24,
    12,
    14,
    6,
    6,
    6,
    0,
    0,
    0,
    0,
    0,
    6,
    6,
    6,
    6,
    6,
    6,
    6,
    8,
    10,
    12,
    14,
    6,
    24,
    24,
    6,
    2,
    4,
    6,
    6,
    6,
    6,
    6,
    6,
    6,
    6,
    6,
    6,
    6,
    6,
    6,
    6,
    16,
    18,
    6,
    6,
    6,
    24,
    24,
    6,
    12,
    14,
    6,
    6,
    6,
    6,
    6,
    6,
    6,
    6,
    6,
    6,
    6,
    6,
    6,
    2,
    4,
    6,
    6,
    6,
    22,
    24,
    24,
    6,
    8,
    10,
    6,
    2,
    4,
    6,
    6,
    6,
    6,
    6,
    6,
    6,
    6,
    6,
    6,
    12,
    14,
    6,
    6,
    22,
    24,
    24,
    24,
    6,
    16,
    18,
    6,
    12,
    14,
    6,
    6,
    6,
    6,
    6,
    6,
    6,
    6,
    6,
    8,
    10,
    6,
    6,
    6,
    24,
    24,
    24,
    24,
    2,
    4,
    6,
    6,
    6,
    2,
    4,
    6,
    6,
    6,
    6,
    6,
    6,
    6,
    6,
    16,
    18,
    6,
    6,
    22,
    24,
    24,
    24,
    38,
    12,
    14,
    8,
    10,
    6,
    12,
    14,
    6,
    6,
    6,
    56,
    58,
    60,
    62,
    6,
    2,
    4,
    6,
    6,
    24,
    24,
    24,
    24,
    6,
    2,
    4,
    16,
    18,
    6,
    6,
    6,
    6,
    6,
    6,
    64,
    0,
    0,
    68,
    6,
    12,
    14,
    6,
    6,
    24,
    24,
    24,
    24,
    6,
    12,
    14,
    6,
    6,
    6,
    6,
    6,
    6,
    6,
    6,
    64,
    0,
    0,
    68,
    6,
    6,
    2,
    4,
    6,
    24,
    24,
    24,
    24,
    2,
    4,
    6,
    6,
    56,
    58,
    70,
    70,
    70,
    70,
    70,
    70,
    0,
    0,
    68,
    6,
    6,
    12,
    14,
    6,
    54,
    24,
    24,
    24,
    12,
    14,
    6,
    6,
    64,
    0,
    0,
    0,
    0,
    0,
    0,
    0,
    0,
    0,
    68,
    6,
    6,
    2,
    4,
    6,
    6,
    54,
    24,
    24
   ],
   "opacity": 1,
   "visible": true,
   "x": 0,
   "y": 0
  },
  {
   "id": 4,
   "name": "collisioni",
   "type": "objectgroup",
   "opacity": 1,
   "visible": true,
   "x": 0,
   "y": 0,
   "objects": [
    {
     "id": 1000,
     "name": "",
     "type": "",
     "x": 0,
     "y": 0,
     "width": 32,
     "height": 32,
     "rotation": 0,
     "visible": true,
     "properties": []
    },
    {
     "id": 1001,
     "name": "",
     "type": "",
     "x": 32,
     "y": 0,
     "width": 32,
     "height": 32,
     "rotation": 0,
     "visible": true,
     "properties": []
    },
    {
     "id": 1002,
     "name": "",
     "type": "",
     "x": 128,
     "y": 0,
     "width": 32,
     "height": 32,
     "rotation": 0,
     "visible": true,
     "properties": []
    },
    {
     "id": 1003,
     "name": "",
     "type": "",
     "x": 160,
     "y": 0,
     "width": 32,
     "height": 32,
     "rotation": 0,
     "visible": true,
     "properties": []
    },
    {
     "id": 1004,
     "name": "",
     "type": "",
     "x": 576,
     "y": 0,
     "width": 32,
     "height": 32,
     "rotation": 0,
     "visible": true,
     "properties": []
    },
    {
     "id": 1005,
     "name": "",
     "type": "",
     "x": 608,
     "y": 0,
     "width": 32,
     "height": 32,
     "rotation": 0,
     "visible": true,
     "properties": []
    },
    {
     "id": 1006,
     "name": "",
     "type": "",
     "x": 704,
     "y": 0,
     "width": 32,
     "height": 32,
     "rotation": 0,
     "visible": true,
     "properties": []
    },
    {
     "id": 1007,
     "name": "",
     "type": "",
     "x": 736,
     "y": 0,
     "width": 32,
     "height": 32,
     "rotation": 0,
     "visible": true,
     "properties": []
    },
    {
     "id": 1008,
     "name": "",
     "type": "",
     "x": 0,
     "y": 32,
     "width": 32,
     "height": 32,
     "rotation": 0,
     "visible": true,
     "properties": []
    },
    {
     "id": 1009,
     "name": "",
     "type": "",
     "x": 32,
     "y": 32,
     "width": 32,
     "height": 32,
     "rotation": 0,
     "visible": true,
     "properties": []
    },
    {
     "id": 1010,
     "name": "",
     "type": "",
     "x": 128,
     "y": 32,
     "width": 32,
     "height": 32,
     "rotation": 0,
     "visible": true,
     "properties": []
    },
    {
     "id": 1011,
     "name": "",
     "type": "",
     "x": 160,
     "y": 32,
     "width": 32,
     "height": 32,
     "rotation": 0,
     "visible": true,
     "properties": []
    },
    {
     "id": 1012,
     "name": "",
     "type": "",
     "x": 576,
     "y": 32,
     "width": 32,
     "height": 32,
     "rotation": 0,
     "visible": true,
     "properties": []
    },
    {
     "id": 1013,
     "name": "",
     "type": "",
     "x": 608,
     "y": 32,
     "width": 32,
     "height": 32,
     "rotation": 0,
     "visible": true,
     "properties": []
    },
    {
     "id": 1014,
     "name": "",
     "type": "",
     "x": 704,
     "y": 32,
     "width": 32,
     "height": 32,
     "rotation": 0,
     "visible": true,
     "properties": []
    },
    {
     "id": 1015,
     "name": "",
     "type": "",
     "x": 736,
     "y": 32,
     "width": 32,
     "height": 32,
     "rotation": 0,
     "visible": true,
     "properties": []
    },
    {
     "id": 1016,
     "name": "",
     "type": "",
     "x": 32,
     "y": 64,
     "width": 32,
     "height": 32,
     "rotation": 0,
     "visible": true,
     "properties": []
    },
    {
     "id": 1017,
     "name": "",
     "type": "",
     "x": 64,
     "y": 64,
     "width": 32,
     "height": 32,
     "rotation": 0,
     "visible": true,
     "properties": []
    },
    {
     "id": 1018,
     "name": "",
     "type": "",
     "x": 672,
     "y": 64,
     "width": 32,
     "height": 32,
     "rotation": 0,
     "visible": true,
     "properties": []
    },
    {
     "id": 1019,
     "name": "",
     "type": "",
     "x": 704,
     "y": 64,
     "width": 32,
     "height": 32,
     "rotation": 0,
     "visible": true,
     "properties": []
    },
    {
     "id": 1020,
     "name": "",
     "type": "",
     "x": 32,
     "y": 96,
     "width": 32,
     "height": 32,
     "rotation": 0,
     "visible": true,
     "properties": []
    },
    {
     "id": 1021,
     "name": "",
     "type": "",
     "x": 64,
     "y": 96,
     "width": 32,
     "height": 32,
     "rotation": 0,
     "visible": true,
     "properties": []
    },
    {
     "id": 1022,
     "name": "",
     "type": "",
     "x": 96,
     "y": 96,
     "width": 32,
     "height": 32,
     "rotation": 0,
     "visible": true,
     "properties": []
    },
    {
     "id": 1023,
     "name": "",
     "type": "",
     "x": 128,
     "y": 96,
     "width": 32,
     "height": 32,
     "rotation": 0,
     "visible": true,
     "properties": []
    },
    {
     "id": 1024,
     "name": "",
     "type": "",
     "x": 672,
     "y": 96,
     "width": 32,
     "height": 32,
     "rotation": 0,
     "visible": true,
     "properties": []
    },
    {
     "id": 1025,
     "name": "",
     "type": "",
     "x": 704,
     "y": 96,
     "width": 32,
     "height": 32,
     "rotation": 0,
     "visible": true,
     "properties": []
    },
    {
     "id": 1026,
     "name": "",
     "type": "",
     "x": 96,
     "y": 128,
     "width": 32,
     "height": 32,
     "rotation": 0,
     "visible": true,
     "properties": []
    },
    {
     "id": 1027,
     "name": "",
     "type": "",
     "x": 128,
     "y": 128,
     "width": 32,
     "height": 32,
     "rotation": 0,
     "visible": true,
     "properties": []
    },
    {
     "id": 1028,
     "name": "",
     "type": "",
     "x": 224,
     "y": 128,
     "width": 32,
     "height": 32,
     "rotation": 0,
     "visible": true,
     "properties": []
    },
    {
     "id": 1029,
     "name": "",
     "type": "",
     "x": 256,
     "y": 128,
     "width": 32,
     "height": 32,
     "rotation": 0,
     "visible": true,
     "properties": []
    },
    {
     "id": 1030,
     "name": "",
     "type": "",
     "x": 640,
     "y": 128,
     "width": 32,
     "height": 32,
     "rotation": 0,
     "visible": true,
     "properties": []
    },
    {
     "id": 1031,
     "name": "",
     "type": "",
     "x": 672,
     "y": 128,
     "width": 32,
     "height": 32,
     "rotation": 0,
     "visible": true,
     "properties": []
    },
    {
     "id": 1032,
     "name": "",
     "type": "",
     "x": 64,
     "y": 160,
     "width": 32,
     "height": 32,
     "rotation": 0,
     "visible": true,
     "properties": []
    },
    {
     "id": 1033,
     "name": "",
     "type": "",
     "x": 96,
     "y": 160,
     "width": 32,
     "height": 32,
     "rotation": 0,
     "visible": true,
     "properties": []
    },
    {
     "id": 1034,
     "name": "",
     "type": "",
     "x": 224,
     "y": 160,
     "width": 32,
     "height": 32,
     "rotation": 0,
     "visible": true,
     "properties": []
    },
    {
     "id": 1035,
     "name": "",
     "type": "",
     "x": 256,
     "y": 160,
     "width": 32,
     "height": 32,
     "rotation": 0,
     "visible": true,
     "properties": []
    },
    {
     "id": 1036,
     "name": "",
     "type": "",
     "x": 640,
     "y": 160,
     "width": 32,
     "height": 32,
     "rotation": 0,
     "visible": true,
     "properties": []
    },
    {
     "id": 1037,
     "name": "",
     "type": "",
     "x": 672,
     "y": 160,
     "width": 32,
     "height": 32,
     "rotation": 0,
     "visible": true,
     "properties": []
    },
    {
     "id": 1038,
     "name": "",
     "type": "",
     "x": 64,
     "y": 192,
     "width": 32,
     "height": 32,
     "rotation": 0,
     "visible": true,
     "properties": []
    },
    {
     "id": 1039,
     "name": "",
     "type": "",
     "x": 96,
     "y": 192,
     "width": 32,
     "height": 32,
     "rotation": 0,
     "visible": true,
     "properties": []
    },
    {
     "id": 1040,
     "name": "",
     "type": "",
     "x": 640,
     "y": 192,
     "width": 32,
     "height": 32,
     "rotation": 0,
     "visible": true,
     "properties": []
    },
    {
     "id": 1041,
     "name": "",
     "type": "",
     "x": 672,
     "y": 192,
     "width": 32,
     "height": 32,
     "rotation": 0,
     "visible": true,
     "properties": []
    },
    {
     "id": 1042,
     "name": "",
     "type": "",
     "x": 64,
     "y": 224,
     "width": 32,
     "height": 32,
     "rotation": 0,
     "visible": true,
     "properties": []
    },
    {
     "id": 1043,
     "name": "",
     "type": "",
     "x": 96,
     "y": 224,
     "width": 32,
     "height": 32,
     "rotation": 0,
     "visible": true,
     "properties": []
    },
    {
     "id": 1044,
     "name": "",
     "type": "",
     "x": 640,
     "y": 224,
     "width": 32,
     "height": 32,
     "rotation": 0,
     "visible": true,
     "properties": []
    },
    {
     "id": 1045,
     "name": "",
     "type": "",
     "x": 672,
     "y": 224,
     "width": 32,
     "height": 32,
     "rotation": 0,
     "visible": true,
     "properties": []
    },
    {
     "id": 1046,
     "name": "",
     "type": "",
     "x": 64,
     "y": 256,
     "width": 32,
     "height": 32,
     "rotation": 0,
     "visible": true,
     "properties": []
    },
    {
     "id": 1047,
     "name": "",
     "type": "",
     "x": 96,
     "y": 256,
     "width": 32,
     "height": 32,
     "rotation": 0,
     "visible": true,
     "properties": []
    },
    {
     "id": 1048,
     "name": "",
     "type": "",
     "x": 672,
     "y": 256,
     "width": 32,
     "height": 32,
     "rotation": 0,
     "visible": true,
     "properties": []
    },
    {
     "id": 1049,
     "name": "",
     "type": "",
     "x": 704,
     "y": 256,
     "width": 32,
     "height": 32,
     "rotation": 0,
     "visible": true,
     "properties": []
    },
    {
     "id": 1050,
     "name": "",
     "type": "",
     "x": 128,
     "y": 288,
     "width": 32,
     "height": 32,
     "rotation": 0,
     "visible": true,
     "properties": []
    },
    {
     "id": 1051,
     "name": "",
     "type": "",
     "x": 160,
     "y": 288,
     "width": 32,
     "height": 32,
     "rotation": 0,
     "visible": true,
     "properties": []
    },
    {
     "id": 1052,
     "name": "",
     "type": "",
     "x": 672,
     "y": 288,
     "width": 32,
     "height": 32,
     "rotation": 0,
     "visible": true,
     "properties": []
    },
    {
     "id": 1053,
     "name": "",
     "type": "",
     "x": 704,
     "y": 288,
     "width": 32,
     "height": 32,
     "rotation": 0,
     "visible": true,
     "properties": []
    },
    {
     "id": 1054,
     "name": "",
     "type": "",
     "x": 64,
     "y": 320,
     "width": 32,
     "height": 32,
     "rotation": 0,
     "visible": true,
     "properties": []
    },
    {
     "id": 1055,
     "name": "",
     "type": "",
     "x": 96,
     "y": 320,
     "width": 32,
     "height": 32,
     "rotation": 0,
     "visible": true,
     "properties": []
    },
    {
     "id": 1056,
     "name": "",
     "type": "",
     "x": 128,
     "y": 320,
     "width": 32,
     "height": 32,
     "rotation": 0,
     "visible": true,
     "properties": []
    },
    {
     "id": 1057,
     "name": "",
     "type": "",
     "x": 160,
     "y": 320,
     "width": 32,
     "height": 32,
     "rotation": 0,
     "visible": true,
     "properties": []
    },
    {
     "id": 1058,
     "name": "",
     "type": "",
     "x": 608,
     "y": 320,
     "width": 32,
     "height": 32,
     "rotation": 0,
     "visible": true,
     "properties": []
    },
    {
     "id": 1059,
     "name": "",
     "type": "",
     "x": 640,
     "y": 320,
     "width": 32,
     "height": 32,
     "rotation": 0,
     "visible": true,
     "properties": []
    },
    {
     "id": 1060,
     "name": "",
     "type": "",
     "x": 672,
     "y": 320,
     "width": 32,
     "height": 32,
     "rotation": 0,
     "visible": true,
     "properties": []
    },
    {
     "id": 1061,
     "name": "",
     "type": "",
     "x": 704,
     "y": 320,
     "width": 32,
     "height": 32,
     "rotation": 0,
     "visible": true,
     "properties": []
    },
    {
     "id": 1062,
     "name": "",
     "type": "",
     "x": 64,
     "y": 352,
     "width": 32,
     "height": 32,
     "rotation": 0,
     "visible": true,
     "properties": []
    },
    {
     "id": 1063,
     "name": "",
     "type": "",
     "x": 96,
     "y": 352,
     "width": 32,
     "height": 32,
     "rotation": 0,
     "visible": true,
     "properties": []
    },
    {
     "id": 1064,
     "name": "",
     "type": "",
     "x": 608,
     "y": 352,
     "width": 32,
     "height": 32,
     "rotation": 0,
     "visible": true,
     "properties": []
    },
    {
     "id": 1065,
     "name": "",
     "type": "",
     "x": 640,
     "y": 352,
     "width": 32,
     "height": 32,
     "rotation": 0,
     "visible": true,
     "properties": []
    },
    {
     "id": 1066,
     "name": "",
     "type": "",
     "x": 672,
     "y": 352,
     "width": 32,
     "height": 32,
     "rotation": 0,
     "visible": true,
     "properties": []
    },
    {
     "id": 1067,
     "name": "",
     "type": "",
     "x": 704,
     "y": 352,
     "width": 32,
     "height": 32,
     "rotation": 0,
     "visible": true,
     "properties": []
    },
    {
     "id": 1068,
     "name": "",
     "type": "",
     "x": 32,
     "y": 384,
     "width": 32,
     "height": 32,
     "rotation": 0,
     "visible": true,
     "properties": []
    },
    {
     "id": 1069,
     "name": "",
     "type": "",
     "x": 64,
     "y": 384,
     "width": 32,
     "height": 32,
     "rotation": 0,
     "visible": true,
     "properties": []
    },
    {
     "id": 1070,
     "name": "",
     "type": "",
     "x": 672,
     "y": 384,
     "width": 32,
     "height": 32,
     "rotation": 0,
     "visible": true,
     "properties": []
    },
    {
     "id": 1071,
     "name": "",
     "type": "",
     "x": 704,
     "y": 384,
     "width": 32,
     "height": 32,
     "rotation": 0,
     "visible": true,
     "properties": []
    },
    {
     "id": 1072,
     "name": "",
     "type": "",
     "x": 32,
     "y": 416,
     "width": 32,
     "height": 32,
     "rotation": 0,
     "visible": true,
     "properties": []
    },
    {
     "id": 1073,
     "name": "",
     "type": "",
     "x": 64,
     "y": 416,
     "width": 32,
     "height": 32,
     "rotation": 0,
     "visible": true,
     "properties": []
    },
    {
     "id": 1074,
     "name": "",
     "type": "",
     "x": 128,
     "y": 416,
     "width": 32,
     "height": 32,
     "rotation": 0,
     "visible": true,
     "properties": []
    },
    {
     "id": 1075,
     "name": "",
     "type": "",
     "x": 160,
     "y": 416,
     "width": 32,
     "height": 32,
     "rotation": 0,
     "visible": true,
     "properties": []
    },
    {
     "id": 1076,
     "name": "",
     "type": "",
     "x": 672,
     "y": 416,
     "width": 32,
     "height": 32,
     "rotation": 0,
     "visible": true,
     "properties": []
    },
    {
     "id": 1077,
     "name": "",
     "type": "",
     "x": 704,
     "y": 416,
     "width": 32,
     "height": 32,
     "rotation": 0,
     "visible": true,
     "properties": []
    },
    {
     "id": 1078,
     "name": "",
     "type": "",
     "x": 32,
     "y": 448,
     "width": 32,
     "height": 32,
     "rotation": 0,
     "visible": true,
     "properties": []
    },
    {
     "id": 1079,
     "name": "",
     "type": "",
     "x": 64,
     "y": 448,
     "width": 32,
     "height": 32,
     "rotation": 0,
     "visible": true,
     "properties": []
    },
    {
     "id": 1080,
     "name": "",
     "type": "",
     "x": 128,
     "y": 448,
     "width": 32,
     "height": 32,
     "rotation": 0,
     "visible": true,
     "properties": []
    },
    {
     "id": 1081,
     "name": "",
     "type": "",
     "x": 160,
     "y": 448,
     "width": 32,
     "height": 32,
     "rotation": 0,
     "visible": true,
     "properties": []
    },
    {
     "id": 1082,
     "name": "",
     "type": "",
     "x": 672,
     "y": 448,
     "width": 32,
     "height": 32,
     "rotation": 0,
     "visible": true,
     "properties": []
    },
    {
     "id": 1083,
     "name": "",
     "type": "",
     "x": 704,
     "y": 448,
     "width": 32,
     "height": 32,
     "rotation": 0,
     "visible": true,
     "properties": []
    },
    {
     "id": 1084,
     "name": "",
     "type": "",
     "x": 32,
     "y": 480,
     "width": 32,
     "height": 32,
     "rotation": 0,
     "visible": true,
     "properties": []
    },
    {
     "id": 1085,
     "name": "",
     "type": "",
     "x": 64,
     "y": 480,
     "width": 32,
     "height": 32,
     "rotation": 0,
     "visible": true,
     "properties": []
    },
    {
     "id": 1086,
     "name": "",
     "type": "",
     "x": 672,
     "y": 480,
     "width": 32,
     "height": 32,
     "rotation": 0,
     "visible": true,
     "properties": []
    },
    {
     "id": 1087,
     "name": "",
     "type": "",
     "x": 704,
     "y": 480,
     "width": 32,
     "height": 32,
     "rotation": 0,
     "visible": true,
     "properties": []
    },
    {
     "id": 1088,
     "name": "",
     "type": "",
     "x": 64,
     "y": 512,
     "width": 32,
     "height": 32,
     "rotation": 0,
     "visible": true,
     "properties": []
    },
    {
     "id": 1089,
     "name": "",
     "type": "",
     "x": 96,
     "y": 512,
     "width": 32,
     "height": 32,
     "rotation": 0,
     "visible": true,
     "properties": []
    },
    {
     "id": 1090,
     "name": "",
     "type": "",
     "x": 672,
     "y": 512,
     "width": 32,
     "height": 32,
     "rotation": 0,
     "visible": true,
     "properties": []
    },
    {
     "id": 1091,
     "name": "",
     "type": "",
     "x": 704,
     "y": 512,
     "width": 32,
     "height": 32,
     "rotation": 0,
     "visible": true,
     "properties": []
    },
    {
     "id": 1092,
     "name": "",
     "type": "",
     "x": 64,
     "y": 544,
     "width": 32,
     "height": 32,
     "rotation": 0,
     "visible": true,
     "properties": []
    },
    {
     "id": 1093,
     "name": "",
     "type": "",
     "x": 96,
     "y": 544,
     "width": 32,
     "height": 32,
     "rotation": 0,
     "visible": true,
     "properties": []
    },
    {
     "id": 1094,
     "name": "",
     "type": "",
     "x": 672,
     "y": 544,
     "width": 32,
     "height": 32,
     "rotation": 0,
     "visible": true,
     "properties": []
    },
    {
     "id": 1095,
     "name": "",
     "type": "",
     "x": 704,
     "y": 544,
     "width": 32,
     "height": 32,
     "rotation": 0,
     "visible": true,
     "properties": []
    },
    {
     "id": 1096,
     "name": "",
     "type": "",
     "x": 64,
     "y": 576,
     "width": 32,
     "height": 32,
     "rotation": 0,
     "visible": true,
     "properties": []
    },
    {
     "id": 1097,
     "name": "",
     "type": "",
     "x": 96,
     "y": 576,
     "width": 32,
     "height": 32,
     "rotation": 0,
     "visible": true,
     "properties": []
    },
    {
     "id": 1098,
     "name": "",
     "type": "",
     "x": 640,
     "y": 576,
     "width": 32,
     "height": 32,
     "rotation": 0,
     "visible": true,
     "properties": []
    },
    {
     "id": 1099,
     "name": "",
     "type": "",
     "x": 672,
     "y": 576,
     "width": 32,
     "height": 32,
     "rotation": 0,
     "visible": true,
     "properties": []
    },
    {
     "id": 1100,
     "name": "",
     "type": "",
     "x": 64,
     "y": 608,
     "width": 32,
     "height": 32,
     "rotation": 0,
     "visible": true,
     "properties": []
    },
    {
     "id": 1101,
     "name": "",
     "type": "",
     "x": 96,
     "y": 608,
     "width": 32,
     "height": 32,
     "rotation": 0,
     "visible": true,
     "properties": []
    },
    {
     "id": 1102,
     "name": "",
     "type": "",
     "x": 640,
     "y": 608,
     "width": 32,
     "height": 32,
     "rotation": 0,
     "visible": true,
     "properties": []
    },
    {
     "id": 1103,
     "name": "",
     "type": "",
     "x": 672,
     "y": 608,
     "width": 32,
     "height": 32,
     "rotation": 0,
     "visible": true,
     "properties": []
    },
    {
     "id": 1104,
     "name": "",
     "type": "",
     "x": 32,
     "y": 640,
     "width": 32,
     "height": 32,
     "rotation": 0,
     "visible": true,
     "properties": []
    },
    {
     "id": 1105,
     "name": "",
     "type": "",
     "x": 64,
     "y": 640,
     "width": 32,
     "height": 32,
     "rotation": 0,
     "visible": true,
     "properties": []
    },
    {
     "id": 1106,
     "name": "",
     "type": "",
     "x": 640,
     "y": 640,
     "width": 32,
     "height": 32,
     "rotation": 0,
     "visible": true,
     "properties": []
    },
    {
     "id": 1107,
     "name": "",
     "type": "",
     "x": 672,
     "y": 640,
     "width": 32,
     "height": 32,
     "rotation": 0,
     "visible": true,
     "properties": []
    },
    {
     "id": 1108,
     "name": "",
     "type": "",
     "x": 32,
     "y": 672,
     "width": 32,
     "height": 32,
     "rotation": 0,
     "visible": true,
     "properties": []
    },
    {
     "id": 1109,
     "name": "",
     "type": "",
     "x": 64,
     "y": 672,
     "width": 32,
     "height": 32,
     "rotation": 0,
     "visible": true,
     "properties": []
    },
    {
     "id": 1110,
     "name": "",
     "type": "",
     "x": 640,
     "y": 672,
     "width": 32,
     "height": 32,
     "rotation": 0,
     "visible": true,
     "properties": []
    },
    {
     "id": 1111,
     "name": "",
     "type": "",
     "x": 672,
     "y": 672,
     "width": 32,
     "height": 32,
     "rotation": 0,
     "visible": true,
     "properties": []
    },
    {
     "id": 1112,
     "name": "",
     "type": "",
     "x": 32,
     "y": 704,
     "width": 32,
     "height": 32,
     "rotation": 0,
     "visible": true,
     "properties": []
    },
    {
     "id": 1113,
     "name": "",
     "type": "",
     "x": 64,
     "y": 704,
     "width": 32,
     "height": 32,
     "rotation": 0,
     "visible": true,
     "properties": []
    },
    {
     "id": 1114,
     "name": "",
     "type": "",
     "x": 672,
     "y": 704,
     "width": 32,
     "height": 32,
     "rotation": 0,
     "visible": true,
     "properties": []
    },
    {
     "id": 1115,
     "name": "",
     "type": "",
     "x": 704,
     "y": 704,
     "width": 32,
     "height": 32,
     "rotation": 0,
     "visible": true,
     "properties": []
    },
    {
     "id": 1116,
     "name": "",
     "type": "",
     "x": 32,
     "y": 736,
     "width": 32,
     "height": 32,
     "rotation": 0,
     "visible": true,
     "properties": []
    },
    {
     "id": 1117,
     "name": "",
     "type": "",
     "x": 64,
     "y": 736,
     "width": 32,
     "height": 32,
     "rotation": 0,
     "visible": true,
     "properties": []
    },
    {
     "id": 1118,
     "name": "",
     "type": "",
     "x": 672,
     "y": 736,
     "width": 32,
     "height": 32,
     "rotation": 0,
     "visible": true,
     "properties": []
    },
    {
     "id": 1119,
     "name": "",
     "type": "",
     "x": 704,
     "y": 736,
     "width": 32,
     "height": 32,
     "rotation": 0,
     "visible": true,
     "properties": []
    },
    {
     "id": 1120,
     "name": "",
     "type": "",
     "x": 64,
     "y": 768,
     "width": 32,
     "height": 32,
     "rotation": 0,
     "visible": true,
     "properties": []
    },
    {
     "id": 1121,
     "name": "",
     "type": "",
     "x": 96,
     "y": 768,
     "width": 32,
     "height": 32,
     "rotation": 0,
     "visible": true,
     "properties": []
    },
    {
     "id": 1122,
     "name": "",
     "type": "",
     "x": 608,
     "y": 768,
     "width": 32,
     "height": 32,
     "rotation": 0,
     "visible": true,
     "properties": []
    },
    {
     "id": 1123,
     "name": "",
     "type": "",
     "x": 640,
     "y": 768,
     "width": 32,
     "height": 32,
     "rotation": 0,
     "visible": true,
     "properties": []
    },
    {
     "id": 1124,
     "name": "",
     "type": "",
     "x": 704,
     "y": 768,
     "width": 32,
     "height": 32,
     "rotation": 0,
     "visible": true,
     "properties": []
    },
    {
     "id": 1125,
     "name": "",
     "type": "",
     "x": 736,
     "y": 768,
     "width": 32,
     "height": 32,
     "rotation": 0,
     "visible": true,
     "properties": []
    },
    {
     "id": 1126,
     "name": "",
     "type": "",
     "x": 0,
     "y": 800,
     "width": 32,
     "height": 32,
     "rotation": 0,
     "visible": true,
     "properties": []
    },
    {
     "id": 1127,
     "name": "",
     "type": "",
     "x": 32,
     "y": 800,
     "width": 32,
     "height": 32,
     "rotation": 0,
     "visible": true,
     "properties": []
    },
    {
     "id": 1128,
     "name": "",
     "type": "",
     "x": 64,
     "y": 800,
     "width": 32,
     "height": 32,
     "rotation": 0,
     "visible": true,
     "properties": []
    },
    {
     "id": 1129,
     "name": "",
     "type": "",
     "x": 96,
     "y": 800,
     "width": 32,
     "height": 32,
     "rotation": 0,
     "visible": true,
     "properties": []
    },
    {
     "id": 1130,
     "name": "",
     "type": "",
     "x": 608,
     "y": 800,
     "width": 32,
     "height": 32,
     "rotation": 0,
     "visible": true,
     "properties": []
    },
    {
     "id": 1131,
     "name": "",
     "type": "",
     "x": 640,
     "y": 800,
     "width": 32,
     "height": 32,
     "rotation": 0,
     "visible": true,
     "properties": []
    },
    {
     "id": 1132,
     "name": "",
     "type": "",
     "x": 704,
     "y": 800,
     "width": 32,
     "height": 32,
     "rotation": 0,
     "visible": true,
     "properties": []
    },
    {
     "id": 1133,
     "name": "",
     "type": "",
     "x": 736,
     "y": 800,
     "width": 32,
     "height": 32,
     "rotation": 0,
     "visible": true,
     "properties": []
    },
    {
     "id": 1134,
     "name": "",
     "type": "",
     "x": 0,
     "y": 832,
     "width": 32,
     "height": 32,
     "rotation": 0,
     "visible": true,
     "properties": []
    },
    {
     "id": 1135,
     "name": "",
     "type": "",
     "x": 32,
     "y": 832,
     "width": 32,
     "height": 32,
     "rotation": 0,
     "visible": true,
     "properties": []
    },
    {
     "id": 1136,
     "name": "",
     "type": "",
     "x": 64,
     "y": 832,
     "width": 32,
     "height": 32,
     "rotation": 0,
     "visible": true,
     "properties": []
    },
    {
     "id": 1137,
     "name": "",
     "type": "",
     "x": 96,
     "y": 832,
     "width": 32,
     "height": 32,
     "rotation": 0,
     "visible": true,
     "properties": []
    },
    {
     "id": 1138,
     "name": "",
     "type": "",
     "x": 672,
     "y": 832,
     "width": 32,
     "height": 32,
     "rotation": 0,
     "visible": true,
     "properties": []
    },
    {
     "id": 1139,
     "name": "",
     "type": "",
     "x": 704,
     "y": 832,
     "width": 32,
     "height": 32,
     "rotation": 0,
     "visible": true,
     "properties": []
    },
    {
     "id": 1140,
     "name": "",
     "type": "",
     "x": 64,
     "y": 864,
     "width": 32,
     "height": 32,
     "rotation": 0,
     "visible": true,
     "properties": []
    },
    {
     "id": 1141,
     "name": "",
     "type": "",
     "x": 96,
     "y": 864,
     "width": 32,
     "height": 32,
     "rotation": 0,
     "visible": true,
     "properties": []
    },
    {
     "id": 1142,
     "name": "",
     "type": "",
     "x": 672,
     "y": 864,
     "width": 32,
     "height": 32,
     "rotation": 0,
     "visible": true,
     "properties": []
    },
    {
     "id": 1143,
     "name": "",
     "type": "",
     "x": 704,
     "y": 864,
     "width": 32,
     "height": 32,
     "rotation": 0,
     "visible": true,
     "properties": []
    },
    {
     "id": 1144,
     "name": "",
     "type": "",
     "x": 32,
     "y": 896,
     "width": 32,
     "height": 32,
     "rotation": 0,
     "visible": true,
     "properties": []
    },
    {
     "id": 1145,
     "name": "",
     "type": "",
     "x": 64,
     "y": 896,
     "width": 32,
     "height": 32,
     "rotation": 0,
     "visible": true,
     "properties": []
    },
    {
     "id": 1146,
     "name": "",
     "type": "",
     "x": 672,
     "y": 896,
     "width": 32,
     "height": 32,
     "rotation": 0,
     "visible": true,
     "properties": []
    },
    {
     "id": 1147,
     "name": "",
     "type": "",
     "x": 704,
     "y": 896,
     "width": 32,
     "height": 32,
     "rotation": 0,
     "visible": true,
     "properties": []
    },
    {
     "id": 1148,
     "name": "",
     "type": "",
     "x": 32,
     "y": 928,
     "width": 32,
     "height": 32,
     "rotation": 0,
     "visible": true,
     "properties": []
    },
    {
     "id": 1149,
     "name": "",
     "type": "",
     "x": 64,
     "y": 928,
     "width": 32,
     "height": 32,
     "rotation": 0,
     "visible": true,
     "properties": []
    },
    {
     "id": 1150,
     "name": "",
     "type": "",
     "x": 672,
     "y": 928,
     "width": 32,
     "height": 32,
     "rotation": 0,
     "visible": true,
     "properties": []
    },
    {
     "id": 1151,
     "name": "",
     "type": "",
     "x": 704,
     "y": 928,
     "width": 32,
     "height": 32,
     "rotation": 0,
     "visible": true,
     "properties": []
    },
    {
     "id": 1152,
     "name": "",
     "type": "",
     "x": 0,
     "y": 960,
     "width": 32,
     "height": 32,
     "rotation": 0,
     "visible": true,
     "properties": []
    },
    {
     "id": 1153,
     "name": "",
     "type": "",
     "x": 32,
     "y": 960,
     "width": 32,
     "height": 32,
     "rotation": 0,
     "visible": true,
     "properties": []
    },
    {
     "id": 1154,
     "name": "",
     "type": "",
     "x": 704,
     "y": 960,
     "width": 32,
     "height": 32,
     "rotation": 0,
     "visible": true,
     "properties": []
    },
    {
     "id": 1155,
     "name": "",
     "type": "",
     "x": 736,
     "y": 960,
     "width": 32,
     "height": 32,
     "rotation": 0,
     "visible": true,
     "properties": []
    },
    {
     "id": 1156,
     "name": "",
     "type": "",
     "x": 0,
     "y": 992,
     "width": 32,
     "height": 32,
     "rotation": 0,
     "visible": true,
     "properties": []
    },
    {
     "id": 1157,
     "name": "",
     "type": "",
     "x": 32,
     "y": 992,
     "width": 32,
     "height": 32,
     "rotation": 0,
     "visible": true,
     "properties": []
    },
    {
     "id": 1158,
     "name": "",
     "type": "",
     "x": 608,
     "y": 992,
     "width": 32,
     "height": 32,
     "rotation": 0,
     "visible": true,
     "properties": []
    },
    {
     "id": 1159,
     "name": "",
     "type": "",
     "x": 640,
     "y": 992,
     "width": 32,
     "height": 32,
     "rotation": 0,
     "visible": true,
     "properties": []
    },
    {
     "id": 1160,
     "name": "",
     "type": "",
     "x": 704,
     "y": 992,
     "width": 32,
     "height": 32,
     "rotation": 0,
     "visible": true,
     "properties": []
    },
    {
     "id": 1161,
     "name": "",
     "type": "",
     "x": 736,
     "y": 992,
     "width": 32,
     "height": 32,
     "rotation": 0,
     "visible": true,
     "properties": []
    },
    {
     "id": 1162,
     "name": "",
     "type": "",
     "x": 32,
     "y": 1024,
     "width": 32,
     "height": 32,
     "rotation": 0,
     "visible": true,
     "properties": []
    },
    {
     "id": 1163,
     "name": "",
     "type": "",
     "x": 64,
     "y": 1024,
     "width": 32,
     "height": 32,
     "rotation": 0,
     "visible": true,
     "properties": []
    },
    {
     "id": 1164,
     "name": "",
     "type": "",
     "x": 128,
     "y": 1024,
     "width": 32,
     "height": 32,
     "rotation": 0,
     "visible": true,
     "properties": []
    },
    {
     "id": 1165,
     "name": "",
     "type": "",
     "x": 160,
     "y": 1024,
     "width": 32,
     "height": 32,
     "rotation": 0,
     "visible": true,
     "properties": []
    },
    {
     "id": 1166,
     "name": "",
     "type": "",
     "x": 608,
     "y": 1024,
     "width": 32,
     "height": 32,
     "rotation": 0,
     "visible": true,
     "properties": []
    },
    {
     "id": 1167,
     "name": "",
     "type": "",
     "x": 640,
     "y": 1024,
     "width": 32,
     "height": 32,
     "rotation": 0,
     "visible": true,
     "properties": []
    },
    {
     "id": 1168,
     "name": "",
     "type": "",
     "x": 672,
     "y": 1024,
     "width": 32,
     "height": 32,
     "rotation": 0,
     "visible": true,
     "properties": []
    },
    {
     "id": 1169,
     "name": "",
     "type": "",
     "x": 704,
     "y": 1024,
     "width": 32,
     "height": 32,
     "rotation": 0,
     "visible": true,
     "properties": []
    },
    {
     "id": 1170,
     "name": "",
     "type": "",
     "x": 32,
     "y": 1056,
     "width": 32,
     "height": 32,
     "rotation": 0,
     "visible": true,
     "properties": []
    },
    {
     "id": 1171,
     "name": "",
     "type": "",
     "x": 64,
     "y": 1056,
     "width": 32,
     "height": 32,
     "rotation": 0,
     "visible": true,
     "properties": []
    },
    {
     "id": 1172,
     "name": "",
     "type": "",
     "x": 128,
     "y": 1056,
     "width": 32,
     "height": 32,
     "rotation": 0,
     "visible": true,
     "properties": []
    },
    {
     "id": 1173,
     "name": "",
     "type": "",
     "x": 160,
     "y": 1056,
     "width": 32,
     "height": 32,
     "rotation": 0,
     "visible": true,
     "properties": []
    },
    {
     "id": 1174,
     "name": "",
     "type": "",
     "x": 192,
     "y": 1056,
     "width": 32,
     "height": 32,
     "rotation": 0,
     "visible": true,
     "properties": []
    },
    {
     "id": 1175,
     "name": "",
     "type": "",
     "x": 224,
     "y": 1056,
     "width": 32,
     "height": 32,
     "rotation": 0,
     "visible": true,
     "properties": []
    },
    {
     "id": 1176,
     "name": "",
     "type": "",
     "x": 672,
     "y": 1056,
     "width": 32,
     "height": 32,
     "rotation": 0,
     "visible": true,
     "properties": []
    },
    {
     "id": 1177,
     "name": "",
     "type": "",
     "x": 704,
     "y": 1056,
     "width": 32,
     "height": 32,
     "rotation": 0,
     "visible": true,
     "properties": []
    },
    {
     "id": 1178,
     "name": "",
     "type": "",
     "x": 32,
     "y": 1088,
     "width": 32,
     "height": 32,
     "rotation": 0,
     "visible": true,
     "properties": []
    },
    {
     "id": 1179,
     "name": "",
     "type": "",
     "x": 64,
     "y": 1088,
     "width": 32,
     "height": 32,
     "rotation": 0,
     "visible": true,
     "properties": []
    },
    {
     "id": 1180,
     "name": "",
     "type": "",
     "x": 192,
     "y": 1088,
     "width": 32,
     "height": 32,
     "rotation": 0,
     "visible": true,
     "properties": []
    },
    {
     "id": 1181,
     "name": "",
     "type": "",
     "x": 224,
     "y": 1088,
     "width": 32,
     "height": 32,
     "rotation": 0,
     "visible": true,
     "properties": []
    },
    {
     "id": 1182,
     "name": "",
     "type": "",
     "x": 672,
     "y": 1088,
     "width": 32,
     "height": 32,
     "rotation": 0,
     "visible": true,
     "properties": []
    },
    {
     "id": 1183,
     "name": "",
     "type": "",
     "x": 704,
     "y": 1088,
     "width": 32,
     "height": 32,
     "rotation": 0,
     "visible": true,
     "properties": []
    },
    {
     "id": 1184,
     "name": "",
     "type": "",
     "x": 32,
     "y": 1120,
     "width": 32,
     "height": 32,
     "rotation": 0,
     "visible": true,
     "properties": []
    },
    {
     "id": 1185,
     "name": "",
     "type": "",
     "x": 64,
     "y": 1120,
     "width": 32,
     "height": 32,
     "rotation": 0,
     "visible": true,
     "properties": []
    },
    {
     "id": 1186,
     "name": "",
     "type": "",
     "x": 576,
     "y": 1120,
     "width": 32,
     "height": 32,
     "rotation": 0,
     "visible": true,
     "properties": []
    },
    {
     "id": 1187,
     "name": "",
     "type": "",
     "x": 608,
     "y": 1120,
     "width": 32,
     "height": 32,
     "rotation": 0,
     "visible": true,
     "properties": []
    },
    {
     "id": 1188,
     "name": "",
     "type": "",
     "x": 672,
     "y": 1120,
     "width": 32,
     "height": 32,
     "rotation": 0,
     "visible": true,
     "properties": []
    },
    {
     "id": 1189,
     "name": "",
     "type": "",
     "x": 704,
     "y": 1120,
     "width": 32,
     "height": 32,
     "rotation": 0,
     "visible": true,
     "properties": []
    },
    {
     "id": 1190,
     "name": "",
     "type": "",
     "x": 32,
     "y": 1152,
     "width": 32,
     "height": 32,
     "rotation": 0,
     "visible": true,
     "properties": []
    },
    {
     "id": 1191,
     "name": "",
     "type": "",
     "x": 64,
     "y": 1152,
     "width": 32,
     "height": 32,
     "rotation": 0,
     "visible": true,
     "properties": []
    },
    {
     "id": 1192,
     "name": "",
     "type": "",
     "x": 576,
     "y": 1152,
     "width": 32,
     "height": 32,
     "rotation": 0,
     "visible": true,
     "properties": []
    },
    {
     "id": 1193,
     "name": "",
     "type": "",
     "x": 608,
     "y": 1152,
     "width": 32,
     "height": 32,
     "rotation": 0,
     "visible": true,
     "properties": []
    },
    {
     "id": 1194,
     "name": "",
     "type": "",
     "x": 672,
     "y": 1152,
     "width": 32,
     "height": 32,
     "rotation": 0,
     "visible": true,
     "properties": []
    },
    {
     "id": 1195,
     "name": "",
     "type": "",
     "x": 704,
     "y": 1152,
     "width": 32,
     "height": 32,
     "rotation": 0,
     "visible": true,
     "properties": []
    },
    {
     "id": 1196,
     "name": "",
     "type": "",
     "x": 32,
     "y": 1184,
     "width": 32,
     "height": 32,
     "rotation": 0,
     "visible": true,
     "properties": []
    },
    {
     "id": 1197,
     "name": "",
     "type": "",
     "x": 64,
     "y": 1184,
     "width": 32,
     "height": 32,
     "rotation": 0,
     "visible": true,
     "properties": []
    },
    {
     "id": 1198,
     "name": "",
     "type": "",
     "x": 512,
     "y": 1184,
     "width": 32,
     "height": 32,
     "rotation": 0,
     "visible": true,
     "properties": []
    },
    {
     "id": 1199,
     "name": "",
     "type": "",
     "x": 544,
     "y": 1184,
     "width": 32,
     "height": 32,
     "rotation": 0,
     "visible": true,
     "properties": []
    },
    {
     "id": 1200,
     "name": "",
     "type": "",
     "x": 672,
     "y": 1184,
     "width": 32,
     "height": 32,
     "rotation": 0,
     "visible": true,
     "properties": []
    },
    {
     "id": 1201,
     "name": "",
     "type": "",
     "x": 704,
     "y": 1184,
     "width": 32,
     "height": 32,
     "rotation": 0,
     "visible": true,
     "properties": []
    },
    {
     "id": 1202,
     "name": "",
     "type": "",
     "x": 32,
     "y": 1216,
     "width": 32,
     "height": 32,
     "rotation": 0,
     "visible": true,
     "properties": []
    },
    {
     "id": 1203,
     "name": "",
     "type": "",
     "x": 64,
     "y": 1216,
     "width": 32,
     "height": 32,
     "rotation": 0,
     "visible": true,
     "properties": []
    },
    {
     "id": 1204,
     "name": "",
     "type": "",
     "x": 512,
     "y": 1216,
     "width": 32,
     "height": 32,
     "rotation": 0,
     "visible": true,
     "properties": []
    },
    {
     "id": 1205,
     "name": "",
     "type": "",
     "x": 544,
     "y": 1216,
     "width": 32,
     "height": 32,
     "rotation": 0,
     "visible": true,
     "properties": []
    },
    {
     "id": 1206,
     "name": "",
     "type": "",
     "x": 640,
     "y": 1216,
     "width": 32,
     "height": 32,
     "rotation": 0,
     "visible": true,
     "properties": []
    },
    {
     "id": 1207,
     "name": "",
     "type": "",
     "x": 672,
     "y": 1216,
     "width": 32,
     "height": 32,
     "rotation": 0,
     "visible": true,
     "properties": []
    },
    {
     "id": 1208,
     "name": "",
     "type": "",
     "x": 32,
     "y": 1248,
     "width": 32,
     "height": 32,
     "rotation": 0,
     "visible": true,
     "properties": []
    },
    {
     "id": 1209,
     "name": "",
     "type": "",
     "x": 64,
     "y": 1248,
     "width": 32,
     "height": 32,
     "rotation": 0,
     "visible": true,
     "properties": []
    },
    {
     "id": 1210,
     "name": "",
     "type": "",
     "x": 576,
     "y": 1248,
     "width": 32,
     "height": 32,
     "rotation": 0,
     "visible": true,
     "properties": []
    },
    {
     "id": 1211,
     "name": "",
     "type": "",
     "x": 608,
     "y": 1248,
     "width": 32,
     "height": 32,
     "rotation": 0,
     "visible": true,
     "properties": []
    },
    {
     "id": 1212,
     "name": "",
     "type": "",
     "x": 640,
     "y": 1248,
     "width": 32,
     "height": 32,
     "rotation": 0,
     "visible": true,
     "properties": []
    },
    {
     "id": 1213,
     "name": "",
     "type": "",
     "x": 672,
     "y": 1248,
     "width": 32,
     "height": 32,
     "rotation": 0,
     "visible": true,
     "properties": []
    },
    {
     "id": 1214,
     "name": "",
     "type": "",
     "x": 64,
     "y": 1280,
     "width": 32,
     "height": 32,
     "rotation": 0,
     "visible": true,
     "properties": []
    },
    {
     "id": 1215,
     "name": "",
     "type": "",
     "x": 96,
     "y": 1280,
     "width": 32,
     "height": 32,
     "rotation": 0,
     "visible": true,
     "properties": []
    },
    {
     "id": 1216,
     "name": "",
     "type": "",
     "x": 576,
     "y": 1280,
     "width": 32,
     "height": 32,
     "rotation": 0,
     "visible": true,
     "properties": []
    },
    {
     "id": 1217,
     "name": "",
     "type": "",
     "x": 608,
     "y": 1280,
     "width": 32,
     "height": 32,
     "rotation": 0,
     "visible": true,
     "properties": []
    },
    {
     "id": 1218,
     "name": "",
     "type": "",
     "x": 64,
     "y": 1312,
     "width": 32,
     "height": 32,
     "rotation": 0,
     "visible": true,
     "properties": []
    },
    {
     "id": 1219,
     "name": "",
     "type": "",
     "x": 96,
     "y": 1312,
     "width": 32,
     "height": 32,
     "rotation": 0,
     "visible": true,
     "properties": []
    },
    {
     "id": 1220,
     "name": "",
     "type": "",
     "x": 544,
     "y": 1312,
     "width": 32,
     "height": 32,
     "rotation": 0,
     "visible": true,
     "properties": []
    },
    {
     "id": 1221,
     "name": "",
     "type": "",
     "x": 576,
     "y": 1312,
     "width": 32,
     "height": 32,
     "rotation": 0,
     "visible": true,
     "properties": []
    },
    {
     "id": 1222,
     "name": "",
     "type": "",
     "x": 64,
     "y": 1344,
     "width": 32,
     "height": 32,
     "rotation": 0,
     "visible": true,
     "properties": []
    },
    {
     "id": 1223,
     "name": "",
     "type": "",
     "x": 96,
     "y": 1344,
     "width": 32,
     "height": 32,
     "rotation": 0,
     "visible": true,
     "properties": []
    },
    {
     "id": 1224,
     "name": "",
     "type": "",
     "x": 160,
     "y": 1344,
     "width": 32,
     "height": 32,
     "rotation": 0,
     "visible": true,
     "properties": []
    },
    {
     "id": 1225,
     "name": "",
     "type": "",
     "x": 192,
     "y": 1344,
     "width": 32,
     "height": 32,
     "rotation": 0,
     "visible": true,
     "properties": []
    },
    {
     "id": 1226,
     "name": "",
     "type": "",
     "x": 544,
     "y": 1344,
     "width": 32,
     "height": 32,
     "rotation": 0,
     "visible": true,
     "properties": []
    },
    {
     "id": 1227,
     "name": "",
     "type": "",
     "x": 576,
     "y": 1344,
     "width": 32,
     "height": 32,
     "rotation": 0,
     "visible": true,
     "properties": []
    },
    {
     "id": 1228,
     "name": "",
     "type": "",
     "x": 64,
     "y": 1376,
     "width": 32,
     "height": 32,
     "rotation": 0,
     "visible": true,
     "properties": []
    },
    {
     "id": 1229,
     "name": "",
     "type": "",
     "x": 96,
     "y": 1376,
     "width": 32,
     "height": 32,
     "rotation": 0,
     "visible": true,
     "properties": []
    },
    {
     "id": 1230,
     "name": "",
     "type": "",
     "x": 160,
     "y": 1376,
     "width": 32,
     "height": 32,
     "rotation": 0,
     "visible": true,
     "properties": []
    },
    {
     "id": 1231,
     "name": "",
     "type": "",
     "x": 192,
     "y": 1376,
     "width": 32,
     "height": 32,
     "rotation": 0,
     "visible": true,
     "properties": []
    },
    {
     "id": 1232,
     "name": "",
     "type": "",
     "x": 512,
     "y": 1376,
     "width": 32,
     "height": 32,
     "rotation": 0,
     "visible": true,
     "properties": []
    },
    {
     "id": 1233,
     "name": "",
     "type": "",
     "x": 544,
     "y": 1376,
     "width": 32,
     "height": 32,
     "rotation": 0,
     "visible": true,
     "properties": []
    },
    {
     "id": 1234,
     "name": "",
     "type": "",
     "x": 32,
     "y": 1408,
     "width": 32,
     "height": 32,
     "rotation": 0,
     "visible": true,
     "properties": []
    },
    {
     "id": 1235,
     "name": "",
     "type": "",
     "x": 64,
     "y": 1408,
     "width": 32,
     "height": 32,
     "rotation": 0,
     "visible": true,
     "properties": []
    },
    {
     "id": 1236,
     "name": "",
     "type": "",
     "x": 192,
     "y": 1408,
     "width": 32,
     "height": 32,
     "rotation": 0,
     "visible": true,
     "properties": []
    },
    {
     "id": 1237,
     "name": "",
     "type": "",
     "x": 224,
     "y": 1408,
     "width": 32,
     "height": 32,
     "rotation": 0,
     "visible": true,
     "properties": []
    },
    {
     "id": 1238,
     "name": "",
     "type": "",
     "x": 512,
     "y": 1408,
     "width": 32,
     "height": 32,
     "rotation": 0,
     "visible": true,
     "properties": []
    },
    {
     "id": 1239,
     "name": "",
     "type": "",
     "x": 544,
     "y": 1408,
     "width": 32,
     "height": 32,
     "rotation": 0,
     "visible": true,
     "properties": []
    },
    {
     "id": 1240,
     "name": "",
     "type": "",
     "x": 32,
     "y": 1440,
     "width": 32,
     "height": 32,
     "rotation": 0,
     "visible": true,
     "properties": []
    },
    {
     "id": 1241,
     "name": "",
     "type": "",
     "x": 64,
     "y": 1440,
     "width": 32,
     "height": 32,
     "rotation": 0,
     "visible": true,
     "properties": []
    },
    {
     "id": 1242,
     "name": "",
     "type": "",
     "x": 96,
     "y": 1440,
     "width": 32,
     "height": 32,
     "rotation": 0,
     "visible": true,
     "properties": []
    },
    {
     "id": 1243,
     "name": "",
     "type": "",
     "x": 128,
     "y": 1440,
     "width": 32,
     "height": 32,
     "rotation": 0,
     "visible": true,
     "properties": []
    },
    {
     "id": 1244,
     "name": "",
     "type": "",
     "x": 192,
     "y": 1440,
     "width": 32,
     "height": 32,
     "rotation": 0,
     "visible": true,
     "properties": []
    },
    {
     "id": 1245,
     "name": "",
     "type": "",
     "x": 224,
     "y": 1440,
     "width": 32,
     "height": 32,
     "rotation": 0,
     "visible": true,
     "properties": []
    },
    {
     "id": 1246,
     "name": "",
     "type": "",
     "x": 512,
     "y": 1440,
     "width": 32,
     "height": 32,
     "rotation": 0,
     "visible": true,
     "properties": []
    },
    {
     "id": 1247,
     "name": "",
     "type": "",
     "x": 544,
     "y": 1440,
     "width": 32,
     "height": 32,
     "rotation": 0,
     "visible": true,
     "properties": []
    },
    {
     "id": 1248,
     "name": "",
     "type": "",
     "x": 32,
     "y": 1472,
     "width": 32,
     "height": 32,
     "rotation": 0,
     "visible": true,
     "properties": []
    },
    {
     "id": 1249,
     "name": "",
     "type": "",
     "x": 64,
     "y": 1472,
     "width": 32,
     "height": 32,
     "rotation": 0,
     "visible": true,
     "properties": []
    },
    {
     "id": 1250,
     "name": "",
     "type": "",
     "x": 96,
     "y": 1472,
     "width": 32,
     "height": 32,
     "rotation": 0,
     "visible": true,
     "properties": []
    },
    {
     "id": 1251,
     "name": "",
     "type": "",
     "x": 128,
     "y": 1472,
     "width": 32,
     "height": 32,
     "rotation": 0,
     "visible": true,
     "properties": []
    },
    {
     "id": 1252,
     "name": "",
     "type": "",
     "x": 512,
     "y": 1472,
     "width": 32,
     "height": 32,
     "rotation": 0,
     "visible": true,
     "properties": []
    },
    {
     "id": 1253,
     "name": "",
     "type": "",
     "x": 544,
     "y": 1472,
     "width": 32,
     "height": 32,
     "rotation": 0,
     "visible": true,
     "properties": []
    },
    {
     "id": 1254,
     "name": "",
     "type": "",
     "x": 32,
     "y": 1504,
     "width": 32,
     "height": 32,
     "rotation": 0,
     "visible": true,
     "properties": []
    },
    {
     "id": 1255,
     "name": "",
     "type": "",
     "x": 64,
     "y": 1504,
     "width": 32,
     "height": 32,
     "rotation": 0,
     "visible": true,
     "properties": []
    },
    {
     "id": 1256,
     "name": "",
     "type": "",
     "x": 544,
     "y": 1504,
     "width": 32,
     "height": 32,
     "rotation": 0,
     "visible": true,
     "properties": []
    },
    {
     "id": 1257,
     "name": "",
     "type": "",
     "x": 576,
     "y": 1504,
     "width": 32,
     "height": 32,
     "rotation": 0,
     "visible": true,
     "properties": []
    },
    {
     "id": 1258,
     "name": "",
     "type": "",
     "x": 0,
     "y": 1536,
     "width": 32,
     "height": 32,
     "rotation": 0,
     "visible": true,
     "properties": []
    },
    {
     "id": 1259,
     "name": "",
     "type": "",
     "x": 32,
     "y": 1536,
     "width": 32,
     "height": 32,
     "rotation": 0,
     "visible": true,
     "properties": []
    },
    {
     "id": 1260,
     "name": "",
     "type": "",
     "x": 544,
     "y": 1536,
     "width": 32,
     "height": 32,
     "rotation": 0,
     "visible": true,
     "properties": []
    },
    {
     "id": 1261,
     "name": "",
     "type": "",
     "x": 576,
     "y": 1536,
     "width": 32,
     "height": 32,
     "rotation": 0,
     "visible": true,
     "properties": []
    },
    {
     "id": 1262,
     "name": "",
     "type": "",
     "x": 0,
     "y": 1568,
     "width": 32,
     "height": 32,
     "rotation": 0,
     "visible": true,
     "properties": []
    },
    {
     "id": 1263,
     "name": "",
     "type": "",
     "x": 32,
     "y": 1568,
     "width": 32,
     "height": 32,
     "rotation": 0,
     "visible": true,
     "properties": []
    },
    {
     "id": 1264,
     "name": "",
     "type": "",
     "x": 544,
     "y": 1568,
     "width": 32,
     "height": 32,
     "rotation": 0,
     "visible": true,
     "properties": []
    },
    {
     "id": 1265,
     "name": "",
     "type": "",
     "x": 576,
     "y": 1568,
     "width": 32,
     "height": 32,
     "rotation": 0,
     "visible": true,
     "properties": []
    }
   ]
  },
  {
   "id": 5,
   "name": "eventi",
   "type": "objectgroup",
   "opacity": 1,
   "visible": true,
   "x": 0,
   "y": 0,
   "objects": [
    {
     "id": 1,
     "name": "npc_percorso_montepo_2_1",
     "type": "",
     "point": true,
     "x": 368,
     "y": 288,
     "width": 0,
     "height": 0,
     "rotation": 0,
     "visible": true,
     "properties": [
      {
       "name": "type",
       "type": "string",
       "value": "npc"
      },
      {
       "name": "id",
       "type": "string",
       "value": "npc_percorso_montepo_2_1"
      },
      {
       "name": "nota_origine",
       "type": "string",
       "value": "OBJ_EVENT_GFX_FISHER"
      }
     ]
    },
    {
     "id": 2,
     "name": "npc_percorso_montepo_2_2",
     "type": "",
     "point": true,
     "x": 464,
     "y": 512,
     "width": 0,
     "height": 0,
     "rotation": 0,
     "visible": true,
     "properties": [
      {
       "name": "type",
       "type": "string",
       "value": "npc"
      },
      {
       "name": "id",
       "type": "string",
       "value": "npc_percorso_montepo_2_2"
      },
      {
       "name": "nota_origine",
       "type": "string",
       "value": "OBJ_EVENT_GFX_FISHER"
      }
     ]
    },
    {
     "id": 3,
     "name": "npc_percorso_montepo_2_3",
     "type": "",
     "point": true,
     "x": 496,
     "y": 800,
     "width": 0,
     "height": 0,
     "rotation": 0,
     "visible": true,
     "properties": [
      {
       "name": "type",
       "type": "string",
       "value": "npc"
      },
      {
       "name": "id",
       "type": "string",
       "value": "npc_percorso_montepo_2_3"
      },
      {
       "name": "nota_origine",
       "type": "string",
       "value": "OBJ_EVENT_GFX_SWIMMER_M_WATER"
      }
     ]
    },
    {
     "id": 4,
     "name": "npc_percorso_montepo_2_4",
     "type": "",
     "point": true,
     "x": 496,
     "y": 1248,
     "width": 0,
     "height": 0,
     "rotation": 0,
     "visible": true,
     "properties": [
      {
       "name": "type",
       "type": "string",
       "value": "npc"
      },
      {
       "name": "id",
       "type": "string",
       "value": "npc_percorso_montepo_2_4"
      },
      {
       "name": "nota_origine",
       "type": "string",
       "value": "OBJ_EVENT_GFX_SWIMMER_M_WATER"
      }
     ]
    },
    {
     "id": 5,
     "name": "npc_percorso_montepo_2_5",
     "type": "",
     "point": true,
     "x": 336,
     "y": 960,
     "width": 0,
     "height": 0,
     "rotation": 0,
     "visible": true,
     "properties": [
      {
       "name": "type",
       "type": "string",
       "value": "npc"
      },
      {
       "name": "id",
       "type": "string",
       "value": "npc_percorso_montepo_2_5"
      },
      {
       "name": "nota_origine",
       "type": "string",
       "value": "OBJ_EVENT_GFX_SWIMMER_M_WATER"
      }
     ]
    }
   ]
  }
 ]
}