<?xml version="1.0" encoding="UTF-8"?>
<map version="1.10" tiledversion="1.12.2" orientation="orthogonal" renderorder="right-down" width="50" height="150" tilewidth="32" tileheight="32" infinite="0" nextlayerid="7" nextobjectid="123">
 <editorsettings>
  <export target="Percorso_9.tmj" format="json"/>
 </editorsettings>
 <tileset firstgid="1" source="../../outside.tsx"/>
 <tileset firstgid="4017" source="../outside.tsx"/>
 <tileset firstgid="8033" source="../../Emerald_Outside.tsx"/>
 <tileset firstgid="13281" source="../fiori_rossi_animati_v2.tsj"/>
 <layer id="1" name="ground" width="50" height="150">
  <data encoding="csv">
4019,4019,4019,4019,4019,4019,4019,4019,4019,4019,4019,4019,4019,4019,4019,4019,4019,4019,4019,162,163,164,4019,4019,4019,4019,4019,4019,4019,4019,4019,4019,4019,4019,4019,4019,4019,4019,4019,4019,4019,4019,4019,4019,4019,4019,4019,4019,4019,4019,
4019,4019,4019,4019,4019,4019,4019,4019,4019,4019,4019,4019,4019,4019,4019,4019,4019,4019,4019,162,163,164,4019,4019,4019,4019,4019,4019,4019,4019,4019,4019,4019,4019,4019,4019,4019,4019,4019,4019,4019,4019,4019,4019,4019,850,4019,4019,4019,4019,
4019,4019,4019,4019,4019,4019,4019,4019,4019,4019,4019,4019,4019,4019,4019,4019,4019,4019,4019,162,163,164,4019,4019,4019,4019,4019,4019,4019,4019,4019,4019,4019,4019,4019,4019,4019,4019,4019,4019,4019,4019,4019,4019,4019,4019,4019,850,4019,4019,
4019,4019,4019,4019,4019,4019,4019,4019,4019,4019,4019,4019,4019,4019,4019,4019,4019,4019,4019,162,163,164,4019,4019,4019,4019,4019,4019,4019,4019,4019,4019,4019,4019,4019,4019,4019,4019,4019,4019,4019,4019,4019,4019,4019,4019,4019,4019,4019,850,
4019,4019,4019,4019,4019,4019,4019,4019,4019,4019,4019,4019,4019,4019,4019,4019,4019,4019,4019,162,163,164,4019,4019,4019,4019,4019,4019,4019,4019,4019,4019,4019,4019,4019,4019,4019,4019,4019,4019,4019,4019,4019,4019,4019,4019,4019,4019,4019,4019,
4019,4019,4019,4019,4019,4019,4019,4019,4019,4019,4019,4019,4019,4019,4019,4019,4019,4019,4019,162,163,164,4019,4019,4019,4019,4019,4019,4019,4019,4019,4019,4019,4019,4019,4019,4019,4019,4019,4019,4019,4019,4019,4019,4019,4019,4019,4019,4019,4019,
4019,4019,4019,4019,4019,4019,4019,4019,4019,4019,4019,4019,4019,4019,4019,4019,4019,4019,4019,162,163,164,4019,4019,4019,4019,4019,4019,4019,4019,4019,4019,4019,4019,4019,4019,4019,4019,4019,4019,4019,4019,4019,4019,4019,4019,4019,4019,4019,4019,
4019,4019,4019,4019,4019,4019,4019,4019,4019,4019,4019,4019,4019,4019,4019,4019,4019,4019,4019,162,163,164,4019,4019,4019,4019,4019,4019,4019,4019,4019,4019,4019,4019,4019,4019,4019,4019,4019,4019,4019,4019,4019,4019,4019,4019,4019,4019,4019,4019,
4019,4019,4019,4019,4019,4019,4019,4019,4019,4019,4019,4019,4019,4019,4019,4019,4019,4019,4019,162,163,164,4019,4019,4019,4019,4019,4019,4019,4019,4019,4019,4019,4019,4019,4019,4019,4019,4019,4019,4019,4019,4019,4019,4019,4019,4019,4019,4019,4019,
4019,4019,4019,4019,4019,4019,4019,4019,4019,4019,4019,4019,4019,4019,4019,4019,4019,4019,4019,162,163,164,4019,4019,4019,4019,4019,4019,4019,4019,4019,4019,4019,4019,4019,4019,4019,4019,4019,4019,4019,4019,4019,4019,4019,4019,4019,4019,4019,4019,
4019,4019,4019,4019,4019,4019,4019,4019,4019,4019,4019,4019,4019,4019,4019,4019,4019,4019,4019,162,163,164,4019,4019,4019,4019,4019,4019,4019,4019,4019,4019,4019,4019,4019,4019,4019,4019,4019,4019,4019,4019,4019,4019,4019,4019,4019,4019,4019,4019,
4019,4019,4019,4019,4019,4019,4019,4019,4019,4019,4019,4019,4019,4019,4019,4019,4019,4019,4019,162,163,164,4019,4019,4019,4019,4019,4019,4019,4019,4019,4019,4019,4019,4019,4019,4019,4019,4019,4019,4019,4019,4019,4019,4019,4019,4019,4019,4019,4019,
4019,4019,4019,4019,4019,4019,4019,4019,4019,4019,4019,4019,4019,4019,4019,4019,4019,4019,4019,162,163,164,4019,4019,4019,4019,4019,4019,4019,4019,4019,4019,4019,4019,4019,4019,4019,4019,4019,4019,4019,4019,4019,4019,4019,4019,4019,4019,4019,4019,
4019,4019,4019,4019,4019,4019,4019,4019,4019,4019,4019,4019,4019,4019,4019,4019,4019,4019,4019,162,163,164,4019,4019,4019,4019,4019,4019,4019,4019,4019,4019,4019,4019,4019,4019,4019,4019,4019,4019,4019,4019,4019,4019,4019,4019,4019,4019,4019,4019,
4019,4019,4019,4019,4019,4019,4019,4019,4019,4019,4019,4019,4019,4019,4019,4019,4019,4019,4019,162,163,164,4019,4019,4019,4019,4019,4019,4019,4019,4019,4019,4019,4019,4019,4019,4019,4019,4019,4019,4019,4019,4019,4019,4019,4019,4019,4019,4019,4019,
4019,4019,4019,4019,4019,4019,4019,4019,4019,4019,4019,4019,4019,4019,4019,4019,4019,4019,4019,162,163,164,4019,4019,4019,4019,4019,4019,4019,4019,4019,4019,4019,4019,4019,4019,4019,4019,4019,4019,4019,4019,4019,4019,4019,4019,4019,4019,4019,4019,
4019,4019,4019,4019,4019,4019,4019,4019,4019,4019,4019,4019,4019,4019,4019,4019,4019,4019,4019,162,163,164,4019,4019,4019,4019,4019,4019,4019,4019,4019,4019,4019,4019,4019,4019,4019,4019,4019,4019,4019,4019,4019,4019,4019,4019,4019,4019,4019,4019,
4019,4019,4019,4019,4019,4019,4019,4019,4019,4019,4019,4019,4019,4019,4019,4019,4019,4019,4019,162,163,164,4019,4019,4019,4019,4019,4019,4019,4019,4019,4019,4019,4019,4019,4019,4019,4019,4019,4019,4019,4019,4019,4019,4019,4019,4019,4019,4019,4019,
4019,4019,4019,4019,4019,4019,4019,4019,4019,4019,4019,4019,4019,4019,4019,4019,4019,4019,4019,162,163,164,4019,4019,4019,4019,4019,4019,4019,4019,4019,4019,4019,4019,4019,4019,4019,4019,4019,4019,4019,4019,4019,4019,4019,4019,4019,4019,4019,4019,
4019,4019,4019,4019,4019,4019,4019,4019,4019,4019,4019,4019,4019,4019,4019,4019,4019,4019,4019,162,163,164,4019,4019,4019,4019,4019,4019,4019,4019,4019,4019,4019,4019,4019,4019,4019,4019,4019,4019,4019,4019,4019,4019,4019,4019,4019,4019,4019,4019,
4019,4019,4019,4019,4019,4019,4019,4019,4019,4019,4019,4019,4019,4019,4019,4019,4019,4019,4019,162,163,164,4019,4019,4019,4019,4019,4019,4019,4019,4019,4019,4019,4019,4019,4019,4019,4019,4019,4019,4019,4019,4019,4019,4019,4019,4019,4019,4019,4019,
4019,4019,4019,4019,4019,4019,4019,4019,4019,4019,4019,4019,4019,4019,4019,4019,4019,4019,4019,162,163,164,4019,4019,4019,4019,4019,4019,4019,4019,4019,4019,4019,4019,4019,4019,4019,4019,4019,4019,4019,4019,4019,4019,4019,4019,4019,4019,4019,4019,
4019,4019,4019,4019,4019,4019,4019,4019,4019,4019,4019,4019,4019,4019,4019,4019,4019,4019,4019,162,163,164,4019,4019,4019,4019,4019,4019,4019,4019,4019,4019,4019,4019,4019,4019,4019,4019,4019,4019,4019,4019,4019,4019,4019,4019,4019,4019,4019,4019,
4019,4019,4019,4019,4019,4019,4019,4019,4019,4019,4019,4019,4019,4019,4019,4019,4019,4019,4019,162,163,164,4019,4019,4019,4019,4019,4019,4019,4019,4019,4019,4019,4019,4019,4019,4019,4019,4019,4019,4019,4019,4019,4019,4019,4019,4019,4019,4019,4019,
4019,4019,4019,4019,4019,4019,4019,4019,4019,4019,4019,4019,4019,4019,4019,4019,4019,4019,4019,162,163,164,4019,4019,4019,4019,4019,4019,4019,4019,4019,4019,4019,4019,4019,4019,4019,4019,4019,4019,4019,4019,4019,4019,4019,4019,4019,4019,4019,4019,
4019,4019,4019,4019,4019,4019,4019,4019,4019,4019,155,155,155,155,155,155,155,155,155,175,163,173,155,155,155,155,155,155,155,155,155,155,155,155,155,155,155,155,155,155,155,155,156,4019,4019,4019,4019,4019,4019,4019,
4019,4019,4019,4019,4019,4019,4019,4019,4019,4019,163,163,163,163,163,163,163,163,163,163,163,163,163,163,163,163,163,163,163,163,163,163,163,163,163,163,163,163,163,163,163,163,164,4019,4019,4019,4019,4019,4019,4019,
4019,4019,4019,4019,4019,4019,4019,4019,4019,4019,171,171,171,171,171,171,171,171,171,171,171,171,171,171,171,171,171,171,171,171,171,171,171,171,171,171,171,171,171,171,159,163,164,4019,4019,4019,4019,4019,4019,4019,
4019,4019,4019,4019,4019,4019,4019,4019,4019,4019,4019,4019,4019,4019,4019,4019,4019,4019,4019,4019,4019,4019,4019,4019,4019,4019,4019,4019,4019,4019,4019,4019,4019,4019,4019,4019,4019,4019,4019,4019,162,163,164,4019,4019,4019,4019,4019,4019,4019,
4019,4019,4019,4019,4019,4019,4019,4019,4019,4019,4019,4019,4019,4019,4019,4019,4019,4019,4019,4019,4019,4019,4019,4019,4019,4019,4019,4019,4019,4019,4019,4019,4019,4019,4019,4019,4019,4019,4019,4019,162,163,164,4019,4019,4019,4019,4019,4019,4019,
4019,4019,4019,4019,4019,4019,4019,4019,4019,4019,4019,4019,4019,4019,4019,4019,4019,4019,4019,4019,4019,4019,4019,4019,4019,4019,4019,4019,4019,4019,4019,4019,4019,4019,4019,4019,4019,4019,4019,4019,162,163,164,4019,4019,4019,4019,4019,4019,4019,
4019,4019,4019,4019,4019,4019,4019,4019,4019,4019,4019,4019,4019,4019,4019,4019,4019,4019,4019,4019,4019,4019,4019,4019,4019,4019,4019,4019,4019,4019,4019,4019,4019,4019,4019,4019,4019,4019,4019,4019,162,163,164,4019,4019,4019,4019,4019,4019,4019,
4019,4019,4019,4019,4019,4019,4019,4019,4019,4019,4019,4019,4019,4019,4019,4019,4019,4019,4019,4019,4019,4019,4019,4019,4019,4019,4019,4019,4019,4019,4019,4019,4019,4019,4019,4019,4019,4019,4019,4019,162,163,164,4019,4019,4019,4019,4019,4019,4019,
4019,4019,4019,4019,4019,4019,4019,4019,4019,4019,4019,4019,4019,4019,4019,4019,4019,4019,4019,4019,4019,4019,4019,4019,4019,4019,4019,4019,4019,4019,4019,4019,4019,4019,4019,4019,4019,4019,4019,4019,162,163,164,4019,4019,4019,4019,4019,4019,4019,
4019,4019,4019,4019,4019,4019,4019,4019,4019,4019,4019,4019,4019,10258,10258,10258,10258,10258,10258,10258,10258,10258,10258,10258,10258,10258,10258,10258,10258,10258,10258,10258,10258,10258,10258,10258,10258,4019,4019,4019,162,163,164,4019,4019,4019,4019,4019,4019,4019,
4019,4019,4019,4019,4019,4019,4019,4019,4019,4019,4019,4019,4019,10258,10258,10258,10258,10258,10258,10258,10258,10258,10258,10258,10258,10258,10258,10258,10258,10258,10258,10258,10258,10258,10258,10258,10258,4019,4019,4019,162,163,164,4019,4019,4019,4019,4019,4019,4019,
4019,4019,4019,4019,4019,4019,4019,4019,4019,4019,4019,4019,4019,10258,10258,10258,10258,10258,10258,10258,10258,10258,10258,10258,10258,10258,10258,10258,10258,10258,10258,10258,10258,10258,10258,10258,10258,4019,4019,4019,162,163,164,4019,4019,4019,4019,4019,4019,4019,
4019,4019,4019,4019,4019,4019,4019,4019,4019,4019,4019,4019,4019,10258,10258,10258,10258,10258,10258,10258,10258,10258,10258,10258,10258,10258,10258,10258,10258,10258,10258,10258,10258,10258,10258,10258,10258,4019,4019,4019,162,163,164,4019,4019,4019,4019,4019,4019,4019,
4019,4019,4019,4019,4019,4019,4019,4019,4019,4019,4019,4019,4019,10258,10258,10258,10258,10258,10258,10258,10258,10258,10258,10258,10258,10258,10258,10258,10258,10258,10258,10258,10258,10258,10258,10258,10258,4019,4019,4019,162,163,164,4019,4019,4019,4019,4019,4019,4019,
4019,4019,4019,4019,4019,4019,4019,4019,4019,4019,4019,4019,4019,10258,10258,10258,10258,10258,10258,10258,10258,10258,10258,10258,10258,10258,10258,10258,10258,10258,10258,10258,10258,10258,10258,10258,10258,4019,4019,4019,162,163,164,4019,4019,4019,4019,4019,4019,4019,
4019,4019,4019,4019,4019,4019,4019,4019,4019,4019,4019,4019,4019,10258,10258,10258,10258,10258,10258,10258,10258,10258,10258,10258,10258,10258,10258,10258,10258,10258,10258,10258,10258,10258,10258,10258,10258,4019,4019,4019,162,163,164,4019,4019,4019,4019,4019,4019,4019,
4019,4019,4019,4019,4019,4019,4019,4019,4019,4019,4019,4019,4019,10258,10258,10258,10258,10258,10258,10258,10258,10258,10258,10258,10258,10258,10258,10258,10258,10258,10258,10258,10258,10258,10258,10258,10258,4019,4019,4019,162,163,164,4019,4019,4019,4019,4019,4019,4019,
4019,4019,4019,4019,4019,4019,4019,4019,4019,4019,4019,4019,4019,10258,10258,10258,10258,10258,10258,10258,10258,10258,10258,10258,10258,10258,10258,10258,10258,10258,10258,10258,10258,10258,10258,10258,10258,4019,4019,4019,162,163,164,4019,4019,4019,4019,4019,4019,4019,
4019,4019,4019,4019,4019,4019,4019,4019,4019,4019,4019,4019,4019,10258,10258,10258,10258,10258,10258,10258,10258,10258,10258,10258,10258,10258,10258,10258,10258,10258,10258,10258,10258,10258,10258,10258,10258,4019,4019,4019,162,163,164,4019,4019,4019,4019,4019,4019,4019,
4019,4019,4019,4019,4019,4019,4019,4019,4019,4019,4019,4019,4019,10258,10258,10258,10258,10258,10258,10258,10258,10258,10258,10258,10258,10258,10258,10258,10258,10258,10258,10258,10258,10258,10258,10258,10258,4019,4019,4019,162,163,164,4019,4019,4019,4019,4019,4019,4019,
4019,4019,4019,4019,4019,4019,4019,4019,4019,4019,4019,4019,4019,10258,10258,10258,10258,10258,10258,10258,10258,10258,10258,10258,10258,10258,10258,10258,10258,10258,10258,10258,10258,10258,10258,10258,10258,4019,4019,4019,162,163,164,4019,4019,4019,4019,4019,4019,4019,
4019,4019,4019,4019,4019,4019,4019,4019,4019,4019,4019,4019,4019,10258,10258,10258,10258,10258,10258,10258,10258,10258,10258,10258,10258,10258,10258,10258,10258,10258,10258,10258,10258,10258,10258,10258,10258,4019,4019,4019,162,163,164,4019,4019,4019,4019,4019,4019,4019,
4019,4019,4019,4019,4019,4019,4019,4019,4019,4019,4019,4019,4019,10258,10258,10258,10258,10258,10258,10258,10258,10258,10258,10258,10258,10258,10258,10258,10258,10258,10258,10258,10258,10258,10258,10258,10258,4019,4019,4019,162,163,164,4019,4019,4019,4019,4019,4019,4019,
4019,4019,4019,4019,4019,4019,4019,4019,4019,4019,4019,4019,4019,10258,10258,10258,10258,10258,10258,10258,10258,10258,10258,10258,10258,10258,10258,10258,10258,10258,10258,10258,10258,10258,10258,10258,10258,4019,4019,4019,162,163,164,4019,4019,4019,4019,4019,4019,4019,
4019,4019,4019,4019,4019,4019,4019,4019,4019,4019,4019,4019,4019,10258,10258,10258,10258,10258,10258,10258,10258,10258,10258,10258,10258,10258,10258,10258,10258,10258,10258,10258,10258,10258,10258,10258,10258,4019,4019,4019,162,163,164,4019,4019,4019,4019,4019,4019,4019,
4019,4019,4019,4019,4019,4019,4019,4019,4019,4019,4019,4019,4019,10258,10258,10258,10258,10258,10258,10258,10258,10258,10258,10258,10258,10258,10258,10258,10258,10258,10258,10258,10258,10258,10258,10258,10258,4019,4019,4019,162,163,164,4019,4019,4019,4019,4019,4019,4019,
4019,4019,4019,4019,4019,4019,4019,4019,4019,4019,4019,4019,4019,10258,10258,10258,10258,10258,10258,10258,10258,10258,10258,10258,10258,10258,10258,10258,10258,10258,10258,10258,10258,10258,10258,10258,10258,4019,4019,4019,162,163,164,4019,4019,4019,4019,4019,4019,4019,
4019,4019,4019,4019,4019,4019,4019,4019,4019,4019,4019,4019,4019,10258,10258,10258,10258,10258,10258,10258,10258,10258,10258,10258,10258,10258,10258,10258,10258,10258,10258,10258,10258,10258,10258,10258,10258,4019,4019,4019,162,163,164,4019,4019,4019,4019,4019,4019,4019,
4019,4019,4019,4019,4019,4019,4019,4019,4019,4019,4019,4019,4019,10258,10258,10258,10258,10258,10258,10258,10258,10258,10258,10258,10258,10258,10258,10258,10258,10258,10258,10258,10258,10258,10258,10258,10258,4019,4019,4019,162,163,164,4019,4019,4019,4019,4019,4019,4019,
4019,4019,4019,4019,4019,4019,4019,4019,4019,4019,4019,4019,4019,10258,10258,10258,10258,10258,10258,10258,10258,10258,10258,10258,10258,10258,10258,10258,10258,10258,10258,10258,10258,10258,10258,10258,10258,4019,4019,4019,162,163,164,4019,4019,4019,4019,4019,4019,4019,
4019,4019,4019,4019,4019,4019,4019,4019,4019,4019,4019,4019,4019,10258,10258,10258,10258,10258,10258,10258,10258,10258,10258,10258,10258,10258,10258,10258,10258,10258,10258,10258,10258,10258,10258,10258,10258,4019,4019,4019,162,163,164,4019,4019,4019,4019,4019,4019,4019,
4019,4019,4019,4019,4019,4019,4019,4019,4019,4019,4019,4019,4019,10258,10258,10258,10258,10258,10258,10258,10258,10258,10258,10258,10258,10258,10258,10258,10258,10258,10258,10258,10258,10258,10258,10258,10258,4019,4019,4019,162,163,164,4019,4019,4019,4019,4019,4019,4019,
4019,4019,4019,4019,4019,4019,4019,4019,4019,4019,4019,4019,4019,10258,10258,10258,10258,10258,10258,10258,10258,10258,10258,10258,10258,10258,10258,10258,10258,10258,10258,10258,10258,10258,10258,10258,10258,4019,4019,4019,162,163,164,4019,4019,4019,4019,4019,4019,4019,
4019,4019,4019,4019,4019,4019,4019,4019,4019,4019,4019,4019,4019,10258,10258,10258,10258,10258,10258,10258,10258,10258,10258,10258,10258,10258,10258,10258,10258,10258,10258,10258,10258,10258,10258,10258,10258,4019,4019,4019,162,163,164,4019,4019,4019,4019,4019,4019,4019,
4019,4019,4019,4019,4019,4019,4019,4019,4019,4019,4019,4019,4019,10258,10258,10258,10258,10258,10258,10258,10258,10258,10258,10258,10258,10258,10258,10258,10258,10258,10258,10258,10258,10258,10258,10258,10258,4019,4019,4019,162,163,164,4019,4019,4019,4019,4019,4019,4019,
4019,4019,4019,4019,4019,4019,4019,4019,4019,4019,4019,4019,4019,10258,10258,10258,10258,10258,10258,10258,10258,10258,10258,10258,10258,10258,10258,10258,10258,10258,10258,10258,10258,10258,10258,10258,10258,4019,4019,4019,162,163,164,4019,4019,4019,4019,4019,4019,4019,
4019,4019,4019,4019,4019,4019,4019,4019,4019,4019,4019,4019,4019,10258,10258,10258,10258,10258,10258,10258,10258,10258,10258,10258,10258,10258,10258,10258,10258,10258,10258,10258,10258,10258,10258,10258,10258,4019,4019,4019,162,163,164,4019,4019,4019,4019,4019,4019,4019,
4019,4019,4019,4019,4019,4019,4019,4019,4019,4019,4019,4019,4019,10258,10258,10258,10258,10258,10258,10258,10258,10258,10258,10258,10258,10258,10258,10258,10258,10258,10258,10258,10258,10258,10258,10258,10258,4019,4019,4019,162,163,164,4019,4019,4019,4019,4019,4019,4019,
4019,4019,4019,4019,4019,4019,4019,4019,4019,4019,4019,4019,4019,10258,10258,10258,10258,10258,10258,10258,10258,10258,10258,10258,10258,10258,10258,10258,10258,10258,10258,10258,10258,10258,10258,10258,10258,4019,4019,4019,162,163,164,4019,4019,4019,4019,4019,4019,4019,
4019,4019,4019,4019,4019,4019,4019,4019,4019,4019,4019,4019,4019,10258,10258,10258,10258,10258,10258,10258,10258,10258,10258,10258,10258,10258,10258,10258,10258,10258,10258,10258,10258,10258,10258,10258,10258,4019,4019,4019,162,163,164,4019,4019,4019,4019,4019,4019,4019,
4019,4019,4019,4019,4019,4019,4019,4019,4019,4019,4019,4019,4019,10258,10258,10258,10258,10258,10258,10258,10258,10258,10258,10258,10258,10258,10258,10258,10258,10258,10258,10258,10258,10258,10258,10258,10258,4019,4019,4019,162,163,164,4019,4019,4019,4019,4019,4019,4019,
4019,4019,4019,4019,4019,4019,4019,4019,4019,4019,4019,4019,4019,10258,10258,10258,10258,10258,10258,10258,10258,10258,10258,10258,10258,10258,10258,10258,10258,10258,10258,10258,10258,10258,10258,10258,10258,4019,4019,4019,162,163,164,4019,4019,4019,4019,4019,4019,4019,
4019,4019,4019,4019,4019,4019,4019,4019,4019,4019,4019,4019,4019,10258,10258,10258,10258,10258,10258,10258,10258,10258,10258,10258,10258,10258,10258,10258,10258,10258,10258,10258,10258,10258,10258,10258,10258,4019,4019,4019,162,163,164,4019,4019,4019,4019,4019,4019,4019,
4019,4019,4019,4019,4019,4019,4019,4019,4019,4019,4019,4019,4019,10258,10258,10258,10258,10258,10258,10258,10258,10258,10258,10258,10258,10258,10258,10258,10258,10258,10258,10258,10258,10258,10258,10258,10258,4019,4019,4019,162,163,164,4019,4019,4019,4019,4019,4019,4019,
4019,4019,4019,4019,4019,4019,4019,4019,4019,4019,4019,4019,4019,10258,10258,10258,10258,10258,10258,10258,10258,10258,10258,10258,10258,10258,10258,10258,10258,10258,10258,10258,10258,10258,10258,10258,10258,4019,4019,4019,162,163,164,4019,4019,4019,4019,4019,4019,4019,
4019,4019,4019,4019,4019,4019,4019,4019,4019,4019,4019,4019,4019,10258,10258,10258,10258,10258,10258,10258,10258,10258,10258,10258,10258,10258,10258,10258,10258,10258,10258,10258,10258,10258,10258,10258,10258,4019,4019,4019,162,163,164,4019,4019,4019,4019,4019,4019,4019,
4019,4019,4019,4019,4019,4019,4019,4019,4019,4019,4019,4019,4019,10258,10258,10258,10258,10258,10258,10258,10258,10258,10258,10258,10258,10258,10258,10258,10258,10258,10258,10258,10258,10258,10258,10258,10258,4019,4019,4019,162,163,164,4019,4019,4019,4019,4019,4019,4019,
4019,4019,4019,4019,4019,4019,4019,4019,4019,4019,4019,4019,4019,10258,10258,10258,10258,10258,10258,10258,10258,10258,10258,10258,10258,10258,10258,10258,10258,10258,10258,10258,10258,10258,10258,10258,10258,4019,4019,4019,162,163,164,4019,4019,4019,4019,4019,4019,4019,
4019,4019,4019,4019,4019,4019,4019,4019,4019,4019,4019,4019,4019,10258,10258,10258,10258,10258,10258,10258,10258,10258,10258,10258,10258,10258,10258,10258,10258,10258,10258,10258,10258,10258,10258,10258,10258,4019,4019,4019,162,163,164,4019,4019,4019,4019,4019,4019,4019,
4019,4019,4019,4019,4019,4019,4019,4019,4019,4019,4019,4019,4019,10258,10258,10258,10258,10258,10258,10258,10258,10258,10258,10258,10258,10258,10258,10258,10258,10258,10258,10258,10258,10258,10258,10258,10258,4019,4019,4019,162,163,164,4019,4019,4019,4019,4019,4019,4019,
4019,4019,4,4,4,4,4,4019,4019,4019,4019,4019,4019,4019,4019,4019,4019,4019,4019,4019,4019,4019,4019,4019,4019,4019,4019,4019,4019,4019,4019,4019,4019,4019,4019,4019,4019,4019,4019,4019,162,163,164,4019,4019,4019,4019,4019,4019,4019,
4019,4019,4,4,4,4,4,154,155,155,155,155,155,155,155,155,155,155,155,155,155,155,155,155,155,155,155,155,155,155,155,155,155,155,155,155,155,155,155,155,175,163,164,4019,4019,4019,4019,4019,4019,4019,
4019,4019,4,4,4,4,4,162,163,163,163,163,163,163,163,163,163,163,163,163,163,163,163,163,163,163,163,163,163,163,163,163,163,163,163,163,163,163,163,163,163,163,164,4019,4019,4019,4019,4019,4019,4019,
4019,4019,4,4,4,4,4,162,163,157,171,171,171,171,171,171,171,171,171,171,171,171,171,171,159,163,157,171,171,171,171,171,171,171,171,171,171,171,171,171,171,171,172,4019,4019,4019,4019,4019,4019,4019,
4019,4019,4,4,4,4,4,162,163,164,4019,4019,4019,4019,4019,4019,4019,4019,4019,4019,4019,4019,4019,4019,162,163,164,4019,4019,4019,4019,4019,4019,4019,4019,4019,4019,4019,4019,4019,4019,4019,4019,4019,4019,4019,4019,4019,4019,4019,
4019,4019,4,4,4,4,4,162,163,164,4019,4019,4019,4019,4019,4019,4019,4019,4019,4019,4019,4019,4019,4019,162,163,164,4019,4019,4019,4019,4019,4019,4019,4019,4019,4019,4019,4019,4019,4019,4019,4019,4019,4019,4019,4019,4019,4019,4019,
4019,4019,4,4,4,4,4,162,163,164,4019,4019,4019,4019,4019,4019,4019,4019,4019,4019,4019,4019,4019,4019,162,163,164,4019,4019,4019,4019,4019,4019,4019,4019,4019,4019,4019,4019,4019,4019,4019,4019,4019,4019,4019,4019,4019,4019,4019,
4019,4019,4,4,4,4,4,162,163,164,4019,4019,4019,4019,4019,4019,4019,4019,4019,4019,4019,4019,4019,4019,162,163,164,4019,4019,4019,4019,4019,4019,4019,4019,4019,4019,4019,4019,4019,4019,4019,4019,4019,4019,4019,4019,4019,4019,4019,
4019,4019,4,4,4,4,4,162,163,164,4019,4019,4019,4019,4019,4019,4019,4019,4019,4019,4019,4019,4019,4019,162,163,164,4019,4019,4019,4019,4019,4019,4019,4019,4019,4019,4019,4019,4019,4019,4019,4019,4019,4019,4019,4019,4019,4019,4019,
4019,4019,4,4,4,4,4,162,163,164,4019,4019,4019,4019,4019,4019,4019,4019,4019,4019,4019,4019,4019,4019,162,163,164,4019,4019,4019,4019,4019,4019,4019,4019,4019,4019,4019,4019,4019,4019,4019,4019,4019,4019,4019,4019,4019,4019,4019,
4019,4019,4,4,4,4,4,162,163,164,4019,4019,4019,4019,4019,4019,4019,4019,4019,4019,4019,4019,4019,4019,162,163,164,4019,4019,4019,4019,4019,4019,4019,4019,4019,4019,4019,4019,4019,4019,4019,4019,4019,4019,4019,4019,4019,4019,4019,
4019,4019,4,4,4,4,4,162,163,164,4019,4019,4019,4019,4019,4019,4019,4019,4019,4019,4019,4019,4019,4019,162,163,164,4019,4019,4019,4019,4019,4019,4019,4019,4019,4019,4019,4019,4019,4019,4019,4019,4019,4019,4019,4019,4019,4019,4019,
4019,4019,4,4,4,4,4,162,163,164,4019,4019,4019,4019,4019,4019,4019,4019,4019,4019,4019,4019,4019,4019,162,163,164,4019,4019,4019,4019,4019,4019,4019,4019,4019,4019,4019,4019,4019,4019,4019,4019,4019,4019,4019,4019,4019,4019,4019,
4019,4019,4,4,4,4,4,162,163,164,4019,4019,4019,4019,4019,4019,4019,4019,4019,4019,4019,4019,4019,4019,162,163,164,4019,4019,4019,4019,4019,4019,4019,4019,4019,4019,4019,4019,4019,4019,4019,4019,4019,4019,4019,4019,4019,4019,4019,
4019,4019,4,4,4,4,4,162,163,164,4019,4019,4019,4019,4019,4019,4019,4019,4019,4019,4019,4019,4019,4019,162,163,164,4019,4019,4019,4019,4019,793,788,4019,4019,4019,4019,4019,4019,4019,4019,4019,4019,4019,4019,4019,4019,4019,4019,
4019,4019,4,4,4,4,4,162,163,164,4019,4019,4019,4019,4019,4019,4019,4019,4019,4019,4019,4019,4019,4019,162,163,164,4019,4019,4019,4019,4019,793,796,788,4019,4019,4019,4019,4019,4019,4019,4019,4019,4019,4019,4019,4019,4019,4019,
4019,4019,4,4,4,4,4,162,163,164,4019,4019,4019,4019,4019,4019,4019,4019,4019,4019,4019,4019,4019,4019,162,163,164,4019,4019,4019,4019,4019,793,796,796,4019,4019,4019,4019,4019,4019,4019,4019,4019,4019,4019,4019,4019,4019,4019,
4019,4019,4,4,4,4,4,162,163,164,4019,4019,4019,4019,4019,4019,4019,4019,4019,4019,4019,4019,4019,4019,162,163,164,4019,4019,4019,4019,4019,793,796,796,4019,4019,4019,4019,4019,4019,4019,4019,4019,4019,4019,4019,4019,4019,4019,
4019,4019,4,4,4,4,4,162,163,164,4019,4019,4019,4019,4019,4019,4019,4019,4019,4019,4019,4019,4019,4019,162,163,164,4019,4019,4019,4019,4019,793,796,796,4019,4019,4019,4019,4019,4019,4019,4019,4019,4019,4019,4019,4019,4019,4019,
4019,4019,4,4,4,4,4,162,163,164,4019,4019,4019,4019,4019,4019,4019,4019,4019,4019,4019,4019,4019,4019,162,163,164,4019,4019,4019,4019,4019,793,796,796,4019,4019,4019,4019,4019,4019,4019,4019,4019,4019,4019,4019,4019,4019,4019,
4019,4019,4,4,4,4,4,162,163,164,4019,4019,4019,4019,4019,4019,4019,4019,4019,4019,4019,4019,4019,4019,162,163,164,4019,4019,4019,4019,4019,793,796,796,4019,4019,4019,4019,4019,4019,4019,4019,4019,4019,4019,4019,4019,4019,4019,
4019,4019,4,4,4,4,4,162,163,164,4019,4019,4019,4019,4019,4019,4019,4019,4019,4019,4019,4019,4019,4019,162,163,164,4019,4019,4019,4019,4019,793,796,796,4019,4019,4019,4019,4019,4019,4019,4019,4019,4019,4019,4019,4019,4019,4019,
4019,4019,4,4,4,4,4,162,163,164,4019,4019,4019,4019,4019,4019,4019,4019,4019,4019,4019,4019,4019,4019,162,163,164,4019,4019,4019,4019,4019,793,796,796,4019,4019,4019,4019,4019,4019,4019,4019,4019,4019,4019,4019,4019,4019,4019,
4019,4019,4,4,4,4,4,162,163,164,4019,4019,4019,4019,4019,4019,4019,4019,4019,4019,4019,4019,4019,4019,162,163,164,4019,4019,4019,4019,4019,793,796,796,4019,4019,4019,4019,4019,4019,4019,4019,4019,4019,4019,4019,4019,4019,4019,
4019,4019,4,4,4,4,4,162,163,164,4019,4019,4019,4019,4019,4019,4019,4019,4019,4019,4019,4019,4019,4019,162,163,164,4019,4019,4019,4019,4019,793,796,796,4019,4019,4019,4019,4019,4019,4019,4019,4019,4019,4019,4019,4019,4019,4019,
4019,4019,4,4,4,4,4,162,163,164,4019,4019,4019,4019,4019,4019,4019,4019,4019,4019,4019,4019,4019,4019,162,163,164,4019,4019,4019,4019,4019,793,796,796,4019,4019,4019,4019,4019,4019,4019,4019,4019,4019,4019,4019,4019,4019,4019,
4019,4019,4,4,4,4,4,162,163,164,4019,4019,4019,4019,4019,4019,4019,4019,4019,4019,4019,4019,4019,4019,162,163,164,4019,4019,4019,4019,4019,793,796,796,4019,4019,4019,4019,4019,4019,4019,4019,4019,4019,4019,4019,4019,4019,4019,
4019,4019,4,4,4,4,4,162,163,164,4019,4019,4019,4019,4019,4019,4019,4019,4019,4019,4019,4019,4019,4019,162,163,164,4019,4019,4019,4019,4019,793,796,796,4019,4019,4019,4019,4019,4019,4019,4019,4019,4019,4019,4019,4019,4019,4019,
4019,4019,4,4,4,4,4,162,163,164,4019,4019,4019,4019,4019,4019,4019,4019,4019,4019,4019,4019,4019,4019,162,163,164,4019,4019,4019,4019,4019,793,796,796,4019,4019,4019,4019,4019,4019,4019,4019,4019,4019,4019,4019,4019,4019,4019,
4019,4019,4,4,4,4,4,162,163,164,4019,4019,4019,4019,4019,4019,4019,4019,4019,4019,4019,4019,4019,4019,162,163,164,4019,4019,4019,4019,4019,793,796,796,4019,4019,4019,4019,4019,4019,4019,4019,4019,4019,4019,4019,4019,4019,4019,
4019,4019,4,4,4,4,4,162,163,164,4019,4019,4019,4019,4019,4019,4019,4019,4019,4019,4019,4019,4019,4019,162,163,164,4019,4019,4019,4019,4019,793,796,796,4019,4019,4019,4019,4019,4019,4019,4019,4019,4019,4019,4019,4019,4019,4019,
4019,4019,4,4,4,4,4,162,163,164,4019,4019,4019,4019,4019,4019,4019,4019,4019,4019,4019,4019,4019,4019,162,163,164,4019,4019,4019,4019,4019,793,796,796,4019,4019,4019,4019,4019,4019,4019,4019,4019,4019,4019,4019,4019,4019,4019,
4019,4019,4,4,4,4,4,162,163,173,155,155,155,155,155,155,155,155,155,155,155,155,155,155,175,163,164,4019,4019,4019,4019,4019,793,796,796,4019,4019,4019,4019,4019,4019,4019,4019,4019,4019,4019,4019,4019,4019,4019,
4019,4019,4,4,4,4,4,162,163,163,163,163,163,163,163,163,163,163,163,163,163,163,163,163,163,163,164,4019,4019,4019,4019,4019,793,796,796,4019,4019,4019,4019,4019,4019,4019,4019,4019,4019,4019,4019,4019,4019,4019,
4019,4019,4,4,4,4,4,170,171,171,171,171,171,171,171,171,171,171,171,171,171,171,171,171,159,163,164,4019,4019,4019,4019,4019,793,796,796,4019,4019,4019,4019,4019,4019,4019,4019,4019,4019,4019,4019,4019,4019,4019,
4019,4019,4,4,4,4,4,4019,4019,4019,4019,4019,4019,4019,4019,4019,4019,4019,4019,4019,4019,4019,4019,4019,162,163,164,4019,4019,4019,4019,4019,793,796,796,4019,4019,4019,4019,4019,4019,4019,4019,4019,4019,4019,4019,4019,4019,4019,
4019,4019,4019,4019,4019,4019,4019,4019,4019,4019,4019,4019,4019,4019,4019,4019,4019,4019,4019,4019,4019,4019,4019,4019,162,163,164,4019,4019,4019,4019,4019,793,796,796,4019,4019,4019,4019,4019,4019,4019,4019,4019,4019,4019,4019,4019,4019,4019,
4019,4019,4019,4019,4019,4019,4019,4019,4019,4019,4019,4019,4019,4019,4019,4019,4019,4019,4019,4019,4019,4019,4019,4019,162,163,164,4019,4019,4019,4019,4019,793,796,796,4019,4019,4019,4019,4019,4019,4019,4019,4019,4019,4019,4019,4019,4019,4019,
4019,4019,4019,4019,4019,4019,4019,4019,4019,4019,4019,4019,4019,4019,4019,4019,4019,4019,4019,4019,4019,4019,4019,4019,162,163,164,4019,4019,4019,4019,4019,4019,4019,4019,4019,4019,4019,4019,4019,4019,4019,4019,4019,4019,4019,4019,4019,4019,4019,
4019,4019,4019,4019,4019,4019,4019,4019,4019,4019,4019,4019,4019,4019,4019,4019,4019,4019,4019,4019,4019,4019,4019,4019,162,163,164,4019,4019,4019,4019,4019,4019,4019,4019,4019,4019,4019,4019,4019,4019,4019,4019,4019,4019,4019,4019,4019,4019,4019,
4019,4019,4019,4019,4019,4019,4019,4019,4019,4019,4019,4019,4019,4019,4019,4019,4019,4019,4019,4019,4019,4019,4019,4019,162,163,164,4019,4019,4019,4019,4019,4019,4019,4019,4019,4019,4019,4019,4019,4019,4019,4019,4019,4019,4019,4019,4019,4019,4019,
4019,4019,4019,4019,4019,4019,4019,4019,4019,4019,4019,4019,4019,4019,4019,4019,4019,4019,4019,4019,4019,4019,4019,4019,162,163,164,4019,4019,4019,4019,4019,4019,4019,4019,4019,4019,4019,4019,4019,4019,4019,4019,4019,4019,4019,4019,4019,4019,4019,
4019,4019,4019,4019,4019,4019,4019,4019,4019,4019,4019,4019,4019,4019,4019,4019,4019,4019,4019,4019,4019,4019,4019,4019,162,163,164,4019,4019,4019,4019,4019,4019,4019,4019,4019,4019,4019,4019,4019,4019,4019,4019,4019,4019,4019,4019,4019,4019,4019,
4019,4019,4019,4019,4019,4019,4019,4019,4019,4019,4019,4019,4019,4019,4019,4019,4019,4019,4019,4019,4019,4019,4019,4019,162,163,164,4019,4019,4019,4019,4019,4019,4019,4019,4019,4019,4019,4019,4019,4019,4019,4019,4019,4019,4019,4019,4019,4019,4019,
4019,4019,4019,4019,4019,4019,4019,4019,4019,4019,4019,4019,4019,4019,4019,4019,4019,4019,4019,4019,4019,4019,4019,4019,162,163,164,4019,4019,4019,4019,4019,4019,4019,4019,4019,4019,4019,4019,4019,4019,4019,4019,4019,4019,4019,4019,4019,4019,4019,
4019,4019,4019,4019,4019,4019,4019,4019,4019,4019,4019,4019,4019,4019,4019,4019,4019,4019,4019,4019,4019,4019,4019,4019,162,163,164,4019,4019,4019,4019,4019,4019,4019,4019,4019,4019,4019,4019,4019,4019,4019,4019,4019,4019,4019,4019,4019,4019,4019,
4019,4019,4019,4019,4019,4019,4019,4019,4019,4019,4019,4019,4019,4019,4019,4019,4019,4019,4019,4019,4019,4019,4019,4019,162,163,164,4019,4019,4019,4019,4019,4019,4019,4019,4019,4019,4019,4019,4019,4019,4019,4019,4019,4019,4019,4019,4019,4019,4019,
4019,4019,4019,4019,4019,4019,4019,4019,4019,4019,4019,4019,4019,4019,4019,4019,4019,4019,4019,4019,4019,4019,4019,4019,162,163,164,4019,4019,4019,4019,4019,4019,4019,4019,4019,4019,4019,4019,4019,4019,4019,4019,4019,4019,4019,4019,4019,4019,4019,
4019,4019,4019,4019,4019,4019,4019,4019,4019,4019,4019,4019,4019,4019,4019,4019,4019,4019,4019,4019,4019,4019,4019,4019,162,163,164,4019,4019,4019,4019,4019,4019,4019,4019,4019,4019,4019,4019,4019,4019,4019,4019,4019,4019,4019,4019,4019,4019,4019,
4019,4019,4019,4019,4019,4019,4019,4019,4019,4019,4019,4019,4019,4019,4019,4019,4019,4019,4019,4019,4019,4019,4019,4019,162,163,164,4019,4019,4019,4019,4019,4019,4019,4019,4019,4019,4019,4019,4019,4019,4019,4019,4019,4019,4019,4019,4019,4019,4019,
4019,4019,4019,4019,4019,4019,4019,4019,4019,4019,4019,4019,4019,4019,4019,4019,4019,4019,4019,4019,4019,4019,4019,4019,162,163,164,4019,4019,4019,4019,4019,4019,4019,4019,4019,4019,4019,4019,4019,4019,4019,4019,4019,4019,4019,4019,4019,4019,4019,
4019,4019,4019,4019,4019,4019,4019,4019,4019,4019,4019,4019,4019,4019,4019,4019,4019,4019,4019,4019,4019,4019,4019,4019,162,163,164,4019,4019,4019,4019,4019,4019,4019,4019,4019,4019,4019,4019,4019,4019,4019,4019,4019,4019,4019,4019,4019,4019,4019,
4019,4019,4019,4019,4019,4019,4019,4019,4019,4019,4019,4019,4019,4019,4019,4019,4019,4019,4019,4019,4019,4019,4019,4019,162,163,164,4019,4019,4019,4019,4019,4019,4019,4019,4019,4019,4019,4019,4019,4019,4019,4019,4019,4019,4019,4019,4019,4019,4019,
4019,4019,4019,4019,4019,4019,4019,4019,4019,4019,4019,4019,4019,4019,4019,4019,4019,4019,4019,4019,4019,4019,4019,4019,162,163,164,4019,4019,4019,4019,4019,4019,4019,4019,4019,4019,4019,4019,4019,4019,4019,4019,4019,4019,4019,4019,4019,4019,4019,
4019,4019,4019,4019,4019,4019,4019,4019,4019,4019,4019,4019,4019,4019,4019,4019,4019,4019,4019,4019,4019,4019,4019,4019,162,163,164,4019,4019,4019,4019,4019,4019,4019,4019,4019,4019,4019,4019,4019,4019,4019,4019,4019,4019,4019,4019,4019,4019,4019,
4019,4019,4019,4019,4019,4019,4019,4019,4019,4019,4019,4019,4019,4019,4019,4019,4019,4019,4019,4019,4019,4019,4019,4019,162,163,164,4019,4019,4019,4019,4019,4019,4019,4019,4019,4019,4019,4019,4019,4019,4019,4019,4019,4019,4019,4019,4019,4019,4019,
4019,4019,4019,4019,4019,4019,4019,4019,4019,4019,4019,4019,4019,4019,4019,4019,4019,4019,4019,4019,4019,4019,4019,4019,162,163,164,4019,4019,4019,4019,4019,4019,4019,4019,4019,4019,4019,4019,4019,4019,4019,4019,4019,4019,4019,4019,4019,4019,4019,
4019,4019,4019,4019,4019,4019,4019,4019,4019,4019,4019,4019,4019,4019,4019,4019,4019,4019,4019,4019,4019,4019,4019,4019,162,163,164,4019,4019,4019,4019,4019,4019,4019,4019,4019,4019,4019,4019,4019,4019,4019,4019,4019,4019,4019,4019,4019,4019,4019,
4019,4019,4019,4019,4019,4019,4019,4019,4019,4019,4019,4019,4019,4019,4019,4019,4019,4019,4019,4019,4019,4019,4019,4019,162,163,164,4019,4019,4019,4019,4019,4019,4019,4019,4019,4019,4019,4019,4019,4019,4019,4019,4019,4019,4019,4019,4019,4019,4019,
4019,4019,4019,4019,4019,4019,4019,4019,4019,4019,4019,4019,4019,4019,4019,4019,4019,4019,4019,4019,4019,4019,4019,4019,162,163,164,4019,4019,4019,4019,4019,4019,4019,4019,4019,4019,4019,4019,4019,4019,4019,4019,4019,4019,4019,4019,4019,4019,4019,
4019,4019,4019,4019,4019,4019,4019,4019,4019,4019,4019,4019,4019,4019,4019,4019,4019,4019,4019,4019,4019,4019,4019,4019,162,163,164,4019,4019,4019,4019,4019,4019,4019,4019,4019,4019,4019,4019,4019,4019,4019,4019,4019,4019,4019,4019,4019,4019,4019,
4019,4019,4019,4019,4019,4019,4019,4019,4019,4019,4019,4019,4019,4019,4019,4019,4019,4019,4019,4019,4019,4019,4019,4019,162,163,164,4019,4019,4019,4019,4019,4019,4019,4019,4019,4019,4019,4019,4019,4019,4019,4019,4019,4019,4019,4019,4019,4019,4019,
4019,4019,4019,4019,4019,4019,4019,4019,4019,4019,4019,4019,4019,4019,4019,4019,4019,4019,4019,4019,4019,4019,4019,4019,162,163,164,179,179,4019,4019,4019,4019,4019,4019,4019,4019,4019,4019,4019,4019,4019,4019,4019,4019,4019,4019,4019,4019,4019,
4019,4019,4019,4019,4019,4019,4019,4019,4019,4019,4019,4019,4019,4019,4019,4019,4019,4019,4019,4019,4019,4019,4019,4019,162,163,164,4019,4019,163,4019,4019,4019,4019,4019,4019,4019,4019,4019,4019,4019,4019,4019,4019,4019,4019,4019,4019,4019,4019,
4019,4019,4019,4019,4019,4019,4019,4019,4019,4019,4019,4019,4019,4019,4019,4019,4019,4019,4019,4019,4019,4019,4019,4019,162,163,164,4019,4019,163,4019,4019,4019,4019,4019,4019,4019,4019,4019,4019,4019,4019,4019,4019,4019,4019,4019,4019,4019,4019,
4019,4019,4019,4019,4019,4019,4019,4019,4019,4019,4019,4019,4019,4019,4019,4019,4019,4019,4019,4019,4019,4019,4019,4019,162,163,164,4019,4019,163,4019,4019,4019,4019,4019,4019,4019,4019,4019,4019,4019,4019,4019,4019,4019,4019,4019,4019,4019,4019,
4019,4019,4019,4019,4019,4019,4019,4019,4019,4019,4019,4019,4019,4019,4019,4019,4019,4019,4019,4019,4019,4019,4019,4019,162,163,164,4019,4019,163,4019,4019,4019,4019,4019,4019,4019,4019,4019,4019,4019,4019,4019,4019,4019,4019,4019,4019,4019,4019,
4019,4019,4019,4019,4019,4019,4019,4019,4019,4019,4019,4019,4019,4019,4019,4019,4019,4019,4019,4019,4019,4019,4019,4019,162,163,164,4019,4019,163,4019,4019,4019,4019,4019,4019,4019,4019,4019,4019,4019,4019,4019,4019,4019,4019,4019,4019,4019,4019,
4019,4019,4019,4019,4019,4019,4019,4019,4019,4019,4019,4019,4019,4019,4019,4019,4019,4019,4019,4019,4019,4019,4019,4019,162,163,164,4019,4019,163,4019,4019,4019,4019,4019,4019,4019,4019,4019,4019,4019,4019,4019,4019,4019,4019,4019,4019,4019,4019,
4019,4019,4019,4019,4019,4019,4019,4019,4019,4019,4019,4019,4019,4019,4019,4019,4019,4019,4019,4019,4019,4019,4019,4019,162,163,164,4019,4019,163,4019,4019,4019,4019,4019,4019,4019,4019,4019,4019,4019,4019,4019,4019,4019,4019,4019,4019,4019,4019,
4019,4019,4019,4019,4019,4019,4019,4019,4019,4019,4019,4019,4019,4019,4019,4019,4019,4019,4019,4019,4019,4019,4019,4019,162,163,164,4019,4019,163,163,163,163,4019,4019,4019,4019,4019,4019,4019,4019,4019,4019,4019,4019,4019,4019,4019,4019,4019,
4019,4019,4019,4019,4019,4019,4019,4019,4019,4019,4019,4019,4019,4019,4019,4019,4019,4019,4019,4019,4019,4019,4019,4019,162,163,164,4019,4019,4019,4019,4019,4019,4019,4019,4019,4019,4019,4019,4019,4019,4019,4019,4019,4019,4019,4019,4019,4019,4019,
4019,4019,4019,4019,4019,4019,4019,4019,4019,4019,4019,4019,4019,4019,4019,4019,4019,4019,4019,4019,4019,4019,4019,4019,162,163,164,4019,4019,4019,4019,4019,4019,4019,4019,4019,4019,4019,4019,4019,4019,4019,4019,4019,4019,4019,4019,4019,4019,4019,
4019,4019,4019,4019,4019,4019,4019,4019,4019,4019,4019,4019,4019,4019,4019,4019,4019,4019,4019,4019,4019,4019,4019,4019,162,163,164,4019,4019,4019,4019,4019,4019,4019,4019,4019,4019,4019,4019,4019,4019,4019,4019,4019,4019,4019,4019,4019,4019,4019,
4019,4019,4019,4019,4019,4019,4019,4019,4019,4019,4019,4019,4019,4019,4019,4019,4019,4019,4019,4019,4019,4019,4019,4019,162,163,164,4019,4019,4019,4019,4019,4019,4019,4019,4019,4019,4019,4019,4019,4019,4019,4019,4019,4019,4019,4019,4019,4019,4019
</data>
 </layer>
 <layer id="2" name="deco_sotto" width="50" height="150">
  <data encoding="csv">
421,422,421,422,421,422,0,0,0,0,0,0,0,0,0,0,0,0,0,0,0,0,0,0,0,0,0,0,0,0,0,0,0,0,0,0,0,0,0,0,0,0,0,0,785,789,789,789,789,789,
429,430,429,430,429,430,0,0,0,0,0,0,0,0,0,0,0,0,0,0,0,0,0,0,0,0,0,0,0,0,0,0,0,0,0,0,0,0,0,0,0,0,0,0,793,13281,788,789,789,789,
437,438,437,438,437,438,0,0,0,0,0,0,0,0,0,0,0,0,0,0,0,0,0,0,0,0,0,0,0,0,0,0,0,0,0,0,0,0,0,0,0,0,0,0,793,13281,793,13281,788,789,
421,422,421,422,421,422,0,0,0,0,0,0,0,0,0,0,0,0,0,0,0,0,0,0,0,0,0,0,0,0,0,0,0,0,0,0,0,0,0,0,0,0,0,0,793,13281,793,13281,793,13281,
429,430,429,430,429,430,0,0,0,0,0,0,0,0,0,0,0,0,0,0,0,0,0,0,0,0,0,0,0,0,0,0,0,0,0,0,0,0,0,0,0,0,0,0,793,13281,793,13281,793,13281,
437,438,437,438,437,438,0,0,0,0,0,0,0,0,0,0,0,0,0,0,0,0,0,0,0,0,0,0,0,0,0,0,0,0,0,0,0,0,0,0,0,0,0,0,793,13281,793,13281,793,13281,
421,422,421,422,421,422,0,0,0,0,0,0,0,0,0,0,0,0,0,0,0,0,0,0,0,0,0,0,0,0,0,0,0,0,0,0,0,0,0,0,0,0,0,0,793,13281,793,13281,793,13281,
429,430,429,430,429,430,0,0,0,0,0,0,0,0,0,0,0,0,0,0,0,0,0,0,0,0,0,0,0,0,0,0,0,0,0,0,0,0,0,0,0,0,0,0,793,13281,793,13281,793,13281,
437,438,437,438,437,438,0,0,0,0,0,0,0,0,0,0,0,0,0,0,0,0,0,0,0,0,0,0,0,0,0,0,0,0,0,0,0,0,0,0,0,0,0,0,793,13281,793,13281,793,13281,
421,422,421,422,421,422,0,0,0,0,0,0,0,0,0,0,0,0,0,0,0,0,0,0,0,0,0,0,0,0,0,0,0,0,0,0,0,0,0,0,0,0,0,0,793,13281,793,13281,793,13281,
429,430,429,430,429,430,0,0,0,0,0,0,0,0,0,0,0,0,0,0,0,0,0,0,0,0,0,0,0,0,0,0,0,0,0,0,0,0,0,0,0,0,0,0,793,13281,793,13281,793,13281,
437,438,437,438,437,438,0,0,0,0,0,0,0,0,0,0,0,0,0,0,0,0,0,0,0,0,0,0,0,0,0,0,0,0,0,0,0,0,0,0,0,0,0,0,793,13281,793,13281,793,13281,
421,422,421,422,421,422,0,0,0,0,0,0,0,0,0,0,0,0,0,0,0,0,0,0,0,0,0,0,0,0,0,0,0,0,0,0,0,0,0,0,0,0,0,0,793,13281,793,13281,793,13281,
429,430,429,430,429,430,0,0,0,0,0,0,0,0,0,0,0,0,0,0,0,0,0,0,0,0,0,0,0,0,0,0,0,0,0,0,0,0,0,0,0,0,0,0,793,13281,793,13281,793,13281,
437,438,437,438,437,438,0,0,0,0,0,0,0,0,0,0,0,0,0,0,0,0,0,0,0,0,0,0,0,0,0,0,0,0,0,0,0,0,0,0,0,0,0,0,793,13281,793,13281,793,13281,
421,422,421,422,421,422,0,0,0,0,0,0,0,0,0,0,0,0,0,0,0,0,0,0,0,0,0,0,0,0,0,0,0,0,0,0,0,0,0,0,0,0,0,0,793,13281,793,13281,793,13281,
429,430,429,430,429,430,0,0,0,0,0,0,0,0,0,0,0,0,0,0,0,0,0,0,0,0,0,0,0,0,0,0,0,0,0,0,0,0,0,0,0,0,0,0,793,13281,793,13281,793,13281,
437,438,437,438,437,438,0,0,0,0,0,0,0,0,0,0,0,0,0,0,0,0,0,0,0,0,0,0,0,0,0,0,0,0,0,0,0,0,0,0,0,0,0,0,793,13281,793,13281,793,13281,
421,422,421,422,421,422,0,0,0,0,0,0,0,0,0,0,0,0,0,0,0,0,0,0,0,0,0,0,0,0,0,0,0,0,0,0,0,0,0,0,0,0,0,0,793,13281,793,13281,793,13281,
429,430,429,430,429,430,0,0,0,0,0,0,0,0,0,0,0,0,0,0,0,0,0,0,0,0,0,0,0,0,0,0,0,0,0,0,0,0,0,0,0,0,0,0,793,13281,793,13281,793,13281,
437,438,437,438,437,438,0,0,0,0,0,0,0,0,0,0,0,0,0,0,0,0,0,0,0,0,0,0,0,0,0,0,0,0,0,0,0,0,0,0,0,0,0,0,793,13281,793,13281,793,13281,
421,422,421,422,421,422,0,0,0,0,0,0,0,0,0,0,0,0,0,0,0,0,0,0,0,0,0,0,0,0,0,0,0,0,0,0,0,0,0,0,0,0,0,0,793,13281,793,13281,793,13281,
429,430,429,430,429,430,0,0,0,0,0,0,0,0,0,0,0,0,0,0,0,0,0,0,0,0,0,0,0,0,0,0,0,0,0,0,0,0,0,0,0,0,0,0,793,13281,793,13281,793,13281,
437,438,437,438,437,438,0,0,0,0,0,0,0,0,0,0,0,0,0,0,0,0,0,0,0,0,0,0,0,0,0,0,0,0,0,0,0,0,0,0,0,0,0,0,793,13281,793,13281,793,13281,
421,422,421,422,421,422,0,0,0,0,0,0,0,0,0,0,0,0,0,0,0,0,0,0,0,0,0,0,0,0,0,0,0,0,0,0,0,0,0,0,0,0,0,0,793,13281,793,13281,793,13281,
429,430,429,430,429,430,0,0,0,0,0,0,0,0,0,0,0,0,0,0,0,0,0,0,0,0,0,0,0,0,0,0,0,0,0,0,0,0,0,0,0,0,0,0,793,13281,793,13281,793,13281,
437,438,437,438,437,438,0,0,0,0,0,0,0,0,0,0,0,0,0,0,0,0,0,0,0,0,0,0,0,0,0,0,0,0,0,0,0,0,0,0,0,0,0,0,793,13281,793,13281,793,13281,
421,422,0,0,421,422,0,0,0,0,0,0,0,0,0,0,0,0,0,0,0,0,0,0,0,0,0,0,0,0,0,0,0,0,0,0,0,0,0,0,0,0,0,0,793,13281,793,13281,793,13281,
429,430,0,0,429,430,0,0,0,0,0,0,0,0,0,0,0,0,0,0,0,0,0,0,0,0,0,0,0,0,0,0,0,0,0,0,0,0,0,0,0,0,0,0,793,13281,793,13281,793,13281,
437,438,0,438,437,438,0,771,0,0,0,0,0,0,0,0,0,0,0,0,0,0,0,0,0,0,0,0,0,0,0,0,0,0,0,0,0,0,0,0,0,0,0,0,793,13281,793,13281,793,13281,
421,422,0,0,421,422,0,0,0,0,0,0,0,0,0,0,0,0,0,0,0,0,0,0,0,0,0,0,0,0,0,0,0,0,0,0,0,0,0,0,0,0,0,0,793,13281,793,13281,793,13281,
429,430,0,0,429,430,0,0,0,0,0,0,0,0,0,0,0,0,0,0,0,0,0,0,0,0,0,0,0,0,0,0,0,0,0,0,0,0,0,0,0,0,0,0,793,13281,793,13281,793,13281,
437,438,0,0,437,438,0,0,0,0,0,0,0,0,0,0,0,0,0,0,0,0,0,0,0,0,0,0,0,0,0,0,0,0,0,0,0,0,0,0,0,0,0,0,793,13281,793,13281,793,13281,
421,422,0,0,421,422,0,0,0,0,0,0,0,0,0,0,0,0,0,0,0,0,0,0,0,0,0,0,0,0,0,0,0,0,0,0,0,0,0,0,0,0,0,0,793,13281,793,13281,793,13281,
429,430,0,0,429,430,0,0,0,0,0,0,0,10236,10236,10236,10236,10236,10236,10236,10236,10236,10236,10236,10236,10236,10236,10236,10236,10236,10236,10236,10236,10236,10236,10236,10236,0,0,0,0,0,0,0,793,13281,793,13281,793,13281,
437,438,0,0,437,438,0,0,0,0,0,0,0,10244,10244,10244,10244,10244,10244,10244,10244,10244,10244,10244,10244,10244,10244,10244,10244,10244,10244,10244,10244,10244,10244,10244,10244,0,0,0,0,0,0,0,793,13281,793,13281,793,13281,
421,422,0,0,421,422,0,0,0,0,0,0,0,10236,10236,10236,10236,10236,10236,10236,10236,10236,10236,10236,10236,10236,10236,10236,10236,10236,10236,10236,10236,10236,10236,10236,10236,0,0,0,0,0,0,0,793,13281,793,13281,793,13281,
429,430,0,0,429,430,0,0,0,0,0,0,0,10244,10244,10244,10244,10244,10244,10244,10244,10244,10244,10244,10244,10244,10244,10244,10244,10244,10244,10244,10244,10244,10244,10244,10244,0,0,0,0,0,0,0,793,13281,793,13281,793,13281,
437,438,0,0,437,438,0,0,0,0,0,0,0,10236,10236,10236,10236,10236,10236,10236,10236,10236,10236,10236,10236,10236,10236,10236,10236,10236,10236,10236,10236,10236,10236,10236,10236,0,0,0,0,0,0,0,793,13281,793,13281,793,13281,
421,422,0,0,421,422,0,0,0,0,0,0,0,10244,10244,10244,10244,10244,10244,10244,10244,10244,10244,10244,10244,10244,10244,10244,10244,10244,10244,10244,10244,10244,10244,10244,10244,0,0,0,0,0,0,0,793,13281,793,13281,793,13281,
429,430,0,0,429,430,0,0,0,0,0,0,0,10236,10236,10236,10236,10236,10236,10236,10236,10236,10236,10236,10236,10236,10236,10236,10236,10236,10236,10236,10236,10236,10236,10236,10236,0,0,0,0,0,0,0,793,13281,793,13281,793,13281,
437,438,0,0,437,438,0,0,0,0,0,0,0,10244,10244,10244,10244,10244,10244,10244,10244,10244,10244,10244,10244,10244,10244,10244,10244,10244,10244,10244,10216,10244,10244,10244,10244,0,0,0,0,0,0,0,793,13281,793,13281,793,13281,
421,422,0,0,421,422,0,0,0,0,0,0,0,10236,10236,10236,10236,10236,10236,10236,10236,10236,10236,10236,10236,10236,10236,10236,10236,10236,10236,10236,10216,10236,10236,10236,10236,0,0,0,0,0,0,0,793,13281,793,13281,793,13281,
429,430,0,0,429,430,0,0,0,0,0,0,0,10244,10244,10244,10244,10244,10244,10244,10244,10244,10244,10244,10244,10244,10244,10244,10244,10244,10244,10244,10216,10244,10244,10244,10244,0,0,0,0,0,0,0,793,13281,793,13281,793,13281,
437,438,0,0,437,438,0,0,0,0,0,0,0,10236,10236,10236,10236,10236,10236,10236,10236,10236,10236,10236,10236,10236,10236,10236,10236,10236,10236,10236,10216,10236,10236,10236,10236,0,0,0,0,0,0,0,793,13281,793,13281,793,13281,
421,422,0,0,421,422,0,0,0,0,0,0,0,10244,10244,10244,10244,10244,10244,10244,10244,10244,10244,10244,10244,10244,10244,10244,10244,10244,10244,10244,10216,10244,10244,10244,10244,0,0,0,0,0,0,0,793,13281,793,13281,793,13281,
429,430,0,0,429,430,0,0,0,0,0,0,0,10236,10236,10236,10236,10236,10236,10236,10236,10236,10236,10236,10236,10236,10236,10236,10236,10236,10236,10236,10216,10236,10236,10236,10236,0,0,0,0,0,0,0,793,13281,793,13281,793,13281,
437,438,0,0,437,438,0,0,0,0,0,0,0,10244,10244,10244,10244,10244,10244,10244,10244,10244,10244,10244,10244,10244,10244,10244,10244,10244,10244,10244,10216,10244,10244,10244,10244,0,0,0,0,0,0,0,793,13281,793,13281,793,13281,
421,422,0,0,421,422,0,0,0,0,0,0,0,10236,10236,10236,10236,10236,10236,10236,10236,10236,10236,10236,10236,10236,10236,10236,10236,10236,10236,10236,10216,10236,10236,10236,10236,0,0,0,0,0,0,0,793,13281,793,13281,793,13281,
429,430,0,0,429,430,0,0,0,0,0,0,0,10244,10244,10244,10244,10244,10244,10244,10244,10244,10244,10244,10244,10244,10244,10244,10244,10244,10244,10244,10216,10244,10244,10244,10244,0,0,0,0,0,0,0,793,13281,793,13281,793,13281,
437,438,0,0,437,438,0,0,0,0,0,0,0,10236,10236,10236,10236,10236,10236,10236,10236,10236,10236,10236,10236,10236,10236,10236,10236,10236,10236,10236,10216,10236,10236,10236,10236,0,0,0,0,0,0,0,793,13281,793,13281,793,13281,
421,422,0,0,421,422,0,0,0,0,0,0,0,10244,10244,10244,10244,10244,10244,10244,10244,10244,10244,10244,10244,10244,10244,10244,10244,10244,10244,10244,10216,10244,10244,10244,10244,0,0,0,0,0,0,0,793,13281,793,13281,793,13281,
429,430,0,0,429,430,0,0,0,0,0,0,0,10236,10236,10236,10236,10236,10236,10236,10236,10236,10236,10236,10236,10236,10236,10236,10236,10236,10236,10236,10236,10236,10236,10236,10236,0,0,0,0,0,0,0,793,13281,793,13281,793,13281,
437,438,0,0,437,438,0,0,0,0,0,0,0,10244,10244,10244,10244,10244,10244,10244,10244,10244,10244,10244,10244,10244,10244,10244,10244,10244,10244,10244,10244,10244,10244,10244,10244,0,0,0,0,0,0,0,793,13281,793,13281,793,13281,
421,422,0,0,421,422,0,0,0,0,0,0,0,10236,10236,10236,10236,10236,10236,10236,10236,10236,10236,10236,10236,10236,10236,10236,10236,10236,10236,10236,10236,10236,10236,10236,10236,0,0,0,0,0,0,0,793,13281,793,13281,793,13281,
429,430,0,0,429,430,0,0,0,0,0,0,0,10244,10244,10244,10244,10244,10244,10244,10244,10244,10244,10244,10244,10244,10244,10244,10244,10244,10238,10244,10244,10244,10244,10244,10244,0,0,0,0,0,0,0,793,13281,793,13281,793,13281,
437,438,0,0,437,438,0,0,0,0,0,0,0,10236,10236,10236,10236,10236,10236,10236,10236,10236,10236,10236,10236,10236,10236,10236,10236,10236,10258,10236,10236,10236,10236,10236,10236,0,0,0,0,0,0,0,793,13281,793,13281,793,13281,
421,422,0,0,421,422,0,0,0,0,0,0,0,10244,10244,10244,10244,10244,10244,10244,10244,10244,10244,10244,10244,10244,10244,10244,10244,10244,10258,10244,10244,10244,10244,10244,10244,0,0,0,0,0,0,0,793,13281,793,13281,793,13281,
429,430,0,0,429,430,0,0,0,0,0,0,0,10236,10236,10236,10236,10236,10236,10236,10236,10236,10236,10236,10236,10236,10236,10236,10236,10236,10258,10236,10236,10236,10236,10236,10236,0,0,0,0,0,0,0,793,13281,793,13281,793,13281,
437,438,0,0,437,438,0,0,0,0,0,0,0,10244,10244,10244,10244,10244,10244,10244,10244,10244,10244,10244,10244,10244,10244,10244,10244,10244,10258,10244,10244,10244,10244,10244,10244,0,0,0,0,0,0,0,793,13281,793,13281,793,13281,
421,422,0,0,421,422,0,0,0,0,0,0,0,0,10236,10236,10236,10236,10236,10236,10236,10236,10236,10236,10236,10236,10236,10236,10236,10236,10258,10236,10236,10236,10236,10236,10236,0,0,0,0,0,0,0,793,13281,793,13281,793,13281,
429,430,0,0,429,430,0,0,0,0,0,0,0,0,10244,10212,10244,10244,10244,10244,10244,10244,10244,10244,10244,10244,10244,10244,10244,10244,10258,10244,10244,10244,10244,10244,10244,0,0,0,0,0,0,0,793,13281,793,13281,793,13281,
437,438,0,0,437,438,0,0,0,0,0,0,0,0,10236,10236,10236,10236,10236,10236,10236,10236,10236,10236,10236,10236,10236,10236,10236,10236,10258,10236,10236,10236,10236,10236,10236,0,0,0,0,0,0,0,793,13281,793,13281,793,13281,
421,422,0,793,796,422,0,0,0,798,0,0,0,0,10244,10244,10244,10238,10244,10244,10244,10244,10244,10244,10244,10244,10244,10244,10244,10244,10258,10244,10244,10244,10244,10244,10244,0,0,0,0,0,0,0,793,13281,793,13281,793,13281,
429,430,0,793,429,805,805,805,805,0,795,0,0,0,10258,10258,10258,10258,10258,10258,10258,10258,10258,10258,10258,10258,10258,10258,10258,10258,10258,10258,10258,10236,10236,10236,10236,0,0,0,0,0,0,0,793,13281,793,13281,793,13281,
437,438,0,0,802,802,802,802,802,802,0,0,0,0,4801,4805,4805,4805,4805,4805,4805,4803,10258,10258,10258,10258,10258,10258,10258,10258,10258,10258,10258,10244,10244,10244,10244,0,0,0,0,0,0,0,793,13281,793,13281,793,13281,
421,422,421,422,421,422,0,0,0,0,0,0,0,0,4809,4804,4805,4805,4805,4805,4806,4811,10236,10236,10236,10236,10236,10236,10236,10236,10236,10236,10236,10236,10236,10236,10236,0,0,0,0,0,0,0,793,13281,793,13281,793,13281,
429,430,429,430,429,430,0,0,0,0,0,0,0,0,4809,4812,4805,4805,4805,4805,4811,4811,10244,10244,10244,10244,10244,10244,10244,10244,10244,10244,10244,10244,10244,10244,10244,0,0,0,0,0,0,0,793,13281,793,13281,793,13281,
437,438,437,438,437,438,0,0,0,0,0,0,0,0,4809,4812,4804,4866,4866,4806,4811,4811,10236,10236,10236,10236,10236,10236,10236,10236,10236,10236,10236,10236,10236,10236,10236,0,0,0,0,0,0,0,793,13281,793,13281,793,13281,
421,422,421,422,421,422,0,0,0,0,0,0,0,0,4809,4812,4812,10244,10244,4811,4811,4811,10244,10244,10244,10244,10244,10244,10244,10244,10244,10244,10244,10244,10244,10244,10244,0,0,0,0,0,0,0,793,13281,793,13281,793,13281,
429,430,429,430,429,430,0,0,0,0,0,0,0,0,4809,4812,4820,4821,4821,4822,4811,4811,10236,10236,10236,10236,10236,10236,10236,10236,10236,10236,10236,10236,10236,10236,10236,0,0,0,0,0,0,0,793,13281,793,13281,793,13281,
437,438,437,438,437,438,0,0,0,0,0,0,0,0,4809,4820,4821,4821,4821,4821,4822,4811,10244,10244,10244,10244,10244,10244,10244,10244,10244,10244,10244,10244,10244,10244,10244,0,0,0,0,0,0,0,793,13281,793,13281,793,13281,
421,422,421,422,421,422,0,0,0,0,0,0,0,0,4817,4818,4818,4818,4818,4818,4818,4819,10236,10236,10236,10236,10236,10236,10236,10236,10236,10236,10236,10236,10236,10236,10236,0,0,0,0,0,0,0,793,13281,793,13281,793,13281,
429,430,429,430,429,430,0,0,0,0,0,0,0,0,10236,10236,10236,10236,10236,10236,10236,10236,10244,10244,10244,10244,10244,10244,10244,10244,10244,10244,10244,10244,10244,10244,10244,0,0,0,0,0,0,0,793,13281,793,13281,793,13281,
437,438,437,438,437,438,0,0,0,0,0,0,0,0,10244,10244,10244,10244,10244,10244,10244,10244,10258,10258,10258,10258,10258,10258,10258,10258,10258,10258,10258,10258,10258,10258,10258,0,0,0,0,0,0,0,793,13281,793,13281,793,13281,
421,422,421,422,421,422,0,0,0,0,0,0,0,0,0,0,0,0,0,0,0,0,0,0,0,0,0,0,0,0,0,0,0,0,0,0,0,0,0,0,0,0,0,0,793,13281,793,13281,793,13281,
429,430,429,430,429,430,0,0,0,0,0,0,0,0,0,0,0,0,0,0,0,0,0,0,0,0,0,0,0,0,0,0,0,0,0,0,0,0,0,0,0,0,0,0,793,13281,793,13281,793,13281,
437,438,437,438,437,438,0,0,0,0,0,0,0,0,0,0,0,0,0,0,0,0,0,0,0,0,0,0,0,0,0,0,0,0,0,0,0,0,0,0,0,0,0,0,793,13281,793,13281,793,13281,
421,422,421,422,421,422,0,0,0,0,0,4965,0,0,0,0,0,0,0,0,0,0,0,0,0,0,0,0,0,0,0,0,0,0,0,0,0,0,0,0,0,0,0,0,793,13281,793,13281,793,13281,
429,430,429,430,429,430,0,0,0,0,0,0,0,0,0,0,0,0,0,0,0,0,0,0,0,0,0,0,0,0,0,0,0,0,0,0,0,0,0,0,0,0,0,0,793,13281,793,13281,793,13281,
437,438,437,438,437,438,0,0,0,0,0,7,7,0,0,0,0,0,0,7,7,7,0,0,0,0,0,0,0,7,7,7,0,0,0,0,0,0,7,7,7,7,0,0,793,13281,793,13281,793,13281,
421,422,421,422,421,422,0,0,0,0,0,7,7,0,0,7,0,0,7,0,7,7,0,0,0,0,0,0,0,0,7,7,7,0,0,0,0,7,0,0,7,7,0,0,793,13281,793,13281,793,13281,
429,430,429,430,429,430,0,0,0,0,0,0,7,7,7,7,7,7,7,0,7,7,7,0,0,0,0,0,0,0,7,0,7,7,7,7,7,0,0,7,7,0,0,0,793,13281,793,13281,793,13281,
437,438,437,438,437,438,0,0,0,0,0,0,7,7,7,7,7,7,7,7,7,7,7,0,0,0,0,0,0,0,7,7,7,0,0,7,7,7,7,0,0,0,0,0,793,13281,793,13281,793,13281,
421,422,421,422,421,422,0,0,0,0,0,0,7,7,7,7,7,7,7,7,7,7,7,0,0,0,0,0,0,7,0,7,0,0,7,0,7,7,0,0,0,0,0,0,793,13281,793,13281,793,13281,
429,430,429,430,429,430,0,0,0,0,0,0,7,7,7,7,7,7,7,7,7,7,7,0,0,0,0,0,0,7,0,7,7,7,7,7,7,0,0,0,0,0,0,0,793,13281,793,13281,793,13281,
437,438,437,438,437,438,0,0,0,0,0,0,7,7,7,7,7,0,7,0,7,7,7,0,0,0,0,0,0,7,7,7,7,7,0,0,7,7,7,0,0,0,0,0,793,13281,793,13281,793,13281,
421,422,421,422,421,422,0,0,0,0,0,7,7,7,7,7,7,0,7,7,7,7,7,0,0,0,0,0,0,0,0,0,0,0,0,0,0,0,0,0,0,0,0,0,793,13281,793,13281,793,13281,
429,430,429,430,429,430,0,0,0,0,0,7,7,7,7,7,0,0,0,7,7,7,7,0,0,0,0,0,0,0,0,0,785,786,786,786,786,786,786,786,786,786,786,787,793,13281,793,13281,793,13281,
437,438,437,438,437,438,0,0,0,0,0,7,7,0,7,7,0,0,0,7,7,0,0,0,0,0,0,0,0,0,0,0,793,0,850,850,850,850,850,850,850,850,790,795,793,13281,793,13281,793,13281,
421,422,421,422,421,422,0,0,0,0,0,0,7,0,0,0,0,0,0,0,0,0,0,0,0,0,0,0,0,0,0,0,793,0,0,958,850,850,850,850,958,790,798,795,793,13281,793,13281,793,13281,
429,430,429,430,429,430,0,0,0,0,0,0,0,0,785,786,786,786,786,786,786,787,0,0,0,0,0,0,0,0,0,0,793,0,0,0,958,958,958,958,0,798,798,795,793,13281,793,13281,793,13281,
437,438,437,438,437,438,0,0,0,0,0,0,0,0,793,788,789,0,0,790,790,795,0,0,4832,4832,0,0,4832,0,0,0,793,0,0,0,0,0,0,0,0,798,798,795,793,13281,793,13281,793,13281,
0,0,0,0,0,0,0,0,0,0,0,0,0,0,793,796,788,7,7,798,798,795,4832,4832,0,0,4832,0,0,4832,4832,4832,793,0,0,0,0,0,0,0,0,798,798,795,793,13281,793,13281,793,13281,
0,0,0,0,0,0,10182,0,0,0,0,0,0,0,793,793,793,7,7,10181,10181,795,0,0,0,0,0,0,10180,10180,10180,10180,10182,10182,10182,0,0,0,0,0,0,798,798,795,793,13281,793,13281,793,13281,
0,0,0,0,0,0,10190,0,0,0,0,0,0,0,793,793,793,7,7,10189,10189,795,0,0,0,0,0,0,10188,10188,10188,10188,10190,10190,10190,0,0,0,0,0,0,798,798,795,793,13281,793,13281,793,13281,
0,0,0,0,0,0,0,0,0,0,0,0,0,0,793,796,804,802,802,806,798,795,0,0,0,0,0,0,0,0,0,0,793,0,0,0,0,0,7,0,0,798,798,795,793,13281,793,13281,793,13281,
0,0,0,0,0,0,0,4795,0,0,0,0,0,0,793,804,802,802,802,802,806,795,0,0,0,0,0,0,0,0,0,0,793,0,0,0,0,0,7,0,0,798,798,795,793,13281,793,13281,793,13281,
0,0,0,0,0,0,0,0,0,0,0,0,0,0,801,802,802,802,802,802,802,803,0,0,0,0,0,0,0,0,0,0,793,0,0,0,0,7,7,0,0,798,798,795,793,13281,793,13281,793,13281,
0,0,0,0,0,0,0,0,0,0,0,0,7,0,0,0,0,0,0,0,0,0,0,0,0,0,0,0,7,0,0,0,793,0,0,0,0,7,7,0,0,798,798,795,793,13281,793,13281,793,13281,
0,0,0,0,0,0,0,0,0,0,0,0,7,7,4965,0,0,0,7,7,7,7,0,0,0,0,0,0,7,0,0,0,793,0,0,0,0,7,7,0,0,798,798,795,793,13281,793,13281,793,13281,
0,0,0,0,0,0,0,0,0,0,0,0,0,0,7,7,7,7,0,0,0,7,0,0,0,0,0,0,7,0,0,0,793,0,0,0,0,7,7,0,0,798,798,795,793,13281,793,13281,793,13281,
0,0,0,0,0,0,0,0,0,0,0,0,0,0,7,7,7,7,7,4965,7,7,0,0,0,0,0,0,7,0,0,0,793,0,0,7,7,7,7,0,0,798,798,795,793,13281,793,13281,793,13281,
0,0,0,0,0,0,0,0,0,0,0,0,0,7,7,0,7,7,7,7,7,0,0,0,0,0,0,7,7,7,0,0,793,0,0,7,7,7,7,0,0,798,798,795,793,13281,793,13281,793,13281,
0,0,0,0,0,0,0,0,0,0,0,0,7,7,0,0,0,7,7,7,7,0,0,0,0,0,0,7,0,7,0,0,793,0,0,7,7,7,7,0,0,798,798,795,793,13281,793,13281,793,13281,
0,0,0,0,0,0,0,0,0,0,0,7,7,7,7,7,7,0,0,0,7,0,0,0,0,0,0,7,0,7,0,4,793,0,0,7,7,7,7,0,0,798,798,795,793,13281,793,13281,793,13281,
0,0,0,0,0,0,0,0,0,0,0,7,7,0,0,0,0,0,0,0,0,0,0,0,0,0,0,7,0,7,0,0,793,0,0,7,7,7,7,0,0,798,798,795,793,13281,793,13281,793,13281,
0,0,0,0,0,0,0,0,0,0,0,0,0,0,0,0,0,0,0,0,0,0,0,0,0,0,0,7,0,7,0,0,793,0,0,0,7,7,7,0,0,798,798,795,793,13281,793,13281,793,13281,
0,0,0,0,0,0,0,0,0,0,0,0,0,0,0,0,0,0,0,0,0,0,0,0,0,0,0,7,0,7,0,0,793,0,0,0,7,7,7,0,0,798,798,795,793,13281,793,13281,793,13281,
0,0,0,0,0,0,0,0,0,0,0,0,0,0,0,0,0,0,0,0,0,0,0,0,0,0,0,7,0,7,0,0,793,0,0,0,7,7,7,0,0,798,798,795,793,13281,793,13281,793,13281,
0,0,0,0,0,0,0,0,0,0,0,0,0,0,0,0,0,0,0,0,0,0,0,0,0,0,0,7,0,7,0,0,793,0,0,0,7,7,7,0,0,798,798,795,793,13281,793,13281,793,13281,
0,0,0,0,0,0,0,0,0,0,0,0,0,0,0,0,0,0,0,0,0,0,0,0,0,0,0,7,0,7,0,0,793,0,0,0,7,7,0,0,0,798,798,795,793,13281,793,13281,793,13281,
0,0,0,0,0,0,0,0,0,0,0,0,0,0,0,0,0,0,0,0,0,0,0,0,0,0,0,7,0,7,0,0,793,0,0,0,7,7,0,7,0,798,798,795,793,13281,793,13281,793,13281,
4805,4805,4805,4805,4805,4805,4805,4805,4805,4805,4805,4805,4805,4805,4805,4805,4805,4805,4805,4805,4805,4803,0,0,0,0,0,7,7,7,0,0,793,796,796,0,0,7,7,7,0,798,798,795,793,13281,793,13281,793,13281,
4805,4805,4805,4805,4805,4805,4805,4805,4805,4805,4805,4805,4805,4805,4805,4805,4805,4805,4805,4805,4806,4814,0,0,0,0,0,7,7,7,0,0,793,796,796,0,0,7,7,0,0,798,798,795,793,13281,793,13281,793,13281,
4805,4805,4805,4805,4805,4805,4805,4805,4805,4805,4805,4805,4805,4805,4805,4805,4805,4805,4805,4806,4814,4814,0,0,0,0,0,7,7,7,0,0,793,796,796,0,0,7,7,0,0,798,798,795,793,13281,793,13281,793,13281,
0,0,0,0,0,0,0,0,0,0,0,0,0,0,0,0,0,0,0,4814,4814,4814,0,0,0,0,0,7,7,7,0,0,793,796,796,0,0,7,7,0,0,798,798,795,793,13281,793,13281,793,13281,
0,0,0,0,0,0,0,0,0,0,0,0,0,0,0,0,0,0,0,4814,4814,4814,0,0,0,0,0,7,7,7,0,0,793,796,796,0,0,7,7,0,0,798,798,795,793,13281,793,13281,793,13281,
0,0,0,0,0,0,0,0,0,0,0,0,0,7,0,7,0,0,0,4814,4814,4814,0,0,0,0,0,7,7,7,0,0,793,796,796,0,0,7,7,0,0,798,798,795,793,13281,793,13281,793,13281,
0,0,0,0,0,0,0,0,0,0,0,0,7,0,7,7,7,0,0,4814,4814,4814,0,0,0,0,0,7,7,7,0,0,793,796,796,0,0,0,7,0,0,798,798,795,793,13281,793,13281,793,13281,
0,0,0,0,0,0,0,0,0,0,0,0,7,0,7,7,7,0,0,10182,10182,10182,0,0,0,0,0,7,7,7,0,0,10182,10182,10182,0,0,0,7,0,7,798,798,795,793,13281,793,13281,793,13281,
0,0,0,0,0,0,0,0,7,0,0,7,0,0,7,7,7,0,0,10190,10190,10190,0,0,0,0,0,7,7,7,0,0,10190,10190,10190,0,0,7,7,7,7,798,798,795,793,13281,793,13281,793,13281,
0,0,0,0,0,0,0,0,7,0,0,7,7,7,7,7,7,7,0,4814,4814,4814,0,0,0,0,0,7,7,7,0,0,793,796,796,0,0,7,7,7,7,798,798,795,793,13281,793,13281,793,13281,
0,0,0,0,0,0,0,0,7,7,7,0,7,7,0,7,7,7,0,4814,4814,4814,0,0,0,0,0,7,7,7,0,0,793,796,796,0,0,7,7,0,7,798,798,795,793,13281,793,13281,793,13281,
0,0,0,0,0,0,0,7,7,7,0,7,0,7,7,7,7,7,0,4814,4814,4814,0,0,0,0,0,7,7,7,0,0,793,796,796,0,7,7,7,0,7,798,798,795,793,13281,793,13281,793,13281,
0,0,0,0,0,7,7,0,7,7,7,0,0,7,7,7,7,7,0,4814,4814,4814,0,0,0,0,0,7,7,7,0,0,793,796,796,0,7,7,0,7,7,798,798,795,793,13281,793,13281,793,13281,
0,0,0,0,0,7,0,0,7,7,7,7,7,7,7,7,7,7,0,4814,4814,4814,0,0,0,0,0,7,7,7,7,0,793,796,796,0,0,0,0,0,0,798,798,795,793,13281,793,13281,793,13281,
0,0,0,0,7,7,7,7,7,7,7,0,7,7,7,7,0,7,0,4814,4814,4814,0,0,0,0,0,7,7,0,7,0,793,796,796,0,0,0,0,0,0,798,798,795,793,13281,793,13281,793,13281,
0,0,0,0,7,7,7,7,7,0,0,7,7,7,0,7,0,7,0,4814,4814,4814,0,0,0,0,0,7,7,0,7,0,793,796,804,805,805,805,805,805,805,806,798,795,793,13281,793,13281,793,13281,
0,0,0,0,7,7,7,7,7,7,7,0,7,7,7,7,0,7,0,4814,4814,4814,0,0,0,0,0,0,0,0,7,0,793,804,805,805,805,805,805,805,805,805,806,795,793,13281,793,13281,793,13281,
0,0,0,0,0,0,7,7,7,7,7,7,7,7,7,0,7,0,0,4814,4814,4814,0,0,0,0,0,0,0,0,7,0,801,802,802,802,802,802,802,802,802,802,802,803,793,13281,793,13281,793,13281,
0,0,0,0,0,0,7,0,0,0,0,7,7,7,0,0,7,0,0,4814,4814,4814,0,0,0,0,0,0,0,0,0,0,0,0,0,0,0,0,0,0,0,0,0,0,793,13281,793,13281,793,13281,
0,0,0,0,0,0,0,7,7,7,7,0,0,7,7,7,0,0,0,4814,4814,4814,0,0,0,0,0,7,7,7,7,7,7,7,7,7,7,7,0,0,0,0,0,0,793,13281,793,13281,793,13281,
4821,4821,4821,4821,4795,4821,4821,4821,4821,4821,4821,4821,4821,4821,4821,4821,4821,4821,4821,4822,4814,4814,0,0,0,0,0,0,0,0,0,7,7,7,7,7,7,7,7,0,0,0,0,0,793,13281,793,13281,793,13281,
4821,4821,4821,4821,4813,4813,4813,4813,4813,4813,4813,4813,4813,4813,4813,4821,4821,4821,4821,4821,4822,4814,0,0,0,0,0,0,0,0,0,0,0,0,0,7,7,7,7,7,0,0,0,0,793,13281,793,13281,793,13281,
4821,4821,4821,4821,4821,4821,4821,4821,4821,4821,4821,4821,4821,4821,4795,4821,4821,4821,4821,4821,4821,4819,0,0,0,0,0,0,0,0,0,0,0,0,0,0,0,0,0,0,0,0,0,0,793,13281,793,13281,793,13281,
7,7,7,7,7,7,7,7,7,7,7,7,0,0,161,0,0,0,0,0,0,0,0,0,0,0,0,0,0,0,785,786,786,786,786,786,786,786,786,786,786,786,786,786,786,786,786,786,786,787,
7,7,7,7,7,7,7,7,7,7,7,7,0,0,201,179,179,179,179,179,179,179,179,179,163,0,163,0,0,187,793,0,7,7,7,7,7,7,7,7,7,7,7,7,7,7,7,0,0,795,
7,7,7,7,7,7,7,7,7,7,7,7,0,0,0,0,0,0,0,0,0,0,0,0,0,0,0,0,0,161,793,0,7,7,7,7,7,7,7,7,7,7,7,7,7,7,7,0,0,795,
785,4805,4805,4805,4805,4805,4805,4805,4805,4805,4805,4805,4805,4805,4805,4805,4805,4805,4805,4805,4805,4805,4805,4803,0,0,0,0,0,161,793,0,7,7,7,7,7,7,7,7,7,7,7,7,7,7,7,0,0,795,
793,788,4805,4805,4805,4805,4805,4805,4805,4805,4805,4805,4805,4805,4805,4805,4805,4805,4805,4805,4805,4805,4806,4814,0,0,0,0,0,161,793,0,7,7,7,7,7,7,7,7,7,7,7,7,7,7,7,0,0,795,
793,796,0,0,0,0,0,0,0,0,0,0,0,0,0,0,0,0,0,0,0,0,4814,4814,0,0,0,0,0,161,793,0,7,7,7,7,7,7,7,7,7,7,7,7,7,7,7,0,0,795,
793,796,0,0,0,0,7,7,0,0,0,7,7,7,7,7,7,7,7,7,7,0,4814,4814,0,0,0,0,0,161,793,0,7,7,7,7,7,7,7,7,7,7,7,7,7,7,7,0,0,795,
793,796,0,0,0,0,7,7,0,0,0,7,7,7,7,7,7,7,7,7,7,0,4814,4814,0,0,0,0,0,161,793,0,7,7,7,7,7,7,7,7,7,7,7,7,7,7,7,0,0,795,
793,796,0,0,0,0,7,7,0,0,0,7,7,7,7,7,7,7,7,7,7,0,4814,4814,0,0,0,0,0,161,801,802,778,802,810,7,7,7,7,7,7,7,7,7,7,7,7,0,0,795,
793,796,0,0,0,0,7,7,0,0,0,7,7,7,7,7,7,7,7,7,7,0,4814,4814,0,0,0,0,0,201,179,179,203,0,793,7,7,7,7,7,7,7,7,7,7,7,7,0,0,795,
793,796,0,0,0,0,7,7,0,0,0,7,7,7,7,7,7,7,7,7,7,0,4814,4814,0,0,0,0,0,0,0,0,0,0,793,7,7,7,7,7,7,7,7,7,7,7,7,0,0,795,
793,796,0,0,0,0,0,0,0,0,0,0,0,0,0,0,0,0,0,0,0,0,4814,4814,0,0,0,0,0,0,0,0,0,0,793,7,7,7,7,7,7,7,7,7,7,7,7,0,0,795,
793,804,4821,4821,4821,4821,4821,4821,4821,4821,4821,4821,4821,4821,4821,4821,4821,4821,4821,4821,4821,4821,4822,4814,0,0,0,0,0,0,0,0,0,0,793,0,0,0,0,0,0,0,0,0,0,0,0,0,0,795,
801,4821,4821,4821,4821,4821,4821,4821,4821,4821,4821,4821,4821,4821,4821,4821,4821,4821,4821,4821,4821,4821,4821,4822,0,0,0,0,0,0,0,0,0,0,801,802,802,802,802,802,802,802,802,802,802,802,802,802,802,803
</data>
 </layer>
 <layer id="3" name="edifici" width="50" height="150">
  <data encoding="csv">
0,0,0,0,0,0,7,7,7,7,0,466,0,0,0,0,0,0,0,0,0,0,0,0,0,0,0,0,0,0,0,0,0,0,0,0,0,0,0,0,0,0,0,0,0,0,0,0,0,0,
0,0,0,0,0,0,7,7,7,7,473,474,475,0,0,0,0,0,0,0,0,0,0,0,0,0,0,0,0,0,0,0,0,0,0,0,0,0,0,0,0,0,0,0,0,0,0,0,0,0,
0,0,0,0,0,0,7,7,7,7,481,482,483,0,0,0,0,0,0,0,0,0,0,0,0,0,0,0,1063,1064,0,0,0,0,0,0,1063,1064,0,0,0,0,0,0,0,0,0,0,0,0,
0,0,0,0,0,0,7,7,7,7,489,490,491,0,0,0,0,0,4971,0,0,0,0,0,0,0,0,0,1071,1072,1334,1334,1334,1334,1334,1334,1071,1072,0,0,0,0,0,0,0,0,0,0,0,0,
0,0,0,0,0,0,7,7,7,7,497,498,499,0,0,0,0,0,0,0,0,0,0,0,0,0,0,1316,694,695,695,695,695,695,695,695,695,696,1317,0,0,0,0,0,0,0,0,0,0,0,
0,0,0,0,0,0,7,7,7,7,505,506,507,0,466,0,0,0,0,0,0,0,0,0,0,0,0,1324,702,703,703,703,703,703,703,703,703,704,1325,0,0,0,0,0,0,0,0,0,0,0,
0,0,0,0,0,0,7,7,7,7,0,0,0,473,474,475,0,0,0,0,0,0,0,0,0,0,0,1324,702,703,703,703,703,703,703,703,703,704,1325,0,0,0,0,0,0,0,0,0,0,0,
0,0,0,0,0,0,7,7,7,7,0,0,0,481,482,483,0,0,0,0,0,0,0,0,0,0,0,1324,702,703,703,703,703,703,703,703,703,704,1325,0,0,0,0,0,0,0,0,0,0,0,
0,0,0,0,0,0,7,7,7,7,0,0,0,489,490,491,0,0,0,0,0,0,0,0,0,0,0,1324,702,703,703,703,703,703,703,703,703,704,1325,0,0,0,0,0,0,0,0,0,0,0,
0,0,0,0,0,0,7,7,7,7,0,0,0,497,498,499,0,0,0,0,0,0,0,0,0,0,0,1324,702,703,703,703,703,703,703,703,703,704,1325,0,0,0,0,0,0,0,0,0,0,0,
0,0,0,0,0,0,7,7,7,7,0,466,0,505,506,507,0,0,0,0,0,0,0,0,0,0,0,1324,702,703,703,703,703,703,703,703,703,704,1325,0,0,0,0,0,0,0,0,0,0,0,
0,0,0,0,0,0,7,7,7,7,473,474,475,0,0,0,0,0,0,0,0,0,0,0,0,0,0,1324,702,703,703,703,703,703,703,703,703,704,1325,0,0,0,0,0,0,0,0,0,0,0,
0,0,0,0,0,0,7,7,7,7,481,482,483,0,0,0,0,0,0,0,0,0,0,0,0,0,0,1324,702,703,703,703,703,703,703,703,703,704,1325,0,0,0,0,0,0,0,0,0,0,0,
0,0,0,0,0,0,7,7,7,7,489,490,491,0,0,0,0,0,0,0,0,0,0,0,0,0,0,1324,702,703,703,703,703,703,703,703,703,704,1325,0,0,0,0,0,0,0,0,0,0,0,
0,0,0,0,0,0,7,7,7,7,497,498,499,0,0,0,0,0,0,0,0,0,0,0,0,0,0,1324,702,703,703,703,703,703,703,703,703,704,1325,0,0,0,0,0,0,0,0,0,0,0,
0,0,0,0,0,0,7,7,7,7,505,506,507,0,466,0,0,0,0,0,0,0,0,0,0,0,0,1324,702,703,703,703,703,703,703,703,703,704,1325,0,0,0,0,0,0,0,0,0,0,0,
0,0,0,0,0,0,7,7,7,7,0,0,0,473,474,475,0,0,0,0,0,0,0,0,0,0,0,1324,702,703,703,703,703,703,703,703,703,704,1325,0,0,0,0,0,0,0,0,0,0,0,
0,0,0,0,0,0,7,7,7,7,0,0,0,481,482,483,0,0,0,0,0,0,0,0,0,0,0,1324,702,703,703,703,703,703,703,703,703,704,1325,0,0,0,0,0,0,0,0,0,0,0,
0,0,0,0,0,0,7,7,7,7,0,0,0,489,490,491,0,0,0,0,0,0,0,0,0,0,0,1324,710,711,711,711,711,711,711,711,711,712,1325,0,0,0,0,0,0,0,0,0,0,0,
0,0,0,0,0,0,7,7,7,7,0,466,0,497,498,499,0,0,0,0,0,0,0,0,0,0,0,1332,1334,1334,1334,1334,1334,1334,1334,1334,1334,1334,1333,0,0,0,0,0,0,0,0,0,0,0,
0,0,0,0,0,0,7,7,7,7,473,474,475,505,506,507,0,0,0,0,0,0,0,0,0,0,0,0,0,0,0,0,0,0,0,0,0,0,0,0,0,0,0,0,0,0,0,0,0,0,
0,0,0,0,0,0,7,7,7,7,481,482,483,0,0,0,0,0,0,0,0,0,0,0,0,0,0,0,0,0,0,0,0,0,0,0,0,0,0,0,0,0,0,0,0,0,0,0,0,0,
0,0,0,0,0,0,7,7,7,7,489,490,491,0,0,0,0,0,0,0,0,0,0,0,0,0,0,0,0,0,0,0,0,0,0,0,0,0,0,0,0,0,0,0,0,0,0,0,0,0,
0,0,0,0,0,0,7,7,7,7,497,498,499,0,0,0,0,0,0,0,0,0,0,0,0,0,0,0,0,0,0,0,0,0,0,0,0,0,0,0,0,0,0,0,0,0,0,0,0,0,
0,0,0,0,0,0,7,7,7,7,505,506,507,0,0,0,0,0,0,0,0,0,0,0,0,0,0,0,0,0,0,0,0,0,0,0,0,0,0,0,0,0,0,0,0,0,0,0,0,0,
0,0,0,0,0,0,7,7,7,7,0,0,0,0,0,0,0,0,0,0,0,0,0,0,0,0,0,0,0,0,0,0,0,0,0,0,0,0,0,0,0,0,0,0,0,0,0,0,0,0,
0,0,0,0,0,0,7,7,7,7,0,0,0,0,0,0,0,0,0,0,0,0,0,0,0,0,0,0,0,0,0,0,0,0,0,0,0,0,0,0,0,0,0,0,0,0,0,0,0,0,
0,0,0,785,786,786,786,771,786,790,787,0,0,0,0,0,0,0,0,0,0,0,0,0,0,0,0,0,0,0,0,0,0,0,0,0,0,0,0,0,0,0,0,0,0,0,0,0,0,0,
0,0,0,793,788,789,789,789,789,790,795,0,466,0,0,466,0,0,466,0,0,466,0,0,466,0,0,466,0,0,466,0,0,466,0,0,466,0,0,0,0,0,0,0,0,0,0,0,0,0,
0,0,0,793,796,788,789,771,790,798,795,473,474,475,473,474,475,473,474,475,473,474,475,473,474,475,473,474,475,473,474,475,473,474,475,473,474,475,0,0,0,0,0,0,0,0,0,0,0,0,
0,0,0,793,796,796,0,0,798,798,795,481,482,483,481,482,483,481,482,483,481,482,483,481,482,483,481,482,483,481,482,483,481,482,483,481,482,483,0,0,0,0,0,0,0,0,0,0,0,0,
0,0,0,793,796,796,0,0,798,798,795,489,490,491,489,490,491,489,490,491,489,490,491,489,490,491,489,490,491,489,490,491,489,490,491,489,490,491,0,0,0,0,0,0,0,0,0,0,0,0,
0,0,0,793,796,796,0,0,798,798,795,497,498,499,497,498,499,497,498,499,497,498,499,497,498,499,497,498,499,497,498,499,497,498,499,497,498,499,0,0,0,0,0,0,0,0,0,0,0,0,
0,0,0,793,796,796,0,0,798,798,795,505,506,507,505,506,507,505,506,507,505,506,507,505,506,507,505,506,507,505,506,507,505,506,507,505,506,507,0,0,0,0,0,0,0,0,0,0,0,0,
0,0,0,793,796,796,0,0,798,798,795,421,422,0,0,0,0,0,0,0,0,0,0,0,0,0,0,0,0,0,0,0,0,0,0,0,0,421,422,0,0,0,0,0,0,0,0,0,0,0,
0,0,0,793,796,796,0,0,798,798,795,429,430,0,0,0,0,0,0,0,0,0,0,0,0,0,0,0,0,0,0,0,0,0,0,0,0,429,430,0,0,0,0,0,0,0,0,0,0,0,
0,0,0,793,796,796,0,0,798,798,795,437,438,0,0,0,0,0,0,0,0,0,0,0,0,0,0,0,0,0,10203,10197,10198,10199,10203,0,0,437,438,0,0,0,0,0,0,0,0,0,0,0,
0,0,0,793,796,796,0,0,798,798,795,421,422,0,0,0,0,0,0,0,0,0,0,0,0,0,0,0,0,0,10204,10205,10206,10207,10208,0,0,421,422,0,0,0,0,0,0,0,0,0,0,0,
0,0,0,793,796,796,0,0,798,798,795,429,430,0,0,0,0,0,0,0,0,0,0,0,0,0,0,0,0,0,10212,10213,10214,10215,10216,0,0,429,430,0,0,0,0,0,0,0,0,0,0,0,
0,0,0,793,796,796,0,0,798,798,795,437,438,0,0,0,0,0,0,0,0,0,0,0,0,0,0,0,0,0,10212,10221,10222,10223,10216,0,0,437,438,0,0,0,0,0,0,0,0,0,0,0,
0,0,0,793,796,796,0,0,798,798,795,421,422,0,0,0,0,0,0,0,0,0,0,0,0,0,0,0,0,0,10228,10212,10216,10231,10232,0,0,421,422,0,0,0,0,0,0,0,0,0,0,0,
0,0,0,793,796,796,0,0,798,798,795,429,430,0,0,0,0,0,0,0,0,0,0,0,0,0,0,0,0,0,0,10212,0,0,0,0,0,429,430,0,0,0,0,0,0,0,0,0,0,0,
0,0,0,793,796,796,0,0,798,798,795,437,438,0,0,0,0,0,0,0,0,0,0,0,0,0,0,0,0,0,0,10212,0,0,0,0,0,437,438,0,0,0,0,0,0,0,0,0,0,0,
0,0,0,793,796,796,0,0,798,798,795,421,422,0,0,0,0,0,0,0,0,0,0,0,0,0,0,0,0,0,0,10212,0,0,0,0,0,421,422,0,0,0,0,0,0,0,0,0,0,0,
0,0,0,793,796,796,0,0,798,798,795,429,430,0,0,0,10203,10197,10198,10199,10203,0,0,0,0,0,0,0,0,0,0,10212,0,0,0,0,0,429,430,0,0,0,0,0,0,0,0,0,0,0,
0,0,0,793,796,796,0,0,798,798,795,437,438,0,0,0,10204,10205,10206,10207,10208,0,0,0,0,0,0,0,0,0,0,10212,0,0,0,0,0,437,438,0,0,0,0,0,0,0,0,0,0,0,
0,0,0,793,796,796,0,0,798,798,795,421,422,0,0,0,10212,10213,10214,10215,10216,0,0,0,0,0,0,0,0,0,0,10212,0,0,0,0,0,421,422,0,0,0,0,0,0,0,0,0,0,0,
0,0,0,793,796,796,0,0,798,798,795,429,430,0,0,0,10212,10221,10222,10223,10224,0,0,0,0,0,0,0,0,0,0,10212,0,0,0,0,0,429,430,0,0,0,0,0,0,0,0,0,0,0,
0,0,0,793,796,796,0,0,798,798,795,437,438,0,0,0,10228,10229,10230,10231,10232,0,0,0,0,0,0,0,0,0,0,10212,0,0,0,0,0,437,438,0,0,0,0,0,0,0,0,0,0,0,
0,0,0,793,796,796,0,0,798,798,795,421,422,0,0,0,0,0,0,0,0,0,0,0,0,0,0,0,0,0,0,10212,0,0,0,0,0,421,422,0,0,0,0,0,0,0,0,0,0,0,
0,0,0,793,796,796,0,0,798,798,795,429,430,0,0,0,0,0,0,0,0,0,0,0,0,0,0,0,10203,10197,10198,10199,10216,0,0,0,0,429,430,0,0,0,0,0,0,0,0,0,0,0,
0,0,0,793,796,796,0,0,798,798,795,437,438,0,0,0,0,0,0,0,0,0,0,0,0,0,0,0,10204,10205,10206,10207,10223,10216,0,0,0,437,438,0,0,0,0,0,0,0,0,0,0,0,
0,0,0,793,796,796,0,0,798,798,795,421,422,0,0,0,0,10212,10222,10216,0,0,0,0,0,0,0,0,10212,10213,10214,10215,10223,10216,0,0,0,421,422,0,0,0,0,0,0,0,0,0,0,0,
0,0,0,793,796,796,0,0,798,798,795,429,430,0,0,0,0,10212,10222,10216,10247,10247,10247,10247,10247,10247,10247,10247,10220,10221,10222,10223,10223,10216,0,0,0,429,430,0,0,0,0,0,0,0,0,0,0,0,
0,0,0,793,796,796,0,0,798,798,795,437,438,0,0,0,0,0,0,0,0,0,0,0,0,0,0,0,10228,10229,10230,10231,10232,0,0,0,0,437,438,0,0,0,0,0,0,0,0,0,0,0,
0,0,0,793,796,796,0,0,798,798,795,421,422,0,0,0,0,0,0,0,0,0,0,0,0,0,0,0,0,0,0,0,0,0,0,0,0,421,422,0,0,0,0,0,0,0,0,0,0,0,
0,0,0,793,796,796,0,0,798,798,795,429,430,0,0,0,0,0,0,0,0,0,0,0,0,0,0,0,0,0,0,0,0,0,0,0,0,429,430,0,0,0,0,0,0,0,0,0,0,0,
0,0,0,793,796,796,0,0,798,798,795,437,438,0,0,0,0,0,0,0,0,0,0,0,0,0,0,0,0,0,0,0,0,0,0,0,0,437,438,0,0,0,0,0,0,0,0,0,0,0,
0,0,0,793,796,796,0,0,798,798,795,421,422,0,0,10203,10197,10198,10199,10203,0,0,0,0,0,0,0,0,0,0,0,0,0,0,0,0,0,421,422,0,0,0,0,0,0,0,0,0,0,0,
0,0,0,793,796,796,0,0,798,798,795,429,430,0,0,10204,10205,10206,10207,10208,0,0,0,0,0,0,0,0,0,0,0,0,0,0,0,0,0,429,430,0,0,0,0,0,0,0,0,0,0,0,
0,0,0,793,796,796,0,0,798,798,795,0,0,0,0,10212,10213,10214,10215,10216,0,0,0,0,0,0,0,0,0,0,0,0,0,0,0,0,0,437,438,0,0,0,0,0,0,0,0,0,0,0,
0,0,0,793,796,796,0,0,798,798,795,0,0,0,0,10212,10221,10222,10223,10216,0,0,0,0,0,0,0,0,0,0,0,0,0,0,0,0,0,421,422,0,0,0,0,0,0,0,0,0,0,0,
0,0,0,793,796,796,0,0,798,798,795,0,0,0,0,10228,10229,10230,10231,10232,0,0,0,0,0,0,0,0,0,0,0,0,0,0,0,0,0,429,430,0,0,0,0,0,0,0,0,0,0,0,
0,0,0,0,0,804,10201,10202,806,0,795,0,0,0,0,0,0,0,0,0,0,0,0,0,0,0,0,0,0,0,0,0,0,0,0,0,0,437,438,0,0,0,0,0,0,0,0,0,0,0,
0,0,0,0,804,0,10201,10202,0,806,0,0,0,0,0,0,0,0,0,0,0,0,0,0,0,0,0,0,0,0,0,0,0,0,0,0,0,421,422,0,0,0,0,0,0,0,0,0,0,0,
0,0,0,801,0,0,10201,10202,0,0,803,0,0,0,0,0,0,770,770,0,0,0,0,0,0,0,0,0,0,0,0,0,0,0,0,0,0,429,430,0,0,0,0,0,0,0,0,0,0,0,
0,0,0,0,0,0,10201,10202,4437,4438,0,0,0,0,0,0,0,0,0,0,0,0,0,0,0,0,0,0,0,0,0,0,0,0,0,0,0,437,438,0,0,0,0,0,0,0,0,0,0,0,
0,0,0,0,0,0,10201,10202,4445,4446,0,0,0,0,0,0,0,770,770,0,0,0,0,0,0,0,0,0,0,0,0,0,0,0,0,0,0,421,422,0,0,0,0,0,0,0,0,0,0,0,
0,0,0,0,0,0,10201,10202,4453,4454,0,0,0,0,0,0,0,0,0,0,0,0,0,0,0,0,0,0,0,0,0,0,0,0,0,0,0,429,430,0,0,0,0,0,0,0,0,0,0,0,
0,0,0,0,0,0,10201,10202,4437,4438,0,0,0,0,0,0,0,10721,10722,0,0,0,0,0,0,0,0,0,0,0,0,0,0,0,0,0,0,437,438,0,0,0,0,0,0,0,0,0,0,0,
0,0,0,0,0,0,10201,10202,4445,4446,0,0,0,0,0,0,0,10721,10722,0,0,0,0,0,0,0,0,0,0,0,0,0,0,0,0,0,0,421,422,0,0,0,0,0,0,0,0,0,0,0,
0,0,0,0,0,0,10201,10202,4453,4454,0,0,0,0,0,0,0,10721,10722,0,0,0,0,0,0,0,0,0,0,0,0,0,0,0,0,0,0,429,430,0,0,0,0,0,0,0,0,0,0,0,
0,0,0,0,0,0,10201,10202,4437,4438,0,0,0,0,0,0,0,10721,10722,0,0,0,0,0,0,0,0,0,0,0,0,0,0,0,0,0,0,437,438,0,0,0,0,0,0,0,0,0,0,0,
0,0,0,0,0,0,10201,10202,4445,4446,0,0,0,0,0,0,0,10721,10722,0,0,0,0,0,0,0,0,0,0,0,0,0,0,0,0,0,0,421,422,0,0,0,0,0,0,0,0,0,0,0,
0,0,0,0,0,0,10201,10202,4453,4454,0,0,0,0,0,0,0,10721,10722,0,0,0,5,5,5,5,5,5,5,5,5,5,5,5,5,5,5,429,430,0,0,0,0,0,0,0,0,0,0,0,
0,0,0,0,0,0,10201,10202,4437,4438,0,0,0,0,0,4801,4803,10721,10722,4801,4803,0,0,0,0,0,0,0,0,0,0,0,0,0,0,0,0,437,438,0,0,0,0,0,0,0,0,0,0,0,
0,0,0,0,0,0,10201,10202,4445,4446,0,0,0,0,0,4809,4811,10721,10722,4809,4811,0,0,0,0,0,0,0,0,0,0,0,0,0,0,0,0,0,0,0,0,0,0,0,0,0,0,0,0,0,
0,0,0,0,0,0,10201,10202,4453,4454,0,0,0,0,0,4809,4811,10721,10722,4809,4811,0,0,0,0,0,0,0,0,0,0,0,0,0,0,0,0,0,0,0,0,0,0,0,0,0,0,0,0,0,
0,0,0,0,0,0,10201,10202,4437,4438,0,0,0,0,0,4809,4811,10721,10722,4809,4811,0,0,0,0,0,0,0,0,0,0,0,0,0,0,0,0,0,0,0,0,0,0,0,0,0,0,0,0,0,
0,0,0,0,0,0,10201,10202,4445,4446,0,0,0,0,0,4809,4811,10721,10722,4809,4811,0,0,0,0,0,0,0,0,0,0,0,0,0,0,0,0,0,0,0,0,0,0,0,0,0,0,0,0,0,
0,0,0,0,0,0,10201,10202,4453,4454,0,0,0,0,0,4809,4811,10721,10722,4809,4811,0,0,0,0,0,0,0,0,0,0,0,0,0,0,0,0,0,0,0,0,0,0,0,0,0,0,0,0,0,
0,0,0,0,0,0,10201,10202,4437,4438,0,0,0,0,0,4809,4811,10721,10722,4809,4811,0,0,0,0,0,0,0,0,0,0,0,0,0,0,0,0,0,0,0,0,0,0,0,0,0,0,0,0,0,
0,0,0,0,0,0,10201,10202,4445,4446,0,0,0,0,0,4809,4811,10721,10722,4809,4811,0,0,0,0,0,0,0,0,0,0,0,0,0,0,0,0,0,0,0,0,0,0,0,0,0,0,0,0,0,
0,0,0,0,0,0,10201,10202,4453,4454,0,0,0,0,0,4809,4811,10721,10722,4809,4811,0,0,0,0,0,0,0,0,0,0,0,0,0,0,0,0,0,0,0,0,0,0,0,0,0,0,0,0,0,
0,0,0,0,0,0,10201,10202,4437,4438,0,0,0,0,0,4809,4811,10721,10722,4809,4811,0,0,0,0,0,0,0,0,0,0,0,0,0,0,0,0,0,0,0,0,0,0,0,0,0,0,0,0,0,
0,0,0,0,0,0,10201,10202,4445,4446,0,0,0,0,0,4809,4811,10721,10722,4809,4811,0,0,0,0,0,0,0,0,0,0,0,0,0,0,0,0,0,0,0,0,0,0,0,0,0,0,0,0,0,
0,0,0,0,0,0,10201,10202,4453,4454,0,0,0,0,0,4809,4811,10721,10722,4809,4811,0,0,0,0,0,0,0,0,0,0,0,0,0,0,0,0,0,0,0,0,0,0,0,0,0,0,0,0,0,
0,0,0,0,0,0,10201,10202,4437,4438,0,0,0,0,0,4809,4811,10721,10722,4809,4811,0,0,0,0,0,0,0,0,0,0,0,0,0,0,0,0,0,0,0,0,0,0,0,0,0,0,0,0,0,
0,0,0,0,0,0,10201,10202,4445,4446,0,0,0,0,0,4809,4811,10721,10722,4809,4811,0,0,0,0,0,0,0,0,0,0,0,0,0,0,0,0,0,0,0,0,0,0,0,0,0,0,0,0,0,
0,0,0,0,0,0,10201,10202,4453,4454,0,0,0,0,0,4809,4811,10721,10722,4809,4811,0,0,0,0,0,0,0,0,0,0,0,0,0,13281,13281,13281,13281,13281,13281,13281,13281,0,0,0,0,0,0,0,0,
0,0,0,0,0,0,10201,10202,4437,4438,0,0,0,0,0,4817,4819,10721,10722,4817,4819,0,0,0,0,0,0,0,0,0,0,0,0,0,0,0,0,0,0,0,0,0,0,0,0,0,0,0,0,0,
0,0,0,0,0,0,10201,10202,4445,4446,0,0,0,0,0,0,0,10193,10194,0,0,0,0,0,0,0,0,0,0,0,0,0,0,0,0,0,0,0,0,0,0,0,0,0,0,0,0,0,0,0,
0,0,0,0,0,0,10201,10202,4453,4454,0,0,0,0,0,0,0,10201,10202,0,0,0,0,0,0,0,0,0,0,0,0,0,0,0,0,1063,1064,0,0,1063,1064,0,0,0,0,0,0,0,0,0,
421,422,4801,4804,4810,4810,10201,10202,0,4832,4832,4832,4832,4832,0,0,0,0,0,0,0,0,0,0,0,0,0,0,0,0,0,0,0,0,0,1071,1072,0,0,1071,1072,0,0,0,0,0,0,0,0,0,
429,430,4809,4812,4804,4805,4810,10182,10182,10180,10180,10180,10180,10180,10182,10182,10182,0,0,10182,10182,10182,10180,10180,10180,10180,10180,10180,0,0,0,0,10182,10182,10182,0,0,0,0,0,0,0,0,0,0,0,0,0,0,0,
437,438,4809,4812,4820,4821,4822,10190,10190,10188,10188,10188,10188,10188,10190,10190,10190,0,0,10190,10190,10190,10188,10188,10188,10188,10188,10188,0,0,0,0,10190,10190,10190,0,0,0,0,0,0,0,0,0,0,0,0,0,0,0,
421,422,4809,4820,4818,4818,4795,4822,4811,4832,4832,4832,4832,4832,0,0,0,0,0,0,0,0,4832,0,0,0,0,0,0,0,0,0,0,0,0,0,0,0,0,0,0,0,0,0,0,0,0,0,0,0,
429,430,4817,4818,4818,4818,4795,4818,4819,4832,0,0,0,0,0,0,0,0,0,0,0,0,0,4801,4802,4803,0,0,0,4801,4802,4803,0,0,0,0,0,0,0,0,0,0,0,0,0,0,0,0,0,0,
437,438,0,816,816,816,0,4832,4832,4832,0,0,0,0,0,0,0,0,0,0,0,0,0,4809,4810,4811,0,0,0,4809,4810,4811,0,0,0,0,0,0,0,0,0,0,0,0,0,0,0,0,0,0,
421,422,421,422,421,422,0,0,0,0,0,0,0,0,0,0,0,0,0,0,0,0,0,4817,4818,4819,4801,4802,4803,4817,4818,4819,0,0,0,0,0,0,0,0,0,0,0,0,0,0,0,0,0,0,
429,430,429,430,429,430,0,0,0,0,0,0,0,0,0,0,0,0,0,0,0,0,0,0,0,0,4809,4810,4811,0,0,0,0,0,0,0,0,0,0,0,0,0,0,0,0,0,0,0,0,0,
437,438,437,438,437,438,0,0,0,0,0,0,0,0,0,0,0,0,0,0,0,0,0,0,0,0,4817,4818,4819,0,0,0,0,0,0,0,0,0,0,0,0,0,0,0,0,0,0,0,0,0,
421,422,421,422,421,422,0,0,0,0,0,0,0,0,0,0,0,0,0,0,0,0,0,0,0,0,0,0,0,0,0,0,0,0,0,0,0,0,0,0,0,0,0,0,0,0,0,0,0,0,
429,430,429,430,429,430,0,0,0,0,0,0,0,0,0,0,0,0,0,0,0,0,0,0,0,0,0,0,0,0,0,0,0,0,0,0,0,0,0,0,0,0,0,0,0,0,0,0,0,0,
437,438,437,438,437,438,0,0,0,0,0,0,0,0,0,0,0,0,0,0,0,0,0,0,0,0,0,0,0,0,0,0,0,0,0,0,0,0,0,0,0,0,0,0,0,0,0,0,0,0,
421,422,421,422,421,422,0,0,0,0,0,0,0,0,0,0,0,0,0,0,0,0,0,0,0,0,0,0,0,0,0,0,0,0,0,0,0,0,0,0,0,0,0,0,0,0,0,0,0,0,
429,430,429,430,429,430,0,0,0,0,0,0,0,0,0,0,0,0,0,0,0,0,0,0,0,0,0,0,0,0,0,0,0,0,0,0,0,0,0,0,0,0,0,0,0,0,0,0,0,0,
437,438,437,438,437,438,0,0,0,0,0,0,0,0,0,0,0,0,0,0,0,0,0,0,0,0,0,0,0,0,0,0,0,0,0,0,0,0,0,0,0,0,0,0,0,0,0,0,0,0,
421,422,421,422,421,422,0,0,0,0,0,0,0,0,0,0,0,0,0,0,0,0,0,0,0,0,0,0,0,0,0,0,0,0,0,0,0,0,0,0,0,0,0,0,0,0,0,0,0,0,
429,430,429,430,429,430,0,0,0,0,0,0,0,0,0,0,0,0,0,0,0,0,0,0,0,0,0,0,0,0,0,0,0,0,0,0,0,0,0,0,0,0,0,0,0,0,0,0,0,0,
437,438,437,438,437,438,0,0,0,0,0,0,0,0,0,0,0,0,0,0,0,0,0,0,0,0,0,0,0,0,0,0,0,0,0,0,0,0,0,0,0,0,0,0,0,0,0,0,0,0,
421,422,421,422,421,422,0,0,0,0,0,0,0,0,0,0,0,0,0,0,0,0,0,0,0,0,0,0,0,0,0,0,0,0,0,0,0,0,0,0,0,0,0,0,0,0,0,0,0,0,
429,430,429,430,429,430,0,0,0,0,0,0,0,0,0,0,0,0,0,0,0,0,0,0,0,0,0,0,0,0,0,0,0,0,0,0,0,0,0,0,0,0,0,0,0,0,0,0,0,0,
0,0,0,0,0,0,0,0,0,0,0,0,0,0,0,0,0,0,0,0,0,0,0,0,0,0,0,0,0,0,0,0,0,0,0,0,0,0,0,0,0,0,0,0,0,0,0,0,0,0,
0,0,0,0,0,0,0,0,0,0,0,0,0,0,0,0,0,0,0,0,0,0,0,0,0,0,0,0,0,0,0,0,0,0,0,0,0,0,0,0,0,0,0,0,0,0,0,0,0,0,
0,0,0,0,0,0,0,0,0,0,0,0,0,0,0,0,0,0,0,0,0,0,0,0,0,0,0,0,0,0,0,0,0,0,0,0,0,0,0,0,0,0,0,0,0,0,0,0,0,0,
0,0,0,0,0,0,0,0,0,0,0,0,0,0,0,0,0,0,0,0,0,0,4437,4438,4437,4438,4437,4438,4437,4438,4437,4438,0,0,0,0,0,0,0,0,0,0,0,0,0,0,0,0,0,0,
0,0,0,0,0,1337,1338,1339,1340,1341,0,0,0,0,0,0,0,0,0,0,0,0,4445,4446,4445,4446,4445,4446,4445,4446,4445,4446,0,0,0,0,0,0,0,0,0,0,0,0,0,0,0,0,0,0,
421,422,421,422,0,1345,1346,1347,1348,1349,0,0,0,0,0,0,0,0,0,0,0,0,4453,4454,4453,4454,4453,4454,4453,4454,4453,4454,0,0,0,0,0,0,0,0,0,0,0,0,0,0,0,0,0,0,
429,430,429,430,0,1353,1354,1355,1356,1357,0,0,0,0,0,0,0,0,0,0,0,0,0,0,0,0,0,0,0,0,0,0,0,0,0,0,0,0,0,0,0,0,0,0,0,0,0,0,0,0,
437,438,437,438,0,1361,1362,1363,1364,1365,0,0,0,0,0,0,0,0,0,10182,10182,10182,10180,10180,10179,10179,10179,10180,10180,10180,10180,10180,10182,10182,10182,0,0,0,0,0,0,0,0,0,0,0,0,0,0,0,
421,422,421,422,0,0,0,0,0,0,0,0,0,0,0,0,0,0,0,10190,10190,10190,10188,10188,10187,10187,10187,10188,10188,10188,10188,10188,10190,10190,10190,0,0,0,0,0,0,0,0,0,0,0,0,0,0,0,
429,430,429,430,0,0,0,0,0,0,0,0,0,0,0,0,0,0,0,0,0,0,4801,4802,4803,0,0,0,0,0,0,0,0,0,0,0,0,0,0,0,0,0,0,0,0,0,0,0,0,0,
437,438,437,438,0,0,0,0,0,0,0,0,0,0,0,0,0,0,0,0,0,0,4809,4810,4811,0,0,0,0,0,0,0,0,0,0,0,0,0,0,0,0,0,0,0,0,0,0,0,0,0,
421,422,421,422,0,0,0,0,0,0,0,0,0,0,0,0,0,0,0,0,0,0,4817,4818,4819,0,0,0,0,0,0,0,0,0,0,0,0,0,0,0,0,0,0,0,0,0,0,0,0,0,
429,430,429,430,0,0,0,0,0,0,0,0,0,0,0,0,0,0,0,0,0,0,0,0,0,4801,4802,4802,4802,4802,4802,4802,4802,0,0,0,0,0,0,0,0,0,0,0,0,0,0,0,0,0,
437,438,437,438,0,0,0,0,0,0,0,0,0,0,0,0,0,0,0,0,0,0,0,0,0,4809,4810,4810,4810,4810,4810,4810,4810,0,0,0,0,0,0,0,0,0,0,0,0,0,0,0,0,0,
421,422,421,422,0,0,0,0,0,0,0,0,0,0,0,0,0,0,0,0,0,0,0,0,0,4817,4818,4818,4818,4818,4818,4818,4826,0,0,0,0,0,0,0,0,0,0,0,0,0,0,0,0,0,
429,430,429,430,0,0,0,0,0,0,0,0,0,0,0,0,0,0,0,0,0,0,0,0,0,0,0,0,0,0,0,0,0,0,0,0,0,0,0,0,0,0,0,0,0,0,0,0,0,0,
437,438,437,438,0,0,0,0,0,0,0,0,0,0,0,0,0,0,0,0,0,0,0,0,0,0,0,0,0,0,0,0,0,0,0,0,0,0,0,0,0,0,0,0,0,0,0,0,0,0,
421,422,421,422,0,0,0,0,0,0,0,0,0,0,0,0,0,0,0,0,0,0,0,0,0,0,0,0,0,0,0,0,0,0,0,0,0,0,0,0,0,0,0,0,0,0,0,0,0,0,
429,430,429,430,0,0,0,0,0,0,0,0,0,0,0,0,0,0,0,0,0,0,0,0,0,0,0,0,0,0,0,0,0,0,0,0,0,0,0,0,0,0,0,0,0,0,0,0,0,0,
437,438,437,438,0,0,0,0,0,0,0,0,0,0,0,0,0,0,0,0,0,0,0,0,0,0,0,0,0,0,0,0,0,0,0,0,0,0,0,0,0,0,0,0,0,0,0,0,0,0,
0,0,0,0,0,0,0,0,0,0,0,0,0,0,0,0,0,0,0,0,0,0,0,0,0,0,0,0,0,0,0,0,0,0,0,0,0,0,0,0,0,0,0,0,0,0,0,0,0,0,
0,0,0,0,922,922,922,922,922,922,922,922,922,922,922,0,0,0,0,0,0,0,0,0,0,0,0,0,0,0,0,0,0,0,0,0,0,0,0,0,0,0,0,0,0,0,0,0,0,0,
0,0,0,0,0,0,0,0,0,0,0,0,0,0,0,0,0,0,0,0,0,0,0,0,0,0,0,0,0,0,0,0,0,0,0,0,0,0,0,0,0,0,0,0,0,0,0,0,0,0,
0,0,0,0,0,0,0,0,0,0,0,0,0,0,0,0,0,0,0,0,0,0,0,0,0,0,0,0,0,0,0,0,0,0,0,0,0,0,0,0,0,0,0,0,0,0,0,0,0,0,
0,0,0,0,0,0,0,0,0,0,0,0,0,0,0,0,0,0,0,0,0,0,0,0,0,0,0,0,0,0,0,0,0,0,0,0,0,0,0,0,0,0,0,0,0,421,422,421,422,0,
0,0,0,0,0,0,0,0,0,0,0,0,0,0,0,0,0,0,0,0,0,0,0,0,0,0,0,0,0,0,0,0,0,0,0,0,0,0,0,0,0,0,0,0,0,429,430,429,430,0,
0,0,0,0,0,0,0,0,0,0,0,0,0,0,0,0,0,0,0,0,0,0,0,0,0,0,0,0,0,0,0,0,0,0,0,0,0,0,0,0,0,0,0,0,0,437,438,437,438,0,
0,0,4437,4438,0,0,0,0,0,0,0,0,0,0,0,0,4437,4438,0,0,4437,4438,0,0,0,0,0,0,0,0,0,0,0,0,0,0,0,0,0,0,0,0,0,0,0,421,422,421,422,0,
0,0,4445,4446,0,0,0,0,0,0,0,0,0,0,0,0,4445,4446,0,0,4445,4446,0,0,0,0,0,0,0,0,0,0,0,0,0,0,0,0,0,0,0,0,0,0,0,429,430,429,430,0,
0,0,4453,4454,0,0,0,0,0,0,0,0,0,0,0,0,4453,4454,0,0,4453,4454,0,0,0,0,0,0,0,0,0,0,0,0,0,0,0,0,0,0,0,0,0,0,0,437,438,437,438,0,
0,0,0,0,0,0,0,0,0,0,0,0,0,0,0,0,0,0,0,0,0,0,0,0,0,0,0,0,0,0,0,0,0,0,0,0,0,0,0,0,0,0,0,0,0,421,422,421,422,0,
0,0,0,0,0,0,0,0,0,0,0,0,0,0,0,0,0,0,0,0,0,0,0,0,0,0,0,0,0,0,0,0,0,0,0,0,0,0,0,0,0,0,0,0,0,429,430,429,430,0,
0,0,0,0,0,4437,4438,0,0,0,0,0,0,4437,4438,0,0,0,0,0,4437,4438,0,0,0,0,0,0,0,0,0,0,0,0,0,0,0,0,0,0,0,0,0,0,0,437,438,437,438,0,
0,0,0,0,0,4445,4446,0,0,0,0,0,0,4445,4446,0,0,0,0,0,4445,4446,0,0,0,0,0,0,0,0,0,0,0,0,0,0,0,0,0,0,0,0,0,0,0,421,422,421,422,0,
0,0,0,0,0,4453,4454,0,0,0,0,0,0,4453,4454,0,0,0,0,0,4453,4454,0,0,0,0,0,0,0,0,0,0,0,0,0,0,0,0,0,0,0,0,0,0,0,429,430,429,430,0,
0,0,0,0,0,0,0,0,0,0,0,0,0,0,0,0,0,0,0,0,0,0,0,0,0,0,0,0,0,0,0,0,0,0,0,0,0,0,0,0,0,0,0,0,0,437,438,437,438,0,
0,0,0,0,0,0,0,0,0,0,0,0,0,0,0,0,0,0,0,0,0,0,0,0,0,0,0,0,0,0,0,0,0,0,0,0,0,0,0,0,0,0,0,0,0,0,0,0,0,0
</data>
 </layer>
 <layer id="4" name="sopra_testa" width="50" height="150">
  <data encoding="csv">
0,0,0,0,0,0,0,0,0,0,0,0,0,0,0,0,0,0,0,0,0,0,0,0,0,0,0,0,0,0,0,0,0,0,0,0,0,0,0,0,0,0,0,0,0,0,0,0,0,0,
0,0,0,0,0,0,0,0,0,0,0,0,0,0,0,0,0,0,0,0,0,0,0,0,0,0,0,0,0,0,0,0,0,0,0,0,0,0,0,0,0,0,0,0,0,0,0,0,0,0,
0,0,0,0,0,0,0,0,0,0,0,0,0,0,0,0,0,0,0,0,0,0,0,0,0,0,0,0,0,0,0,0,0,0,0,0,0,0,0,0,0,0,0,0,0,0,0,0,0,0,
0,0,0,0,0,0,0,0,0,0,0,0,0,0,0,0,0,0,0,0,0,0,0,0,0,0,0,0,0,0,0,0,0,0,0,0,0,0,0,0,0,0,0,0,0,0,0,0,0,0,
0,0,0,0,0,0,0,0,0,0,0,0,0,0,0,0,0,0,0,0,0,0,0,0,0,0,0,0,0,0,0,0,0,0,0,0,0,0,0,0,0,0,0,0,0,0,0,0,0,0,
0,0,0,0,0,0,0,0,0,0,0,0,0,0,0,0,0,0,0,0,0,0,0,0,0,0,0,0,0,0,0,0,0,0,0,0,0,0,0,0,0,0,0,0,0,0,0,0,0,0,
0,0,0,0,0,0,0,0,0,0,0,0,0,0,0,0,0,0,0,0,0,0,0,0,0,0,0,0,0,0,1121,1122,0,0,0,0,0,0,0,0,0,0,0,0,0,0,0,0,0,0,
0,0,0,0,0,0,0,0,0,0,0,0,0,0,0,0,0,0,0,0,0,0,0,0,0,0,0,0,0,0,1129,1130,0,1121,1122,0,0,0,0,0,0,0,0,0,0,0,0,0,0,0,
0,0,0,0,0,0,0,0,0,0,0,0,0,0,0,0,0,0,0,0,0,0,0,0,0,0,0,0,0,0,0,0,0,1129,1130,0,0,0,0,0,0,0,0,0,0,0,0,0,0,0,
0,0,0,0,0,0,0,0,0,0,0,0,0,0,0,0,0,0,0,0,0,0,0,0,0,0,0,0,0,0,0,0,0,0,0,0,0,0,0,0,0,0,0,0,0,0,0,0,0,0,
0,0,0,0,0,0,0,0,0,0,0,0,0,0,0,0,0,0,0,0,0,0,0,0,0,0,0,0,0,0,0,0,0,0,0,0,0,0,0,0,0,0,0,0,0,0,0,0,0,0,
0,0,0,0,0,0,0,0,0,0,0,0,0,0,0,0,0,0,0,0,0,0,0,0,0,0,0,0,0,0,0,0,0,0,0,0,0,0,0,0,0,0,0,0,0,0,0,0,0,0,
0,0,0,0,0,0,0,0,0,0,0,0,0,0,0,0,0,0,0,0,0,0,0,0,0,0,0,0,0,0,0,0,0,0,0,0,0,0,0,0,0,0,0,0,0,0,0,0,0,0,
0,0,0,0,0,0,0,0,0,0,0,0,0,0,0,0,0,0,0,0,0,0,0,0,0,0,0,0,0,0,0,0,0,0,1121,1122,0,0,0,0,0,0,0,0,0,0,0,0,0,0,
0,0,0,0,0,0,0,0,0,0,0,0,0,0,0,0,0,0,0,0,0,0,0,0,0,0,0,0,0,0,0,0,0,0,1129,1130,0,0,0,0,0,0,0,0,0,0,0,0,0,0,
0,0,0,0,0,0,0,0,0,0,0,0,0,0,0,0,0,0,0,0,0,0,0,0,0,0,0,0,0,1121,1122,0,0,0,0,0,0,0,0,0,0,0,0,0,0,0,0,0,0,0,
0,0,0,0,0,0,0,0,0,0,0,0,0,0,0,0,0,0,0,0,0,0,0,0,0,0,0,0,0,1129,1130,0,0,0,0,0,0,0,0,0,0,0,0,0,0,0,0,0,0,0,
0,0,0,0,0,0,0,0,0,0,0,0,0,0,0,0,0,0,0,0,0,0,0,0,0,0,0,0,0,0,0,0,0,0,0,0,0,0,0,0,0,0,0,0,0,0,0,0,0,0,
0,0,0,0,0,0,0,0,0,0,0,0,0,0,0,0,0,0,0,0,0,0,0,0,0,0,0,0,0,0,0,0,0,0,0,0,0,0,0,0,0,0,0,0,0,0,0,0,0,0,
0,0,0,0,0,0,0,0,0,0,0,0,0,0,0,0,0,0,0,0,0,0,0,0,0,0,0,0,0,0,0,0,0,0,0,0,0,0,0,0,0,0,0,0,0,0,0,0,0,0,
0,0,0,0,0,0,0,0,0,0,0,0,0,0,0,0,0,0,0,0,0,0,0,0,0,0,0,0,0,0,0,0,0,0,0,0,0,0,0,0,0,0,0,0,0,0,0,0,0,0,
0,0,0,0,0,0,0,0,0,0,0,0,0,0,0,0,0,0,0,0,0,0,0,0,0,0,0,0,0,0,0,0,0,0,0,0,0,0,0,0,0,0,0,0,0,0,0,0,0,0,
0,0,0,0,0,0,0,0,0,0,0,0,0,0,0,0,0,0,0,0,0,0,0,0,0,0,0,0,0,0,0,0,0,0,0,0,0,0,0,0,0,0,0,0,0,0,0,0,0,0,
0,0,0,0,0,0,0,0,0,0,0,0,0,0,0,0,0,0,0,0,0,0,0,0,0,0,0,0,0,0,0,0,0,0,0,0,0,0,0,0,0,0,0,0,0,0,0,0,0,0,
0,0,0,0,0,0,0,0,0,0,0,0,0,0,0,0,0,0,0,0,0,0,0,0,0,0,0,0,0,0,0,0,0,0,0,0,0,0,0,0,0,0,0,0,0,0,0,0,0,0,
0,0,0,0,0,0,0,0,0,0,0,0,0,0,0,0,0,0,0,0,0,0,0,0,0,0,0,0,0,0,0,0,0,0,0,0,0,0,0,0,0,0,0,0,0,0,0,0,0,0,
0,0,0,0,0,0,0,0,0,0,0,0,0,0,0,0,0,0,0,0,0,0,0,0,0,0,0,0,0,0,0,0,0,0,0,0,0,0,0,0,0,0,0,0,0,0,0,0,0,0,
0,0,0,0,0,0,0,0,0,0,0,0,0,0,0,0,0,0,0,0,0,0,0,0,0,0,0,0,0,0,0,0,0,0,0,0,0,0,0,0,0,0,0,0,0,0,0,0,0,0,
0,0,0,0,0,0,0,0,0,0,0,0,0,0,0,0,0,0,0,0,0,0,0,0,0,0,0,0,0,0,0,0,0,0,0,0,0,0,0,0,0,0,0,0,0,0,0,0,0,0,
0,0,0,0,0,0,0,0,0,0,0,0,0,0,0,0,0,0,0,0,0,0,0,0,0,0,0,0,0,0,0,0,0,0,0,0,0,0,0,0,0,0,0,0,0,0,0,0,0,0,
0,0,0,0,0,0,0,0,0,0,0,0,0,0,0,0,0,0,0,0,0,0,0,0,0,0,0,0,0,0,0,0,0,0,0,0,0,0,0,0,0,0,0,0,0,0,0,0,0,0,
0,0,0,0,0,0,0,0,0,0,0,0,0,0,0,0,0,0,0,0,0,0,0,0,0,0,0,0,0,0,0,0,0,0,0,0,0,0,0,0,0,0,0,0,0,0,0,0,0,0,
0,0,0,0,0,0,0,0,0,0,0,0,0,0,0,0,0,0,0,0,0,0,0,0,0,0,0,0,0,0,0,0,0,0,0,0,0,0,0,0,0,0,0,0,0,0,0,0,0,0,
0,0,0,0,0,0,0,0,0,0,0,0,0,0,0,0,0,0,0,0,0,0,0,0,0,0,0,0,0,0,0,0,0,0,0,0,0,0,0,0,0,0,0,0,0,0,0,0,0,0,
0,0,0,0,0,0,0,0,0,0,0,0,0,0,0,0,0,0,0,0,0,0,0,0,0,0,0,0,0,0,0,0,0,0,0,0,0,0,0,0,0,0,0,0,0,0,0,0,0,0,
0,0,0,0,0,0,0,0,0,0,0,0,0,0,0,0,0,0,0,0,0,0,0,0,0,0,0,0,0,0,0,0,0,0,0,0,0,0,0,0,0,0,0,0,0,0,0,0,0,0,
0,0,0,0,0,0,0,0,0,0,0,0,0,0,0,0,0,0,0,0,0,0,0,0,0,0,0,0,0,0,0,0,0,0,0,0,0,0,0,0,0,0,0,0,0,0,0,0,0,0,
0,0,0,0,0,0,0,0,0,0,0,0,0,0,0,0,0,0,0,0,0,0,0,0,0,0,0,0,0,0,0,0,0,0,0,0,0,0,0,0,0,0,0,0,0,0,0,0,0,0,
0,0,0,0,0,0,0,0,0,0,0,0,0,0,0,0,0,0,0,0,0,0,0,0,0,0,0,0,0,0,0,0,0,0,0,0,0,0,0,0,0,0,0,0,0,0,0,0,0,0,
0,0,0,0,0,0,0,0,0,0,0,0,0,0,0,0,0,0,0,0,0,0,0,0,0,0,0,0,0,0,0,0,0,0,0,0,0,0,0,0,0,0,0,0,0,0,0,0,0,0,
0,0,0,0,0,0,0,0,0,0,0,0,0,0,0,0,0,0,0,0,0,0,0,0,0,0,0,0,0,0,0,0,0,0,0,0,0,0,0,0,0,0,0,0,0,0,0,0,0,0,
0,0,0,0,0,0,0,0,0,0,0,0,0,0,0,0,0,0,0,0,0,0,0,0,0,0,0,0,0,0,0,0,0,0,0,0,0,0,0,0,0,0,0,0,0,0,0,0,0,0,
0,0,0,0,0,0,0,0,0,0,0,0,0,0,0,0,0,0,0,0,0,0,0,0,0,0,0,0,0,0,0,0,0,0,0,0,0,0,0,0,0,0,0,0,0,0,0,0,0,0,
0,0,0,0,0,0,0,0,0,0,0,0,0,0,0,0,0,0,0,0,0,0,0,0,0,0,0,0,0,0,0,0,0,0,0,0,0,0,0,0,0,0,0,0,0,0,0,0,0,0,
0,0,0,0,0,0,0,0,0,0,0,0,0,0,0,0,0,0,0,0,0,0,0,0,0,0,0,0,0,0,0,0,0,0,0,0,0,0,0,0,0,0,0,0,0,0,0,0,0,0,
0,0,0,0,0,0,0,0,0,0,0,0,0,0,0,0,0,0,0,0,0,0,0,0,0,0,0,0,0,0,0,0,0,0,0,0,0,0,0,0,0,0,0,0,0,0,0,0,0,0,
0,0,0,0,0,0,0,0,0,0,0,0,0,0,0,0,0,0,0,0,0,0,0,0,0,0,0,0,0,0,0,0,0,0,0,0,0,0,0,0,0,0,0,0,0,0,0,0,0,0,
0,0,0,0,0,0,0,0,0,0,0,0,0,0,0,0,0,0,0,0,10216,0,0,0,0,0,0,0,0,0,0,0,0,0,0,0,0,0,0,0,0,0,0,0,0,0,0,0,0,0,
0,0,0,0,0,0,0,0,0,0,0,0,0,0,0,0,0,0,10255,0,0,0,0,0,0,0,0,0,0,0,0,0,0,0,0,0,0,0,0,0,0,0,0,0,0,0,0,0,0,0,
0,0,0,0,0,0,0,0,0,0,0,0,0,0,0,0,0,0,10255,0,0,0,0,0,0,0,0,0,0,0,0,0,0,0,0,0,0,0,0,0,0,0,0,0,0,0,0,0,0,0,
0,0,0,0,0,0,0,0,0,0,0,0,0,0,0,0,0,0,10255,0,0,0,0,0,0,0,0,0,0,0,0,0,0,0,0,0,0,0,0,0,0,0,0,0,0,0,0,0,0,0,
0,0,0,0,0,0,0,0,0,0,0,0,0,0,0,0,0,0,10255,0,0,0,0,0,0,0,0,0,0,0,0,0,0,0,0,0,0,0,0,0,0,0,0,0,0,0,0,0,0,0,
0,0,0,0,0,0,0,0,0,0,0,0,0,0,0,0,0,0,0,0,0,0,0,0,0,0,0,0,0,0,0,0,0,0,0,0,0,0,0,0,0,0,0,0,0,0,0,0,0,0,
0,0,0,0,0,0,0,0,0,0,0,0,0,0,0,0,0,0,0,10247,0,0,0,0,0,0,0,0,0,0,0,0,0,0,0,0,0,0,0,0,0,0,0,0,0,0,0,0,0,0,
0,0,0,0,0,0,0,0,0,0,0,0,0,0,0,0,0,10229,10229,10229,0,0,0,0,0,0,0,0,0,0,0,0,0,0,0,0,0,0,0,0,0,0,0,0,0,0,0,0,0,0,
0,0,0,0,0,0,0,0,0,0,0,0,0,0,0,0,0,0,0,0,0,0,0,0,0,0,0,0,0,0,0,0,0,0,0,0,0,0,0,0,0,0,0,0,0,0,0,0,0,0,
0,0,0,0,0,0,0,0,0,0,0,0,0,0,0,0,0,0,0,0,0,0,0,0,0,0,0,0,0,0,0,0,0,0,0,0,0,0,0,0,0,0,0,0,0,0,0,0,0,0,
0,0,0,0,0,0,0,0,0,0,0,0,0,0,0,0,0,0,0,0,0,0,0,0,0,0,0,0,0,0,0,0,0,0,0,0,0,0,0,0,0,0,0,0,0,0,0,0,0,0,
0,0,0,0,0,0,0,0,0,0,0,0,0,0,0,0,0,0,0,0,0,0,0,0,0,0,0,0,0,0,0,0,0,0,0,0,0,0,0,0,0,0,0,0,0,0,0,0,0,0,
0,0,0,0,0,0,0,0,0,0,0,0,0,0,0,0,0,0,0,0,0,0,0,0,0,0,0,0,0,0,0,0,0,0,0,0,0,0,0,0,0,0,0,0,0,0,0,0,0,0,
0,0,0,0,0,0,0,0,0,0,0,0,0,0,0,0,0,0,0,0,0,0,0,0,0,0,0,0,0,0,0,0,0,0,0,0,0,0,0,0,0,0,0,0,0,0,0,0,0,0,
0,0,0,0,0,0,0,0,0,0,0,0,0,0,0,0,0,0,0,0,0,0,0,0,0,0,0,0,0,0,0,0,0,0,0,0,0,0,0,0,0,0,0,0,0,0,0,0,0,0,
0,0,0,0,0,0,0,0,0,0,0,0,0,0,0,0,0,0,0,0,0,0,0,0,0,0,0,0,0,0,0,0,0,0,0,0,0,0,0,0,0,0,0,0,0,0,0,0,0,0,
0,0,0,0,0,0,0,0,0,0,0,0,0,0,0,0,0,0,0,0,0,0,0,0,0,0,0,0,0,0,0,0,0,0,0,0,0,0,0,0,0,0,0,0,0,0,0,0,0,0,
0,0,0,0,0,0,0,0,0,0,0,0,0,0,0,0,0,0,0,0,0,0,0,0,0,0,0,0,0,0,0,0,0,0,0,0,0,0,0,0,0,0,0,0,0,0,0,0,0,0,
0,0,0,0,0,0,0,0,0,0,0,0,0,0,0,0,0,0,0,0,0,0,0,0,0,0,0,0,0,0,0,0,0,0,0,0,0,0,0,0,0,0,0,0,0,0,0,0,0,0,
0,0,0,0,0,0,0,0,0,0,0,0,0,0,0,0,0,0,0,0,0,0,0,0,0,0,0,0,0,0,0,0,0,0,0,0,0,0,0,0,0,0,0,0,0,0,0,0,0,0,
0,0,0,0,0,0,0,0,0,0,0,0,0,0,0,0,0,0,0,0,0,0,0,0,0,0,0,0,0,0,0,0,0,0,0,0,0,0,0,0,0,0,0,0,0,0,0,0,0,0,
0,0,0,0,0,0,0,0,0,0,0,0,0,0,0,0,0,0,0,0,0,0,0,0,0,0,0,0,0,0,0,0,0,0,0,0,0,0,0,0,0,0,0,0,0,0,0,0,0,0,
0,0,0,0,0,0,0,0,0,0,0,0,0,0,0,0,0,0,0,0,0,0,0,0,0,0,0,0,0,0,0,0,0,0,0,0,0,0,0,0,0,0,0,0,0,0,0,0,0,0,
0,0,0,0,0,0,0,0,0,0,0,0,0,0,0,0,0,0,0,0,0,0,0,0,0,0,0,0,0,0,0,0,0,0,0,0,0,0,0,0,0,0,0,0,0,0,0,0,0,0,
0,0,0,0,0,0,0,0,0,0,0,0,0,0,0,0,0,0,0,0,0,0,0,0,0,0,0,0,0,0,0,0,0,0,0,0,0,0,0,0,0,0,0,0,0,0,0,0,0,0,
0,0,0,0,0,0,0,0,0,0,0,0,0,0,0,0,0,0,0,0,0,0,0,0,0,0,0,0,0,0,0,0,0,0,0,0,0,0,0,0,0,0,0,0,0,0,0,0,0,0,
0,0,0,0,0,0,0,0,0,0,0,0,0,0,0,0,0,0,0,0,0,0,0,0,0,0,0,0,0,0,0,0,0,0,0,0,0,0,0,0,0,0,0,0,0,0,0,0,0,0,
0,0,0,0,0,0,0,0,0,0,0,0,0,0,0,0,0,0,0,0,0,0,0,0,0,0,0,0,0,0,0,0,0,0,0,0,0,0,0,0,0,0,0,0,0,0,0,0,0,0,
0,0,0,0,0,0,0,0,0,0,0,0,0,0,0,0,0,0,0,0,0,0,0,0,0,0,0,0,0,0,0,0,0,0,0,0,0,0,0,0,0,0,0,0,0,0,0,0,0,0,
0,0,0,0,0,0,0,0,0,0,0,0,0,0,0,0,0,0,0,0,0,0,0,0,0,0,0,0,0,0,0,0,0,0,0,0,0,0,0,0,0,0,0,0,0,0,0,0,0,0,
0,0,0,0,0,0,0,0,0,0,0,0,0,0,0,0,0,0,0,0,0,0,0,0,0,0,0,0,0,0,0,0,0,0,0,0,0,0,0,0,0,0,0,0,0,0,0,0,0,0,
0,0,0,0,0,0,0,0,0,0,0,0,0,0,0,0,0,0,0,0,0,0,0,0,0,0,0,0,0,0,0,0,0,0,0,0,0,0,0,0,0,0,0,0,0,0,0,0,0,0,
0,0,0,0,0,0,0,0,0,0,0,0,0,0,0,0,0,0,0,0,0,0,0,0,0,0,0,0,0,0,0,0,0,0,0,0,0,0,0,0,0,0,0,0,0,0,0,0,0,0,
0,0,0,0,0,0,0,0,0,0,0,0,0,0,0,0,0,0,0,0,0,0,0,0,0,0,0,0,0,0,0,0,0,0,0,0,0,0,0,0,0,0,0,0,0,0,0,0,0,0,
0,0,0,0,0,0,0,0,0,0,0,0,0,0,0,0,0,0,0,0,0,0,0,0,0,0,0,0,0,0,0,0,0,0,0,0,0,0,0,0,0,0,0,0,0,0,0,0,0,0,
0,0,0,0,0,0,0,0,0,0,0,0,0,0,0,0,0,0,0,0,0,0,0,0,0,0,0,0,0,0,0,0,0,0,0,0,0,0,0,0,0,0,0,0,0,0,0,0,0,0,
0,0,0,0,0,0,0,0,0,0,0,0,0,0,0,0,0,0,0,0,0,0,0,0,0,0,0,0,0,0,0,0,0,0,0,0,0,0,0,0,0,0,0,0,0,0,0,0,0,0,
0,0,0,0,0,0,0,0,0,0,0,0,0,0,0,0,0,0,0,0,0,0,0,0,0,0,0,0,0,0,0,0,0,0,0,0,0,0,0,0,0,0,0,0,0,0,0,0,0,0,
0,0,0,0,0,0,0,0,0,0,0,0,0,0,0,0,0,0,0,0,0,0,0,0,0,0,0,0,0,0,0,0,0,0,0,0,0,0,0,0,0,0,0,0,0,0,0,0,0,0,
0,0,0,0,0,0,0,0,0,0,0,0,0,0,0,0,0,0,0,0,0,0,0,0,0,0,0,0,0,0,0,0,0,0,0,0,0,0,0,0,0,0,0,0,0,0,0,0,0,0,
0,0,0,0,0,0,0,0,0,0,0,0,0,0,0,0,0,0,0,0,0,0,0,0,0,0,0,0,0,0,0,0,0,0,0,0,0,0,0,0,0,0,0,0,0,0,0,0,0,0,
0,0,0,0,0,0,0,0,0,0,0,0,0,0,0,0,0,0,0,0,0,0,0,0,0,0,0,0,0,0,0,0,0,0,0,0,0,0,0,0,0,0,0,0,0,0,0,0,0,0,
0,0,0,0,0,0,0,0,0,0,0,0,0,0,0,0,0,0,0,0,0,0,0,0,0,0,0,0,0,0,0,0,0,0,0,0,0,0,0,0,0,0,0,0,0,0,0,0,0,0,
0,0,0,0,0,0,0,0,0,0,0,0,0,0,0,0,0,0,0,0,0,0,0,0,0,0,0,0,0,0,0,0,0,0,0,0,0,0,0,0,0,0,0,0,0,0,0,0,0,0,
0,0,0,0,0,0,0,0,0,0,0,0,0,0,0,0,0,0,0,0,0,0,0,0,0,0,0,0,0,0,0,0,0,0,0,0,0,0,0,0,0,0,0,0,0,0,0,0,0,0,
0,0,0,0,0,0,0,0,0,0,0,0,0,0,0,0,0,0,0,0,0,0,0,0,0,0,0,0,0,0,0,0,0,0,0,0,0,0,0,0,0,0,0,0,0,0,0,0,0,0,
0,0,0,0,0,0,0,0,0,0,0,0,0,0,0,0,0,0,0,0,0,0,0,0,0,0,0,0,0,0,0,0,0,0,0,0,0,0,0,0,0,0,0,0,0,0,0,0,0,0,
0,0,0,0,0,0,4810,4810,0,0,0,0,0,0,0,0,0,0,0,0,0,0,0,0,0,0,0,0,0,0,0,0,0,0,0,0,0,0,0,0,0,0,0,0,0,0,0,0,0,0,
0,0,0,0,0,0,4794,4813,0,0,0,0,0,0,0,0,0,0,0,0,0,0,0,0,0,0,0,0,0,0,0,0,0,0,0,0,0,0,0,0,0,0,0,0,0,0,0,0,0,0,
0,0,0,0,0,0,0,0,0,0,0,0,0,0,0,0,0,0,0,0,0,0,0,0,0,0,0,0,0,0,0,0,0,0,0,0,0,0,0,0,0,0,0,0,0,0,0,0,0,0,
0,0,0,0,0,0,0,0,0,0,0,0,0,0,0,0,0,0,0,0,0,0,0,0,0,0,0,0,0,0,0,0,0,0,0,0,0,0,0,0,0,0,0,0,0,0,0,0,0,0,
0,0,0,0,0,0,0,0,0,0,0,0,0,0,0,0,0,0,0,0,0,0,0,0,0,0,0,0,0,0,0,0,0,0,0,0,0,0,0,0,0,0,0,0,0,0,0,0,0,0,
0,0,0,0,0,0,0,0,0,0,0,0,0,0,0,0,0,0,0,0,0,0,0,0,0,0,0,0,0,0,0,0,0,0,0,0,0,0,0,0,0,0,0,0,0,0,0,0,0,0,
0,0,0,0,0,0,0,0,0,0,0,0,0,0,0,0,0,0,0,0,0,0,0,0,0,0,0,0,0,0,0,0,0,0,0,0,0,0,0,0,0,0,0,0,0,0,0,0,0,0,
0,0,0,0,0,0,0,0,0,0,0,0,0,0,0,0,0,0,0,0,0,0,0,0,0,0,0,0,0,0,0,0,0,0,0,0,0,0,0,0,0,0,0,0,0,0,0,0,0,0,
0,0,0,0,0,0,0,0,0,0,0,0,0,0,0,0,0,0,0,0,0,0,0,0,0,0,0,0,0,0,0,0,0,0,0,0,0,0,0,0,0,0,0,0,0,0,0,0,0,0,
0,0,0,0,0,0,0,0,0,0,0,0,0,0,0,0,0,0,0,0,0,0,0,0,0,0,0,0,0,0,0,0,0,0,0,0,0,0,0,0,0,0,0,0,0,0,0,0,0,0,
0,0,0,0,0,0,0,0,0,0,0,0,0,0,0,0,0,0,0,0,0,0,0,0,0,0,0,0,0,0,0,0,0,0,0,0,0,0,0,0,0,0,0,0,0,0,0,0,0,0,
0,0,0,0,0,0,0,0,0,0,0,0,0,0,0,0,0,0,0,0,0,0,0,0,0,0,0,0,0,0,0,0,0,0,0,0,0,0,0,0,0,0,0,0,0,0,0,0,0,0,
0,0,0,0,0,0,0,0,0,0,0,0,0,0,0,0,0,0,0,0,0,0,0,0,0,0,0,0,0,0,0,0,0,0,0,0,0,0,0,0,0,0,0,0,0,0,0,0,0,0,
0,0,0,0,0,0,0,0,0,0,0,0,0,0,0,0,0,0,0,0,0,0,0,0,0,0,0,0,0,0,0,0,0,0,0,0,0,0,0,0,0,0,0,0,0,0,0,0,0,0,
0,0,0,0,0,0,0,0,0,0,0,0,0,0,0,0,0,0,0,0,0,0,0,0,0,0,0,0,0,0,0,0,0,0,0,0,0,0,0,0,0,0,0,0,0,0,0,0,0,0,
0,0,0,0,0,0,0,0,0,0,0,0,0,0,0,0,0,0,0,0,0,0,0,0,0,0,0,0,0,0,0,0,0,0,0,0,0,0,0,0,0,0,0,0,0,0,0,0,0,0,
421,422,421,422,421,422,0,0,0,0,0,0,0,0,0,0,0,0,0,0,0,0,0,0,0,0,0,0,0,0,0,0,0,0,0,0,0,0,0,0,0,0,0,0,0,0,0,0,0,0,
429,430,429,430,429,430,0,0,0,0,0,0,0,0,0,0,0,0,0,0,0,0,0,0,0,0,0,0,0,0,0,0,0,0,0,0,0,0,0,0,0,0,0,0,0,0,0,0,0,0,
437,438,437,438,437,438,0,0,0,0,0,0,0,0,0,0,0,0,0,0,0,0,0,0,0,0,0,0,0,0,0,0,0,0,0,0,0,0,0,0,0,0,0,0,0,0,0,0,0,0,
0,0,0,0,0,0,0,0,0,0,0,0,0,0,0,0,0,0,0,0,0,0,0,0,0,0,0,0,0,0,0,0,0,0,0,0,0,0,0,0,0,0,0,0,0,0,0,0,0,0,
0,0,0,0,0,0,0,0,0,0,0,0,0,0,0,0,0,0,0,0,0,0,0,0,0,0,0,0,0,0,0,0,0,0,0,0,0,0,0,0,0,0,0,0,0,0,0,0,0,0,
0,0,0,0,0,0,0,0,0,0,0,0,0,0,0,0,0,0,0,0,0,0,0,0,0,0,0,0,0,0,0,0,0,0,0,0,0,0,0,0,0,0,0,0,0,0,0,0,0,0,
0,0,0,0,0,0,0,0,0,0,0,0,0,0,0,0,0,0,0,0,0,0,0,0,0,0,0,0,0,0,0,0,0,0,0,0,0,0,0,0,0,0,0,0,0,0,0,0,0,0,
0,0,0,0,0,0,0,0,0,0,0,0,0,0,0,0,0,0,0,0,0,0,0,0,0,0,0,0,0,0,0,0,0,0,0,0,0,0,0,0,0,0,0,0,0,0,0,0,0,0,
0,0,0,0,0,0,0,0,0,0,0,0,0,0,0,0,0,0,0,0,0,0,0,0,0,0,0,0,0,0,0,0,0,0,0,0,0,0,0,0,0,0,0,0,0,0,0,0,0,0,
0,0,0,0,0,0,0,0,0,0,0,0,0,0,0,0,0,0,0,0,0,0,0,0,0,0,0,0,0,0,0,0,0,0,0,0,0,0,0,0,0,0,0,0,0,0,0,0,0,0,
0,0,0,0,0,0,0,0,0,0,0,0,0,0,0,0,0,0,0,0,0,0,0,0,0,0,0,0,0,0,0,0,0,0,0,0,0,0,0,0,0,0,0,0,0,0,0,0,0,0,
0,0,0,0,0,0,0,0,0,0,0,0,0,0,0,0,0,0,0,0,0,0,0,0,0,0,0,0,0,0,0,0,0,0,0,0,0,0,0,0,0,0,0,0,0,0,0,0,0,0,
0,0,0,0,0,0,0,0,0,0,0,0,0,0,0,0,0,0,0,0,0,0,0,0,0,0,0,0,0,0,0,0,0,0,0,0,0,0,0,0,0,0,0,0,0,0,0,0,0,0,
0,0,0,0,0,0,0,0,0,0,0,0,0,0,0,0,0,0,0,0,0,0,0,0,0,0,0,0,0,0,0,0,0,0,0,0,0,0,0,0,0,0,0,0,0,0,0,0,0,0,
0,0,0,0,0,0,0,0,0,0,0,0,0,0,0,0,0,0,0,0,0,0,0,0,0,0,0,0,0,0,0,0,0,0,0,0,0,0,0,0,0,0,0,0,0,0,0,0,0,0,
0,0,0,0,0,0,0,0,0,0,0,0,0,0,0,0,0,0,0,0,0,0,0,0,0,0,0,0,0,0,0,0,0,0,0,0,0,0,0,0,0,0,0,0,0,0,0,0,0,0,
0,0,0,0,0,0,0,0,0,0,0,0,0,0,0,0,0,0,0,0,0,0,0,0,0,0,0,0,0,0,0,0,0,0,0,0,0,0,0,0,0,0,0,0,0,0,0,0,0,0,
0,0,0,0,0,0,0,0,0,0,0,0,0,0,0,0,0,0,0,0,0,0,0,0,0,0,0,0,0,0,0,0,0,0,0,0,0,0,0,0,0,0,0,0,0,0,0,0,0,0,
0,0,0,0,0,0,0,0,0,0,0,0,0,0,0,0,0,0,0,0,0,0,0,0,0,0,0,0,0,0,0,0,0,0,0,0,0,0,0,0,0,0,0,0,0,0,0,0,0,0,
0,0,0,0,0,0,0,0,0,0,0,0,0,0,0,0,0,0,0,0,0,0,0,0,0,0,0,0,0,0,0,0,0,0,0,0,0,0,0,0,0,0,0,0,0,0,0,0,0,0,
0,0,0,0,0,0,0,0,0,0,0,0,0,0,0,0,0,0,0,0,0,0,0,0,0,0,0,0,0,0,0,0,0,0,0,0,0,0,0,0,0,0,0,0,0,0,0,0,0,0,
0,0,0,0,0,0,0,0,0,0,0,0,0,0,0,0,0,0,0,0,0,0,0,0,0,0,0,0,0,0,0,0,0,0,0,0,0,0,0,0,0,0,0,0,0,0,0,0,0,0,
0,0,0,0,0,0,0,0,0,0,0,0,0,0,0,0,0,0,0,0,0,0,0,0,0,0,0,0,0,0,0,0,0,0,0,0,0,0,0,0,0,0,0,0,0,0,0,0,0,0,
0,0,0,0,0,0,0,0,0,0,0,0,0,0,0,0,0,0,0,0,0,0,0,0,0,0,0,0,0,0,0,0,0,0,0,0,0,0,0,0,0,0,0,0,0,0,0,0,0,0,
0,0,0,0,0,0,0,0,0,0,0,0,0,0,0,0,0,0,0,0,0,0,0,0,0,0,0,0,0,0,0,0,0,0,0,0,0,0,0,0,0,0,0,0,0,0,0,0,0,0,
0,0,0,0,0,0,0,0,0,0,0,0,0,0,0,0,0,0,0,0,0,0,0,0,0,0,0,0,0,0,0,0,0,0,0,0,0,0,0,0,0,0,0,0,0,0,0,0,0,0,
0,0,0,0,0,0,0,0,0,0,0,0,0,0,0,0,0,0,0,0,0,0,0,0,0,0,0,0,0,0,0,0,0,0,0,0,0,0,0,0,0,0,0,0,0,0,0,0,0,0,
0,0,0,0,0,0,0,0,0,0,0,0,0,0,0,0,0,0,0,0,0,0,0,0,0,0,0,0,0,0,0,0,0,0,0,0,0,0,0,0,0,0,0,0,0,0,0,0,0,0,
0,0,0,0,0,0,0,0,0,0,0,0,0,0,0,0,0,0,0,0,0,0,0,0,0,0,0,0,0,0,0,0,0,0,0,0,0,0,0,0,0,0,0,0,0,0,0,0,0,0,
0,0,0,0,0,0,0,0,0,4786,4786,0,0,0,0,0,0,0,0,0,0,0,0,0,0,0,0,0,0,0,0,0,0,0,0,0,0,0,0,0,0,0,0,0,0,0,0,0,0,0,
0,0,0,0,0,0,0,0,0,4786,4786,0,0,0,0,0,0,0,0,0,0,0,0,0,0,0,0,0,0,0,0,0,0,0,0,0,0,0,0,0,0,0,0,0,0,0,0,0,0,0,
0,0,0,0,0,0,0,0,0,0,0,0,0,0,0,0,0,0,0,0,0,0,0,0,0,0,0,0,0,0,0,0,0,0,0,0,0,0,0,0,0,0,0,0,0,0,0,0,0,0,
0,0,0,0,0,0,0,0,0,0,0,0,0,0,0,0,0,0,0,0,0,0,0,0,0,0,0,0,0,0,0,0,0,0,0,0,0,0,0,0,0,0,0,0,0,0,0,0,0,0,
0,0,0,0,0,0,0,0,0,0,0,0,0,0,0,0,0,0,0,0,0,0,0,0,0,0,0,0,0,0,0,0,0,0,0,0,0,0,0,0,0,0,0,0,0,0,0,0,0,0,
0,0,0,0,0,0,0,0,0,0,0,0,0,0,0,0,0,0,0,0,0,0,0,0,0,0,0,0,0,0,0,0,0,0,0,0,0,0,0,0,0,0,0,0,0,0,0,0,0,0,
0,0,0,0,0,0,0,0,0,0,0,0,0,0,0,0,0,0,0,0,0,0,0,0,0,0,0,0,0,0,0,0,0,0,0,0,0,0,0,0,0,0,0,0,0,0,0,0,0,0,
0,0,0,0,0,0,0,0,0,0,0,0,0,0,0,0,0,0,0,0,0,0,0,0,0,0,0,0,0,0,0,0,0,0,0,0,0,0,0,0,0,0,0,0,0,0,0,0,0,0,
0,0,0,0,0,0,0,0,0,0,0,0,0,0,0,0,0,0,0,0,0,0,0,0,0,0,0,0,0,0,0,0,0,0,0,0,0,0,0,0,0,0,0,0,0,0,0,0,0,0,
0,0,0,0,0,0,0,0,0,0,0,0,0,0,0,0,0,0,0,0,0,0,0,0,0,0,0,0,0,0,0,0,0,0,0,0,0,0,0,0,0,0,0,0,0,0,0,0,0,0,
0,0,0,0,0,0,0,0,0,0,0,0,0,0,0,0,0,0,0,0,0,0,0,0,0,0,0,0,0,0,0,0,0,0,0,0,0,0,0,0,0,0,0,0,0,0,0,0,0,0
</data>
 </layer>
 <objectgroup id="6" name="collisioni">
  <object id="13" x="5.33333" y="3784" width="109.333" height="552"/>
  <object id="14" x="14.6667" y="4461.33" width="41.3333" height="321.333"/>
  <object id="15" x="41.3333" y="4753.33" width="714.667" height="49.3333"/>
  <object id="16" x="710.667" y="4458.67" width="49.3333" height="320"/>
  <object id="17" x="350.667" y="4453.33" width="389.333" height="52"/>
  <object id="18" x="37.3333" y="4454.67" width="242.667" height="46.6667"/>
  <object id="19" x="78.6667" y="4480" width="29.3333" height="82.6667"/>
  <object id="20" x="172" y="4666.67" width="30.6667" height="53.3333"/>
  <object id="21" x="433.333" y="4664" width="29.3333" height="56"/>
  <object id="22" x="649.333" y="4674.67" width="36" height="50.6667"/>
  <object id="23" x="648" y="4508" width="45.3333" height="49.3333"/>
  <object id="24" x="526.667" y="4497.33" width="41.3333" height="64"/>
  <object id="25" x="1448" y="4412" width="140" height="370.667"/>
  <object id="26" x="1106.67" y="4773.33" width="478.667" height="22.6667"/>
  <object id="27" x="1098.67" y="4616" width="13.3333" height="160"/>
  <object id="28" x="1072" y="4613.33" width="14.6667" height="9.33333"/>
  <object id="29" x="976" y="4366.67" width="6.66667" height="245.333"/>
  <object id="30" x="982.667" y="4612" width="29.3333" height="17.3333"/>
  <object id="31" x="989.333" y="4352" width="574.667" height="13.3333"/>
  <object id="32" x="1412" y="4168" width="36" height="181.333"/>
  <object id="33" x="1046.67" y="4168" width="365.333" height="8"/>
  <object id="34" x="1042.67" y="3912" width="62.6667" height="253.333"/>
  <object id="35" x="1109.33" y="4108" width="246.667" height="60"/>
  <object id="36" x="1321.33" y="2824" width="185.333" height="1325.33"/>
  <object id="37" x="1038.67" y="2825.33" width="328" height="50.6667"/>
  <object id="38" x="1032" y="2850.67" width="77.3333" height="138.667"/>
  <object id="39" x="1045.33" y="3085.33" width="60" height="748"/>
  <object id="40" x="1428" y="12" width="170.667" height="2800"/>
  <object id="41" x="12" y="8" width="157.333" height="829.333"/>
  <object id="42" x="25.3333" y="845.333" width="153.333" height="1268"/>
  <object id="43" x="293.333" y="874.667" width="48" height="1224"/>
  <object id="44" x="261.333" y="2030.67" width="34.6667" height="61.3333"/>
  <object id="45" x="266.667" y="940" width="36" height="1085.33"/>
  <object id="46" x="372" y="933.333" width="826.667" height="134.667"/>
  <object id="47" x="388" y="1056" width="558.667" height="346.667"/>
  <object id="48" x="412" y="1348" width="88" height="672"/>
  <object id="49" x="501.333" y="1545.33" width="49.3333" height="281.333"/>
  <object id="50" x="554.667" y="1740" width="384" height="106.667"/>
  <object id="51" x="636" y="1837.33" width="314.667" height="181.333"/>
  <object id="52" x="1006.67" y="1742.67" width="160" height="285.333"/>
  <object id="53" x="1073.33" y="1300" width="98.6667" height="477.333"/>
  <object id="54" x="1102.67" y="1108" width="72" height="206.667"/>
  <object id="55" x="940" y="1090.67" width="169.333" height="73.3333"/>
  <object id="56" x="1181.33" y="1088" width="48" height="1321.33"/>
  <object id="57" x="718.667" y="2130.67" width="461.333" height="228"/>
  <object id="58" x="1077.33" y="2028" width="96" height="104"/>
  <object id="59" x="653.333" y="2132" width="40" height="241.333"/>
  <object id="60" x="674.667" y="2097.33" width="17.3333" height="32"/>
  <object id="61" x="351" y="1019.33" width="74.6667" height="917.67"/>
  <object id="63" x="8" y="2126.67" width="173.333" height="820"/>
  <object id="64" x="74.6667" y="2970.67" width="114.667" height="145.333"/>
  <object id="65" x="227.333" y="3073.66" width="77.3333" height="60"/>
  <object id="66" x="108" y="3133.33" width="79.6667" height="56"/>
  <object id="67" x="10.6667" y="2930.67" width="165.333" height="674.667"/>
  <object id="68" x="4" y="3620" width="678.667" height="85.3333"/>
  <object id="69" x="625.333" y="3706.67" width="65.3333" height="130.667"/>
  <object id="70" x="613.333" y="3917.33" width="81.3333" height="417.333"/>
  <object id="71" x="482.667" y="4269.33" width="138.667" height="73.3333"/>
  <object id="72" x="358.667" y="4325.33" width="77.3333" height="16"/>
  <object id="73" x="120" y="4326.67" width="156" height="13.3333"/>
  <object id="74" x="172" y="4264" width="109.333" height="10.6667"/>
  <object id="75" x="354.667" y="4264" width="120" height="14.6667"/>
  <object id="76" x="684" y="1405.33" width="290.667" height="176"/>
  <object id="77" x="622.667" y="1552" width="280" height="104"/>
  <object id="78" x="638.667" y="1666.67" width="254.667" height="17.3333"/>
  <object id="79" x="876" y="128" width="22.6667" height="494.667"/>
  <object id="80" x="894.667" y="621.333" width="332" height="6.66667"/>
  <object id="81" x="1224" y="125.333" width="1.33333" height="501.333"/>
  <object id="82" x="966.667" y="100" width="173.333" height="16"/>
  <object id="83" x="900" y="85.3333" width="58.6667" height="24"/>
  <object id="84" x="1157.33" y="84" width="45.3333" height="22.6667"/>
  <object id="85" x="340" y="17.3333" width="64" height="156"/>
  <object id="86" x="426.667" y="198.667" width="70.6667" height="125.333"/>
  <object id="90" x="340" y="357" width="62" height="143"/>
  <object id="91" x="429" y="529" width="73" height="128"/>
  <object id="92" x="330" y="642" width="75" height="141"/>
  <object id="94" x="813" y="4006" width="245" height="81"/>
  <object id="95" x="710" y="3910" width="80" height="81"/>
  <object id="96" x="706" y="3827" width="347" height="12"/>
  <object id="97" x="800" y="3907" width="236" height="10"/>
  <object id="98" x="294" y="3080" width="191" height="18"/>
  <object id="99" x="260" y="2980" width="188.667" height="24"/>
  <object id="100" x="294" y="3091" width="7" height="70"/>
  <object id="101" x="231" y="3140" width="78" height="14"/>
  <object id="102" x="459" y="3081" width="237" height="69"/>
  <object id="103" x="613" y="2921" width="75" height="79"/>
  <object id="104" x="466" y="2921" width="73" height="75"/>
  <object id="105" x="713" y="3085" width="19" height="11"/>
  <object id="106" x="756" y="3107" width="62" height="81"/>
  <object id="107" x="845" y="3183" width="65" height="64"/>
  <object id="108" x="939" y="3109" width="80" height="82"/>
  <object id="109" x="731" y="3076" width="300" height="6"/>
  <object id="110" x="701" y="2985" width="332" height="17"/>
  <object id="111" x="454" y="2337" width="79" height="44"/>
  <object id="112" x="462" y="2118" width="63" height="204"/>
  <object id="113" x="631" y="2090" width="61" height="226"/>
  <object id="114" x="613" y="2370" width="50" height="535"/>
  <object id="115" x="486" y="2358" width="47" height="566"/>
  <object id="116" x="713" y="3723" width="307" height="75"/>
  <object id="117" x="776" y="2953" width="14" height="13"/>
  <object id="118" x="811" y="2957" width="13" height="9"/>
  <object id="119" x="900" y="2953" width="33" height="17"/>
  <object id="120" x="258" y="2089" width="49" height="878"/>
 </objectgroup>
 <objectgroup color="#ff0000" id="5" name="eventi">
  <object id="1" name="trainer" type="trainer" x="1344" y="320" width="32" height="32">
   <properties>
    <property name="direzione" value="sud"/>
    <property name="id" value="all-p9-1"/>
    <property name="sprite" value="YOUNGSTER"/>
    <property name="type" value="trainer"/>
    <property name="vista" type="int" value="5"/>
   </properties>
  </object>
  <object id="2" name="trainer" type="trainer" x="1216" y="832" width="32" height="32">
   <properties>
    <property name="direzione" value="ovest"/>
    <property name="id" value="all-p9-2"/>
    <property name="sprite" value="LASS"/>
    <property name="type" value="trainer"/>
    <property name="vista" type="int" value="5"/>
   </properties>
  </object>
  <object id="3" name="trainer" type="trainer" x="522.667" y="794.667" width="32" height="32">
   <properties>
    <property name="direzione" value="est"/>
    <property name="id" value="all-p9-3"/>
    <property name="sprite" value="BLACKBELT"/>
    <property name="type" value="trainer"/>
    <property name="vista" type="int" value="4"/>
   </properties>
  </object>
  <object id="4" name="trainer" type="trainer" x="581.333" y="1506.67" width="32" height="32">
   <properties>
    <property name="direzione" value="sud"/>
    <property name="id" value="all-p9-4"/>
    <property name="sprite" value="SCIENTIST"/>
    <property name="type" value="trainer"/>
    <property name="vista" type="int" value="6"/>
   </properties>
  </object>
  <object id="5" name="trainer" type="trainer" x="1016" y="2057.33" width="32" height="32">
   <properties>
    <property name="direzione" value="ovest"/>
    <property name="id" value="all-p9-5"/>
    <property name="sprite" value="BIKER"/>
    <property name="type" value="trainer"/>
    <property name="vista" type="int" value="6"/>
   </properties>
  </object>
  <object id="6" name="trainer" type="trainer" x="352" y="3758.67" width="32" height="32">
   <properties>
    <property name="direzione" value="est"/>
    <property name="id" value="all-p9-6"/>
    <property name="sprite" value="HIKER"/>
    <property name="type" value="trainer"/>
    <property name="vista" type="int" value="5"/>
   </properties>
  </object>
  <object id="7" name="trainer" type="trainer" x="1024" y="2400" width="32" height="32">
   <properties>
    <property name="direzione" value="ovest"/>
    <property name="id" value="all-p9-7"/>
    <property name="sprite" value="BEAUTY"/>
    <property name="type" value="trainer"/>
    <property name="vista" type="int" value="5"/>
   </properties>
  </object>
  <object id="8" name="trainer" type="trainer" x="380" y="1955.33" width="32" height="32">
   <properties>
    <property name="direzione" value="sud"/>
    <property name="id" value="all-p9-8"/>
    <property name="sprite" value="GENTLEMAN"/>
    <property name="type" value="trainer"/>
    <property name="vista" type="int" value="6"/>
   </properties>
  </object>
  <object id="9" name="trainer" type="trainer" x="1148" y="3954.67" width="32" height="32">
   <properties>
    <property name="direzione" value="nord"/>
    <property name="id" value="all-p9-9"/>
    <property name="sprite" value="BLACKBELT"/>
    <property name="type" value="trainer"/>
    <property name="vista" type="int" value="6"/>
   </properties>
  </object>
  <object id="10" name="oggetto" type="oggetto" x="1060" y="1249.33" width="32" height="32">
   <properties>
    <property name="contenuto" value="mt02"/>
    <property name="type" value="oggetto"/>
   </properties>
  </object>
  <object id="11" name="oggetto" type="oggetto" x="450" y="3200" width="32" height="32">
   <properties>
    <property name="contenuto" value="iperpozione"/>
    <property name="quantità" value="2"/>
    <property name="type" value="oggetto"/>
   </properties>
  </object>
  <object id="12" name="trainer" type="trainer" x="1252" y="1816" width="32" height="32">
   <properties>
    <property name="direzione" value="sudrocca_di_papa"/>
    <property name="id" value="all-p9-4"/>
    <property name="sprite" value="SCIENTIST"/>
    <property name="type" value="trainer"/>
    <property name="vista" type="int" value="6"/>
   </properties>
  </object>
  <object id="93" name="erba_alta" type="erba_alta" x="110" y="44" width="192" height="192">
   <properties>
    <property name="id" value="incontri percorso 9"/>
    <property name="type" value="erba_alta"/>
   </properties>
  </object>
  <object id="94" name="cartello_verso_ariccia" type="cartello" x="573.5" y="94" width="32" height="32">
   <properties>
    <property name="testo" value="Ariccia, terra di fraschette →"/>
    <property name="type" value="cartello"/>
   </properties>
  </object>
  <object id="121" name="oggetto" type="oggetto" x="355" y="2501" width="32" height="32">
   <properties>
    <property name="contenuto" value="mt02"/>
    <property name="type" value="oggetto"/>
   </properties>
  </object>
  <object id="122" name="oggetto" type="oggetto" x="602" y="3269" width="32" height="32">
   <properties>
    <property name="contenuto" value="mt02"/>
    <property name="type" value="oggetto"/>
   </properties>
  </object>
 </objectgroup>
</map>
