<?xml version="1.0" encoding="UTF-8"?>
<map version="1.10" tiledversion="1.12.2" orientation="orthogonal" renderorder="right-down" width="106" height="60" tilewidth="32" tileheight="32" infinite="0" nextlayerid="6" nextobjectid="100">
 <editorsettings>
  <export target="Percorso_5.tmj" format="json"/>
 </editorsettings>
 <tileset firstgid="1" source="../Outside_pallet.tsx"/>
 <tileset firstgid="4017" source="../Sea.tsj"/>
 <tileset firstgid="4115" source="../Waterfall crest.tsj"/>
 <tileset firstgid="4119" source="../Waterfall.tsj"/>
 <tileset firstgid="4126" source="../Waterfall bottom.tsj"/>
 <tileset firstgid="4130" source="../../outside.tsx"/>
 <tileset firstgid="8146" source="../outside.tsx"/>
 <tileset firstgid="12162" source="../fiori_rossi_animati_v2.tsj"/>
 <layer id="1" name="ground" width="106" height="60">
  <data encoding="csv">
0,0,0,0,0,0,0,0,0,0,0,0,0,0,0,0,0,0,0,0,0,0,0,0,0,0,0,0,3,3,5,4,4,4,3,3,6,154,155,156,4,4,3,4,6,4,6,5,3,4,6,5,5,4,4,5,3,3,6,3,5,5,5,3,6,3,6,3,4134,4925,4925,4925,4925,4925,4925,4925,4132,4132,4132,4132,4132,4132,4132,4132,4132,4132,4132,4132,4132,4132,4132,4132,4132,4132,4132,4132,4132,4132,4132,4132,4132,4132,4132,4132,4132,4132,
0,0,0,0,0,0,0,0,0,0,0,0,0,0,0,0,0,0,0,0,0,0,0,0,0,0,0,0,5,5,4,3,3,4,5,3,4,162,163,164,6,5,4,5,5,4,5,3,4,4,4,6,6,5,4,5,3,4,3,5,6,5,3,4,5,4,6,6,4134,4925,4925,4925,4925,4925,4925,4925,4132,4132,4132,4132,4132,4132,4132,4132,4132,4132,4132,4132,4132,4132,4132,4132,4132,4132,4132,4132,4132,4132,4132,4132,4132,4132,4132,4132,4132,4132,
0,0,0,0,0,0,0,0,0,0,0,0,0,0,0,0,0,0,0,0,0,0,0,0,0,0,0,0,6,4,5,4,4,5,6,6,5,162,163,164,3,3,3,4,4,6,3,6,6,6,5,3,3,5,785,786,786,788,789,789,788,789,789,789,789,789,789,790,4134,4925,4925,4925,4925,4925,4925,4925,4132,4132,4132,4132,4132,4132,4132,4132,4132,4132,4132,4132,4132,4132,4132,4132,4132,4132,4132,4132,4132,4132,4132,4132,4132,4132,4132,4132,4132,4132,
0,0,0,0,0,0,0,0,0,0,0,0,0,0,0,0,0,0,0,0,0,0,0,0,0,0,0,0,4,3,5,6,3,3,5,5,4,162,163,164,3,6,3,4,4,6,4,5,6,4,4,5,6,5,793,794,794,796,797,797,796,797,797,797,797,797,797,798,0,0,0,0,0,0,0,0,4132,4132,4132,4132,4132,4132,4132,4132,4132,4132,4132,4132,4132,4132,4132,4132,4132,4132,4132,4132,4132,4132,4132,4132,4132,4132,4132,4132,4132,4132,
0,0,0,0,0,0,0,0,0,0,0,0,0,0,0,0,0,0,0,0,0,0,0,0,0,0,0,0,3,3,5,3,4,5,6,4,4,162,163,164,6,4,3,3,6,5,6,6,6,3,3,3,6,5,793,794,794,796,797,797,796,797,797,797,797,797,797,798,0,0,0,0,0,0,0,0,4132,4132,4132,4132,4132,4132,4132,4132,4132,4132,4132,4132,4132,4132,4132,4132,4132,4132,4132,4132,4132,4132,4132,4132,4132,4132,4132,4132,4132,4132,
0,0,0,0,0,0,0,0,0,0,0,0,0,0,0,0,0,0,0,0,0,0,0,0,0,0,0,0,3,3,3,4,4,6,6,6,4,162,163,164,6,3,6,5,6,5,6,6,4,4,5,4,3,3,793,794,794,796,797,797,796,797,797,797,797,797,797,798,0,0,0,0,0,0,0,0,4132,4132,4132,4132,4132,4132,4132,4132,4132,4132,4132,4132,4132,4132,4132,4132,4132,4132,4132,4132,4132,4132,4132,4132,4132,4132,4132,4132,4132,4132,
0,0,0,0,0,0,0,0,0,0,0,0,0,0,0,0,0,0,0,0,0,0,0,0,0,0,0,0,3,3,6,5,5,4,5,4,5,162,163,164,6,5,3,3,6,3,3,4,5,4,5,3,4,5,793,794,794,796,797,797,796,797,797,797,797,797,797,798,4134,4134,4134,0,0,0,0,0,4132,4132,4132,4132,4132,4132,4132,4132,4132,4132,4132,4132,4132,4132,4132,4132,4132,4132,4132,4132,4132,4132,4132,4132,4132,4132,4132,4132,4132,4132,
0,0,0,0,0,0,0,0,0,0,0,0,0,0,0,0,0,0,0,0,0,0,0,0,0,0,0,0,4,5,4,5,6,5,3,3,6,162,163,164,5,4,5,4,6,6,3,3,3,4,3,5,4,6,793,794,794,796,797,797,804,805,805,805,805,805,805,806,4134,4134,4134,0,0,0,0,0,4132,4132,4132,4132,4132,4132,4132,4132,4132,4132,4132,4132,4132,4132,4132,4132,4132,4132,4132,4132,4132,4132,4132,4132,4132,4132,4132,4132,4132,4132,
0,0,0,0,0,0,0,0,0,0,0,0,0,0,0,0,0,0,0,0,0,0,0,0,0,0,0,0,4,6,3,4,5,6,4,5,4,162,163,164,6,4,4,6,5,5,4,4,3,4,6,5,5,3,793,794,794,796,797,797,797,797,797,4114,4114,797,797,798,4134,4134,4134,0,0,0,0,0,4132,4132,4132,4132,4132,4132,4132,4132,4132,4132,4132,4132,4132,4132,4132,4132,4132,4132,4132,4132,4132,4132,4132,4132,4132,4132,4132,4132,4132,4132,
0,0,0,0,0,0,0,0,0,0,0,0,0,0,0,0,0,0,0,0,0,0,0,0,0,0,0,0,6,3,6,4,5,3,6,3,4,162,163,164,5,5,3,5,5,6,5,6,5,4,4,6,6,4,793,794,794,796,797,797,797,797,797,4122,4122,797,797,798,4134,4134,4134,0,0,0,0,0,4132,4132,4132,4132,4132,4132,4132,4132,4132,4132,4132,4132,4132,4132,4132,4132,4132,4132,4132,4132,4132,4132,4132,4132,4132,4132,4132,4132,4132,4132,
0,0,0,0,0,0,0,0,0,0,0,0,0,0,0,0,0,0,0,0,0,0,0,0,0,0,0,0,3,5,5,3,4,5,4,4,4,162,163,164,6,3,6,6,4,6,6,6,4,4,3,3,6,4,793,794,794,796,797,797,797,797,797,4122,4122,797,797,798,4134,4134,4134,0,0,0,0,0,4132,4132,4132,4132,4132,4132,4132,4132,4132,4132,4132,4132,4132,4132,4132,4132,4132,4132,4132,4132,4132,4132,4132,4132,4132,4132,4132,4132,4132,4132,
0,0,0,0,0,0,0,0,0,0,0,0,0,0,0,0,0,0,0,0,0,0,0,0,0,0,0,0,6,5,4,5,6,4,5,6,3,162,163,164,5,5,3,4,4,4,6,4,4,3,6,6,5,6,793,794,794,796,797,797,797,797,797,4122,4122,797,797,798,4134,4134,4134,0,0,0,0,0,4132,4132,4132,4132,4132,4132,4132,4132,4132,4132,4132,4132,4132,4132,4132,4132,4132,4132,4132,4132,4132,4132,4132,4132,4132,4132,4132,4132,4132,4132,
0,0,0,0,0,0,0,0,0,0,0,0,0,0,0,0,0,0,0,0,0,0,0,0,0,0,0,0,6,4,5,6,6,3,6,5,6,162,163,164,3,6,3,3,6,4,6,4,3,5,6,5,4,6,793,794,794,804,805,805,805,805,805,4122,4122,805,805,806,4134,4134,4134,0,0,0,0,0,4132,4132,4132,4132,4132,4132,4132,4132,4132,4132,4132,4132,4132,4132,4132,4132,4132,4132,4132,4132,4132,4132,4132,4132,4132,4132,4132,4132,4132,4132,
0,0,0,0,0,0,0,0,0,0,0,0,0,0,0,0,0,0,0,0,0,0,0,0,0,0,0,0,3,4,4,3,4,4,4,6,3,162,163,164,5,4,3,4,5,3,3,5,6,6,4,3,4,3,793,794,794,794,794,794,794,794,794,4122,4122,794,794,795,4134,4134,4134,0,0,0,0,0,4132,4132,4132,4132,4132,4132,4132,4132,4132,4132,4132,4132,4132,4132,4132,4132,4132,4132,4132,4132,4132,4132,4132,4132,4132,4132,4132,4132,4132,4132,
0,0,0,0,0,0,0,0,0,0,0,0,0,0,0,0,0,0,0,0,0,0,0,0,0,0,0,0,6,4,6,4,5,6,6,6,5,162,163,164,5,6,4,6,6,5,3,6,5,4,6,4,5,5,793,794,794,794,794,794,794,794,794,4122,4122,794,794,795,4134,4134,4134,0,0,0,0,0,4132,4132,4132,4132,4132,4132,4132,4132,4132,4132,4132,4132,4132,4132,4132,4132,4132,4132,4132,4132,4132,4132,4132,4132,4132,4132,4132,4132,4132,4132,
0,0,0,0,0,0,0,0,0,0,0,0,0,0,0,0,0,0,0,0,0,0,0,0,0,0,0,0,3,5,4,6,4,5,5,6,5,162,163,164,6,5,5,5,4,3,4,5,3,4,4,4,6,5,793,794,794,794,794,794,794,794,794,4122,4122,794,794,795,4134,4134,4134,0,0,0,0,0,4132,4132,4132,4132,4132,4132,4132,4132,4132,4132,4132,4132,4132,4132,4132,4132,4132,4132,4132,4132,4132,4132,4132,4132,4132,4132,4132,4132,4132,4132,
0,0,0,0,0,0,0,0,0,0,0,0,0,0,0,0,0,0,0,0,0,0,0,0,0,0,0,0,4,6,3,3,5,6,6,6,5,162,163,164,6,3,3,6,6,3,3,4,4,5,3,4,3,6,793,794,794,794,794,794,794,794,794,4122,4122,794,794,795,4134,4134,4134,0,0,0,0,0,4132,4132,4132,4132,4132,4132,4132,4132,4132,4132,4132,4132,4132,4132,4132,4132,4132,4132,4132,4132,4132,4132,4132,4132,4132,4132,4132,4132,4132,4132,
0,0,0,0,0,0,0,0,0,0,0,0,0,0,0,0,0,0,0,0,0,0,0,0,0,0,0,0,4,4,3,4,3,6,6,6,5,162,163,164,5,6,3,4,5,4,6,3,4,4,5,4,3,3,793,794,794,794,794,794,794,794,794,4122,4122,794,794,795,4134,4134,4134,0,0,0,0,0,4132,4132,4132,4132,4132,4132,4132,4132,4132,4132,4132,4132,4132,4132,4132,4132,4132,4132,4132,4132,4132,4132,4132,4132,4132,4132,4132,4132,4132,4132,
0,0,0,0,0,0,0,0,0,0,0,0,0,0,0,0,0,0,0,0,0,0,0,0,0,0,0,0,5,5,3,3,4,3,5,3,4,162,163,163,155,155,155,155,155,155,155,155,156,3,4,5,6,6,793,794,794,794,794,794,794,794,794,4122,4122,794,794,795,4134,4134,4134,0,0,0,0,0,4132,4132,4132,4132,4132,4132,4132,4132,4132,4132,4132,4132,4132,4132,4132,4132,4132,4132,4132,4132,4132,4132,4132,4132,4132,4132,4132,4132,4132,4132,
0,0,0,0,0,0,0,0,0,0,0,0,0,0,0,0,0,0,0,0,0,0,0,0,0,0,0,0,4,5,6,6,3,4,5,4,5,162,163,163,163,163,163,163,163,163,163,163,164,6,3,4,6,5,801,802,802,802,802,802,802,802,802,4125,4125,802,802,803,4134,4134,4134,0,0,0,0,0,4132,4132,4132,4132,4132,4132,4132,4132,4132,4132,4132,4132,4132,4132,4132,4132,4132,4132,4132,4132,4132,4132,4132,4132,4132,4132,4132,4132,4132,4132,
0,0,0,0,0,0,0,0,0,0,0,0,0,0,0,0,0,0,0,0,0,0,0,0,0,0,0,0,5,3,5,5,6,4041,4042,4042,4042,4042,4042,4042,4042,4042,4042,4042,4042,4042,1206,1207,1208,4042,4042,4042,4042,4042,4042,4042,4042,4042,4042,4042,4042,4042,4042,4042,4042,4042,4042,4043,4134,4134,4134,0,0,0,0,0,4132,4132,4132,4132,4132,4132,4132,4132,4132,4132,4132,4132,4132,4132,4132,4132,4132,4132,4132,4132,4132,4132,4132,4132,4132,4132,4132,4132,4132,4132,
0,0,0,0,0,0,0,0,0,0,0,0,0,0,0,0,0,0,0,0,0,0,0,0,0,0,0,0,6,3,5,6,5,4089,4090,4090,4090,4090,4090,4090,4090,4090,4090,4090,4090,4090,1214,1215,1216,4090,4090,4090,4090,4090,4090,4090,4090,4090,4090,4090,4090,4090,4090,4090,4090,4090,4090,4091,4134,4134,4134,0,0,0,0,0,4132,4132,4132,4132,4132,4132,4132,4132,4132,4132,4132,4132,4132,4132,4132,4132,4132,4132,4132,4132,4132,4132,4132,4132,4132,4132,4132,4132,4132,4132,
0,0,0,0,0,0,0,0,0,0,0,0,0,0,0,0,0,0,0,0,0,0,0,0,0,0,0,0,6,5,3,6,5,4,3,6,5,5,6,5,6,5,4,6,6,3,162,163,164,5,5,3,6,5,3,3,6,5,4,5,4,4,5,4,3,3,5,6,4134,4134,4134,0,0,0,0,0,4132,4132,4132,4132,4132,4132,4132,4132,4132,4132,4132,4132,4132,4132,4132,4132,4132,4132,4132,4132,4132,4132,4132,4132,4132,4132,4132,4132,4132,4132,
0,0,0,0,0,0,0,0,0,0,0,0,0,0,0,0,0,0,0,0,0,0,0,0,0,0,0,0,3,5,4,3,5,5,6,4,4,4,5,5,4,5,6,5,5,3,162,163,164,4,6,5,3,6,3,5,3,6,5,5,6,5,3,4,6,3,5,4,4134,0,0,0,0,0,0,0,4132,4132,4132,4132,4132,4132,4132,4132,4132,4132,4132,4132,4132,4132,4132,4132,4132,4132,4132,4132,4132,4132,4132,4132,4132,4132,4132,4132,4132,4132,
0,0,0,0,0,0,0,0,0,0,0,0,0,0,0,0,0,0,0,0,0,0,0,0,0,0,0,0,3,6,5,6,3,4,3,3,5,6,3,3,4,4,6,6,5,6,162,163,164,6,6,5,3,5,4,6,6,4,5,3,5,5,3,6,5,4,3,6,0,0,0,0,0,0,0,0,4132,4132,4132,4132,4132,4132,4132,4132,4132,4132,4132,4132,4132,4132,4132,4132,4132,4132,4132,4132,4132,4132,4132,4132,4132,4132,4132,4132,4132,4132,
0,0,0,0,0,0,0,0,0,0,0,0,0,0,0,0,0,0,0,0,0,0,0,0,0,0,0,0,3,4,3,3,5,4,4,4,3,4,4,4,5,4,3,5,4,4,162,163,164,3,4,3,5,4,5,3,4,5,3,4,6,3,3,6,6,5,3,6,0,0,0,0,0,0,0,0,4132,4132,4132,4132,4132,4132,4132,4132,4132,4132,4132,4132,4132,4132,4132,4132,4132,4132,4132,4132,4132,4132,4132,4132,4132,4132,4132,4132,4132,4132,
0,0,0,0,0,0,0,0,0,0,0,0,0,0,0,0,0,0,0,0,0,0,0,0,0,0,0,0,4,3,5,6,3,3,6,6,6,3,6,6,154,155,155,155,155,155,163,163,164,5,6,6,3,3,4,6,6,4,6,5,6,6,6,3,5,6,5,5,0,0,0,0,0,0,0,0,4132,4132,4132,4132,4132,4132,4132,4132,4132,4132,4132,4132,4132,4132,4132,4132,4132,4132,4132,4132,4132,4132,4132,4132,4132,4132,4132,4132,4132,4132,
0,0,0,0,0,0,0,0,0,0,0,0,0,0,0,0,0,0,0,0,0,0,0,0,0,0,0,0,5,4,6,3,3,3,3,6,3,5,4,3,162,163,163,163,163,163,163,163,164,3,4,4,6,4,3,5,5,3,5,4,6,3,5,3,4,5,5,5,0,0,0,0,0,0,0,0,8252,8252,8252,8252,8252,4132,4132,4132,4132,4132,4132,4132,4132,4132,4132,4132,4132,4132,4132,4132,4132,4132,4132,4132,4132,4132,4132,4132,4132,4132,
0,0,0,0,0,0,0,0,0,0,0,0,0,0,0,0,0,0,0,0,0,0,0,0,0,0,0,0,5,3,4,4,6,3,4,3,3,4,6,6,162,163,163,171,171,171,171,171,172,4,3,3,5,6,6,6,6,6,5,4,3,5,6,3,5,6,5,3,0,0,0,0,0,0,0,0,8995,4132,8935,8252,4132,4132,4132,4132,4132,4132,4132,4132,4132,4132,4132,4132,4132,4132,4132,4132,4132,4132,4132,4132,4132,4132,4132,4132,4132,4132,
0,0,0,0,0,0,0,0,0,0,0,0,0,0,0,0,0,0,0,0,0,0,0,0,0,0,0,0,4,6,3,3,4,5,4,4,5,5,5,3,162,163,164,4,4,6,4,5,3,6,3,6,3,6,3,5,6,6,6,5,3,6,3,5,4,6,5,3,0,0,0,0,0,0,0,0,4132,4132,4132,4132,4132,4132,4132,4132,4132,4132,4132,4132,4132,4132,4132,4132,4132,4132,4132,4132,4132,4132,4132,4132,4132,4132,4132,4132,4132,4132,
0,0,0,0,0,0,0,0,0,0,0,0,0,0,0,0,0,0,0,0,0,0,0,0,0,0,0,0,6,3,4,6,6,3,6,5,5,4,5,4,162,163,164,5,5,4,4,3,4,5,4,4,4,3,4,6,6,6,5,5,4,6,3,6,6,5,5,3,0,0,0,0,0,0,0,0,4132,4132,4132,4132,4132,4132,4132,4132,4132,4132,4132,4132,4132,4132,4132,4132,4132,4132,4132,4132,4132,4132,4132,4132,4132,4132,4132,4132,4132,4132,
0,0,0,0,0,0,0,0,0,0,0,0,0,0,0,0,0,0,0,0,0,0,0,0,0,0,0,0,5,3,5,6,6,3,3,5,5,3,3,6,162,163,164,4,5,6,4,3,6,3,5,3,4,3,4,6,6,4,5,5,5,6,6,5,3,5,3,5,0,0,0,0,0,0,0,0,4132,4132,4132,4132,4132,4132,4132,4132,4132,4132,4132,4132,4132,4132,4132,4132,4132,4132,4132,4132,4132,4132,4132,4132,4132,4132,4132,4132,4132,4132,
0,0,0,0,0,0,0,0,0,0,0,0,0,0,0,0,0,0,0,0,0,0,0,0,0,0,0,0,3,6,5,5,4,5,3,4,5,5,6,4,162,163,164,5,4,3,6,5,3,5,5,4,4,5,6,4,4,4,4,3,5,3,3,5,4,6,4,4,0,0,0,0,0,0,0,0,4132,4132,4132,4132,4132,4132,4132,4132,4132,4132,4132,4132,4132,4132,4132,4132,4132,4132,4132,4132,4132,4132,4132,4132,4132,4132,4132,4132,4132,4132,
0,0,0,0,0,0,0,0,0,0,0,0,0,0,0,0,0,0,0,0,0,0,0,0,0,0,0,0,4,4,6,3,6,5,4,6,5,6,4,4,162,163,164,5,6,6,5,6,6,4,4,4,5,3,6,5,3,3,5,3,4,5,6,4,6,3,4,6,0,0,0,0,0,0,0,0,4132,4132,4132,4132,4132,4132,4132,4132,4132,4132,4132,4132,4132,4132,4132,4132,4132,4132,4132,4132,4132,4132,4132,4132,4132,4132,4132,4132,4132,4132,
0,0,0,0,0,0,0,0,0,0,0,0,0,0,0,0,0,0,0,0,0,0,0,0,0,0,0,0,5,3,6,3,6,5,4,6,3,5,4,3,162,163,164,4,4,3,5,6,4,6,6,3,3,3,5,4,4,6,3,5,4,5,3,3,4,6,6,3,0,0,0,0,0,0,0,0,4132,4132,4132,4132,4132,4132,4132,4132,4132,4132,4132,4132,4132,4132,4132,4132,4132,4132,4132,4132,4132,4132,4132,4132,4132,4132,4132,4132,4132,4132,
0,0,0,0,0,0,0,0,0,0,0,0,0,0,0,0,0,0,0,0,0,0,0,0,0,0,0,0,3,6,3,4,4,5,6,3,5,4,6,4,162,163,164,3,6,6,3,6,5,5,3,5,3,5,4,3,5,4,3,5,5,4,6,6,4,4,3,6,0,0,0,0,0,0,0,0,4132,4132,4132,4132,4132,4132,4132,4132,4132,4132,4132,4132,4132,4132,4132,4132,4132,4132,4132,4132,4132,4132,4132,4132,4132,4132,4132,4132,4132,4132,
0,0,0,0,0,0,0,0,0,0,0,0,0,0,0,0,0,0,0,0,0,0,0,0,0,0,0,0,3,5,4,3,4,3,5,5,6,6,5,3,162,163,164,3,5,5,3,5,6,6,6,6,5,4,6,6,5,5,3,6,3,6,4,5,5,3,3,5,0,0,0,0,0,0,0,0,4132,4132,4132,4132,4132,4132,4132,4132,4132,4132,4132,4132,4132,4132,4132,4132,4132,4132,4132,4132,4132,4132,4132,4132,4132,4132,4132,4132,4132,4132,
0,0,0,0,0,0,0,0,0,0,0,0,0,0,0,0,0,0,0,0,0,0,0,0,0,0,0,0,5,5,6,6,4,6,5,6,3,5,6,5,162,163,164,5,4,3,4,6,3,4,3,4,5,5,6,3,4,6,5,5,6,3,4,5,6,5,5,4,0,0,0,0,0,0,0,0,4132,4132,4132,4132,4132,4132,4132,4132,4132,4132,4132,4132,4132,4132,4132,4132,4132,4132,4132,4132,4132,4132,4132,4132,4132,4132,4132,4132,4132,4132,
0,0,0,0,0,0,0,0,0,0,0,0,0,0,0,0,0,0,0,0,0,0,0,0,0,0,0,0,3,3,4,6,6,3,5,5,6,4,5,6,162,163,164,3,6,4,6,3,5,5,3,5,5,4,4,5,4,3,4,4,4,6,3,5,5,6,4,3,0,0,0,0,0,0,0,0,4132,4132,4132,4132,4132,4132,4132,4132,4132,4132,4132,4132,4132,4132,4132,4132,4132,4132,4132,4132,4132,4132,4132,4132,4132,4132,4132,4132,4132,4132,
0,0,0,0,0,0,0,0,0,0,0,0,0,0,0,0,0,0,0,0,0,0,0,0,0,0,0,0,3,5,6,6,6,6,3,4,5,3,6,6,162,163,164,4,6,3,3,4,5,4,4,5,4,5,5,3,5,4,5,4,5,3,4,4,4,5,3,3,0,0,0,0,0,0,0,0,4132,4132,4132,4132,4132,4132,4132,4132,4132,4132,4132,4132,4132,4132,4132,4132,4132,4132,4132,4132,4132,4132,4132,4132,4132,4132,4132,4132,4132,4132,
0,0,0,0,0,0,0,0,0,0,0,0,0,0,0,0,0,0,0,0,0,0,0,0,0,0,0,0,3,3,5,4,154,155,155,155,155,155,155,155,163,163,164,3,4,6,6,6,6,4,5,4,5,5,5,6,4,5,3,5,4,6,3,5,6,4,4,3,0,0,0,0,0,0,0,0,4132,4132,4132,4132,4132,4132,4132,4132,4132,4132,4132,4132,4132,4132,4132,4132,4132,4132,4132,4132,4132,4132,4132,4132,4132,4132,4132,4132,4132,4132,
0,0,0,0,0,0,0,0,0,0,0,0,0,0,0,0,0,0,0,0,0,0,0,0,0,0,0,0,3,5,6,6,162,163,163,163,163,163,163,163,163,163,164,3,3,6,6,4,4,5,3,3,5,6,6,5,3,3,6,4,5,5,6,5,3,6,3,4,0,0,0,0,0,0,0,0,4132,4132,4132,4132,4132,4132,4132,4132,4132,4132,4132,4132,4132,4132,4132,4132,4132,4132,4132,4132,4132,4132,4132,4132,4132,4132,4132,4132,4132,4132,
0,0,0,0,0,0,0,0,0,0,0,0,0,0,0,0,0,0,0,0,0,0,0,0,0,0,0,0,5,5,3,6,162,163,163,171,171,171,171,171,171,171,172,6,3,3,3,4,5,6,6,4,4,5,5,4,6,5,5,6,5,6,3,5,5,3,6,5,0,0,0,0,0,0,0,0,4132,4132,4132,4132,4132,4132,4132,4132,4132,4132,4132,4132,4132,4132,4132,4132,4132,4132,4132,4132,4132,4132,4132,4132,4132,4132,4132,4132,4132,4132,
0,0,0,0,0,0,0,0,0,0,0,0,0,0,0,0,0,0,0,0,0,0,0,0,0,0,0,0,3,6,5,4,162,163,164,6,4,4,3,3,4,3,6,5,6,4,6,4,6,6,3,4,4,5,6,6,5,4,6,5,5,5,6,4,4,5,5,4,0,0,0,0,0,0,0,0,4132,4132,4132,4132,4132,4132,4132,4132,4132,4132,4132,4132,4132,4132,4132,4132,4132,4132,4132,4132,4132,4132,4132,4132,4132,4132,4132,4132,4132,4132,
0,0,0,0,0,0,0,0,0,0,0,0,0,0,0,0,0,0,0,0,0,0,0,0,0,0,0,0,5,5,4,6,162,163,164,5,5,3,6,6,5,4,5,3,5,3,5,6,5,6,4,4,5,5,4,3,4,4,3,4,4,3,3,6,5,6,3,4,0,0,0,0,0,0,0,0,4132,4132,4132,4132,4132,4132,4132,4132,4132,4132,4132,4132,4132,4132,4132,4132,4132,4132,4132,4132,4132,4132,4132,4132,4132,4132,4132,4132,4132,4132,
0,0,0,0,0,0,0,0,0,0,0,0,0,0,0,0,0,0,0,0,0,0,0,0,0,0,0,0,3,4,6,6,162,163,164,5,5,3,3,4,3,4,6,4,3,6,6,4,5,3,3,5,4136,5,5,6,6,4,6,5,4,3,5,4,6,5,4,3,0,0,0,0,0,0,0,0,4132,4132,4132,4132,4132,4132,4132,4132,4132,4132,4132,4132,4132,4132,4132,4132,4132,4132,4132,4132,4132,4132,4132,4132,4132,4132,4132,4132,4132,4132,
0,0,0,0,0,0,0,0,0,0,0,0,0,0,0,0,0,0,0,0,0,0,0,0,0,0,0,0,5,5,4,4,162,163,164,3,6,3,4,4,6,5,4,3,5,6,4,6,5,5,5,3,5,5,4,3,3,6,5,4,6,5,3,5,5,4,4,4,0,0,0,0,0,0,0,0,4132,4132,4132,4132,4132,4132,4132,4132,4132,4132,4132,4132,4132,4132,4132,4132,4132,4132,4132,4132,4132,4132,4132,4132,4132,4132,4132,4132,4132,4132,
0,0,0,0,0,0,0,0,0,0,0,0,0,0,0,0,0,0,0,0,0,0,0,0,0,0,0,0,6,4,6,5,162,163,164,4,3,949,5,3,3,3,4,4,4,5,6,3,4,6,3,6,3,6,4,6,6,3,6,5,3,6,5,3,4,3,3,6,0,0,0,0,0,0,0,0,4132,4132,4132,4132,4132,4132,4132,4132,4132,4132,4132,4132,4132,4132,4132,4132,4132,4132,4132,4132,4132,4132,4132,4132,4132,4132,4132,4132,4132,4132,
0,0,0,0,0,0,0,0,0,0,0,0,0,0,0,0,0,0,0,0,0,0,0,0,0,0,0,0,5,3,3,3,162,163,164,6,4,4,6,5,6,6,6,6,3,4,5,3,4,6,4,4,3,3,5,6,6,6,4,4,6,5,4,5,4,3,3,6,0,0,0,0,0,0,0,0,4132,4132,4132,4132,4132,4132,4132,4132,4132,4132,4132,4132,4132,4132,4132,4132,4132,4132,4132,4132,4132,4132,4132,4132,4132,4132,4132,4132,4132,4132,
0,0,0,0,0,0,0,0,0,0,0,0,0,0,0,0,0,0,0,0,0,0,0,0,0,0,0,0,3,4,4,3,162,163,164,3,4,3,6,6,4,4,3,4,5,4,5,5,4,5,4,4,6,5,5,3,4,6,6,3,5,6,5,6,6,4,5,6,0,0,0,0,0,0,0,0,4132,4132,4132,4132,4132,4132,4132,4132,4132,4132,4132,4132,4132,4132,4132,4132,4132,4132,4132,4132,4132,4132,4132,4132,4132,4132,4132,4132,4132,4132,
0,0,0,0,0,0,0,0,0,0,0,0,0,0,0,0,0,0,0,0,0,0,0,0,0,0,0,0,4,6,4,4,162,163,164,3,6,6,4,6,4,5,4,5,3,6,5,3,4,3,5,6,3,3,4,4,6,4,5,5,3,4,4,3,6,4,4,6,0,0,0,0,0,0,0,0,4132,4132,4132,4132,4132,4132,4132,4132,4132,4132,4132,4132,4132,4132,4132,4132,4132,4132,4132,4132,4132,4132,4132,4132,4132,4132,4132,4132,4132,4132,
0,0,0,0,0,0,0,0,0,0,0,0,0,0,0,0,0,0,0,0,0,0,0,0,0,0,0,0,4,5,5,6,162,163,164,5,5,6,6,3,6,5,4,5,5,6,3,4,4,3,5,6,5,4,4,5,4,6,4,6,5,5,6,6,6,4,5,4,0,0,0,0,0,0,0,0,4132,4132,4132,4132,4132,4132,4132,4132,4132,4132,4132,4132,4132,4132,4132,4132,4132,4132,4132,4132,4132,4132,4132,4132,4132,4132,4132,4132,4132,4132,
0,0,0,0,0,0,0,0,0,0,0,0,0,0,0,0,0,0,0,0,0,0,0,0,0,0,0,0,4,6,4,3,162,163,164,3,6,4,4,3,4,3,4,6,5,3,6,6,3,3,6,3,3,5,5,3,6,4,3,3,4,4,4,5,5,5,6,3,0,0,0,0,0,0,0,0,4132,4132,4132,4132,4132,4132,4132,4132,4132,4132,4132,4132,4132,4132,4132,4132,4132,4132,4132,4132,4132,4132,4132,4132,4132,4132,4132,4132,4132,4132,
0,0,0,0,0,0,0,0,0,0,0,0,0,0,0,0,0,0,0,0,0,0,0,0,0,0,0,0,5,6,6,4,162,163,164,3,3,6,6,6,6,3,3,4,3,6,6,5,3,3,4,4,6,5,3,3,5,3,4,5,3,4,4,6,3,5,4,4,0,0,0,0,0,0,0,0,4132,4132,4132,4132,4132,4132,4132,4132,4132,4132,4132,4132,4132,4132,4132,4132,4132,4132,4132,4132,4132,4132,4132,4132,4132,4132,4132,4132,4132,4132,
0,0,0,0,0,0,0,0,0,0,0,0,0,0,0,0,0,0,0,0,0,0,0,0,0,0,0,0,6,5,6,4,162,163,164,3,6,4,3,5,6,5,3,5,6,6,4,5,6,6,4,6,3,5,4,3,3,5,4,6,4,6,5,5,3,3,3,5,0,0,0,0,0,0,0,0,4132,4132,4132,4132,4132,4132,4132,4132,4132,4132,4132,4132,4132,4132,4132,4132,4132,4132,4132,4132,4132,4132,4132,4132,4132,4132,4132,4132,4132,4132,
0,0,0,0,0,0,0,0,0,0,0,0,0,0,0,0,0,0,0,0,0,0,0,0,0,0,0,0,6,5,5,3,162,163,164,6,6,6,3,3,3,5,3,5,6,3,5,6,6,3,4,4,6,4,4,5,5,5,6,4,3,4,6,5,6,5,6,3,0,0,0,0,0,0,0,0,4132,4132,4132,4132,4132,4132,4132,4132,4132,4132,4132,4132,4132,4132,4132,4132,4132,4132,4132,4132,4132,4132,4132,4132,4132,4132,4132,4132,4132,4132,
0,0,0,0,0,0,0,0,0,0,0,0,0,0,0,0,0,0,0,0,0,0,0,0,0,0,0,0,5,5,4,6,162,163,164,4,5,3,6,5,6,5,6,5,6,4,5,5,4,6,5,4,6,5,5,6,4,5,6,5,6,5,3,4,4,3,6,4,0,0,0,0,0,0,0,0,4132,4132,4132,4132,4132,4132,4132,4132,4132,4132,4132,4132,4132,4132,4132,4132,4132,4132,4132,4132,4132,4132,4132,4132,4132,4132,4132,4132,4132,4132,
0,0,0,0,0,0,0,0,0,0,0,0,0,0,0,0,0,0,0,0,0,0,0,0,0,0,0,0,6,5,3,6,162,163,164,4,5,4,6,6,3,6,6,6,6,3,5,3,3,4,5,4,3,6,5,6,3,3,3,5,4,4,6,5,6,6,4,5,0,0,0,0,0,0,0,0,4132,4132,4132,4132,4132,4132,4132,4132,4132,4132,4132,4132,4132,4132,4132,4132,4132,4132,4132,4132,4132,4132,4132,4132,4132,4132,4132,4132,4132,4132,
0,0,0,0,0,0,0,0,0,0,0,0,0,0,0,0,0,0,0,0,0,0,0,0,0,0,0,0,3,6,3,5,162,163,4293,4,5,5,5,6,4,6,5,6,3,6,6,5,3,5,3,3,3,5,3,4,4,4,4,5,6,6,4,6,4,4,6,6,0,0,0,0,0,0,0,0,4132,4132,4132,4132,4132,4132,4132,4132,4132,4132,4132,4132,4132,4132,4132,4132,4132,4132,4132,4132,4132,4132,4132,4132,4132,4132,4132,4132,4132,4132,
0,0,0,0,0,0,0,0,0,0,0,0,0,0,0,0,0,0,0,0,0,0,0,0,0,0,0,0,3,4,6,4283,4292,4292,4293,4,5,3,3,4,5,5,4,6,3,5,6,5,6,6,3,5,5,6,4,5,3,4,5,3,4,5,3,4,5,4,6,6,4931,4931,4931,4931,4931,4931,4931,4931,4931,4931,4931,4931,4931,4931,4931,4931,4931,4931,4132,4132,4132,4132,4132,4132,4132,4132,4132,4132,4132,4132,4132,4132,4132,4132,4132,4132,4132,4132
</data>
 </layer>
 <layer id="2" name="deco_sotto" width="106" height="60">
  <data encoding="csv">
4133,4133,4133,4133,4133,4133,4133,4133,4133,4133,4133,4133,4133,4133,4133,4133,4133,4133,4133,4133,4133,4133,4133,4133,4133,4133,4133,4924,0,0,0,0,0,0,0,0,0,0,0,0,0,0,0,0,0,0,0,0,0,0,0,0,0,0,0,0,0,0,0,0,0,0,0,0,0,0,0,0,4922,4922,4133,4133,4133,4133,4133,4133,12162,0,0,0,0,0,0,0,0,0,0,0,0,0,0,0,0,0,0,0,0,0,0,0,0,0,0,0,0,0,
4133,4133,4133,4133,4133,4133,4133,4133,4133,4133,4133,4133,4133,4133,4133,4133,4133,4133,4133,4133,4133,4133,4133,4133,4133,4133,4133,4924,0,0,0,0,0,0,0,0,0,0,0,0,0,0,0,0,0,0,0,0,0,0,0,0,0,0,0,0,0,0,0,0,0,0,0,0,0,0,0,0,4922,4922,4133,4133,4133,4133,4133,4133,12162,0,0,0,0,0,0,0,0,0,0,0,0,0,0,0,0,0,0,0,0,0,0,0,0,0,0,0,0,0,
4133,4133,4133,4133,4133,4133,4133,4133,4133,4133,4133,4133,4133,4133,4133,4133,4133,4133,4133,4133,4133,4133,4133,4133,4133,4133,4133,4924,0,0,0,0,0,0,0,0,0,0,0,0,0,0,0,0,0,0,0,0,0,0,0,0,0,0,0,0,0,0,0,0,0,0,0,0,0,0,0,0,4930,4930,4133,4133,4133,4133,4133,4133,12162,0,0,0,0,0,0,0,0,0,0,0,0,0,0,0,0,0,0,0,0,0,0,0,0,0,0,0,0,0,
4133,4133,4133,4133,4133,4133,4133,4133,4133,4133,4133,4133,4133,4133,4133,4133,4133,4133,4133,4133,4133,4133,4133,4133,4133,4133,4133,4924,0,0,0,0,0,0,0,0,0,0,0,0,0,0,0,0,0,0,0,0,0,0,0,0,0,0,0,0,0,0,0,0,0,0,4044,4045,4045,4045,4045,4045,4066,4066,4066,4066,4066,4066,4066,4066,12162,0,0,0,0,0,0,0,0,0,0,0,0,0,0,0,0,0,0,0,0,0,0,0,0,0,0,0,0,0,
4133,4133,4133,4133,4133,4133,4133,4133,4133,4133,4133,4133,4133,4133,4133,4133,4133,4133,4133,4133,4133,4133,4133,4133,4133,4133,4133,4924,0,0,0,0,0,0,0,0,0,0,0,0,0,0,0,0,0,0,0,0,0,0,0,0,0,0,0,0,0,0,0,0,0,0,4068,4069,4069,4069,4069,4066,4066,4066,4066,4066,4066,4066,4066,4066,12162,0,0,0,0,0,0,0,0,0,0,0,0,0,0,0,0,0,0,0,0,0,0,0,0,0,0,0,0,0,
4133,4133,4133,4133,4133,4133,4133,4133,4133,4133,4133,4133,4133,4133,4133,4133,4133,4133,4133,4133,4133,4133,4133,4133,4133,4133,4133,4924,0,0,0,0,0,0,0,0,0,7,7,7,7,7,7,7,7,0,0,0,0,0,0,0,0,0,0,0,0,0,0,0,0,0,4092,4069,4069,4069,4069,4069,4066,4066,4066,4066,4066,4066,4066,4066,12162,0,0,0,0,0,0,0,0,0,0,0,0,0,0,0,0,0,0,0,0,0,0,0,0,0,0,0,0,0,
4133,4133,4133,4133,4133,4133,4133,4133,4133,4133,4133,4133,4133,4133,4133,4133,4133,4133,4133,4133,4133,4133,4133,4133,4133,4133,4133,4924,0,0,0,0,0,0,0,0,0,7,7,7,7,7,7,7,7,0,0,0,0,0,0,0,0,0,0,0,0,0,0,0,0,0,746,4114,4114,746,746,746,4914,4914,4133,4133,4133,4133,4133,4133,12162,0,0,0,0,0,0,0,0,0,0,0,0,0,0,0,0,0,0,9143,9482,9483,9484,9485,9486,0,0,0,0,0,
4133,4133,4133,4133,4133,4133,4133,4133,4133,4133,4133,4133,4133,4133,4133,4133,4133,4133,4133,4133,4133,4133,4133,4133,4133,4133,4133,4924,0,0,0,0,0,0,0,0,0,7,7,7,7,7,7,7,7,0,0,0,0,0,0,0,0,0,0,0,0,0,0,0,0,0,0,4114,4114,0,0,0,4922,4922,4133,4133,4133,4133,4133,4133,12162,0,0,0,0,0,0,0,0,0,0,0,0,0,0,0,0,0,9143,0,9490,9491,9492,9493,9494,0,0,0,0,0,
4133,4133,4133,4133,4133,4133,4133,4133,4133,4133,4133,4133,4133,4133,4133,4133,4133,4133,4133,4133,4133,4133,4133,4133,4133,4133,4133,4924,0,0,0,0,0,0,0,0,0,7,7,7,7,7,7,7,7,0,0,0,0,0,0,0,0,0,0,0,0,0,0,0,0,0,0,4121,4121,0,0,0,4922,4922,4133,4133,4133,4133,4133,4133,12162,0,0,0,0,0,0,0,0,0,0,0,0,0,0,0,0,0,0,9143,9498,9499,9500,9501,9502,0,0,0,0,0,
4133,4133,4133,4133,4133,4133,4133,4133,4133,4133,4133,4133,4133,4133,4133,4133,4133,4133,4133,4133,4133,4133,4133,4133,4133,4133,4133,4924,0,0,0,0,0,0,0,0,0,7,7,7,7,7,7,7,7,0,0,0,0,0,0,0,0,0,0,0,0,0,0,0,0,0,0,0,0,0,0,0,4922,4922,4133,4133,4133,4133,4133,4133,12162,0,0,0,0,0,0,0,0,0,0,0,0,9191,9192,9193,0,0,9143,0,9506,9507,9508,9509,9510,0,0,0,0,0,
4133,4133,4133,4133,4133,4133,4133,4133,4133,4133,4133,4133,4133,4133,4133,4133,4133,4133,4133,4133,4133,4133,4133,4133,4133,4133,4133,4924,0,0,0,0,0,0,0,0,0,7,7,7,7,7,7,7,7,0,0,0,0,0,0,0,0,0,0,0,0,0,0,0,0,0,0,0,0,0,0,0,4922,4922,4133,4133,4133,4133,4133,4133,12162,0,0,0,0,0,0,0,0,0,8307,8309,0,9199,9200,9201,0,0,0,9143,0,9143,0,0,9143,0,0,0,0,0,
4133,4133,4133,4133,4133,4133,4133,4133,4133,4133,4133,4133,4133,4133,4133,4133,4133,4133,4133,4133,4133,4133,4133,4133,4133,4133,4133,4924,0,0,0,0,0,0,0,0,0,7,7,7,7,7,7,7,7,0,0,0,0,0,0,0,0,0,0,0,0,0,0,0,0,0,0,0,0,0,0,0,4922,4922,4133,4133,4133,4133,4133,4133,12162,0,0,0,0,0,0,0,0,0,8307,8318,8300,8301,0,0,0,0,0,0,0,0,0,0,0,0,0,0,0,0,
4133,4133,4133,4133,4133,4133,4133,4133,4133,4133,4133,4133,4133,4133,4133,4133,4133,4133,4133,4133,4133,4133,4133,4133,4133,4133,4133,4924,0,0,0,0,0,0,0,0,0,7,7,32,7,32,7,7,7,0,0,0,0,0,0,0,0,0,0,0,0,0,0,0,0,0,0,0,0,0,0,0,4922,4922,4133,4133,4133,4133,4133,4133,12162,0,0,0,0,0,0,0,0,0,8307,8308,8308,8309,0,0,0,0,0,0,0,0,0,0,0,0,0,0,0,0,
4133,4133,4133,4133,4133,4133,4133,4133,4133,4133,4133,4133,4133,4133,4133,4133,4133,4133,4133,4133,4133,4133,4133,4133,4133,4133,4133,4924,0,0,0,0,0,0,0,0,0,7,7,32,7,7,7,7,7,0,0,0,0,0,0,0,0,0,0,0,0,0,0,0,0,0,0,0,0,0,0,0,4922,4922,4133,4133,4133,4133,4133,4133,12162,0,0,0,0,0,0,0,0,0,8307,8308,8308,8309,0,0,0,0,0,0,0,0,0,0,0,0,0,0,0,0,
4133,4133,4133,4133,4133,4133,4133,4133,4133,4133,4133,4133,4133,4133,4133,4133,4133,4133,4133,4133,4133,4133,4133,4133,4133,4133,4133,4924,0,0,0,0,0,0,0,0,0,7,7,7,7,7,7,7,7,0,0,0,0,0,0,0,0,0,0,0,0,0,0,0,0,0,0,0,0,0,0,0,4922,4922,4133,4133,4133,4133,4133,4133,12162,0,0,0,0,0,0,0,0,0,8307,8308,8308,8309,0,0,0,0,0,0,0,0,0,0,0,0,0,0,0,0,
4133,4133,4133,4133,4133,4133,4133,4133,4133,4133,4133,4133,4133,4133,4133,4133,4133,4133,4133,4133,4133,4133,4133,4133,4133,4133,4133,4924,0,0,0,0,0,0,0,0,0,0,0,0,0,0,0,0,0,0,0,0,7,7,7,7,7,7,0,0,949,0,0,0,0,0,0,0,0,0,0,0,4922,4922,4133,4133,4133,4133,4133,4133,12162,0,0,0,0,0,0,0,0,0,8307,8308,8308,8309,0,0,0,0,0,0,0,0,0,0,0,0,0,0,0,0,
4133,4133,4133,4133,4133,4133,4133,4133,4133,4133,4133,4133,4133,4133,4133,4133,4133,4133,4133,4133,4133,4133,4133,4133,4133,4133,4133,4924,0,0,0,0,0,0,0,0,0,0,0,0,0,0,0,0,0,0,0,0,7,32,7,7,7,7,0,0,0,0,0,0,0,0,0,0,0,0,0,0,4922,4922,4133,4133,4133,4133,4133,4133,12162,0,0,0,0,0,0,0,0,0,8307,8308,8308,8309,0,0,0,0,0,0,0,0,0,0,0,0,0,0,0,0,
4133,4133,4133,4133,4133,4133,4133,4133,4133,4133,4133,4133,4133,4133,4133,4133,4133,4133,4133,4133,4133,4133,4133,4133,4133,4133,4133,4924,0,0,0,0,0,0,0,0,0,0,0,0,0,0,0,0,0,0,0,0,7,7,7,7,7,7,0,0,0,0,0,0,0,0,0,0,0,0,0,0,4922,4922,4133,4133,4133,4133,4133,4133,12162,0,0,0,0,0,0,0,0,0,8307,8308,8308,8309,0,0,0,0,0,0,0,0,0,0,0,0,0,0,0,0,
4133,4133,4133,4133,4133,4133,4133,4133,4133,4133,4133,4133,4133,4133,4133,4133,4133,4133,4133,4133,4133,4133,4133,4133,4133,4133,4133,4924,0,0,0,0,0,0,0,0,0,0,0,0,0,0,0,0,0,0,0,0,7,7,7,7,7,7,0,0,0,0,0,0,0,0,0,0,0,0,0,0,4922,4922,4133,4133,4133,4133,4133,4133,12162,0,0,0,0,0,0,0,0,0,8307,8308,8308,8309,0,0,0,0,0,0,0,0,0,0,0,0,0,0,0,0,
4133,4133,4133,4133,4133,4133,4133,4133,4133,4133,4133,4133,4133,4133,4133,4133,4133,4133,4133,4133,4133,4133,4133,4133,4133,4133,4133,4924,0,0,0,0,0,0,0,0,0,0,0,0,0,0,0,0,0,0,0,0,0,0,0,0,0,0,0,0,0,0,0,0,0,0,0,0,0,0,0,0,4922,4922,4133,4133,4133,4133,4133,4133,12162,0,0,0,0,0,0,0,0,0,8307,8308,8308,8309,0,0,0,0,0,0,0,0,0,0,0,0,0,0,0,0,
4133,4133,4133,4133,4133,4133,4133,4133,4133,4133,4133,4133,4133,4133,4133,4133,4133,4133,4133,4133,4133,4133,4133,4133,4133,4133,4133,4924,0,0,0,0,0,0,0,0,0,0,0,0,0,0,0,0,0,0,0,0,0,0,0,0,0,0,0,0,0,0,0,0,0,0,0,0,0,0,0,4048,4922,4922,4133,4133,4133,4133,4133,4133,12162,0,0,0,0,0,0,0,0,0,8307,8308,8308,8309,0,0,0,0,0,0,0,0,0,0,0,0,0,0,0,0,
4133,4133,4133,4133,4133,4133,4133,4133,4133,4133,4133,4133,4133,4133,4133,4133,4133,4133,4133,4133,4133,4133,4133,4133,4133,4133,4133,4924,0,0,0,0,0,0,0,0,0,0,0,0,0,0,0,0,0,0,0,0,0,0,0,0,0,0,0,0,0,0,0,0,0,0,0,0,0,0,0,4075,4922,4922,4133,4133,4133,4133,4133,4133,12162,0,0,0,0,0,0,0,0,0,8307,8308,8308,8309,0,0,0,0,0,0,0,0,0,0,0,0,0,0,0,0,
4133,4133,4133,4133,4133,4133,4133,4133,4133,4133,4133,4133,4133,4133,4133,4133,4133,4133,4133,4133,4133,4133,4133,4133,4133,4133,4133,4924,0,0,0,0,0,4875,4875,4875,4875,4875,4875,4875,4875,4875,4875,4875,4875,4875,0,0,0,4875,4875,4875,4875,4875,4875,4875,4875,4875,4875,4875,4875,4875,4875,4875,4875,4875,4875,4875,4922,4922,4133,4133,4133,4133,4133,4133,12162,0,0,0,0,0,0,0,0,0,8307,8308,8308,8309,0,0,0,0,0,0,0,0,0,0,0,0,0,0,0,0,
4133,4133,4133,4133,4133,4133,4133,4133,4133,4133,4133,4133,4133,4133,4133,4133,4133,4133,4133,4133,4133,4133,4133,4133,4133,4133,4133,4924,0,0,0,0,0,0,0,0,0,0,0,0,0,0,0,0,0,0,0,0,0,0,0,0,0,0,0,0,0,0,0,0,0,0,0,0,0,0,0,4914,4915,4133,4133,4133,4133,4133,4133,4133,12162,0,0,0,0,0,0,0,0,0,8307,8308,8308,8309,0,0,0,0,0,0,0,0,0,0,0,0,0,0,0,0,
4133,4133,4133,4133,4133,4133,4133,4133,4133,4133,4133,4133,4133,4133,4133,4133,4133,4133,4133,4133,4133,4133,4133,4133,4133,4133,4133,4924,0,0,0,0,0,0,0,0,0,0,0,0,0,0,0,0,0,0,0,0,0,0,0,0,0,0,0,0,0,0,0,0,0,0,0,0,0,0,0,4922,4914,4133,4133,4133,4133,4133,4133,4133,12162,0,0,0,0,0,0,0,0,0,8307,8308,8308,8309,0,0,0,0,0,0,0,0,0,0,0,0,0,0,0,0,
4133,4133,4133,4133,4133,4133,4133,4133,4133,4133,4133,4133,4133,4133,4133,4133,4133,4133,4133,4133,4133,4133,4133,4133,4133,4133,4133,4924,0,0,0,0,0,0,0,0,0,0,0,0,0,0,0,0,0,0,0,0,0,0,0,0,0,0,0,0,0,0,0,0,0,0,0,0,0,0,0,4922,4133,4133,4133,4133,4133,4133,4133,4133,12162,0,0,0,0,0,0,0,0,0,8307,8308,8308,8309,0,0,0,0,0,0,0,0,0,0,0,0,0,0,0,0,
4133,4133,4133,4133,4133,4133,4133,4133,4133,4133,4133,4133,4133,4133,4133,4133,4133,4133,4133,4133,4133,4133,4133,4133,4133,4133,4133,4924,0,0,0,0,0,0,0,0,0,0,0,0,0,0,0,0,0,0,0,0,0,0,0,0,0,0,0,0,0,0,0,0,0,0,0,0,0,0,0,4922,4133,4133,4133,4133,4133,4133,4133,4133,12162,0,0,0,0,0,0,0,0,0,8307,8308,8308,8309,0,0,0,0,0,0,0,0,0,0,0,0,0,0,0,0,
4133,4133,4133,4133,4133,4133,4133,4133,4133,4133,4133,4133,4133,4133,4133,4133,4133,4133,4133,4133,4133,4133,4133,4133,4133,4133,4133,4924,0,0,0,0,0,0,0,0,0,0,0,0,0,0,0,0,0,0,0,0,0,0,0,0,0,0,0,0,0,0,0,0,0,0,0,0,0,0,0,4922,4133,4133,4133,4133,4133,4133,4133,4133,12162,0,0,0,0,0,0,0,0,0,8307,8308,8308,8309,0,0,0,0,0,0,0,0,0,0,0,0,0,0,0,0,
4133,4133,4133,4133,4133,4133,4133,4133,4133,4133,4133,4133,4133,4133,4133,4133,4133,4133,4133,4133,4133,4133,4133,4133,4133,4133,4133,4924,0,0,0,0,0,0,0,0,0,0,0,0,0,0,0,0,0,0,0,0,0,0,0,0,0,0,0,0,0,0,0,0,0,0,0,0,0,0,0,4922,4133,4133,4133,4133,8942,4133,4133,4133,12162,0,0,0,0,0,0,0,0,0,8307,8308,8308,8309,0,0,0,0,0,0,0,0,0,0,0,0,0,0,0,0,
4133,4133,4133,4133,4133,4133,4133,4133,4133,4133,4133,4133,4133,4133,4133,4133,4133,4133,4133,4133,4133,4133,4133,4133,4133,4133,4133,4924,0,0,0,0,0,0,0,0,0,0,0,0,0,0,0,0,0,0,0,0,0,0,0,0,0,0,0,0,0,0,0,0,0,0,0,0,0,0,0,4922,4133,4133,4133,4133,4133,4133,4133,4133,12162,0,0,0,0,0,0,0,0,0,8307,8308,8308,8309,0,0,0,0,0,0,0,0,0,0,0,0,0,0,0,0,
4133,4133,4133,4133,4133,4133,4133,4133,4133,4133,4133,4133,4133,4133,4133,4133,4133,4133,4133,4133,4133,4133,4133,4133,4133,4133,4133,4924,0,0,0,0,0,0,0,0,0,0,0,0,7,7,7,0,0,0,0,0,0,0,0,0,0,0,0,0,0,0,0,0,0,0,0,0,0,0,0,4922,4133,4133,4133,4133,4133,4133,4133,4133,12162,0,0,0,0,0,0,0,0,0,8307,8308,8308,8309,0,0,0,0,0,0,0,0,0,0,0,0,0,0,0,0,
4133,4133,4133,4133,4133,4133,4133,4133,4133,4133,4133,4133,4133,4133,4133,4133,4133,4133,4133,4133,4133,4133,4133,4133,4133,4133,4133,4924,0,0,0,0,0,0,0,0,0,0,0,0,7,7,7,0,0,0,0,0,0,0,0,0,0,0,0,0,0,0,0,0,0,0,0,0,0,0,0,4922,4133,4133,4133,4133,4133,4133,4133,4133,12162,0,0,0,0,0,0,0,0,0,8307,8308,8308,8309,0,0,0,0,0,0,0,0,0,0,0,0,0,0,0,0,
4133,4133,4133,4133,4133,4133,4133,4133,4133,4133,4133,4133,4133,4133,4133,4133,4133,4133,4133,4133,4133,4133,4133,4133,4133,4133,4133,4924,0,0,0,0,0,0,0,0,0,0,0,0,7,7,7,0,0,0,0,0,0,0,0,0,0,0,0,0,0,0,0,0,0,0,0,0,0,0,0,4922,4133,4133,4133,4133,4133,4133,4133,4133,12162,0,0,0,0,0,0,0,0,0,8307,8308,8308,8309,0,0,0,0,0,0,0,0,0,0,0,0,0,0,0,0,
4133,4133,4133,4133,4133,4133,4133,4133,4133,4133,4133,4133,4133,4133,4133,4133,4133,4133,4133,4133,4133,4133,4133,4133,4133,4133,4133,4924,0,0,0,0,0,0,0,0,0,0,0,0,32,7,7,0,0,0,0,0,0,0,0,0,0,0,0,0,0,0,0,0,0,0,0,0,0,0,0,4922,4133,4133,4133,4133,4133,4133,4133,4133,12162,0,0,0,0,0,0,0,0,0,8307,8308,8308,8309,0,0,0,0,0,0,0,0,0,0,0,0,0,0,0,0,
4133,4133,4133,4133,4133,4133,4133,4133,4133,4133,4133,4133,4133,4133,4133,4133,4133,4133,4133,4133,4133,4133,4133,4133,4133,4133,4133,4924,0,0,0,0,0,0,0,0,0,0,0,0,0,0,0,0,0,0,0,0,0,0,0,0,0,0,0,0,0,0,0,0,0,0,0,0,0,0,0,4922,4133,4133,4133,4133,4133,4133,4133,4133,12162,0,0,0,0,0,0,0,0,0,8307,8308,8308,8309,0,0,0,0,0,0,0,0,0,0,0,0,0,0,0,0,
4133,4133,4133,4133,4133,4133,4133,4133,4133,4133,4133,4133,4133,4133,4133,4133,4133,4133,4133,4133,4133,4133,4133,4133,4133,4133,4133,4924,0,0,0,0,0,0,0,0,0,0,0,0,0,0,0,0,0,0,0,0,0,0,0,0,0,0,0,0,0,0,0,0,0,0,0,0,0,0,0,4922,4133,4133,4133,4133,4133,4133,4133,4133,12162,0,0,0,0,0,0,0,0,0,8307,8308,8308,8309,0,0,0,0,0,0,0,0,0,0,0,0,0,0,0,0,
4133,4133,4133,4133,4133,4133,4133,4133,4133,4133,4133,4133,4133,4133,4133,4133,4133,4133,4133,4133,4133,4133,4133,4133,4133,4133,4133,4924,0,0,0,0,0,0,0,0,0,0,0,0,0,0,0,0,0,0,0,0,0,0,0,0,0,0,0,0,0,0,0,0,0,0,0,0,0,0,0,4922,4133,4133,4133,4133,4133,4133,4133,4133,12162,0,0,0,0,0,0,0,0,0,8307,8308,8308,8309,0,0,0,0,0,0,0,0,0,0,0,0,0,0,0,0,
4133,4133,4133,4133,4133,4133,4133,4133,4133,4133,4133,4133,4133,4133,4133,4133,4133,4133,4133,4133,4133,4133,4133,4133,4133,4133,4133,4924,0,0,0,0,0,0,0,0,0,0,0,0,0,0,0,0,0,0,0,0,0,0,0,0,0,0,0,0,0,0,0,0,0,0,0,0,0,0,0,4922,4133,4133,4133,4133,4133,4133,4133,4133,12162,0,0,0,0,0,0,0,0,0,8307,8308,8308,8309,0,0,0,0,0,0,0,0,0,0,0,0,0,0,0,0,
4133,4133,4133,4133,4133,4133,4133,4133,4133,4133,4133,4133,4133,4133,4133,4133,4133,4133,4133,4133,4133,4133,4133,4133,4133,4133,4133,4924,0,0,0,0,0,0,0,0,0,0,0,0,0,0,0,0,0,0,0,0,0,0,0,0,0,0,0,0,0,0,0,0,0,0,0,0,0,0,0,4922,4133,4133,4133,4133,4133,4133,4133,4133,12162,0,0,0,0,0,0,0,0,0,8307,8308,8308,8309,0,0,0,0,0,0,0,0,0,0,0,0,0,0,0,0,
4133,4133,4133,4133,4133,4133,4133,4133,4133,4133,4133,4133,4133,4133,4133,4133,4133,4133,4133,4133,4133,4133,4133,4133,4133,4133,4133,4924,0,0,0,0,0,0,0,0,0,0,0,0,0,0,0,0,0,0,0,0,0,0,0,0,0,0,0,0,0,0,0,0,0,0,0,0,0,0,0,4922,4133,4133,4133,4133,4133,4133,4133,4133,12162,0,0,0,0,0,0,0,0,0,8307,8308,8308,8309,0,0,0,0,0,0,0,0,0,0,0,0,0,0,0,0,
4133,4133,4133,4133,4133,4133,4133,4133,4133,4133,4133,4133,4133,4133,4133,4133,4133,4133,4133,4133,4133,4133,4133,4133,4133,4133,4133,4924,0,0,0,0,0,0,0,0,0,0,0,0,0,0,0,0,0,0,0,0,0,0,0,0,0,0,0,0,0,0,0,0,0,0,0,0,0,0,0,4922,4133,4133,4133,4133,4133,4133,4133,4133,12162,0,0,0,0,0,0,0,0,0,8307,8308,8308,8309,0,0,0,0,0,0,0,0,0,0,0,0,0,0,0,0,
4133,4133,4133,4133,4133,4133,4133,4133,4133,4133,4133,4133,4133,4133,4133,4133,4133,4133,4133,4133,4133,4133,4133,4133,4133,4133,4133,4924,0,0,0,0,0,0,0,0,0,0,7,7,7,7,7,0,0,0,0,0,0,0,0,0,0,0,0,0,0,0,0,0,0,0,0,0,0,0,0,4922,4133,4133,4133,4133,4133,4133,4133,4133,12162,0,0,0,0,0,0,0,0,0,8307,8308,8308,8309,0,0,0,0,0,0,0,0,0,0,0,0,0,0,0,0,
4133,4133,4133,4133,4133,4133,4133,4133,4133,4133,4133,4133,4133,4133,4133,4133,4133,4133,4133,4133,4133,4133,4133,4133,4133,4133,4133,4924,0,0,0,0,0,0,0,0,0,0,7,7,7,7,7,0,0,0,0,0,0,0,0,0,0,0,0,0,0,0,0,0,0,0,0,0,0,0,0,4922,4133,4133,4133,4133,4133,4133,4133,4133,12162,0,0,0,0,0,0,0,0,0,8307,8308,8308,8309,0,0,0,0,0,0,0,0,0,0,0,0,0,0,0,0,
4133,4133,4133,4133,4133,4133,4133,4133,4133,4133,4133,4133,4133,4133,4133,4133,4133,4133,4133,4133,4133,4133,4133,4133,4133,4133,4133,4924,0,0,0,0,0,0,0,0,0,0,7,7,7,32,7,0,0,0,0,0,0,0,0,0,0,0,0,0,0,0,0,0,0,0,0,0,0,0,0,4922,4133,4133,4133,4133,4133,4133,4133,4133,12162,0,0,0,0,0,0,0,0,0,8307,8308,8308,8309,0,0,0,0,0,0,0,0,0,0,0,0,0,0,0,0,
4133,4133,4133,4133,4133,4133,4133,4133,4133,4133,4133,4133,4133,4133,4133,4133,4133,4133,4133,4133,4133,4133,4133,4133,4133,4133,4133,4924,0,0,0,0,0,0,0,0,0,0,0,0,0,0,0,0,0,0,0,0,0,0,0,0,0,0,0,0,0,0,0,0,0,0,0,0,0,0,0,4922,4133,4133,4133,4133,4133,4133,4133,4133,12162,0,0,0,0,0,0,0,0,0,8307,8308,8308,8309,0,0,0,0,0,0,0,0,0,0,0,0,0,0,0,0,
4133,4133,4133,4133,4133,4133,4133,4133,4133,4133,4133,4133,4133,4133,4133,4133,4133,4133,4133,4133,4133,4133,4133,4133,4133,4133,4133,4924,0,0,0,0,0,0,0,7,7,7,7,7,7,0,0,0,0,0,0,0,0,0,0,0,0,0,0,0,0,0,0,0,0,0,0,0,0,0,0,4922,4133,4133,4133,4133,4133,4133,4133,4133,12162,0,0,0,0,0,0,0,0,0,8307,8308,8308,8309,0,0,0,0,0,0,0,0,0,0,0,0,0,0,0,0,
4133,4133,4133,4133,4133,4133,4133,4133,4133,4133,4133,4133,4133,4133,4133,4133,4133,4133,4133,4133,4133,4133,4133,4133,4133,4133,4133,4924,0,0,0,0,0,0,0,7,7,7,7,7,7,0,0,0,0,0,0,0,0,0,0,0,0,0,0,0,0,0,0,0,0,0,0,0,0,0,0,4922,4133,4133,4133,4133,4133,4133,4133,4133,12162,0,0,0,0,0,0,0,0,0,8307,8308,8308,8309,0,0,0,0,0,0,0,0,0,0,0,0,0,0,0,0,
4133,4133,4133,4133,4133,4133,4133,4133,4133,4133,4133,4133,4133,4133,4133,4133,4133,4133,4133,4133,4133,4133,4133,4133,4133,4133,4133,4924,0,0,0,0,0,0,0,7,7,7,7,949,7,0,0,0,0,0,0,0,0,0,0,0,0,0,0,0,0,0,0,0,0,0,0,0,0,0,0,4922,4133,4133,4133,4133,4133,4133,4133,4133,12162,0,0,0,0,0,0,0,0,0,8307,8308,8308,8309,0,0,0,0,0,0,0,0,0,0,0,0,0,0,0,0,
4133,4133,4133,4133,4133,4133,4133,4133,4133,4133,4133,4133,4133,4133,4133,4133,4133,4133,4133,4133,4133,4133,4133,4133,4133,4133,4133,4924,0,0,0,0,0,0,0,7,7,7,7,7,7,0,0,0,0,0,0,0,0,0,0,0,0,0,0,0,0,0,0,0,0,0,0,0,0,0,0,4922,4133,4133,4133,4133,4133,4133,4133,4133,12162,0,0,0,0,0,0,0,0,0,8307,8308,8308,8309,0,0,0,0,0,0,0,0,0,0,0,0,0,0,0,0,
4133,4133,4133,4133,4133,4133,4133,4133,4133,4133,4133,4133,4133,4133,4133,4133,4133,4133,4133,4133,4133,4133,4133,4133,4133,4133,4133,4924,0,0,0,0,0,0,0,7,32,7,7,7,7,0,0,0,0,0,0,0,0,0,0,0,0,0,0,0,0,0,0,0,0,0,0,0,0,0,0,4922,4133,4133,4133,4133,4133,4133,4133,4133,12162,0,0,0,0,0,0,0,0,0,8307,8308,8308,8309,0,0,0,0,0,0,0,9143,9143,9143,0,0,0,0,0,0,
4133,4133,4133,4133,4133,4133,4133,4133,4133,4133,4133,4133,4133,4133,4133,4133,4133,4133,4133,4133,4133,4133,4133,4133,4133,4133,4133,4924,0,0,0,0,0,0,0,7,7,7,7,7,7,0,0,0,0,0,0,0,0,0,0,0,0,0,0,0,0,0,0,0,0,0,0,0,0,0,0,4922,4133,4133,4133,4133,4133,4133,4133,4133,12162,0,0,0,0,0,0,0,0,0,8307,8308,8308,8309,0,0,0,0,0,9143,9143,0,0,9143,9143,0,0,0,0,0,
4133,4133,4133,4133,4133,4133,4133,4133,4133,4133,4133,4133,4133,4133,4133,4133,4133,4133,4133,4133,4133,4133,4133,4133,4133,4133,4133,4924,0,0,0,0,0,0,0,0,0,0,0,0,0,0,0,0,0,0,0,0,0,0,0,0,0,0,0,0,0,0,0,0,0,0,0,0,0,0,0,4922,4133,4133,4133,4133,4133,4133,4133,4133,0,0,0,0,0,0,0,0,0,0,8307,8308,8308,8309,0,0,0,0,9143,0,9482,9483,9484,9485,9486,9143,0,0,0,0,
4133,4133,4133,4133,4133,4133,4133,4133,4133,4133,4133,4133,4133,4133,4133,4133,4133,4133,4133,4133,4133,4133,4133,4133,4133,4133,4133,4924,0,0,0,0,0,0,0,0,0,0,0,0,0,0,0,0,0,0,0,0,0,0,0,0,0,0,0,0,0,0,0,0,0,0,0,0,0,0,0,4922,4133,4133,4133,4133,4133,4133,4133,4133,0,0,0,0,0,0,0,0,0,0,8307,8308,8308,8309,0,0,0,0,9143,0,9490,9491,9492,9493,9494,0,0,0,0,0,
4133,4133,4133,4133,4133,4133,4133,4133,4133,4133,4133,4133,4133,4133,4133,4133,4133,4133,4133,4133,4133,4133,4133,4133,4133,4133,4133,4924,0,0,0,0,0,0,0,0,0,0,0,0,0,0,0,0,0,0,0,0,0,0,0,0,0,0,0,0,0,0,0,0,0,0,0,0,0,0,0,4922,4133,4133,4133,4133,4133,4133,4133,4133,0,0,0,0,0,0,0,0,0,0,8307,8308,8308,8309,0,0,0,9191,9192,9193,9498,9499,9500,9501,9502,9143,0,0,0,0,
4133,4133,4133,4133,4133,4133,4133,4133,4133,4133,4133,4133,4133,4133,4133,4133,4133,4133,4133,4133,4133,4133,4133,4133,4133,4133,4133,4924,0,0,0,9100,0,0,0,0,0,0,0,0,0,0,0,0,0,0,0,0,0,0,0,0,0,0,0,0,0,0,0,0,0,0,0,0,0,0,0,4922,4133,4133,4133,4133,4133,4133,4133,4133,0,0,0,0,0,0,0,0,0,0,8307,8308,8308,8309,0,0,0,9199,9200,9201,9506,9507,9508,9509,9510,9143,0,0,0,0,
4133,4133,4133,4133,4133,4133,4133,4133,4133,4133,4133,4133,4133,4133,4133,4133,4133,4133,4133,4133,4133,4133,4133,4133,4133,4133,4133,4924,0,0,0,0,0,0,0,0,0,0,0,0,0,0,0,0,0,0,0,0,0,0,0,0,0,0,0,0,0,0,0,0,0,0,0,0,0,0,0,4922,4133,4133,4133,4133,4133,4133,4133,4133,0,0,0,0,0,0,0,0,0,0,8307,8308,8308,8309,0,0,0,0,0,0,9143,9143,0,9143,9143,0,0,0,0,0,
4133,4133,4133,4133,4133,4133,4133,4133,4133,4133,4133,4133,4133,4133,4133,4133,4133,4133,4133,4133,4133,4133,4133,4133,4133,4133,4133,4924,0,0,0,0,0,0,0,0,0,0,0,0,0,0,0,0,0,0,0,0,0,0,0,0,0,0,0,0,0,0,0,0,0,0,0,0,0,0,0,4922,4133,4133,4133,4133,4133,4133,4133,4133,0,0,0,0,0,0,0,0,0,0,8307,8308,8308,8309,0,0,0,0,0,0,0,0,0,0,0,0,0,0,0,0,
4133,4133,4133,4133,4133,4133,4133,4133,4133,4133,4133,4133,4133,4133,4133,4133,4133,4133,4133,4133,4133,4133,4133,4133,4133,4133,4133,4924,0,0,0,0,0,0,0,0,0,0,0,0,0,0,0,0,0,0,0,0,0,0,0,0,0,0,0,0,0,0,0,0,0,0,0,0,0,0,0,4922,4133,4133,4133,4133,4133,4133,4133,4133,0,0,0,0,0,0,0,0,0,0,8307,8308,8308,8309,0,0,0,0,0,0,0,0,0,0,0,0,0,0,0,0,
4133,4133,4133,4133,4133,4133,4133,4133,4133,4133,4133,4133,4133,4133,4133,4133,4133,4133,4133,4133,4133,4133,4133,4133,4133,4133,4133,4924,0,0,0,0,0,0,0,0,0,0,0,0,0,0,0,0,0,0,0,0,0,0,0,0,0,0,0,0,0,0,0,0,0,0,0,0,0,0,0,4922,4133,4133,4133,4133,4133,4133,4133,4133,0,0,0,0,0,0,0,0,0,0,8307,8308,8308,8309,0,0,0,0,0,0,0,0,0,0,0,0,0,0,0,0,
4931,4931,4931,4931,4931,4931,4931,4931,4931,4931,4931,4931,4931,4931,4931,4931,4931,4931,4931,4931,4931,4931,4931,4931,4931,4931,4931,4932,0,0,0,0,0,0,0,0,0,0,0,0,0,0,0,0,0,0,0,0,0,0,0,0,0,0,0,0,0,0,0,0,0,0,0,0,0,0,0,4930,4133,4133,4133,4133,4133,4133,4133,4133,0,0,0,0,0,0,0,0,0,0,8307,8308,8308,8309,0,0,0,0,0,0,0,0,0,0,0,0,0,0,0,0
</data>
 </layer>
 <layer id="3" name="edifici" width="106" height="60">
  <data encoding="csv">
4927,4927,4927,4927,4927,4927,4927,4927,4927,4927,4927,4927,4927,4927,4927,4927,4927,4927,4927,4927,4927,4927,4927,4927,4927,4927,4927,4916,564,565,566,564,565,566,564,565,566,0,0,0,421,422,0,421,422,0,564,565,566,421,422,0,421,422,0,0,0,0,0,0,0,0,0,0,0,0,0,0,0,4925,4925,4925,4925,4925,4925,4925,0,4927,4927,4927,4927,4927,4927,4927,4927,4927,8566,8567,8566,8567,8566,8567,8566,8567,8566,8567,8566,8567,8566,8567,8566,8567,8566,8567,8566,8567,
4927,4927,4927,4927,4927,4927,4927,4927,4927,4927,4927,4927,4927,4927,4927,4927,4927,4927,4927,4927,4927,4927,4927,4927,4927,4927,4927,0,572,573,574,572,573,574,572,573,574,954,0,0,429,430,0,429,430,0,572,573,574,429,430,0,429,430,0,0,0,0,0,0,0,0,0,0,0,0,0,0,0,4925,4925,4925,4925,4925,4925,4925,0,4927,4927,4927,4927,4927,4927,4927,4927,4927,8574,8575,8574,8575,8574,8575,8574,8575,8574,8575,8574,8575,8574,8575,8574,8575,8574,8575,8574,8575,
4927,4927,4927,4927,4927,4927,4927,4927,4927,4927,4927,4927,4927,4927,4927,4927,4927,4927,4927,4927,4927,4927,4927,4927,4927,4927,4927,0,580,581,582,580,581,582,580,581,582,0,0,0,437,438,0,437,438,0,580,581,582,437,438,0,437,438,0,0,0,0,0,0,0,0,0,0,0,0,0,0,4922,4925,4925,4925,4925,4925,4925,4925,0,4927,4927,4927,4927,4927,4927,4927,4927,4927,8582,8583,8582,8583,8582,8583,8582,8583,8582,8583,8582,8583,8582,8583,8582,8583,8582,8583,8582,8583,
4927,4927,4927,4927,4927,4927,4927,4927,4927,4927,4927,4927,4927,4927,4927,4927,4927,4927,4927,4927,4927,4927,4927,4927,4927,4927,4927,0,588,589,590,588,589,590,588,589,590,0,0,0,0,0,0,0,0,0,588,589,590,564,565,566,421,422,0,0,0,0,0,0,0,0,0,0,0,0,0,4043,4922,4925,4925,4925,4925,4925,4925,4925,0,4927,4927,4927,4927,4927,4927,4927,4927,4927,8566,8567,8566,8567,8566,8567,8566,8567,8566,8567,8566,8567,8566,8567,8566,8567,8566,8567,8566,8567,
4927,4927,4927,4927,4927,4927,4927,4927,4927,4927,4927,4927,4927,4927,4927,4927,4927,4927,4927,4927,4927,4927,4927,4927,4927,4927,4927,0,596,597,598,596,597,598,596,597,598,0,0,0,0,0,0,0,0,0,596,597,598,572,573,574,429,430,0,0,0,0,0,0,0,0,0,0,0,0,0,4067,4922,4925,4925,4925,4925,4925,4925,4925,0,4927,4927,4927,4927,4927,4927,4927,4927,4927,8574,8575,8574,8575,8574,8575,8574,8575,8574,8575,8574,8575,8574,8575,8574,8575,8574,8575,8574,8575,
4927,4927,4927,4927,4927,4927,4927,4927,4927,4927,4927,4927,4927,4927,4927,4927,4927,4927,4927,4927,4927,4927,4927,4927,4927,4927,4927,0,604,605,606,604,605,606,604,605,606,0,0,0,0,0,0,0,0,0,604,605,606,580,581,582,437,438,0,0,0,0,0,0,0,0,0,0,0,0,0,4067,4922,4925,4925,4925,4925,4925,4925,4925,0,4927,4927,4927,4927,4927,4927,4927,4927,4927,8582,8583,8582,8583,8582,8583,8582,8583,8582,8583,8582,8583,8582,8583,8582,8583,8582,8583,8582,8583,
4927,4927,4927,4927,4927,4927,4927,4927,4927,4927,4927,4927,4927,4927,4927,4927,4927,4927,4927,4927,4927,4927,4927,4927,4927,4927,4927,0,421,422,0,564,565,566,564,565,566,0,0,0,0,0,0,0,0,0,421,422,0,588,589,590,421,422,0,0,0,0,0,0,0,0,4885,4118,4118,4886,0,0,4925,4925,4925,4925,4925,4925,4925,4925,0,4927,4927,4927,4927,4927,4927,4927,4927,4927,0,0,0,0,0,0,0,0,0,0,0,0,0,0,0,0,8566,8567,8566,8567,
4927,4927,4927,4927,4927,4927,4927,4927,4927,4927,4927,4927,4927,4927,4927,4927,4927,4927,4927,4927,4927,4927,4927,4927,4927,4927,4927,0,429,430,0,572,573,574,572,573,574,0,0,0,0,0,0,0,0,0,429,430,0,596,597,598,429,430,0,0,0,0,0,0,0,0,0,4122,4122,0,0,0,4925,4925,4925,4925,4925,4925,4925,4925,0,4927,4927,4927,4927,4927,4927,4927,8939,8942,8931,8932,0,8152,8152,8152,0,0,0,0,0,0,0,0,0,0,8574,8575,8574,8575,
4927,4927,4927,4927,4927,4927,4927,4927,4927,4927,4927,4927,4927,4927,4927,4927,4927,4927,4927,4927,4927,4927,4927,4927,4927,4927,4927,0,437,438,0,580,581,582,580,581,582,0,0,0,0,0,0,0,0,0,437,438,0,604,605,606,437,438,0,0,0,0,0,0,0,0,4885,0,0,4886,0,0,4925,4925,4925,4925,4925,4925,4925,4925,0,4927,4927,4927,4927,4927,4927,4927,8939,8942,8939,8940,0,0,0,0,0,0,0,0,0,0,0,0,0,0,8582,8583,8582,8583,
4927,4927,4927,4927,4927,4927,4927,4927,4927,4927,4927,4927,4927,4927,4927,4927,4927,4927,4927,4927,4927,4927,4927,4927,4927,4927,4927,0,564,565,566,588,589,590,588,589,590,0,0,0,0,0,0,0,0,0,421,422,0,421,422,0,421,422,0,0,0,0,0,0,0,0,4885,0,0,4886,0,0,4925,4925,4925,4925,4925,4925,4925,4925,0,4927,4927,4927,4927,4927,4927,4927,8939,8940,8923,8948,0,0,0,0,0,0,0,0,0,0,0,0,0,0,8566,8567,8566,8567,
4927,4927,4927,4927,4927,4927,4927,4927,4927,4927,4927,4927,4927,4927,4927,4927,4927,4927,4927,4927,4927,4927,4927,4927,4927,4927,4927,0,572,573,574,596,597,598,596,597,598,0,0,0,0,0,0,0,0,0,429,430,0,429,430,0,429,430,0,0,0,0,0,0,0,0,4885,0,0,4886,0,0,4925,4925,4925,4925,4925,4925,4925,4925,0,4927,4927,4927,4927,4927,4927,4927,8939,4927,0,0,0,0,0,0,0,0,0,0,0,0,0,0,0,0,8574,8575,8574,8575,
4927,4927,4927,4927,4927,4927,4927,4927,4927,4927,4927,4927,4927,4927,4927,4927,4927,4927,4927,4927,4927,4927,4927,4927,4927,4927,4927,0,580,581,582,604,605,606,604,605,606,0,0,0,0,0,0,0,0,0,437,438,0,437,438,0,437,438,0,0,0,0,0,0,0,0,4885,0,0,4886,0,0,4925,4925,4925,4925,4925,4925,4925,4925,0,4927,4927,4927,4927,4927,4927,4927,8939,4927,0,0,0,0,0,0,0,0,0,0,0,0,0,0,0,0,8582,8583,8582,8583,
4927,4927,4927,4927,4927,4927,4927,4927,4927,4927,4927,4927,4927,4927,4927,4927,4927,4927,4927,4927,4927,4927,4927,4927,4927,4927,4927,0,588,589,590,564,565,566,564,565,566,0,0,0,0,0,0,0,0,0,421,422,0,421,422,0,421,422,0,0,0,0,0,0,0,0,0,0,0,0,0,0,4925,4925,4925,4925,4925,4925,4925,4925,0,4927,4927,4927,4927,4927,4927,4927,8939,4927,0,0,0,0,0,8152,0,0,0,0,0,0,0,0,0,0,8566,8567,8566,8567,
4927,4927,4927,4927,4927,4927,4927,4927,4927,4927,4927,4927,4927,4927,4927,4927,4927,4927,4927,4927,4927,4927,4927,4927,4927,4927,4927,0,596,597,598,572,573,574,572,573,574,0,0,0,0,0,0,0,0,0,429,430,0,429,430,0,429,430,0,0,0,0,0,0,0,0,4885,0,0,4886,0,0,4925,4925,4925,4925,4925,4925,4925,4925,0,4927,4927,4927,4927,4927,4927,4927,8939,4927,0,0,0,0,0,8152,8152,0,0,8152,0,0,8152,8152,0,0,8574,8575,8574,8575,
4927,4927,4927,4927,4927,4927,4927,4927,4927,4927,4927,4927,4927,4927,4927,4927,4927,4927,4927,4927,4927,4927,4927,4927,4927,4927,4927,0,604,605,606,580,581,582,580,581,582,0,0,0,0,0,0,0,0,0,437,438,0,437,438,0,437,438,0,0,0,0,0,0,0,0,4885,0,0,4886,0,0,4925,4925,4925,4925,4925,4925,4925,4925,0,4927,4927,4927,4927,4927,4927,4927,8939,4927,0,0,0,0,0,0,8152,0,8152,8152,8152,8152,8152,8152,0,0,8582,8583,8582,8583,
4927,4927,4927,4927,4927,4927,4927,4927,4927,4927,4927,4927,4927,4927,4927,4927,4927,4927,4927,4927,4927,4927,4927,4927,4927,4927,4927,0,421,422,0,588,589,590,588,589,590,0,0,0,421,422,0,421,422,0,421,422,0,0,0,0,0,0,0,0,0,0,0,0,0,0,4885,0,0,4886,0,0,4925,4925,4925,4925,4925,4925,4925,8949,8950,8951,4927,4927,4927,4927,4927,4927,8939,4927,0,0,0,0,0,0,8152,8152,8152,8152,8152,8152,8152,8152,0,0,8566,8567,8566,8567,
4927,4927,4927,4927,4927,4927,4927,4927,4927,4927,4927,4927,4927,4927,4927,4927,4927,4927,4927,4927,4927,4927,4927,4927,4927,4927,4927,0,429,430,0,596,597,598,596,597,598,0,0,0,429,430,0,429,430,0,429,430,0,0,0,0,0,0,0,0,0,0,0,0,0,0,4885,0,0,4886,0,0,4925,4925,4925,4925,4925,8941,8949,8947,0,8947,8951,4927,4927,4927,4927,4927,8939,4927,0,0,0,0,0,0,8152,8152,8152,8152,0,8152,8152,8152,0,0,8574,8575,8574,8575,
4927,4927,4927,4927,4927,4927,4927,4927,4927,4927,4927,4927,4927,4927,4927,4927,4927,4927,4927,4927,4927,4927,4927,4927,4927,4927,4927,0,437,438,0,604,605,606,604,605,606,0,0,0,437,438,0,437,438,0,437,438,0,0,0,0,0,0,0,0,0,0,0,0,0,0,4885,0,0,4886,0,0,4925,4925,4925,4925,4925,8949,8947,8947,8947,8947,8947,8951,4927,4927,4927,4927,8939,4927,0,0,0,0,0,0,8152,8152,8152,8152,8152,8152,8152,0,0,0,8582,8583,8582,8583,
4927,4927,4927,4927,4927,4927,4927,4927,4927,4927,4927,4927,4927,4927,4927,4927,4927,4927,4927,4927,4927,4927,4927,4927,4927,4927,4927,0,421,422,0,421,422,0,0,0,0,0,0,0,0,0,0,0,0,0,0,0,0,0,0,0,0,0,0,0,0,0,0,0,0,0,4885,0,0,4886,0,0,4925,8941,8941,8941,8949,8947,8947,8947,8947,8947,8947,8950,8951,4927,4927,4927,8939,4927,0,0,0,0,0,0,8152,8152,8152,8152,0,8152,8152,0,0,0,8566,8567,8566,8567,
4927,4927,4927,4927,4927,4927,4927,4927,4927,4927,4927,4927,4927,4927,4927,4927,4927,4927,4927,4927,4927,4927,4927,4927,4927,4927,4927,0,429,430,0,429,430,0,0,0,0,0,0,0,0,0,0,0,0,0,0,0,0,0,0,0,0,0,0,0,0,0,0,0,0,0,0,4122,4122,0,0,0,8938,8941,8941,8949,8947,8947,8950,8950,8950,8950,8950,8950,8950,8951,4927,4927,8939,4927,0,0,0,0,0,0,8152,8152,8152,0,8152,8152,0,0,0,0,8574,8575,8574,8575,
4927,4927,4927,4927,4927,4927,4927,4927,4927,4927,4927,4927,4927,4927,4927,4927,4927,4927,4927,4927,4927,4927,4927,4927,4927,4927,4927,0,437,438,0,437,438,0,0,0,0,0,0,0,0,0,0,0,0,0,0,0,0,0,0,0,0,0,0,0,0,0,0,0,0,0,0,4127,4127,0,0,0,4925,8946,8950,8950,8950,8950,8950,8950,8950,8950,8950,8950,8950,8950,8951,4927,8939,4927,0,0,0,0,0,0,8152,8152,8152,8152,8152,8152,8152,0,0,0,8582,8583,8582,8583,
4927,4927,4927,4927,4927,4927,4927,4927,4927,4927,4927,4927,4927,4927,4927,4927,4927,4927,4927,4927,4927,4927,4927,4927,4927,4927,4927,0,421,422,0,421,422,0,0,0,0,0,0,0,0,0,0,0,0,0,0,0,0,0,0,0,0,0,0,0,0,0,0,0,0,0,0,0,0,0,0,0,8946,8950,8950,8950,8950,8950,8950,8950,8950,8950,8950,8950,8950,8950,8950,8951,8939,4927,0,0,0,0,0,0,0,8152,8152,8152,8152,8152,8152,8152,0,0,8566,8567,8566,8567,
4927,4927,4927,4927,4927,4927,4927,4927,4927,4927,4927,4927,4927,4927,4927,4927,4927,4927,4927,4927,4927,4927,4927,4927,4927,4927,4927,0,429,430,0,429,430,0,0,0,0,0,0,0,0,0,0,0,0,0,0,0,0,0,0,0,0,0,0,0,0,0,0,0,0,0,0,0,0,0,0,0,8148,8148,8148,8148,8148,8961,8930,8934,8934,8934,8934,8934,8934,8934,8934,4927,8939,4927,0,0,0,0,0,0,0,0,0,0,0,0,0,8152,0,0,8574,8575,8574,8575,
4927,4927,4927,4927,4927,4927,4927,4927,4927,4927,4927,4927,4927,4927,4927,4927,4927,4927,4927,4927,4927,4927,4927,4927,4927,4927,4927,0,437,438,0,437,438,0,0,0,0,0,0,0,0,0,0,0,0,0,0,0,0,0,0,0,0,0,0,0,0,0,0,0,0,0,0,0,0,0,0,0,8931,8915,8931,8933,8934,8934,8934,8934,8934,8934,8934,8934,8934,8934,8934,4927,8939,4927,0,0,0,0,0,0,0,0,0,0,0,0,0,0,0,0,8582,8583,8582,8583,
4927,4927,4927,4927,4927,4927,4927,4927,4927,4927,4927,4927,4927,4927,4927,4927,4927,4927,4927,4927,4927,4927,4927,4927,4927,4927,4927,0,421,422,0,564,565,566,564,565,566,421,422,0,0,0,0,0,0,0,0,0,0,421,422,0,564,565,566,421,422,0,421,422,0,564,565,566,421,422,0,0,8933,8934,8934,8934,8933,8934,8934,8934,8934,8934,8934,8934,8934,8934,8934,4927,8939,4927,0,0,0,0,0,8566,8567,8566,8567,8566,8567,8566,8567,8566,8567,0,8566,8567,8566,8567,
4927,4927,4927,4927,4927,4927,4927,4927,4927,4927,4927,4927,4927,4927,4927,4927,4927,4927,4927,4927,4927,4927,4927,4927,4927,4927,4927,0,429,430,0,572,573,574,572,573,574,429,430,0,0,0,0,0,0,0,0,0,0,429,430,0,572,573,574,429,430,0,429,430,0,572,573,574,429,430,0,0,4925,8933,8934,8915,8941,8933,8934,8934,8934,8934,8934,8934,8934,8934,8935,4927,8939,4927,0,0,0,0,0,8574,8575,8574,8575,8574,8575,8574,8575,8574,8575,0,8574,8575,8574,8575,
4927,4927,4927,4927,4927,4927,4927,4927,4927,4927,4927,4927,4927,4927,4927,4927,4927,4927,4927,4927,4927,4927,4927,4927,4927,4927,4927,0,437,438,0,580,581,582,580,581,582,437,438,0,0,0,0,0,0,0,0,0,0,437,438,0,580,581,582,437,438,0,437,438,0,580,581,582,437,438,0,0,4925,4925,8933,8934,8934,8941,8933,8934,8934,8934,8934,8934,8934,8935,4927,4927,8939,4927,0,0,0,0,0,8582,8583,8582,8583,8582,8583,8582,8583,8582,8583,0,8582,8583,8582,8583,
4927,4927,4927,4927,4927,4927,4927,4927,4927,4927,4927,4927,4927,4927,4927,4927,4927,4927,4927,4927,4927,4927,4927,4927,4927,4927,4927,0,421,422,0,588,589,590,588,589,590,564,565,566,0,0,0,0,0,0,0,0,0,564,565,566,588,589,590,564,565,566,564,565,566,588,589,590,564,565,566,0,4925,4925,4925,8933,8915,8941,4925,8933,8961,8961,8961,8961,8935,4927,4927,4927,8939,4927,0,0,0,0,0,0,0,0,0,0,0,0,0,0,0,0,8566,8567,8566,8567,
4927,4927,4927,4927,4927,4927,4927,4927,4927,4927,4927,4927,4927,4927,4927,4927,4927,4927,4927,4927,4927,4927,4927,4927,4927,4927,4927,0,429,430,0,596,597,598,596,597,598,572,573,574,0,0,0,0,0,0,0,0,0,572,573,574,596,597,598,572,573,574,572,573,574,596,597,598,572,573,574,0,4925,4925,4925,4925,8942,8939,4925,4925,0,8935,8935,8961,4927,4927,4927,4927,8939,4927,0,0,0,0,0,0,8152,8152,8152,8152,8152,8152,8152,8152,0,0,8574,8575,8574,8575,
4927,4927,4927,4927,4927,4927,4927,4927,4927,4927,4927,4927,4927,4927,4927,4927,4927,4927,4927,4927,4927,4927,4927,4927,4927,4927,4927,0,437,438,0,604,605,606,604,605,606,580,581,582,0,0,0,0,0,0,0,0,0,580,581,582,604,605,606,580,581,582,580,581,582,604,605,606,580,581,582,0,4925,4925,4925,4925,8933,8915,4925,4925,0,4927,4927,4927,4927,4927,4927,4927,8939,4927,0,0,0,0,0,0,0,0,8152,8152,8152,8152,8152,8152,0,0,8582,8583,8582,8583,
4927,4927,4927,4927,4927,4927,4927,4927,4927,4927,4927,4927,4927,4927,4927,4927,4927,4927,4927,4927,4927,4927,4927,4927,4927,4927,4927,0,564,565,566,564,565,566,421,422,0,588,589,590,0,0,0,564,565,566,421,422,0,588,589,590,564,565,566,588,589,590,588,589,590,564,565,566,588,589,590,0,4925,4925,4925,4925,4925,8939,4925,4925,0,4927,4927,4927,4927,4927,4927,4927,8939,4927,0,0,0,0,0,0,0,0,0,0,8566,8567,0,8152,0,0,8566,8567,8566,8567,
4927,4927,4927,4927,4927,4927,4927,4927,4927,4927,4927,4927,4927,4927,4927,4927,4927,4927,4927,4927,4927,4927,4927,4927,4927,4927,4927,0,572,573,574,572,573,574,429,430,0,596,597,598,0,0,0,572,573,574,429,430,0,596,597,598,572,573,574,596,597,598,596,597,598,572,573,574,596,597,598,0,4925,4925,4925,4925,4925,8939,4925,4925,0,4927,4927,4927,4927,4927,4927,4927,8939,4927,0,0,0,0,0,0,8566,8567,8621,8621,8574,8575,8152,8152,8152,0,8574,8575,8574,8575,
4927,4927,4927,4927,4927,4927,4927,4927,4927,4927,4927,4927,4927,4927,4927,4927,4927,4927,4927,4927,4927,4927,4927,4927,4927,4927,4927,0,580,581,582,580,581,582,437,438,0,604,605,606,0,0,0,580,581,582,437,438,0,604,605,606,580,581,582,604,605,606,604,605,606,580,581,582,604,605,606,0,4925,4925,4925,4925,4925,8939,4925,4925,0,4927,4927,4927,4927,4927,4927,4927,8939,4927,0,0,0,0,0,0,8574,8575,0,0,8582,8583,8152,8152,8152,0,8582,8583,8582,8583,
4927,4927,4927,4927,4927,4927,4927,4927,4927,4927,4927,4927,4927,4927,4927,4927,4927,4927,4927,4927,4927,4927,4927,4927,4927,4927,4927,0,588,589,590,588,589,590,421,422,0,421,422,0,0,0,0,588,589,590,421,422,0,564,565,566,588,589,590,421,422,0,421,422,0,588,589,590,421,422,0,0,4925,4925,4925,4925,4925,8939,4925,4925,0,4927,4927,4927,4927,4927,4927,4927,8939,4927,0,0,0,0,0,0,8582,8583,8152,0,8566,8567,8152,8152,8152,0,8566,8567,8566,8567,
4927,4927,4927,4927,4927,4927,4927,4927,4927,4927,4927,4927,4927,4927,4927,4927,4927,4927,4927,4927,4927,4927,4927,4927,4927,4927,4927,0,596,597,598,596,597,598,429,430,0,429,430,0,0,0,0,596,597,598,429,430,0,572,573,574,596,597,598,429,430,0,429,430,0,596,597,598,429,430,0,0,4925,4925,4925,4925,4925,8939,4925,4925,0,4927,4927,4927,4927,4927,4927,4927,8939,4927,0,0,0,0,0,0,8566,8567,8152,0,8574,8575,8152,0,8152,0,8574,8575,8574,8575,
4927,4927,4927,4927,4927,4927,4927,4927,4927,4927,4927,4927,4927,4927,4927,4927,4927,4927,4927,4927,4927,4927,4927,4927,4927,4927,4927,0,604,605,606,604,605,606,437,438,0,437,438,0,0,0,0,604,605,606,437,438,0,580,581,582,604,605,606,437,438,0,437,438,0,604,605,606,437,438,0,0,4925,4925,4925,4925,4925,8939,4925,4925,0,4927,4927,4927,4927,4927,4927,4927,8939,4927,0,0,0,0,0,0,8574,8575,8152,0,8582,8583,8152,0,8152,0,8582,8583,8582,8583,
4927,4927,4927,4927,4927,4927,4927,4927,4927,4927,4927,4927,4927,4927,4927,4927,4927,4927,4927,4927,4927,4927,4927,4927,4927,4927,4927,0,421,422,0,421,422,0,421,422,0,421,422,0,0,0,0,564,565,566,421,422,0,588,589,590,421,422,0,421,422,0,421,422,0,564,565,566,421,422,0,0,4925,4925,4925,4925,4925,8939,4925,4925,0,4927,4927,4927,4927,4927,4927,4927,8939,4927,0,0,0,0,0,0,8582,8583,8152,8152,8566,8567,8152,0,8152,0,8566,8567,8566,8567,
4927,4927,4927,4927,4927,4927,4927,4927,4927,4927,4927,4927,4927,4927,4927,4927,4927,4927,4927,4927,4927,4927,4927,4927,4927,4927,4927,0,429,430,0,429,430,0,429,430,0,429,430,0,0,0,0,572,573,574,429,430,0,596,597,598,429,430,0,429,430,0,429,430,0,572,573,574,429,430,0,0,4925,4925,4925,4925,4925,8939,4925,4925,0,4927,4927,4927,4927,4927,4927,4927,8939,4927,0,0,0,0,0,0,8566,8567,0,8152,8574,8575,8152,0,8152,0,8574,8575,8574,8575,
4927,4927,4927,4927,4927,4927,4927,4927,4927,4927,4927,4927,4927,4927,4927,4927,4927,4927,4927,4927,4927,4927,4927,4927,4927,4927,4927,0,437,438,0,437,438,0,437,438,0,437,438,0,0,0,0,580,581,582,437,438,0,604,605,606,437,438,0,437,438,0,437,438,0,580,581,582,437,438,0,0,4925,4925,4925,4925,4925,8939,4925,4925,0,4927,4927,4927,4927,4927,4927,4927,8939,4927,0,0,0,0,0,0,8574,8575,0,8152,8582,8583,8152,0,8152,0,8582,8583,8582,8583,
4927,4927,4927,4927,4927,4927,4927,4927,4927,4927,4927,4927,4927,4927,4927,4927,4927,4927,4927,4927,4927,4927,4927,4927,4927,4927,4927,0,564,565,566,0,0,0,0,0,0,0,0,0,0,0,0,588,589,590,421,422,0,564,565,566,421,422,0,564,565,566,421,422,0,588,589,590,564,565,566,0,4925,4925,4925,4925,4925,8939,4925,4925,0,4927,4927,4927,4927,4927,4927,4927,8939,4927,0,0,0,0,0,0,8582,8583,0,8152,8566,8567,8152,0,8152,0,8566,8567,8566,8567,
4927,4927,4927,4927,4927,4927,4927,4927,4927,4927,4927,4927,4927,4927,4927,4927,4927,4927,4927,4927,4927,4927,4927,4927,4927,4927,4927,0,572,573,574,0,0,0,0,0,0,0,0,0,0,0,0,596,597,598,429,430,0,572,573,574,429,430,0,572,573,574,429,430,0,596,597,598,572,573,574,0,4925,4925,4925,4925,4925,8939,4925,4925,0,4927,4927,4927,4927,4927,4927,4927,8939,4927,0,0,0,0,0,0,8566,8567,8152,8152,8574,8575,8152,0,8152,0,8574,8575,8574,8575,
4927,4927,4927,4927,4927,4927,4927,4927,4927,4927,4927,4927,4927,4927,4927,4927,4927,4927,4927,4927,4927,4927,4927,4927,4927,4927,4927,0,580,581,582,0,0,0,0,0,0,0,0,0,0,0,0,604,605,606,437,438,0,580,581,582,437,438,0,580,581,582,437,438,0,604,605,606,580,581,582,0,4925,4925,4925,4925,4925,8939,4925,4925,0,4927,4927,4927,4927,4927,4927,4927,8939,4927,0,0,0,0,0,0,8574,8575,8152,8152,8582,8583,8152,0,8152,0,8582,8583,8582,8583,
4927,4927,4927,4927,4927,4927,4927,4927,4927,4927,4927,4927,4927,4927,4927,4927,4927,4927,4927,4927,4927,4927,4927,4927,4927,4927,4927,0,588,589,590,0,0,0,476,476,476,946,476,476,476,0,0,564,565,566,564,565,566,588,589,590,421,422,0,588,589,590,421,422,0,421,422,0,588,589,590,0,4925,4925,4925,4925,4925,8939,4925,4925,0,4927,4927,4927,4927,4927,4927,4927,8939,4924,0,0,0,0,0,0,8582,8583,8152,8152,8566,8567,8152,0,8152,0,8566,8567,8566,8567,
4927,4927,4927,4927,4927,4927,4927,4927,4927,4927,4927,4927,4927,4927,4927,4927,4927,4927,4927,4927,4927,4927,4927,4927,4927,4927,4927,0,596,597,598,0,0,476,0,0,0,0,0,0,0,476,0,572,573,574,572,573,574,596,597,598,429,430,0,596,597,598,429,430,0,429,430,0,596,597,598,0,4925,4925,4925,4925,4925,8939,4925,4925,0,4927,4927,4927,4927,4927,4927,4927,8939,4924,0,0,0,0,0,0,8566,8567,8152,8152,8574,8575,8152,0,8152,0,8574,8575,8574,8575,
4927,4927,4927,4927,4927,4927,4927,4927,4927,4927,4927,4927,4927,4927,4927,4927,4927,4927,4927,4927,4927,4927,4927,4927,4927,4927,4927,0,604,605,606,0,0,476,0,0,0,0,0,0,0,476,0,580,581,582,580,581,582,604,605,606,437,438,0,604,605,606,437,438,0,437,438,0,604,605,606,0,4925,4925,4925,4925,4925,8939,4925,4925,0,4927,4927,4927,4927,4927,4927,4927,8939,4924,0,0,0,0,0,0,8574,8575,8152,8152,8582,8583,8152,8152,8152,0,8582,8583,8582,8583,
4927,4927,4927,4927,4927,4927,4927,4927,4927,4927,4927,4927,4927,4927,4927,4927,4927,4927,4927,4927,4927,4927,4927,4927,4927,4927,4927,0,564,565,566,0,0,476,0,0,0,0,0,0,0,476,0,588,589,590,588,589,590,564,565,566,564,565,566,421,422,0,564,565,566,564,565,566,564,565,566,0,4925,4925,4925,4925,4925,8939,4925,4925,0,4927,4927,4927,4927,4927,4927,4927,8939,4924,0,0,0,0,0,0,8582,8583,8152,0,8566,8567,0,8152,0,0,8566,8567,8566,8567,
4927,4927,4927,4927,4927,4927,4927,4927,4927,4927,4927,4927,4927,4927,4927,4927,4927,4927,4927,4927,4927,4927,4927,4927,4927,4927,4927,0,572,573,574,0,0,476,0,0,0,0,0,0,0,476,0,596,597,598,596,597,598,572,573,574,572,573,574,429,430,0,572,573,574,572,573,574,572,573,574,0,4925,4925,4925,4925,4925,8939,4925,4925,0,4927,4927,4927,4927,4927,4927,4927,8939,4924,0,0,0,0,0,0,8566,8567,8152,0,8574,8575,0,8152,0,0,8574,8575,8574,8575,
4927,4927,4927,4927,4927,4927,4927,4927,4927,4927,4927,4927,4927,4927,4927,4927,4927,4927,4927,4927,4927,4927,4927,4927,4927,4927,4927,0,580,581,582,0,0,476,0,0,0,0,0,0,0,476,0,604,605,606,604,605,606,580,581,582,580,581,582,437,438,0,580,581,582,580,581,582,580,581,582,0,4925,4925,4925,4925,4925,8939,4925,4925,0,4927,4927,4927,4927,4927,4927,4927,8939,4924,0,0,0,0,0,0,8574,8575,8152,0,8582,8583,0,0,0,0,8582,8583,8582,8583,
4927,4927,4927,4927,4927,4927,4927,4927,4927,4927,4927,4927,4927,4927,4927,4927,4927,4927,4927,4927,4927,4927,4927,4927,4927,4927,4927,0,588,589,590,0,0,476,0,0,0,0,0,0,0,476,0,421,422,0,564,565,566,588,589,590,588,589,590,421,422,0,588,589,590,588,589,590,588,589,590,0,4925,4925,4925,4925,4925,8939,4925,4925,0,4927,4927,4927,4927,4927,4927,4927,8939,4924,0,0,0,0,0,0,8582,8583,0,0,0,0,0,0,0,0,8566,8567,8566,8567,
4934,4934,4934,4934,4934,4934,4934,4934,4934,4934,4934,4934,4934,4934,4934,4934,4934,4935,4927,4927,4927,4927,4927,4927,4927,4927,4927,0,596,597,598,0,0,0,476,476,476,476,476,476,476,0,0,429,430,0,572,573,574,596,597,598,596,597,598,429,430,0,596,597,598,596,597,598,596,597,598,0,4925,4925,4925,4925,4925,8939,4925,4925,0,4927,4927,4927,4927,4927,4927,4927,8939,4924,0,0,0,0,0,0,0,0,0,0,0,0,0,0,0,0,8574,8575,8574,8575,
4934,4934,4934,4934,4934,4934,4934,4934,4934,4934,4934,4934,4934,4934,4934,4934,4934,4934,4935,4927,4927,4927,4927,4927,4927,4927,4927,0,604,605,606,0,0,0,0,0,0,0,0,0,0,0,0,437,438,0,580,581,582,604,605,606,604,605,606,437,438,0,604,605,606,604,605,606,604,605,606,0,4925,4925,4925,4925,4925,8939,4925,4925,0,4927,4927,4927,4927,4927,4927,4927,8939,4924,0,0,0,0,0,0,0,0,0,0,0,0,0,0,0,0,8582,8583,8582,8583,
4934,4934,4934,4934,4934,4934,4934,4934,4934,4934,4934,4934,4934,4934,4934,4934,4934,4934,4934,4935,4927,4927,4927,4927,4927,4927,4927,0,421,422,0,0,0,0,0,0,0,564,565,566,421,422,0,564,565,566,588,589,590,564,565,566,421,422,0,564,565,566,564,565,566,421,422,0,564,565,566,0,4925,4925,4925,4925,4925,8939,4925,4933,4934,4935,4927,4927,4927,4927,4927,4927,8939,4924,0,0,0,0,0,0,0,0,0,0,0,0,0,0,0,0,8566,8567,8566,8567,
4934,4934,4934,4934,4934,4934,4934,4934,4934,4934,4934,4934,4934,4934,4934,4934,4934,4934,4934,4934,4935,4927,4927,4927,4927,4927,4927,0,429,430,0,0,0,0,0,0,0,572,573,574,429,430,0,572,573,574,596,597,598,572,573,574,429,430,0,572,573,574,572,573,574,429,430,0,572,573,574,0,4925,4925,4925,4925,4925,8939,4933,4934,4934,4934,4935,4927,4927,4927,4927,4927,8939,4924,0,0,0,0,0,0,0,0,0,0,0,0,0,0,0,0,8574,8575,8574,8575,
4934,4934,4934,4934,4934,4934,4934,4934,4934,4934,4934,4934,4934,4934,4934,4934,4934,4934,4934,4934,4934,4935,4927,4927,4927,4927,4927,0,437,438,0,0,0,0,0,0,0,580,581,582,437,438,0,580,581,582,604,605,606,580,581,582,437,438,0,580,581,582,580,581,582,437,438,0,580,581,582,0,4925,4925,4925,4925,4925,8939,4934,4934,4934,4934,4934,4935,4927,4927,4927,4927,8939,4924,0,0,0,0,0,0,0,0,0,0,0,0,0,0,0,0,8582,8583,8582,8583,
4934,4934,4934,4934,4934,4934,4934,4934,4934,4934,4934,4934,4934,4934,4934,4934,4934,4934,4934,4934,4934,4934,4935,4927,4927,4927,4927,0,4914,4915,4916,0,0,0,0,0,0,588,589,590,0,0,0,588,589,590,0,0,0,588,589,590,0,0,0,588,589,590,588,589,590,0,0,0,588,589,590,0,4925,4925,4925,4925,4933,8923,4934,4934,4934,4934,4934,4934,4935,4927,4927,4927,8939,4924,0,0,0,0,0,0,0,0,0,0,0,0,0,0,0,0,8566,8567,8566,8567,
4934,4934,4934,4934,4934,4934,4934,4934,4934,4934,4934,4934,4934,4934,4934,4934,4934,4934,4934,4934,4934,4934,4934,4935,4927,4927,4927,0,4922,4923,4924,0,0,0,0,0,0,596,597,598,0,0,0,596,597,598,0,0,0,596,597,598,0,0,0,596,597,598,596,597,598,0,0,0,596,597,598,0,4925,4925,4925,4933,4934,8923,4934,4934,4934,4934,4934,4934,4934,4935,4927,4927,8939,4924,0,0,0,0,0,0,0,0,0,0,0,0,0,0,0,0,8574,8575,8574,8575,
4934,4934,4934,4934,4934,4934,4934,4934,4934,4934,4934,4934,4934,4934,4934,4934,4934,4934,4934,4934,4934,4934,4934,4934,4935,4927,4927,0,4930,4931,4932,0,5074,5074,4945,0,0,604,605,606,0,0,0,604,605,606,0,0,0,604,605,606,0,0,0,604,605,606,604,605,606,0,0,0,604,605,606,0,4925,4925,4933,4934,8939,8939,8939,8939,8939,8939,8939,8939,8939,4934,4935,4927,8939,4924,0,0,0,0,0,0,0,0,0,0,0,0,0,0,0,0,8582,8583,8582,8583,
4934,4934,4934,4934,4934,4934,4934,4934,4934,4934,4934,4934,4934,4934,4934,4934,4934,4934,4934,4934,4934,4934,4934,4934,4934,4935,4927,0,4914,4915,4916,0,4945,0,0,4945,4914,4915,4915,4915,4915,4915,4915,4915,4915,4915,4915,4915,4915,4915,4915,4915,4915,4915,4915,4915,4915,4915,4915,4915,4915,4915,4915,4915,4915,4915,4916,0,4925,4933,4934,4934,4934,4934,4934,4934,4934,4934,4934,4934,8923,4934,4934,4935,8939,4924,0,0,0,0,0,0,8152,0,0,0,0,0,0,0,0,0,8566,8567,8566,8567,
4934,4934,4934,4934,4934,4934,4934,4934,4934,4934,4934,4934,4934,4934,4934,4934,4934,4934,4934,4934,4934,4934,4934,4934,4934,4934,4935,0,4922,4923,4924,4945,0,0,0,4945,4922,4923,4923,4923,4923,4923,4923,4923,4923,4923,4923,4923,4923,4923,4923,4923,4923,4923,4923,4923,4923,4923,4923,4923,4923,4923,4923,4923,4923,4923,4924,0,4933,4934,4934,4934,4934,4934,4934,4934,4934,4934,4934,4934,8939,8939,8939,8939,8939,4924,0,0,0,0,0,0,8152,8152,8152,8152,8152,8152,8152,8152,0,0,8574,8575,8574,8575,
0,0,0,0,0,0,0,0,0,0,0,0,0,0,0,0,0,0,0,0,0,0,0,0,0,0,0,0,4930,4931,4932,0,0,0,0,4945,4930,4931,4931,4931,4931,4931,4931,4931,4931,4931,4931,4931,4931,4931,4931,4931,4931,4931,4931,4931,4931,4931,4931,4931,4931,4931,4931,4931,4931,4931,4932,0,4931,4931,4931,4931,4931,4931,4931,4931,0,0,0,0,0,0,0,0,0,4932,0,0,0,0,0,0,0,0,0,0,0,0,0,0,0,0,8582,8583,8582,8583
</data>
 </layer>
 <objectgroup color="#ff0000" id="4" name="collisioni" visible="0" opacity="0.5">
  <object id="1" name="mont_base_bordo" type="solid" x="1728" y="64" width="32" height="32"/>
  <object id="2" name="mont_base_bordo" type="solid" x="1760" y="64" width="32" height="32"/>
  <object id="3" name="mont_base_bordo" type="solid" x="1792" y="64" width="32" height="32"/>
  <object id="4" name="mont_base_bordo" type="solid" x="1824" y="64" width="32" height="32"/>
  <object id="5" name="mont_base_bordo" type="solid" x="1856" y="64" width="32" height="32"/>
  <object id="6" name="mont_base_bordo" type="solid" x="1888" y="64" width="32" height="32"/>
  <object id="7" name="mont_base_bordo" type="solid" x="1920" y="64" width="32" height="32"/>
  <object id="8" name="mont_base_bordo" type="solid" x="1952" y="64" width="32" height="32"/>
  <object id="9" name="mont_base_bordo" type="solid" x="1984" y="64" width="32" height="32"/>
  <object id="10" name="mont_base_bordo" type="solid" x="2016" y="64" width="32" height="32"/>
  <object id="11" name="mont_base_bordo" type="solid" x="2048" y="64" width="32" height="32"/>
  <object id="12" name="mont_base_bordo" type="solid" x="2080" y="64" width="32" height="32"/>
  <object id="13" name="mont_base_bordo" type="solid" x="2112" y="64" width="32" height="32"/>
  <object id="14" name="mont_base_bordo" type="solid" x="2144" y="64" width="32" height="32"/>
  <object id="15" name="mont_base_bordo" type="solid" x="1728" y="96" width="32" height="32"/>
  <object id="16" name="mont_base_bordo" type="solid" x="2144" y="96" width="32" height="32"/>
  <object id="17" name="mont_base_bordo" type="solid" x="1728" y="128" width="32" height="32"/>
  <object id="18" name="mont_base_bordo" type="solid" x="2144" y="128" width="32" height="32"/>
  <object id="19" name="mont_base_bordo" type="solid" x="1728" y="160" width="32" height="32"/>
  <object id="20" name="mont_base_bordo" type="solid" x="2144" y="160" width="32" height="32"/>
  <object id="21" name="mont_base_bordo" type="solid" x="1728" y="192" width="32" height="32"/>
  <object id="22" name="mont_base_bordo" type="solid" x="2144" y="192" width="32" height="32"/>
  <object id="23" name="mont_base_bordo" type="solid" x="1728" y="224" width="32" height="32"/>
  <object id="24" name="mont_base_bordo" type="solid" x="2144" y="224" width="32" height="32"/>
  <object id="25" name="mont_base_bordo" type="solid" x="1728" y="256" width="32" height="32"/>
  <object id="26" name="mont_base_bordo" type="solid" x="2144" y="256" width="32" height="32"/>
  <object id="27" name="mont_base_bordo" type="solid" x="1728" y="288" width="32" height="32"/>
  <object id="28" name="mont_base_bordo" type="solid" x="2144" y="288" width="32" height="32"/>
  <object id="29" name="mont_base_bordo" type="solid" x="1728" y="320" width="32" height="32"/>
  <object id="30" name="mont_base_bordo" type="solid" x="2144" y="320" width="32" height="32"/>
  <object id="31" name="mont_base_bordo" type="solid" x="1728" y="352" width="32" height="32"/>
  <object id="32" name="mont_base_bordo" type="solid" x="2144" y="352" width="32" height="32"/>
  <object id="33" name="mont_base_bordo" type="solid" x="1728" y="384" width="32" height="32"/>
  <object id="34" name="mont_base_bordo" type="solid" x="2144" y="384" width="32" height="32"/>
  <object id="35" name="mont_base_bordo" type="solid" x="1728" y="416" width="32" height="32"/>
  <object id="36" name="mont_base_bordo" type="solid" x="2144" y="416" width="32" height="32"/>
  <object id="37" name="mont_base_bordo" type="solid" x="1728" y="448" width="32" height="32"/>
  <object id="38" name="mont_base_bordo" type="solid" x="2144" y="448" width="32" height="32"/>
  <object id="39" name="mont_base_bordo" type="solid" x="1728" y="480" width="32" height="32"/>
  <object id="40" name="mont_base_bordo" type="solid" x="2144" y="480" width="32" height="32"/>
  <object id="41" name="mont_base_bordo" type="solid" x="1728" y="512" width="32" height="32"/>
  <object id="42" name="mont_base_bordo" type="solid" x="2144" y="512" width="32" height="32"/>
  <object id="43" name="mont_base_bordo" type="solid" x="1728" y="544" width="32" height="32"/>
  <object id="44" name="mont_base_bordo" type="solid" x="2144" y="544" width="32" height="32"/>
  <object id="45" name="mont_base_bordo" type="solid" x="1728" y="576" width="32" height="32"/>
  <object id="46" name="mont_base_bordo" type="solid" x="2144" y="576" width="32" height="32"/>
  <object id="47" name="mont_base_bordo" type="solid" x="1728" y="608" width="32" height="32"/>
  <object id="48" name="mont_base_bordo" type="solid" x="1760" y="608" width="32" height="32"/>
  <object id="49" name="mont_base_bordo" type="solid" x="1792" y="608" width="32" height="32"/>
  <object id="50" name="mont_base_bordo" type="solid" x="1824" y="608" width="32" height="32"/>
  <object id="51" name="mont_base_bordo" type="solid" x="1856" y="608" width="32" height="32"/>
  <object id="52" name="mont_base_bordo" type="solid" x="1888" y="608" width="32" height="32"/>
  <object id="53" name="mont_base_bordo" type="solid" x="1920" y="608" width="32" height="32"/>
  <object id="54" name="mont_base_bordo" type="solid" x="1952" y="608" width="32" height="32"/>
  <object id="55" name="mont_base_bordo" type="solid" x="1984" y="608" width="32" height="32"/>
  <object id="58" name="mont_base_bordo" type="solid" x="2080" y="608" width="32" height="32"/>
  <object id="59" name="mont_base_bordo" type="solid" x="2112" y="608" width="32" height="32"/>
  <object id="60" name="mont_base_bordo" type="solid" x="2144" y="608" width="32" height="32"/>
  <object id="61" name="mont_liv1_bordo" type="solid" x="1824" y="64" width="32" height="32"/>
  <object id="62" name="mont_liv1_bordo" type="solid" x="1856" y="64" width="32" height="32"/>
  <object id="63" name="mont_liv1_bordo" type="solid" x="1888" y="64" width="32" height="32"/>
  <object id="64" name="mont_liv1_bordo" type="solid" x="1920" y="64" width="32" height="32"/>
  <object id="65" name="mont_liv1_bordo" type="solid" x="1952" y="64" width="32" height="32"/>
  <object id="66" name="mont_liv1_bordo" type="solid" x="1984" y="64" width="32" height="32"/>
  <object id="67" name="mont_liv1_bordo" type="solid" x="2016" y="64" width="32" height="32"/>
  <object id="68" name="mont_liv1_bordo" type="solid" x="2048" y="64" width="32" height="32"/>
  <object id="69" name="mont_liv1_bordo" type="solid" x="2080" y="64" width="32" height="32"/>
  <object id="70" name="mont_liv1_bordo" type="solid" x="2112" y="64" width="32" height="32"/>
  <object id="71" name="mont_liv1_bordo" type="solid" x="2144" y="64" width="32" height="32"/>
  <object id="72" name="mont_liv1_bordo" type="solid" x="1824" y="96" width="32" height="32"/>
  <object id="73" name="mont_liv1_bordo" type="solid" x="2144" y="96" width="32" height="32"/>
  <object id="74" name="mont_liv1_bordo" type="solid" x="1824" y="128" width="32" height="32"/>
  <object id="75" name="mont_liv1_bordo" type="solid" x="2144" y="128" width="32" height="32"/>
  <object id="76" name="mont_liv1_bordo" type="solid" x="1824" y="160" width="32" height="32"/>
  <object id="77" name="mont_liv1_bordo" type="solid" x="2144" y="160" width="32" height="32"/>
  <object id="78" name="mont_liv1_bordo" type="solid" x="1824" y="192" width="32" height="32"/>
  <object id="79" name="mont_liv1_bordo" type="solid" x="2144" y="192" width="32" height="32"/>
  <object id="80" name="mont_liv1_bordo" type="solid" x="1824" y="224" width="32" height="32"/>
  <object id="81" name="mont_liv1_bordo" type="solid" x="2144" y="224" width="32" height="32"/>
  <object id="82" name="mont_liv1_bordo" type="solid" x="1824" y="256" width="32" height="32"/>
  <object id="83" name="mont_liv1_bordo" type="solid" x="2144" y="256" width="32" height="32"/>
  <object id="84" name="mont_liv1_bordo" type="solid" x="1824" y="288" width="32" height="32"/>
  <object id="85" name="mont_liv1_bordo" type="solid" x="2144" y="288" width="32" height="32"/>
  <object id="86" name="mont_liv1_bordo" type="solid" x="1824" y="320" width="32" height="32"/>
  <object id="87" name="mont_liv1_bordo" type="solid" x="2144" y="320" width="32" height="32"/>
  <object id="88" name="mont_liv1_bordo" type="solid" x="1824" y="352" width="32" height="32"/>
  <object id="89" name="mont_liv1_bordo" type="solid" x="2144" y="352" width="32" height="32"/>
  <object id="90" name="mont_liv1_bordo" type="solid" x="1824" y="384" width="32" height="32"/>
  <object id="91" name="mont_liv1_bordo" type="solid" x="1856" y="384" width="32" height="32"/>
  <object id="92" name="mont_liv1_bordo" type="solid" x="1888" y="384" width="32" height="32"/>
  <object id="93" name="mont_liv1_bordo" type="solid" x="1920" y="384" width="32" height="32"/>
  <object id="94" name="mont_liv1_bordo" type="solid" x="1952" y="384" width="32" height="32"/>
  <object id="95" name="mont_liv1_bordo" type="solid" x="1984" y="384" width="32" height="32"/>
  <object id="98" name="mont_liv1_bordo" type="solid" x="2080" y="384" width="32" height="32"/>
  <object id="99" name="mont_liv1_bordo" type="solid" x="2112" y="384" width="32" height="32"/>
  <object id="100" name="mont_liv1_bordo" type="solid" x="2144" y="384" width="32" height="32"/>
  <object id="101" name="mont_summit_bordo" type="solid" x="1920" y="64" width="32" height="32"/>
  <object id="102" name="mont_summit_bordo" type="solid" x="1952" y="64" width="32" height="32"/>
  <object id="103" name="mont_summit_bordo" type="solid" x="1984" y="64" width="32" height="32"/>
  <object id="104" name="mont_summit_bordo" type="solid" x="2016" y="64" width="32" height="32"/>
  <object id="105" name="mont_summit_bordo" type="solid" x="2048" y="64" width="32" height="32"/>
  <object id="106" name="mont_summit_bordo" type="solid" x="2080" y="64" width="32" height="32"/>
  <object id="107" name="mont_summit_bordo" type="solid" x="2112" y="64" width="32" height="32"/>
  <object id="108" name="mont_summit_bordo" type="solid" x="2144" y="64" width="32" height="32"/>
  <object id="109" name="mont_summit_bordo" type="solid" x="1920" y="96" width="32" height="32"/>
  <object id="110" name="mont_summit_bordo" type="solid" x="2144" y="96" width="32" height="32"/>
  <object id="111" name="mont_summit_bordo" type="solid" x="1920" y="128" width="32" height="32"/>
  <object id="112" name="mont_summit_bordo" type="solid" x="2144" y="128" width="32" height="32"/>
  <object id="113" name="mont_summit_bordo" type="solid" x="1920" y="160" width="32" height="32"/>
  <object id="114" name="mont_summit_bordo" type="solid" x="2144" y="160" width="32" height="32"/>
  <object id="115" name="mont_summit_bordo" type="solid" x="1920" y="192" width="32" height="32"/>
  <object id="116" name="mont_summit_bordo" type="solid" x="2144" y="192" width="32" height="32"/>
  <object id="117" name="mont_summit_bordo" type="solid" x="1920" y="224" width="32" height="32"/>
  <object id="118" name="mont_summit_bordo" type="solid" x="1952" y="224" width="32" height="32"/>
  <object id="119" name="mont_summit_bordo" type="solid" x="1984" y="224" width="32" height="32"/>
  <object id="122" name="mont_summit_bordo" type="solid" x="2080" y="224" width="32" height="32"/>
  <object id="123" name="mont_summit_bordo" type="solid" x="2112" y="224" width="32" height="32"/>
  <object id="124" name="mont_summit_bordo" type="solid" x="2144" y="224" width="32" height="32"/>
  <object id="125" name="radura_muro_n" type="solid" x="1088" y="1344" width="32" height="32"/>
  <object id="126" name="radura_muro_n" type="solid" x="1120" y="1344" width="32" height="32"/>
  <object id="127" name="radura_muro_n" type="solid" x="1152" y="1344" width="32" height="32"/>
  <object id="128" name="radura_muro_n" type="solid" x="1216" y="1344" width="32" height="32"/>
  <object id="129" name="radura_muro_n" type="solid" x="1248" y="1344" width="32" height="32"/>
  <object id="130" name="radura_muro_n" type="solid" x="1280" y="1344" width="32" height="32"/>
  <object id="131" name="radura_muro_o" type="solid" x="1056" y="1376" width="32" height="32"/>
  <object id="132" name="radura_muro_e" type="solid" x="1312" y="1376" width="32" height="32"/>
  <object id="133" name="radura_muro_o" type="solid" x="1056" y="1408" width="32" height="32"/>
  <object id="134" name="radura_muro_e" type="solid" x="1312" y="1408" width="32" height="32"/>
  <object id="135" name="radura_muro_o" type="solid" x="1056" y="1440" width="32" height="32"/>
  <object id="136" name="radura_muro_e" type="solid" x="1312" y="1440" width="32" height="32"/>
  <object id="137" name="radura_muro_o" type="solid" x="1056" y="1472" width="32" height="32"/>
  <object id="138" name="radura_muro_e" type="solid" x="1312" y="1472" width="32" height="32"/>
  <object id="139" name="radura_muro_o" type="solid" x="1056" y="1504" width="32" height="32"/>
  <object id="140" name="radura_muro_e" type="solid" x="1312" y="1504" width="32" height="32"/>
  <object id="141" name="radura_muro_o" type="solid" x="1056" y="1536" width="32" height="32"/>
  <object id="142" name="radura_muro_e" type="solid" x="1312" y="1536" width="32" height="32"/>
  <object id="143" name="radura_muro_s" type="solid" x="1088" y="1568" width="32" height="32"/>
  <object id="144" name="radura_muro_s" type="solid" x="1120" y="1568" width="32" height="32"/>
  <object id="145" name="radura_muro_s" type="solid" x="1152" y="1568" width="32" height="32"/>
  <object id="146" name="radura_muro_s" type="solid" x="1184" y="1568" width="32" height="32"/>
  <object id="147" name="radura_muro_s" type="solid" x="1216" y="1568" width="32" height="32"/>
  <object id="148" name="radura_muro_s" type="solid" x="1248" y="1568" width="32" height="32"/>
  <object id="149" name="radura_muro_s" type="solid" x="1280" y="1568" width="32" height="32"/>
  <object id="150" name="bosco_v3_0_0_0" type="solid" x="896" y="0" width="96" height="32"/>
  <object id="151" name="bosco_v3_0_0_1" type="solid" x="896" y="32" width="96" height="32"/>
  <object id="152" name="bosco_v3_0_0_2" type="solid" x="896" y="64" width="96" height="32"/>
  <object id="153" name="bosco_v3_0_0_3" type="solid" x="896" y="96" width="96" height="32"/>
  <object id="154" name="bosco_v3_0_0_4" type="solid" x="896" y="128" width="96" height="32"/>
  <object id="155" name="bosco_v3_0_0_5" type="solid" x="896" y="160" width="96" height="32"/>
  <object id="156" name="bosco_v3_0_3_0" type="solid" x="992" y="0" width="96" height="32"/>
  <object id="157" name="bosco_v3_0_3_1" type="solid" x="992" y="32" width="96" height="32"/>
  <object id="158" name="bosco_v3_0_3_2" type="solid" x="992" y="64" width="96" height="32"/>
  <object id="159" name="bosco_v3_0_3_3" type="solid" x="992" y="96" width="96" height="32"/>
  <object id="160" name="bosco_v3_0_3_4" type="solid" x="992" y="128" width="96" height="32"/>
  <object id="161" name="bosco_v3_0_3_5" type="solid" x="992" y="160" width="96" height="32"/>
  <object id="162" name="bosco_v3_0_6_0" type="solid" x="1088" y="0" width="96" height="32"/>
  <object id="163" name="bosco_v3_0_6_1" type="solid" x="1088" y="32" width="96" height="32"/>
  <object id="164" name="bosco_v3_0_6_2" type="solid" x="1088" y="64" width="96" height="32"/>
  <object id="165" name="bosco_v3_0_6_3" type="solid" x="1088" y="96" width="96" height="32"/>
  <object id="166" name="bosco_v3_0_6_4" type="solid" x="1088" y="128" width="96" height="32"/>
  <object id="167" name="bosco_v3_0_6_5" type="solid" x="1088" y="160" width="96" height="32"/>
  <object id="168" name="bosco_single_0_12" type="solid" x="1280" y="0" width="64" height="96"/>
  <object id="169" name="bosco_single_0_15" type="solid" x="1376" y="0" width="64" height="96"/>
  <object id="170" name="bosco_v3_0_18_0" type="solid" x="1472" y="0" width="96" height="32"/>
  <object id="171" name="bosco_v3_0_18_1" type="solid" x="1472" y="32" width="96" height="32"/>
  <object id="172" name="bosco_v3_0_18_2" type="solid" x="1472" y="64" width="96" height="32"/>
  <object id="173" name="bosco_v3_0_18_3" type="solid" x="1472" y="96" width="96" height="32"/>
  <object id="174" name="bosco_v3_0_18_4" type="solid" x="1472" y="128" width="96" height="32"/>
  <object id="175" name="bosco_v3_0_18_5" type="solid" x="1472" y="160" width="96" height="32"/>
  <object id="176" name="bosco_single_0_21" type="solid" x="1568" y="0" width="64" height="96"/>
  <object id="177" name="bosco_single_0_24" type="solid" x="1664" y="0" width="64" height="96"/>
  <object id="178" name="bosco_v3_3_21_0" type="solid" x="1568" y="96" width="96" height="32"/>
  <object id="179" name="bosco_v3_3_21_1" type="solid" x="1568" y="128" width="96" height="32"/>
  <object id="180" name="bosco_v3_3_21_2" type="solid" x="1568" y="160" width="96" height="32"/>
  <object id="181" name="bosco_v3_3_21_3" type="solid" x="1568" y="192" width="96" height="32"/>
  <object id="182" name="bosco_v3_3_21_4" type="solid" x="1568" y="224" width="96" height="32"/>
  <object id="183" name="bosco_v3_3_21_5" type="solid" x="1568" y="256" width="96" height="32"/>
  <object id="184" name="bosco_single_3_24" type="solid" x="1664" y="96" width="64" height="96"/>
  <object id="185" name="bosco_single_6_0" type="solid" x="896" y="192" width="64" height="96"/>
  <object id="187" name="bosco_v3_6_3_1" type="solid" x="992" y="224" width="96" height="32"/>
  <object id="188" name="bosco_v3_6_3_2" type="solid" x="992" y="256" width="96" height="32"/>
  <object id="189" name="bosco_v3_6_3_3" type="solid" x="992" y="288" width="96" height="32"/>
  <object id="190" name="bosco_v3_6_3_4" type="solid" x="992" y="320" width="96" height="32"/>
  <object id="191" name="bosco_v3_6_3_5" type="solid" x="992" y="352" width="96" height="32"/>
  <object id="193" name="bosco_v3_6_6_1" type="solid" x="1088" y="224" width="96" height="32"/>
  <object id="194" name="bosco_v3_6_6_2" type="solid" x="1088" y="256" width="96" height="32"/>
  <object id="195" name="bosco_v3_6_6_3" type="solid" x="1088" y="288" width="96" height="32"/>
  <object id="196" name="bosco_v3_6_6_4" type="solid" x="1088" y="320" width="96" height="32"/>
  <object id="197" name="bosco_v3_6_6_5" type="solid" x="1088" y="352" width="96" height="32"/>
  <object id="198" name="bosco_single_6_18" type="solid" x="1472" y="192" width="64" height="96"/>
  <object id="199" name="bosco_single_6_24" type="solid" x="1664" y="192" width="64" height="96"/>
  <object id="200" name="bosco_v3_9_0_0" type="solid" x="896" y="288" width="96" height="32"/>
  <object id="201" name="bosco_v3_9_0_1" type="solid" x="896" y="320" width="96" height="32"/>
  <object id="202" name="bosco_v3_9_0_2" type="solid" x="896" y="352" width="96" height="32"/>
  <object id="203" name="bosco_v3_9_0_3" type="solid" x="896" y="384" width="96" height="32"/>
  <object id="204" name="bosco_v3_9_0_4" type="solid" x="896" y="416" width="96" height="32"/>
  <object id="205" name="bosco_v3_9_0_5" type="solid" x="896" y="448" width="96" height="32"/>
  <object id="206" name="bosco_single_9_18" type="solid" x="1472" y="288" width="64" height="96"/>
  <object id="207" name="bosco_single_9_21" type="solid" x="1568" y="288" width="64" height="96"/>
  <object id="208" name="bosco_single_9_24" type="solid" x="1664" y="288" width="64" height="96"/>
  <object id="210" name="bosco_v3_12_3_1" type="solid" x="992" y="416" width="96" height="32"/>
  <object id="211" name="bosco_v3_12_3_2" type="solid" x="992" y="448" width="96" height="32"/>
  <object id="212" name="bosco_v3_12_3_3" type="solid" x="992" y="480" width="96" height="32"/>
  <object id="213" name="bosco_v3_12_3_4" type="solid" x="992" y="512" width="96" height="32"/>
  <object id="214" name="bosco_v3_12_3_5" type="solid" x="992" y="544" width="96" height="32"/>
  <object id="216" name="bosco_v3_12_6_1" type="solid" x="1088" y="416" width="96" height="32"/>
  <object id="217" name="bosco_v3_12_6_2" type="solid" x="1088" y="448" width="96" height="32"/>
  <object id="218" name="bosco_v3_12_6_3" type="solid" x="1088" y="480" width="96" height="32"/>
  <object id="219" name="bosco_v3_12_6_4" type="solid" x="1088" y="512" width="96" height="32"/>
  <object id="220" name="bosco_v3_12_6_5" type="solid" x="1088" y="544" width="96" height="32"/>
  <object id="221" name="bosco_single_12_18" type="solid" x="1472" y="384" width="64" height="96"/>
  <object id="222" name="bosco_single_12_21" type="solid" x="1568" y="384" width="64" height="96"/>
  <object id="223" name="bosco_single_12_24" type="solid" x="1664" y="384" width="64" height="96"/>
  <object id="224" name="bosco_single_15_0" type="solid" x="896" y="480" width="64" height="96"/>
  <object id="225" name="bosco_single_15_12" type="solid" x="1280" y="480" width="64" height="96"/>
  <object id="226" name="bosco_single_15_15" type="solid" x="1376" y="480" width="64" height="96"/>
  <object id="227" name="bosco_single_15_18" type="solid" x="1472" y="480" width="64" height="96"/>
  <object id="228" name="bosco_single_18_0" type="solid" x="896" y="576" width="64" height="96"/>
  <object id="229" name="bosco_single_18_3" type="solid" x="992" y="576" width="64" height="96"/>
  <object id="230" name="bosco_single_21_0" type="solid" x="896" y="672" width="64" height="96"/>
  <object id="231" name="bosco_single_21_3" type="solid" x="992" y="672" width="64" height="96"/>
  <object id="232" name="bosco_single_24_0" type="solid" x="896" y="768" width="64" height="96"/>
  <object id="233" name="bosco_v3_24_3_0" type="solid" x="992" y="768" width="96" height="32"/>
  <object id="234" name="bosco_v3_24_3_1" type="solid" x="992" y="800" width="96" height="32"/>
  <object id="235" name="bosco_v3_24_3_2" type="solid" x="992" y="832" width="96" height="32"/>
  <object id="236" name="bosco_v3_24_3_3" type="solid" x="992" y="864" width="96" height="32"/>
  <object id="237" name="bosco_v3_24_3_4" type="solid" x="992" y="896" width="96" height="32"/>
  <object id="238" name="bosco_v3_24_3_5" type="solid" x="992" y="928" width="96" height="32"/>
  <object id="239" name="bosco_v3_24_6_0" type="solid" x="1088" y="768" width="96" height="32"/>
  <object id="240" name="bosco_v3_24_6_1" type="solid" x="1088" y="800" width="96" height="32"/>
  <object id="241" name="bosco_v3_24_6_2" type="solid" x="1088" y="832" width="96" height="32"/>
  <object id="242" name="bosco_v3_24_6_3" type="solid" x="1088" y="864" width="96" height="32"/>
  <object id="243" name="bosco_v3_24_6_4" type="solid" x="1088" y="896" width="96" height="32"/>
  <object id="244" name="bosco_v3_24_6_5" type="solid" x="1088" y="928" width="96" height="32"/>
  <object id="245" name="bosco_single_24_9" type="solid" x="1184" y="768" width="64" height="96"/>
  <object id="262" name="bosco_single_27_0" type="solid" x="896" y="864" width="64" height="96"/>
  <object id="263" name="bosco_v3_27_9_0" type="solid" x="1184" y="864" width="96" height="32"/>
  <object id="264" name="bosco_v3_27_9_1" type="solid" x="1184" y="896" width="96" height="32"/>
  <object id="265" name="bosco_v3_27_9_2" type="solid" x="1184" y="928" width="96" height="32"/>
  <object id="266" name="bosco_v3_27_9_3" type="solid" x="1184" y="960" width="96" height="32"/>
  <object id="267" name="bosco_v3_27_9_4" type="solid" x="1184" y="992" width="96" height="32"/>
  <object id="268" name="bosco_v3_27_9_5" type="solid" x="1184" y="1024" width="96" height="32"/>
  <object id="293" name="bosco_v3_30_0_0" type="solid" x="896" y="960" width="96" height="32"/>
  <object id="294" name="bosco_v3_30_0_1" type="solid" x="896" y="992" width="96" height="32"/>
  <object id="295" name="bosco_v3_30_0_2" type="solid" x="896" y="1024" width="96" height="32"/>
  <object id="296" name="bosco_v3_30_0_3" type="solid" x="896" y="1056" width="96" height="32"/>
  <object id="297" name="bosco_v3_30_0_4" type="solid" x="896" y="1088" width="96" height="32"/>
  <object id="298" name="bosco_v3_30_0_5" type="solid" x="896" y="1120" width="96" height="32"/>
  <object id="299" name="bosco_v3_30_3_0" type="solid" x="992" y="960" width="96" height="32"/>
  <object id="300" name="bosco_v3_30_3_1" type="solid" x="992" y="992" width="96" height="32"/>
  <object id="301" name="bosco_v3_30_3_2" type="solid" x="992" y="1024" width="96" height="32"/>
  <object id="302" name="bosco_v3_30_3_3" type="solid" x="992" y="1056" width="96" height="32"/>
  <object id="303" name="bosco_v3_30_3_4" type="solid" x="992" y="1088" width="96" height="32"/>
  <object id="304" name="bosco_v3_30_3_5" type="solid" x="992" y="1120" width="96" height="32"/>
  <object id="305" name="bosco_single_30_6" type="solid" x="1088" y="960" width="64" height="96"/>
  <object id="325" name="bosco_single_33_6" type="solid" x="1088" y="1056" width="64" height="96"/>
  <object id="326" name="bosco_single_33_9" type="solid" x="1184" y="1056" width="64" height="96"/>
  <object id="337" name="bosco_single_36_0" type="solid" x="896" y="1152" width="64" height="96"/>
  <object id="338" name="bosco_single_36_3" type="solid" x="992" y="1152" width="64" height="96"/>
  <object id="339" name="bosco_single_36_6" type="solid" x="1088" y="1152" width="64" height="96"/>
  <object id="340" name="bosco_single_36_9" type="solid" x="1184" y="1152" width="64" height="96"/>
  <object id="359" name="bosco_v3_39_0_1" type="solid" x="896" y="1280" width="96" height="32"/>
  <object id="360" name="bosco_v3_39_0_2" type="solid" x="896" y="1312" width="96" height="32"/>
  <object id="361" name="bosco_v3_39_0_3" type="solid" x="896" y="1344" width="96" height="32"/>
  <object id="362" name="bosco_v3_39_0_4" type="solid" x="896" y="1376" width="96" height="32"/>
  <object id="363" name="bosco_v3_39_0_5" type="solid" x="896" y="1408" width="93" height="25"/>
  <object id="401" name="bosco_v3_45_0_1" type="solid" x="896" y="1465" width="96" height="39"/>
  <object id="402" name="bosco_v3_45_0_2" type="solid" x="896" y="1504" width="96" height="32"/>
  <object id="403" name="bosco_v3_45_0_3" type="solid" x="896" y="1536" width="96" height="32"/>
  <object id="404" name="bosco_v3_45_0_4" type="solid" x="896" y="1568" width="96" height="32"/>
  <object id="405" name="bosco_v3_45_0_5" type="solid" x="896" y="1600" width="96" height="32"/>
  <object id="445" name="bosco_single_51_0" type="solid" x="896" y="1632" width="64" height="96"/>
  <object id="446" name="bosco_v3_51_9_0" type="solid" x="1184" y="1658" width="96" height="6"/>
  <object id="447" name="bosco_v3_51_9_1" type="solid" x="1184" y="1664" width="96" height="32"/>
  <object id="448" name="bosco_v3_51_9_2" type="solid" x="1184" y="1696" width="96" height="32"/>
  <object id="449" name="bosco_v3_51_9_3" type="solid" x="1184" y="1728" width="96" height="32"/>
  <object id="450" name="bosco_v3_51_9_4" type="solid" x="1184" y="1760" width="96" height="32"/>
  <object id="451" name="bosco_v3_51_9_5" type="solid" x="1184" y="1792" width="96" height="32"/>
  <object id="452" name="bosco_single_51_12" type="solid" x="1280" y="1647.67" width="59.3333" height="80.3333"/>
  <object id="12" name="p3_pozione" type="oggetto" x="1250.38" y="1505.14" width="25.5772" height="27.7181">
   <properties>
    <property name="contenuto" value="mt_10_terremoto"/>
    <property name="quantita" type="int" value="1"/>
    <property name="type" value="oggetto"/>
   </properties>
  </object>
  <object id="17" x="904.564" y="1740.59" width="77.074" height="168.064"/>
  <object id="18" x="1168.97" y="1834.79" width="966.637" height="73.8626"/>
  <object id="30" x="1121.68" y="1835.07" width="21.637" height="83.8626"/>
  <object id="31" x="997.182" y="1865.07" width="21.637" height="23.8626"/>
  <object id="32" x="1096.18" y="1801.07" width="18.637" height="18.8626"/>
  <object id="33" x="1026.18" y="1829.07" width="21.637" height="23.8626"/>
  <object id="34" x="2161" y="753" width="9" height="1151"/>
  <object id="35" x="2166" y="1896" width="566" height="18"/>
  <object id="36" x="2192" y="1866" width="350" height="20"/>
  <object id="37" x="2222" y="1833" width="318" height="28"/>
  <object id="38" x="2186" y="882" width="103" height="923"/>
  <object id="39" x="2182" y="778" width="16" height="102"/>
  <object id="40" x="2221" y="817" width="3" height="70"/>
  <object id="41" x="2256" y="853" width="10" height="42"/>
  <object id="42" x="2323" y="782" width="2" height="44"/>
  <object id="43" x="2286" y="742" width="2" height="18"/>
  <object id="44" x="2315" y="743" width="4" height="54"/>
  <object id="45" x="2345" y="702" width="17" height="27"/>
  <object id="46" x="2184" y="145" width="477" height="545"/>
  <object id="47" x="2198" y="-1" width="551" height="211"/>
  <object id="48" x="2750" y="-6" width="651" height="194"/>
  <object id="49" x="3271" y="144" width="110" height="1770"/>
  <object id="50" x="2947" y="1002" width="47" height="547"/>
  <object id="51" x="3007" y="1000" width="59" height="16"/>
  <object id="52" x="3082" y="979" width="39" height="548"/>
  <object id="53" x="3022" y="1629" height="39"/>
  <object id="54" x="3047" y="1607" width="43" height="10"/>
  <object id="55" x="3116" y="1580" width="70" height="12"/>
  <object id="56" x="3179" y="1573" width="7" height="34"/>
  <object id="57" x="3183" y="1603" width="31" height="11"/>
  <object id="58" x="3241" y="1633" width="7" height="121"/>
  <object id="59" x="3077" y="1646" width="148" height="134"/>
  <object id="60" x="2995" y="1713" width="64" height="20"/>
  <object id="61" x="2864" y="310" width="71" height="19"/>
  <object id="62" x="3047" y="200" width="15" height="14"/>
  <object id="63" x="3012" y="226" width="15" height="10"/>
  <object id="64" x="3050" y="258" width="18" height="15"/>
  <object id="65" x="3018" y="295" width="10" height="13"/>
  <object id="66" x="3048" y="322" width="14" height="11"/>
  <object id="67" x="3086" y="203" width="41" height="132"/>
  <object id="68" x="3180" y="207" width="37" height="136"/>
  <object id="69" x="3092" y="205" width="105" height="73"/>
  <object id="70" x="2734" y="295" width="6" height="1619"/>
  <object id="71" x="2796" y="237" width="9" height="69"/>
  <object id="72" x="2753" y="213" width="30" height="12"/>
  <object id="73" x="2442" y="873" width="231" height="906"/>
  <object id="74" x="2657" y="663" width="18" height="235"/>
  <object id="75" x="2354" y="816" height="75"/>
  <object id="76" x="2379" y="852" width="95" height="859"/>
  <object id="77" x="2377" y="1678" width="76" height="105"/>
  <object id="78" x="2600" y="1771" width="75" height="74"/>
  <object id="79" x="2180" y="739" width="20" height="17"/>
  <object id="80" x="2255" y="745" width="15" height="13"/>
  <object id="81" x="2922.67" y="788" width="296" height="61.3333"/>
  <object id="82" x="2298" y="1736" width="24" height="52"/>
  <object id="83" x="2298" y="936" width="24.6667" height="848.667"/>
  <object id="84" x="2322" y="698.667" width="316.667" height="124"/>
  <object id="85" x="2352.67" y="789.333" width="310.667" height="76"/>
  <object id="86" x="2213.33" y="816.667" width="15.3333" height="86.6667"/>
  <object id="87" x="2249.33" y="852.667" width="12" height="52.6667"/>
  <object id="88" x="1583" y="802" width="536" height="1012"/>
  <object id="89" x="1397" y="992" width="120" height="346"/>
  <object id="90" x="1387" y="1377" width="204" height="428"/>
  <object id="91" x="1578.67" y="788" width="36.6667" height="24.6667"/>
  <object id="92" x="1772" y="784" width="34" height="30.6667"/>
  <object id="93" x="1874.67" y="781.333" width="32" height="30"/>
  <object id="94" x="2064.67" y="785" width="32" height="30"/>
  <object id="95" x="1490" y="973.667" width="32" height="30"/>
 </objectgroup>
 <objectgroup color="#00ff00" id="5" name="eventi">
  <object id="1" name="trainer_1" type="trainer" x="1270.71" y="1376" width="32" height="32">
   <properties>
    <property name="facing" value="S"/>
    <property name="note" value="guardia ingresso radura Forza"/>
   </properties>
  </object>
  <object id="2" name="trainer_2" type="trainer" x="1127.26" y="1526.59" width="32" height="32">
   <properties>
    <property name="facing" value="N"/>
    <property name="note" value="in fondo alla radura, vicino oggetto"/>
   </properties>
  </object>
  <object id="3" name="trainer_3" type="trainer" x="1507.65" y="612.245" width="24" height="21.5">
   <properties>
    <property name="facing" value="S"/>
    <property name="note" value="presso il ponte"/>
   </properties>
  </object>
  <object id="4" name="trainer_4" type="trainer" x="1216" y="128" width="32" height="32">
   <properties>
    <property name="facing" value="E"/>
    <property name="note" value="vicino cima sentiero"/>
   </properties>
  </object>
  <object id="9" name="trainer_6" type="trainer" x="1408.81" y="155.276" width="32" height="32">
   <properties>
    <property name="facing" value="S"/>
   </properties>
  </object>
  <object id="10" name="trainer_5" type="trainer" x="1596.15" y="736.542" width="32" height="32">
   <properties>
    <property name="descrizione" value="dentro l'acqua, nuotatore"/>
    <property name="facing" value="ovest"/>
   </properties>
  </object>
  <object id="11" name="cartello" type="cartello" x="1189.37" y="37.5236" width="22.3657" height="19.1543">
   <properties>
    <property name="testo" value="Alabano e la sua villa...."/>
    <property name="type" value="cartello"/>
   </properties>
  </object>
  <object id="15" name="warp" type="warp" x="1209.55" y="-1.79648" width="74.0571" height="20.8591">
   <properties>
    <property name="destinazione" value="monteporzio"/>
    <property name="spawn_id" value="da_Percorso 5"/>
    <property name="type" value="warp"/>
   </properties>
  </object>
  <object id="16" name="spawn" type="spawn" x="1228.75" y="21.7916" width="30.6443" height="29.3675">
   <properties>
    <property name="id" value="da_monteporzio"/>
    <property name="type" value="spawn"/>
   </properties>
  </object>
  <object id="19" name="erba alta percorso 5" x="1190.92" y="171.59" width="240.853" height="288.398">
   <properties>
    <property name="id" value="incontri percorso 5"/>
    <property name="type" value="erba_alta"/>
   </properties>
  </object>
  <object id="20" name="erba alta percorso 5" x="1552.74" y="504.508" width="174.484" height="83.9377">
   <properties>
    <property name="id" value="incontri percorso 5"/>
    <property name="type" value="erba_alta"/>
   </properties>
  </object>
  <object id="21" name="erba alta percorso 5" x="1288.33" y="980.333" width="77.071" height="83.9377">
   <properties>
    <property name="id" value="incontri percorso 5"/>
    <property name="type" value="erba_alta"/>
   </properties>
  </object>
  <object id="22" name="erba alta percorso 5" x="1231.06" y="1316.46" width="130.595" height="83.9377">
   <properties>
    <property name="id" value="incontri percorso 5"/>
    <property name="type" value="erba_alta"/>
   </properties>
  </object>
  <object id="23" name="erba alta percorso 5" x="1126.15" y="1447.06" width="175.555" height="173.857">
   <properties>
    <property name="id" value="incontri percorso 5"/>
    <property name="type" value="erba_alta"/>
   </properties>
  </object>
  <object id="24" name="acqua_percorso_5" type="albero_taglio" x="1069.51" y="649.202" width="389.457" height="50.3914">
   <properties>
    <property name="id" value="acqua_percorso_5"/>
    <property name="type" value="acqua surf"/>
   </properties>
  </object>
  <object id="25" name="acqua_percorso_5" type="albero_taglio" x="1582.27" y="652.414" width="571.437" height="50.3914">
   <properties>
    <property name="id" value="acqua_percorso_5"/>
    <property name="type" value="acqua surf"/>
   </properties>
  </object>
  <object id="26" name="acqua_percorso_5" type="albero_taglio" x="2009.39" y="119.318" width="146.459" height="62.1666">
   <properties>
    <property name="id" value="acqua_percorso_5"/>
    <property name="type" value="acqua surf"/>
   </properties>
  </object>
  <object id="28" x="1296" y="400">
   <properties>
    <property name="contenuto" value="antidoto"/>
    <property name="id" value="oggetto_29"/>
    <property name="quantita" value="1"/>
    <property name="type" value="oggetto"/>
   </properties>
   <point/>
  </object>
  <object id="29" name="masso_p5_1" type="masso" x="1189.7" y="1345.86" width="17.9432" height="20.286">
   <properties>
    <property name="blocco_id" value="masso_p5_1"/>
    <property name="type" value="masso"/>
   </properties>
  </object>
  <object id="485" name="cartello_verso_rocca_di_papa" type="cartello" x="992" y="1727" width="28" height="27">
   <properties>
    <property name="testo" value="Rocca di Papa, tra i boschi del vulcano →"/>
    <property name="type" value="cartello"/>
   </properties>
  </object>
  <object id="96" name="spaccaroccia_p5_1" type="trigger_spaccaroccia" x="1028.33" y="1801.33" width="21" height="18.5">
   <properties>
    <property name="id" value="spaccaroccia_p5_1"/>
    <property name="note" value="PLACEHOLDER — posizione da sistemare in Tiled"/>
    <property name="type" value="trigger_spaccaroccia"/>
   </properties>
  </object>
  <object id="97" name="cascata_p5_2" type="cascata_cascata" x="2020" y="219" width="50" height="419">
   <properties>
    <property name="id" value="cascata_cascata_percorso5_2"/>
    <property name="note" value="PLACEHOLDER — posizione da sistemare in Tiled"/>
    <property name="type" value="cascata_cascata"/>
   </properties>
  </object>
  <object id="99" name="spaccaroccia_p5_1" type="trigger_spaccaroccia" x="1061.5" y="1802.25" width="21" height="18.5">
   <properties>
    <property name="id" value="spaccaroccia_p5_1"/>
    <property name="note" value="PLACEHOLDER — posizione da sistemare in Tiled"/>
    <property name="type" value="trigger_spaccaroccia"/>
   </properties>
  </object>
 </objectgroup>
</map>
