<?xml version="1.0" encoding="UTF-8"?>
<map version="1.10" tiledversion="1.12.2" orientation="orthogonal" renderorder="right-down" width="60" height="50" tilewidth="32" tileheight="32" infinite="0" backgroundcolor="#000000" nextlayerid="21" nextobjectid="117">
 <tileset firstgid="1" source="../../outside.tsx"/>
 <tileset firstgid="4017" source="../outside.tsx"/>
 <layer id="1" name="ground" width="60" height="50">
  <data encoding="csv">
4,4,4,4,4,4,4,4,4,4,4,4,4,4,4,4,4,4,4,4,4,4,4,4,4,4,4,4,4,4,4,4,4,4,4,4,4,4,4,4,4,4,4,4,4,4,4,4,4,4,4,4,4,4,4,4,4,4,4,4,
4,4,4,4,4,4,4,4,4,4,4,4,4,4,4,4,4,4,4,4,4,4,4,4,4,4,4,4,4,4,4,4,4,4,4,4,4,4,4,4,4,4,4,4,4,4,4,4,4,4,4,4,4,4,4,4,4,4,4,4,
4,4,4,4,4,4,4,4,4,4,4,4,4,4,4,4,4,4,4,4,4,4,4,4,4,4,4,4,4,4,4,4,4,4,4,4,4,4,4,4,4,4,4,4,4,4,4,4,4,4,4,4,4,4,4,4,4,4,4,4,
4,4,4,4,4,4,4,4,4,4,4,4,4,4,4,4,4,4,4,4,4,4,4,4,4,4,4,4,4,4,4,4,4,4,4,4,4,4,4,4,4,4,4,4,4,4,4,4,4,4,4,4,4,4,4,4,4,4,4,4,
4,4,4,4,4,4,4,4,4,4,4,4,4,4,4,4,4,4,4,4,4,4,4,4,4,4,4,4,4,4,4,4,4,4,4,4,4,4,4,4,4,4,4,4,4,4,4,4,4,4,4,4,4,4,4,4,4,4,4,4,
4,4,4,4,4,4,4,4,4,4,4,4,4,4,4,4,4,4,4,4,4,4,4,4,4,4,4,4,4,4,4,4,4,4,4,4,4,4,4,4,4,4,4,4,4,4,4,4,4,4,4,4,4,4,4,4,4,4,4,4,
4,4,4,4,4,4,4,4,4,4,4,4,4,4,4,4,4,4,4,4,4,4,4,4,4,4,4,4,4,4,4,4,4,4,4,4,4,4,4,4,4,4,4,4,4,4,4,4,4,4,4,4,4,4,4,4,4,4,4,4,
4,4,4,4,4,4,4,4,4,4,4,4,4,4,4,4,4,4,4,4,4,4,4,4,4,4,4,4,4,4,4023,4023,4023,4023,4023,4023,4,4,4,4,4,4,4,4023,4,4023,4023,4023,4023,4023,4,4,4,4,4,4,4,4,4,4,
4,4,4,4,4,4,4,4,4,4,4,4,4,4,4,4,4,4,4,4,4,4,4,4,4023,4023,4023,4023,4023,4023,4023,4,4,4023,4023,4023,4023,4,4,4,4,4,4,4023,4023,4023,4023,4023,4023,4023,4023,4023,4,4,4,4,4,4,4,4,
4,4,4,4,4,4,4,4,4,4,4,4,4,4,4,4,4,4,4,4,4,4,4,4023,4023,4,4023,4023,4023,4023,4023,4023,4023,4023,4023,4,4,4,4,4,4,4,4,4,4,4023,4023,4023,4023,4023,4023,4023,4,4,4,4,4,4,4,4,
4,4,4,4,4,4,4,4,4,4,4,4,4,4,4,4,4,4,4,4,4,4,4,4,4023,4023,4023,4023,4023,4023,4023,4023,4023,4,4023,4,4,4,4,4,4,4,4,4023,4023,4,4023,4023,4023,4023,4023,4023,4,4,4,4,4,4,4,4,
4,4,4,4,4,4,4,4,4,4,4,4,4,4,4,4,4,4,4,4,4,4,4,4,4,4,4,4,4,4,4,4,4,4,4,4,4,4,4,4,4,4,4023,4,4,4,4,4023,4023,4023,4,4,4,4,4,4,4,4,4,4,
4,4,4,4,4,4,4,4,4,4,4,4,4,4,4,4,4,4,4,4,4,4,4,4,4,4,4,4,4,4,4,4,4,4,4,4,4,4,4,4,4,4,4023,4023,4023,4023,4023,4,4,4,4,4,4,4,4,4,4,4,4,4,
4,4,4,4,4,4,4,4,4,4,4,4,4,4,4,4,4,4,4,4,4,4,4,4,4,4,4,4,4,4,4,4,4,4,4,4,4,4,4,4,4,4,4,4,4,4,4,4,4,4,4,4,4,4,4,4,4,4,4,4,
4,4,4,4,4,4,4,4,4,4179,4179,4179,4179,4179,4179,4179,4179,4179,4179,4179,4179,4179,4179,4179,4179,4179,4179,4179,4179,4179,4179,4179,4,4,4,4,4,4,4,4,4,4,4,4,4,4,4,4,4,4,4,4,4,4,4,4,4,4,4,4,
4,4,4,4,4,4,4,4,4,4179,4187,4187,4187,4187,4187,4187,4187,4187,4187,4187,4187,4187,4187,4187,4187,4187,4187,4187,4187,4187,4187,4187,4,4,4,4,4,4,4,4,4,4,4,4,4,4,4,4,4,4,4,4,4,4,4,4,4,4,4,4,
4,4,4,4,4,4,4,4,4,4179,4023,4,4,4,4,4,4,4,4,4,4,4,4,4,4,4,4,4,4,4,4,4,4,4,4,4,4,4,4,4,4,4,4,4,4,4,4,4,4,4,4,4,4,4,4,4,4,4,4,4,
4,4,4,4,4,4,4,4,4,4179,4023,4023,4023,4023,4023,4023,4023,4023,4023,4023,4,4,4,4,4,4,4,4,4,4,4,4,4,4023,4023,4023,4023,4023,4023,4023,4023,4023,4023,4023,4,4,4,4,4,4,4,4,4,4,4,4,4,4,4,4,
4,4,4,4,4,4,4,4,4,4179,4023,4023,4023,4023,4023,4023,4023,4023,4023,4023,4,4,4,4,4,4,4,4,4,4,4,4,4023,4023,4023,4023,4023,4023,4023,4023,4023,4023,4023,4023,4023,4023,4,4,4,4,4,4,4,4,4,4,4,4,4,4,
4,4,4,4,4,4,4,4,4,4179,4023,4023,4023,4023,4023,4023,4023,4023,4023,4,4,4,4,4,4,4,4,4,4,4,4,4,4,4023,4,4,4,4,4,4,4,4023,4023,4023,4023,4023,4023,4,4,4,4,4,4,4,4,4,4,4,4,4,
4,4,4,4,4,4,4,4,4,4179,4023,4,4,4,4,4,4,4,4,4,4,4,4,4,4,4,4,4,4,4,4,4,4,4,4,4,4,4,4,4,4,4023,4023,4023,4023,4023,4,4,4,4,4,4,4,4,4,4,4,4,4,4,
4,4,4,4,4,4,4,4,4,4179,155,155,155,155,155,155,155,155,155,155,155,155,155,155,155,155,155,155,155,155,155,155,155,155,155,155,155,155,156,4,4,4023,4023,4023,4023,4023,4,4,4,4,4,4,4,4,4,4,4,4,4,4,
4,4,4,4,4,4,4,4,4,4,163,163,163,163,163,163,163,163,163,163,163,163,163,163,163,163,163,163,163,163,163,163,163,163,163,163,163,163,164,4,4,4023,4023,4,4,4,4,4,4,4,4,4,4,4,4,4,4,4,4,4,
4,4,4,4,4,4,4,4,4,4,171,171,171,171,171,171,171,171,171,171,171,171,171,171,171,171,171,171,171,171,171,171,171,171,171,171,159,163,164,4,4,4023,4023,4,4,4,4,4,4,4,4,4,4,4,4,4,4,4,4,4,
4,4,4,4,4,4,4,4,4,4,4,4,4,4,4,4,4,4,4,4,4,4,4,4,4,4,4,4,4,4,4,4,4,4,4,4,162,163,164,4,4,4023,4023,4,4,4,4,4,4,4,4,4,4,4,4,4,4,4,4,4,
4,4,4,4,4,4,4,4,4,4,4,4,4,4,4,4,4,4,4,4,4,4,4,4,4,4,4,4,4,4,4,4,4,4,4,4,162,163,164,4,4,4023,4023,4,4,4,4,4,4,4,4,4,4,4,4,4,4,4,4,4,
4,4,4,4,4,4,4,4,4,4,4,4,4,4,4,4,4,4,4,4,4,4,4,4,4,4,4,4,4,4,4,4,4,4,4,4,162,163,164,4,4,4023,4023,4,4,4,4,4,4,4,4,4,4,4,4,4,4,4,4,4,
4,4,4,4,4,4,4,4,4,4,4,4,4,4,4,4,4,4,4,4,4,4,4,4,4,4,4,4,4023,4023,4023,4,4,4,4,4,162,163,164,4,4,4023,4023,4,4,4,4,4,4,4,4,4,4,4,4,4,4,4,4,4,
4,4,4,4,4,4,4,4,4,4,4,4,4,4,4,4,4,4,4,4,4,4,4,4,4,4,4023,4023,4023,4023,4023,4023,4023,4023,4,4,162,163,164,4,4,4023,4023,4,4,4,4,4,4,4,4,4,4,4,4,4,4,4,4,4,
4,4,4,4,4,4,4,4,4,4,4,4,4,4,4,4,4,4,4,4,4,4,4,4,4,4023,4023,4023,4023,4023,4023,4023,4,4023,4,4,162,163,164,4,4,4023,4023,4,4,4,4,4,4,4,4,4,4,4,4,4,4,4,4,4,
4,4,4,4,4,4,4,4,4,4,4,4,4,4,4,4,4,4,4,4,4,4,4,4,4023,4023,4023,4023,4023,4023,4023,4023,4023,4,4,4,162,163,164,4,4,4023,4023,4,4,4,4,4,4,4,4,4,4,4,4,4,4,4,4,4,
4,4,4,4,4,4,4,4,4,4,4,4,4,4,4,4,4,4,4,4,4,4,4023,4023,4023,4023,4023,4023,4023,4023,4023,4023,4023,4023,4,4,162,163,164,4,4,4023,4023,4,4,4,4,4,4,4,4,4,4,4,4,4,4,4,4,4,
4,4,4,4,4,4,4,4,4,4,4,4,4,4,4,4,4,4,4,4,4,4023,4,4,4,4023,4023,4023,4023,4,4023,4023,4,4023,4023,4,162,163,164,4,4,4023,4023,4,4,4,4,4,4,4,4,4,4,4,4,4,4,4,4,4,
4,4,4,4,4,4,4,4,4,4,4,4,4,4,4,4,4,4,4,4023,4023,4023,4023,4023,4023,4023,4023,4,4,4,4023,4023,4023,4023,4023,4,162,163,164,4,4,4023,4023,4,4,4,4,4,4,4,4,4,4,4,4,4,4,4,4,4,
4,4,4,4,4,4,4,4,4,4,4,4,4,4,4,4,4,4,4023,4023,4023,4,4,4023,4023,4023,4,4,4,4,4023,4023,4023,4023,4023,4,162,163,164,4,4,4023,4023,4,4,4,4,4,4,4,4,4,4,4,4,4,4,4,4,4,
4,4,4,4,4,4,4,4,4,4,4,4,4,4,4,4,4,4,4,4,4,4,4,4023,4023,4,4,4,4,4,4023,4023,4023,4023,4023,4023,162,163,164,4,4,4023,4023,4,4,4,4,4,4,4,4,4,4,4,4,4,4,4,4,4,
4,4,4,4,4,4,4,4,4,4,4,4,4,4,4,4,4,4,4,4,4,4,4,4023,4,4,4,4,4,4,4023,4023,4023,4023,4023,4023,162,163,164,4,4,4023,4023,4,4,4,4,4,4,4,4,4,4,4,4,4,4,4,4,4,
4,4,4,4,4,4,4,4,4,4,4,4023,4023,4023,4023,4023,4023,4023,4023,4023,4023,4,4023,4,4,4,4,4,4,4,4023,4023,4023,4023,4023,4023,162,163,164,4,4,4023,4023,4,4,4,4,4,4,4,4,4,4,4,4,4,4,4,4,4,
4,4,4,4,4,4,4,4,4023,4023,4023,4023,4023,4023,4023,4023,4023,4023,4023,4023,4023,4023,4023,4023,4023,4,4,4,4,4,4023,4023,4023,4023,4023,4023,162,163,164,4,4,4023,4023,4,4,4,4,4,4,4,4,4,4,4,4,4,4,4,4,4,
4,4,4,4,4,4,4,4023,4,4023,4023,4023,4023,4023,4023,4023,4023,4023,4023,4023,4023,4023,4023,4,4,4,4,4,4,4,4023,4023,4023,4,4023,4,162,163,164,4,4,4023,4023,4,4,4,4,4,4,4,4,4,4,4,4,4,4,4,4,4,
4,4,4,4,4023,4023,4023,4023,4023,4023,4023,4023,4023,4023,4023,4023,4023,4023,4023,4023,4023,4023,4,4,4,4,4,4,4,4,4,4023,4,4023,4023,4,162,163,164,4,4,4023,4,4,4,4,4,4,4,4,4,4,4,4,4,4,4,4,4,4,
4,4,4,4,4023,4023,4023,4,4,4,4,4,4,4023,4023,4023,4023,4023,4023,4,4,4,4,4,4,4,4,4,4,4,4,4023,4023,4,4,4,162,163,164,4,4,4023,4,4,4,4,4,4,4,4,4,4,4,4,4,4,4,4,4,4,
4,4,4,4,4,4,4,4,4,4,4,4,4,4,4,4,4,4,4,4,4,4,4,4,4,4,4,4,4,4,4,4,4,4,4,4,162,163,164,4,4,4023,4,4,4,4,4,4,4171,4171,4171,4171,4171,4171,4171,4171,4171,4171,4171,4171,
155,155,155,155,155,155,155,155,155,155,155,155,155,155,155,155,155,155,155,155,155,155,155,155,155,155,155,155,155,155,155,155,155,155,155,155,175,163,164,4,4,4023,4,4,4,4,4,4,4179,4179,4179,4179,4179,4179,4179,4179,4179,4179,4179,4179,
163,163,163,163,163,163,163,163,163,163,163,163,163,163,163,163,163,163,163,163,163,163,163,163,163,163,163,163,163,163,163,163,163,163,163,163,163,163,164,4,4,4,4,4,4,4,4,4,4187,4187,4187,4187,4187,4187,4187,4187,4187,4187,4187,4187,
171,171,171,171,171,171,171,171,171,171,171,171,171,171,171,171,171,171,171,171,171,171,171,171,171,171,171,171,171,171,171,171,171,171,171,171,171,171,172,4,4,4,4,4,4,4,4,4,4,4,4,4,4,4,4,4,4,4,4,4,
4,4,4,4,4,4,4,4,4,4,4,4,4,4,4,4,4,4,4,4,4,4,4,4,4,4,4,4,4,4,4,4,4,4,4,4,4,4,4,4,4,4,4,4,4,4,4,4,4,4,4,4,4,4,4,4,4,4,4,4,
4,4,4,4,4,4,4,4,4,4,4,4,4,4,4,4,4,4,4,4,4,4,4,4,4,4,4,4,4,4,4,4,4,4,4,4,4,4,4,4,4,4,4,4,4,4,4,4,4,4,4,4,4,4,4,4,4,4,4,4,
4,4,4,4,4,4,4,4,4,4,4,4,4,4,4,4,4,4,4,4,4,4,4,4,4,4,4,4,4,4,4,4,4,4,4,4,4,4,4,4,4,4,4,4,4,4,4,4,4,4,4,4,4,4,4,4,4,4,4,4,
4,4,4,4,4,4,4,4,4,4,4,4,4,4,4,4,4,4,4,4,4,4,4,4,4,4,4,4,4,4,4,4,4,4,4,4,4,4,4,4,4,4,4,4,4,4,4,4,4,4,4,4,4,4,4,4,4,4,4,4
</data>
 </layer>
 <layer id="2" name="deco_sotto" width="60" height="50">
  <data encoding="csv">
0,0,0,0,0,0,0,0,0,0,0,0,0,0,0,0,0,0,0,0,0,0,0,0,0,0,0,0,0,0,0,0,0,0,0,0,0,0,0,0,0,0,0,0,0,0,0,0,0,0,0,0,0,0,0,0,0,0,0,0,
0,0,0,0,0,0,0,0,0,0,0,0,0,0,0,0,0,0,0,0,0,0,0,0,0,0,0,0,0,0,0,0,0,0,0,0,0,0,0,0,0,0,0,0,0,0,0,0,0,0,0,0,0,0,0,0,0,0,0,0,
0,0,0,0,0,0,0,0,0,0,0,0,0,0,0,0,0,0,0,0,0,0,0,0,0,0,0,0,0,0,0,0,0,0,0,0,0,0,0,0,0,0,0,0,0,0,0,0,0,0,0,0,0,0,0,0,0,0,0,0,
0,0,0,0,0,0,0,0,0,0,0,0,0,0,0,0,0,0,0,0,0,0,0,0,0,0,0,0,0,0,0,0,0,0,0,0,0,0,0,0,0,0,0,0,0,0,0,0,0,0,0,0,0,0,0,0,0,0,0,0,
0,0,0,0,0,0,0,0,0,0,0,0,0,0,0,0,0,0,0,0,0,0,0,0,0,0,0,0,0,0,0,0,0,0,0,0,0,0,0,0,0,0,0,0,0,0,0,0,0,0,0,0,0,0,0,0,0,0,0,0,
0,0,0,0,0,0,0,0,0,0,0,0,0,0,0,0,0,0,0,0,0,0,0,0,0,0,0,0,0,0,0,0,0,0,0,0,0,0,0,0,0,0,0,0,0,0,0,0,0,0,0,0,0,0,0,0,0,0,0,0,
0,0,0,0,0,0,0,0,0,0,0,0,0,0,0,0,0,0,0,0,0,0,0,0,0,0,0,0,0,0,0,0,0,0,0,0,0,0,0,0,0,0,0,0,0,0,0,0,0,0,0,0,0,0,0,0,0,0,0,0,
0,0,0,0,0,0,0,0,0,0,0,0,0,0,0,0,0,0,0,0,0,0,0,0,0,0,0,0,0,0,0,0,0,0,0,0,0,0,0,0,0,0,0,0,0,0,0,0,0,0,0,0,0,0,0,0,0,0,0,0,
0,0,0,0,0,0,0,0,0,0,0,0,0,0,0,0,0,0,0,0,0,0,0,0,0,0,0,0,0,0,0,0,0,0,0,0,0,0,0,0,0,0,0,0,0,0,0,0,0,0,0,0,0,0,0,0,0,0,0,0,
0,0,0,0,0,0,0,0,0,0,0,0,0,0,0,0,0,0,0,0,0,0,0,0,0,0,0,0,0,0,0,0,0,0,0,0,4710,4711,4711,4711,4712,0,0,0,0,0,0,0,0,0,0,0,0,0,0,0,0,0,0,0,
0,0,0,0,0,0,0,0,0,0,0,0,0,0,0,0,0,0,0,0,0,0,0,0,0,0,0,0,0,0,0,0,0,0,0,0,4718,4719,4719,4719,4720,0,0,0,0,0,0,0,0,0,0,0,0,0,0,0,0,0,0,0,
0,0,0,0,0,0,0,0,0,0,0,0,0,0,0,0,0,0,0,0,0,0,0,0,0,0,0,0,0,0,0,0,0,0,0,0,4718,4719,4719,4719,4720,0,0,0,0,0,0,0,0,0,0,0,0,0,0,0,0,0,0,0,
0,0,0,0,0,0,0,0,0,0,0,0,0,0,0,0,0,0,0,0,0,0,0,0,0,0,0,0,0,0,0,0,0,0,0,0,4718,4719,4719,4719,4720,0,0,0,0,0,0,0,0,0,0,0,0,0,0,0,0,0,0,0,
0,0,0,0,0,0,0,0,0,0,0,0,0,0,0,0,0,0,0,0,0,0,0,0,0,0,0,0,0,0,0,0,0,0,0,0,4726,4727,4727,4727,4728,0,0,0,0,0,0,0,0,0,0,0,0,0,0,0,0,0,0,0,
0,0,0,0,0,0,0,0,0,0,0,0,0,0,0,0,0,0,0,0,0,0,0,0,0,0,0,0,0,0,0,0,0,0,0,0,0,0,0,0,0,0,0,0,0,0,0,0,0,0,0,0,0,0,0,0,0,0,0,0,
0,0,0,0,0,0,0,0,0,0,0,0,0,0,0,0,0,0,0,0,0,0,0,0,0,0,0,0,0,0,0,0,0,0,0,0,0,0,0,0,0,0,0,0,0,0,0,0,0,0,0,0,0,0,0,0,0,0,0,0,
0,0,0,0,0,0,0,0,0,0,0,0,0,0,0,0,0,0,0,0,4710,4711,4711,4712,0,0,0,0,0,0,0,0,0,0,0,0,0,0,0,0,0,0,0,0,0,0,0,0,0,0,0,0,0,0,0,0,0,0,0,0,
0,0,0,0,0,0,0,0,0,0,0,0,0,0,0,0,0,0,0,0,4718,4719,4719,4720,0,0,0,0,0,0,0,0,0,0,0,0,0,0,0,0,0,0,0,0,0,0,0,0,0,0,0,0,0,0,0,0,0,0,0,0,
0,0,0,0,0,0,0,0,0,0,0,0,0,0,0,0,0,0,0,0,4718,4719,4719,4720,0,0,0,0,0,0,0,0,0,0,0,0,0,0,0,0,0,0,0,0,0,0,0,0,0,0,0,0,0,0,0,0,0,0,0,0,
0,0,0,0,0,0,0,0,0,0,0,0,0,0,0,0,0,0,0,0,4718,4719,4719,4720,0,0,0,0,0,0,0,0,0,0,0,0,0,0,0,0,0,0,0,0,0,0,0,0,0,0,0,0,0,0,0,0,0,0,0,0,
0,0,0,0,0,0,0,0,0,0,0,0,0,0,0,0,0,0,0,0,4718,4719,4719,4720,0,0,0,0,0,0,0,0,0,0,0,0,0,0,0,0,0,0,0,0,0,0,0,0,0,0,0,0,0,0,0,0,0,0,0,0,
0,0,0,0,0,0,0,0,0,0,0,0,0,0,0,0,0,0,0,0,4718,4719,4719,4720,0,0,0,0,0,0,0,0,0,0,0,0,0,0,0,0,0,0,0,0,0,0,0,0,0,0,0,0,0,0,0,0,0,0,0,0,
476,476,476,476,476,476,476,0,0,0,0,0,0,0,0,0,0,0,0,0,4718,4719,4719,4720,0,0,0,0,0,0,0,0,0,0,0,0,0,0,0,0,0,0,0,0,0,0,0,0,0,0,0,0,0,0,0,0,0,0,0,0,
155,155,155,155,155,155,155,155,155,155,155,0,0,0,0,0,0,0,0,0,4718,4719,4719,4720,0,0,0,0,0,0,0,0,0,0,0,0,0,0,0,0,0,0,0,0,0,0,0,0,0,0,0,0,0,0,0,0,0,0,0,0,
163,163,163,163,163,163,163,163,163,164,3,0,0,0,0,0,0,0,0,0,4718,4719,4719,4720,0,0,0,0,0,0,0,0,0,0,0,0,0,0,0,0,0,0,0,0,0,0,0,0,0,0,0,0,0,0,0,0,0,0,0,0,
171,171,171,171,171,171,171,171,171,172,3,0,0,0,0,0,0,0,0,0,4718,4719,4719,4720,0,0,0,0,0,0,0,0,0,0,0,0,0,0,0,0,0,0,0,0,0,0,0,0,0,0,0,0,0,0,0,0,0,0,0,0,
476,476,476,476,476,476,476,0,0,0,0,0,0,0,0,0,0,0,0,0,4726,4727,4727,4728,0,0,0,0,0,0,0,0,0,0,0,0,0,0,0,0,0,0,0,0,0,0,0,0,0,0,0,0,0,0,0,0,0,0,0,0,
0,0,0,0,0,0,0,0,0,0,0,0,0,0,0,0,0,0,0,0,0,0,0,0,0,0,0,0,0,0,0,0,0,0,0,0,0,0,0,0,0,0,0,0,0,0,0,0,0,0,0,0,0,0,0,0,0,0,0,0,
0,0,0,0,0,0,0,0,0,0,0,0,0,0,0,0,0,0,0,0,0,0,0,0,0,0,0,0,0,0,0,0,0,0,0,0,0,0,0,0,0,0,0,0,0,0,0,0,0,0,0,0,0,0,0,0,0,0,0,0,
0,0,0,0,0,0,0,0,0,0,0,0,0,0,0,0,0,0,0,0,0,0,0,0,0,0,0,0,0,0,0,0,0,0,0,0,0,0,0,0,0,0,0,0,0,0,0,0,0,0,0,0,0,0,0,0,0,0,0,0,
0,0,0,0,0,0,0,0,0,0,0,0,0,0,0,0,0,0,0,0,0,0,0,0,0,0,0,0,0,0,0,0,0,0,0,0,0,0,0,0,0,0,0,0,0,0,0,0,0,0,0,0,0,0,0,0,0,0,0,0,
0,0,0,0,0,0,0,0,0,0,0,0,0,0,0,0,0,0,0,0,0,0,0,0,0,0,0,0,0,0,0,0,0,0,0,0,0,0,0,0,0,0,0,0,0,0,0,0,0,0,0,0,0,0,0,0,0,0,0,0,
0,0,0,0,0,0,0,0,0,0,0,0,0,0,0,0,4710,4711,4712,0,0,0,0,0,0,0,0,0,0,0,0,0,0,0,0,0,0,0,0,0,0,0,0,0,0,0,0,0,0,0,0,0,0,0,0,0,0,0,0,0,
0,0,0,0,0,0,0,0,0,0,0,0,0,0,0,0,4718,4719,4720,0,0,0,0,0,0,0,0,0,0,0,0,0,0,0,0,0,0,0,0,0,0,0,0,0,0,0,0,0,0,0,0,0,0,0,0,0,0,0,0,0,
0,0,0,0,0,0,0,0,0,0,0,0,0,0,0,0,4726,4727,4728,0,0,0,0,0,0,0,0,0,0,0,0,0,0,0,0,0,0,0,0,0,0,0,0,0,0,0,0,0,0,0,0,0,0,0,0,0,0,0,0,0,
0,0,0,0,0,0,0,0,0,0,0,0,0,0,0,0,0,0,0,0,0,0,0,0,0,0,0,0,0,0,0,0,0,0,0,0,0,0,0,0,0,0,0,0,4710,4711,4711,4711,4711,4711,4712,0,0,0,0,0,0,0,0,0,
0,0,0,0,0,0,0,0,0,0,0,0,0,0,0,0,0,0,0,0,0,0,0,0,0,4710,4711,4712,0,0,0,0,0,0,0,0,0,0,0,0,0,0,0,0,4718,4719,4719,4719,4719,4719,4720,0,0,0,0,0,0,0,0,0,
0,0,0,0,0,0,0,0,0,0,0,0,0,0,0,0,0,0,0,0,0,0,0,0,0,4718,4719,4720,0,0,0,0,0,0,0,0,0,0,0,0,0,0,0,0,4718,4719,4719,4719,4719,4719,4720,0,0,0,0,0,0,0,0,0,
0,0,0,0,0,0,0,0,0,0,0,0,0,0,0,0,0,0,0,0,0,0,0,0,0,4726,4727,4728,0,0,0,0,0,0,0,0,0,0,0,0,0,0,0,0,4718,4719,4719,4719,4719,4719,4720,0,0,0,0,0,0,0,0,0,
0,0,0,0,0,0,0,0,0,0,0,0,0,0,0,0,0,0,0,0,0,0,0,0,0,0,0,0,0,0,0,0,0,0,0,0,0,0,0,0,0,0,0,0,4718,4719,4719,4719,4719,4719,4720,0,0,0,0,0,0,0,0,0,
0,0,0,0,0,0,0,0,0,0,0,0,0,0,0,0,0,0,0,0,0,0,0,0,0,0,0,0,0,0,0,0,0,0,0,0,0,0,0,0,0,0,0,0,4726,4727,4727,4727,4727,4727,4728,0,0,0,0,0,0,0,0,0,
0,0,0,0,0,0,0,0,0,0,0,0,0,0,0,0,0,0,0,0,0,0,0,0,0,0,0,0,0,0,0,0,0,0,0,0,0,0,0,0,0,0,0,0,0,0,0,0,0,0,0,0,0,0,0,0,0,0,0,0,
0,0,0,0,0,0,0,0,0,0,0,0,0,0,0,0,0,0,0,0,0,0,0,0,0,0,0,0,0,0,0,0,0,0,0,0,0,0,0,0,0,0,0,0,0,0,0,0,0,0,0,0,0,0,0,0,0,0,0,0,
0,0,0,0,0,0,0,0,0,0,0,0,0,0,0,0,0,0,0,0,0,0,0,0,0,0,0,0,0,0,0,0,0,0,0,0,0,0,0,0,0,0,0,0,0,0,0,0,0,0,0,0,0,0,0,0,0,0,0,0,
0,0,0,0,0,0,0,0,0,0,0,0,0,0,0,0,0,0,0,0,0,0,0,0,0,0,0,0,0,0,0,0,0,0,0,0,0,0,0,0,0,0,0,0,0,0,0,0,0,0,0,0,0,0,0,0,0,0,0,0,
0,0,0,0,0,0,0,0,0,0,0,0,0,0,0,0,0,0,0,0,0,0,0,0,0,0,0,0,0,0,0,0,0,0,0,0,0,0,0,0,0,0,0,0,0,0,0,0,0,0,0,0,0,0,0,0,0,0,0,0,
0,0,0,0,0,0,0,0,0,0,0,0,0,0,0,0,0,0,0,0,0,0,0,0,0,0,0,0,0,0,0,0,0,0,0,0,0,0,0,0,0,0,0,0,0,0,0,0,0,0,0,0,0,0,0,0,0,0,0,0,
0,0,0,0,0,0,0,0,0,0,0,0,0,0,0,0,0,0,0,0,0,0,0,0,0,0,0,0,0,0,0,0,0,0,0,0,0,0,0,0,0,0,0,0,0,0,0,0,0,0,0,0,0,0,0,0,0,0,0,0,
0,0,0,0,0,0,0,0,0,0,0,0,0,0,0,0,0,0,0,0,0,0,0,0,0,0,0,0,0,0,0,0,0,0,0,0,0,0,0,0,0,0,0,0,0,0,0,0,0,0,0,0,0,0,0,0,0,0,0,0,
0,0,0,0,0,0,0,0,0,0,0,0,0,0,0,0,0,0,0,0,0,0,0,0,0,0,0,0,0,0,0,0,0,0,0,0,0,0,0,0,0,0,0,0,0,0,0,0,0,0,0,0,0,0,0,0,0,0,0,0
</data>
 </layer>
 <layer id="3" name="edifici" width="60" height="50">
  <data encoding="csv">
417,418,419,420,417,418,419,420,417,418,419,420,417,418,419,420,417,418,419,420,417,418,419,420,417,418,419,420,417,418,419,420,417,418,419,420,417,418,419,420,417,418,419,420,417,418,419,420,417,418,419,420,417,418,419,420,417,418,419,420,
425,426,427,428,425,426,427,428,425,426,427,428,425,426,427,428,425,426,427,428,425,426,427,428,425,426,427,428,425,426,427,428,425,426,427,428,425,426,427,428,425,426,427,428,425,426,427,428,425,426,427,428,425,426,427,428,425,426,427,428,
433,434,435,436,433,434,435,436,433,434,435,436,433,434,435,436,433,434,435,436,433,434,435,436,433,434,435,436,433,434,435,436,433,434,435,436,433,434,435,436,433,434,435,436,433,434,435,436,433,434,435,436,433,434,435,436,433,434,435,436,
489,490,491,489,490,491,489,490,491,489,490,491,489,490,491,489,490,491,489,490,491,489,490,491,489,490,491,489,490,491,489,490,491,489,490,491,489,490,491,489,490,491,489,490,491,489,490,491,489,490,491,489,490,491,489,490,491,489,490,491,
497,498,499,497,498,499,497,498,499,497,498,499,497,498,499,497,498,499,497,498,499,497,498,499,497,498,499,497,498,499,497,498,499,497,498,499,497,498,499,497,498,499,497,498,499,497,498,499,497,498,499,497,498,499,497,498,499,497,498,499,
505,506,507,505,506,507,505,506,507,505,506,507,505,506,507,505,506,507,505,506,507,505,506,507,505,506,507,505,506,507,505,506,507,505,506,507,505,506,507,505,506,507,505,506,507,505,506,507,505,506,507,505,506,507,505,506,507,505,506,507,
0,485,0,0,485,0,4023,4023,0,0,4023,4023,4023,4023,4023,0,0,0,4580,4581,4582,0,0,0,0,0,0,0,0,0,0,0,0,0,0,0,0,0,0,0,0,0,0,0,0,0,0,0,0,0,0,0,0,0,0,485,0,0,485,0,
492,493,494,492,493,494,0,4023,4023,4023,4023,4023,4023,4023,4023,4023,0,0,4588,4589,4590,0,0,0,0,0,0,0,0,0,0,0,0,0,0,0,0,0,0,0,0,0,0,0,0,0,0,0,0,0,0,0,0,0,492,493,494,492,493,494,
500,501,502,500,501,502,4023,4023,4023,4023,4023,4023,4023,4023,4023,4023,4023,4023,4596,4597,4598,0,0,0,0,0,0,0,0,0,0,0,0,0,0,0,0,0,0,0,0,0,0,0,0,0,0,0,0,0,0,0,0,0,500,501,502,500,501,502,
508,509,510,508,509,510,4023,4023,4023,4023,4023,4023,4023,4023,4023,4023,4023,0,4604,4605,4606,0,0,0,0,0,0,0,0,0,0,0,0,0,0,0,0,0,0,0,0,0,0,0,0,0,0,0,0,0,0,0,0,0,508,509,510,508,509,510,
0,485,0,0,485,4023,4023,4023,4023,4023,4023,4023,4023,4023,4023,4023,4023,0,4612,4613,4614,0,0,0,0,0,0,0,0,0,0,0,0,0,0,0,0,0,0,0,0,0,0,0,0,0,0,0,0,0,0,0,0,0,0,485,0,0,485,0,
492,493,494,492,493,494,4023,4023,4023,4023,4023,4023,4023,4023,4023,4023,4023,0,4620,4621,4622,0,0,0,0,0,0,0,0,0,0,0,0,0,0,0,0,0,0,0,0,0,0,0,0,0,0,0,0,0,0,0,0,0,492,493,494,492,493,494,
500,501,502,500,501,502,0,0,0,0,0,0,0,0,0,0,0,0,0,0,0,0,0,0,0,0,0,0,0,0,0,0,0,0,0,0,0,0,0,0,0,0,0,0,0,0,0,0,0,0,0,0,0,0,500,501,502,500,501,502,
508,509,510,508,509,510,0,0,4170,4171,4171,4171,4171,4171,4171,4171,4171,4171,4171,4171,4171,4171,4171,4171,4171,4171,4171,4171,4171,4171,4171,4171,4171,4171,4171,4171,0,0,0,0,0,4171,4171,4171,4171,4171,4171,4171,4171,4171,4172,0,0,0,508,509,510,508,509,510,
0,485,0,0,485,0,0,0,4178,0,0,0,0,0,0,0,0,0,0,0,0,0,0,0,0,0,0,0,0,0,0,0,4179,4179,4179,4179,4179,4179,4179,4179,4179,4179,4179,4179,4179,4179,4179,4179,4179,4179,4180,0,0,0,0,485,0,0,485,0,
492,493,494,492,493,494,0,0,4178,0,0,0,0,0,0,0,0,0,0,0,0,0,0,0,0,4580,4581,4582,0,0,0,0,4187,4187,4187,4187,4187,4187,4187,4187,4187,4187,4187,4187,4187,4187,4187,4187,4175,4179,4180,0,0,0,492,493,494,492,493,494,
500,501,502,500,501,502,0,0,4178,0,0,0,0,0,0,0,0,0,0,0,0,0,0,0,0,4588,4589,4590,0,0,0,0,4492,4492,4492,4492,4492,4492,4492,4492,4492,4492,4492,4492,4492,0,0,0,4178,4179,4180,0,0,0,500,501,502,500,501,502,
508,509,510,508,509,510,0,0,4178,0,0,0,0,0,0,0,0,0,0,0,0,0,0,0,4492,4596,4597,4598,0,0,0,4492,4492,0,0,0,0,0,0,0,0,0,0,0,4492,4492,0,0,4178,4179,4180,0,0,0,508,509,510,508,509,510,
0,485,0,0,485,0,0,0,4178,0,0,0,0,0,0,0,0,0,0,0,0,0,0,0,4492,4604,4605,4606,4492,4492,4492,4492,0,0,0,0,0,0,0,0,0,0,0,0,0,0,4492,0,4178,4179,4180,0,0,0,0,485,0,0,485,0,
492,493,494,492,493,494,0,0,4178,0,0,0,0,0,0,0,0,0,0,0,0,0,0,0,4492,4612,4613,4614,0,0,0,0,0,0,0,0,0,0,0,0,0,0,0,0,0,0,0,4492,4178,4179,4180,0,0,0,492,493,494,492,493,494,
500,501,502,500,501,502,0,0,4178,0,0,0,0,0,0,0,0,0,0,0,0,0,0,0,0,4620,4621,4622,0,0,0,0,0,0,0,0,0,0,0,0,0,0,0,0,0,0,4492,4492,4178,4179,4180,0,0,0,500,501,502,500,501,502,
508,509,510,508,509,510,0,0,4178,0,0,0,0,0,0,0,0,0,0,0,5222,5223,5223,5224,0,0,0,0,0,0,0,0,0,0,0,0,0,0,0,0,0,0,0,0,0,0,4492,0,4178,4179,4180,0,0,0,508,509,510,508,509,510,
0,0,0,0,0,0,0,0,4178,4179,0,0,0,0,0,0,0,0,0,0,5230,5231,5231,5232,0,0,0,0,0,0,0,0,0,0,0,0,0,0,0,0,0,0,0,4492,4492,4492,0,0,4178,4179,4180,0,0,0,0,485,0,0,485,0,
0,0,0,0,0,0,0,0,175,157,4187,0,0,0,0,0,0,0,0,0,5230,5231,5231,5232,0,0,0,0,0,0,0,0,0,0,0,0,0,0,0,0,0,0,0,4492,0,0,0,0,4178,4179,4180,0,0,0,492,493,494,492,493,494,
0,0,0,0,0,0,0,0,0,0,0,0,0,0,0,0,0,0,0,0,5238,5239,5239,5240,0,0,0,0,0,0,0,0,0,0,0,0,0,0,0,0,0,0,0,4492,0,0,0,0,4178,4179,4180,0,0,0,500,501,502,500,501,502,
0,0,0,0,0,0,0,0,0,0,0,0,0,0,0,0,0,0,0,0,0,0,0,0,0,0,0,0,0,0,0,0,0,0,0,0,0,0,0,0,0,0,0,4492,4170,4171,4171,4171,4191,4179,4180,0,0,0,508,509,510,508,509,510,
0,485,0,0,485,0,0,0,0,0,0,0,0,0,0,0,0,0,0,0,0,0,0,0,0,0,0,0,0,0,0,0,0,0,0,0,0,0,0,0,0,0,0,4492,4178,4179,4179,4179,4179,4179,4180,0,0,0,0,485,0,0,485,0,
492,493,494,492,493,494,0,0,0,0,0,0,0,0,0,0,0,0,0,0,0,0,0,0,0,0,0,0,0,0,0,0,0,0,0,0,0,0,0,0,0,0,0,4492,4178,4179,4173,4187,4187,4187,4188,4019,0,0,492,493,494,492,493,494,
500,501,502,500,501,502,0,0,4023,4023,4023,4023,4023,0,0,0,0,0,0,0,0,0,0,0,0,0,0,0,0,0,0,0,0,0,0,0,0,0,0,0,0,0,0,4492,4178,4179,4180,0,0,0,0,0,0,0,500,501,502,500,501,502,
508,509,510,508,509,510,0,0,4023,4023,0,4023,4023,4023,0,0,0,0,0,0,0,0,0,0,0,0,0,0,0,0,0,0,0,0,0,0,0,0,0,0,0,0,0,4492,4178,4179,4180,0,4580,4581,4582,0,0,0,508,509,510,508,509,510,
0,485,0,0,485,0,0,4023,0,4023,4023,4023,4023,4023,0,0,0,0,0,0,0,0,0,0,0,0,0,0,0,0,0,0,0,0,0,0,0,0,0,0,0,0,0,4492,4178,4179,4180,0,4588,4589,4590,0,0,0,0,485,0,0,485,0,
492,493,494,492,493,494,0,4023,4023,4023,4023,4023,4023,4023,0,0,0,0,0,0,0,0,0,0,0,0,0,0,0,0,0,0,0,0,0,0,0,0,0,0,0,0,0,4492,4178,4179,4180,0,4596,4597,4598,0,0,0,492,493,494,492,493,494,
500,501,502,500,501,502,0,4023,4023,0,4023,4023,4023,0,0,0,0,0,0,0,0,0,0,0,0,0,0,0,0,0,0,0,0,0,0,0,0,0,0,0,0,0,0,4492,4178,4179,4180,0,4604,4605,4606,0,0,0,500,501,502,500,501,502,
508,509,510,508,509,510,0,4023,4023,4023,4023,4023,4023,0,0,0,0,0,0,0,0,0,0,0,0,0,0,0,0,0,0,0,0,0,0,0,0,0,0,0,0,0,0,4492,4178,4179,4180,0,4612,4613,4614,0,0,0,508,509,510,508,509,510,
0,485,0,0,485,0,0,4023,4023,4023,4023,4023,0,0,0,0,0,0,0,0,0,0,0,0,0,0,0,0,0,0,0,0,0,0,0,0,0,0,0,0,0,0,0,4492,4178,4179,4180,0,4620,4621,4622,0,0,0,0,485,0,0,485,0,
492,493,494,492,493,494,0,0,4023,0,0,0,0,0,0,0,0,0,0,0,0,0,0,0,0,0,0,0,0,0,0,0,0,0,0,0,0,0,0,0,0,0,0,4492,0,0,0,0,0,0,0,0,0,0,492,493,494,492,493,494,
500,501,502,500,501,502,0,0,0,0,0,0,0,0,0,0,0,0,0,0,0,0,0,0,0,0,0,0,0,0,0,0,0,0,0,0,0,0,0,0,0,0,0,4492,0,0,0,0,0,0,0,0,0,0,500,501,502,500,501,502,
508,509,510,508,509,510,0,0,0,0,0,0,0,0,0,0,0,0,0,0,0,0,0,0,0,0,0,0,0,0,0,0,0,0,0,0,0,0,0,0,0,0,0,4492,0,0,0,0,0,0,0,0,0,0,508,509,510,508,509,510,
0,485,0,0,485,0,0,0,0,0,0,0,0,0,0,0,0,0,0,0,0,0,0,0,0,0,0,0,0,0,0,0,0,0,0,0,0,0,0,0,0,0,0,4492,0,0,0,0,0,0,0,0,0,0,0,485,0,0,485,0,
492,493,494,492,493,494,0,0,0,0,0,0,0,0,0,0,0,0,0,0,0,0,0,0,0,0,0,0,0,0,0,0,0,0,0,0,0,0,0,0,0,0,0,4492,0,0,0,0,0,0,0,0,0,0,492,493,494,492,493,494,
500,501,502,500,501,502,0,0,0,0,0,0,0,0,0,0,0,0,0,0,0,0,0,0,0,0,0,0,0,0,0,0,0,0,0,0,0,0,0,0,0,0,564,565,566,0,0,0,0,0,0,0,0,0,500,501,502,500,501,502,
508,509,510,508,509,510,0,0,0,0,0,0,0,0,0,0,0,0,0,0,0,0,0,0,0,0,0,0,0,0,0,0,0,0,0,0,0,0,0,0,0,0,572,573,574,4178,4180,0,0,0,0,0,0,0,508,509,510,508,509,510,
0,0,0,0,0,0,0,0,0,0,0,0,0,0,0,0,0,0,0,0,0,0,0,0,0,0,0,0,0,0,0,0,0,0,0,0,0,0,0,0,0,0,580,581,582,4178,4189,4171,0,0,0,0,0,0,0,0,0,0,0,0,
0,0,0,0,0,0,0,0,0,0,0,0,0,0,0,0,0,0,0,0,0,0,0,0,0,0,0,0,0,0,0,0,0,0,0,0,0,0,0,0,0,0,588,589,590,4178,4179,4179,0,0,0,0,0,0,0,0,0,0,0,0,
0,0,0,0,0,0,0,0,0,0,0,0,0,0,0,0,0,0,0,0,0,0,0,0,0,0,0,0,0,0,0,0,0,0,0,0,0,0,0,0,0,0,596,597,598,4186,4187,4187,0,0,0,0,0,0,0,0,0,0,0,0,
0,0,0,0,0,0,0,0,0,0,0,0,0,0,0,0,0,0,0,0,0,0,0,0,0,0,0,0,0,0,0,0,0,0,0,0,0,0,0,0,0,0,604,605,606,0,0,0,0,0,0,0,0,0,0,0,0,0,0,0,
0,485,0,0,485,0,0,0,0,0,0,0,0,0,0,0,0,0,0,0,0,0,0,0,0,0,0,0,0,0,0,0,0,0,0,0,0,0,0,0,0,0,0,0,0,0,0,0,0,0,0,0,0,0,0,0,0,0,0,0,
492,493,494,492,493,494,0,0,0,0,0,0,0,0,0,0,0,0,0,0,0,0,0,0,0,0,0,0,0,0,0,0,0,0,0,0,0,0,0,0,0,0,0,0,0,0,0,0,0,0,0,0,0,0,0,0,0,0,0,0,
500,501,502,500,501,502,0,0,0,0,0,0,0,0,0,0,0,0,0,0,0,0,0,0,0,0,0,0,0,0,0,0,0,0,0,0,0,0,0,0,0,0,0,0,0,0,0,0,0,0,0,0,0,0,0,0,0,0,0,0,
508,509,510,508,509,510,0,0,0,0,0,0,0,0,0,0,0,0,0,0,0,0,0,0,0,0,0,0,0,0,0,0,0,0,0,0,0,0,0,0,0,0,0,0,0,0,0,0,0,0,0,0,0,0,0,0,0,0,0,0
</data>
 </layer>
 <layer id="4" name="sopra_testa" width="60" height="50">
  <data encoding="csv">
0,0,0,0,0,0,0,0,0,0,0,0,0,0,0,0,0,0,0,0,0,0,0,0,0,0,0,0,0,0,0,0,0,0,0,0,0,0,0,0,0,0,0,0,0,0,0,0,0,0,0,0,0,0,0,0,0,0,0,0,
0,0,0,0,0,0,0,0,0,0,0,0,0,0,0,0,0,0,0,0,0,0,0,0,0,0,0,0,0,0,0,0,0,0,0,0,0,0,0,0,0,0,0,0,0,0,0,0,0,0,0,0,0,0,0,0,0,0,0,0,
0,485,0,0,485,0,0,485,0,0,485,0,0,485,0,0,485,0,0,485,0,0,485,0,0,485,0,0,485,0,0,485,0,0,485,0,0,485,0,0,485,0,0,485,0,0,485,0,0,485,0,0,485,0,0,485,0,0,485,0,
492,493,494,492,493,494,492,493,494,492,493,494,492,493,494,492,493,494,492,493,494,492,493,494,492,493,494,492,493,494,492,493,494,492,493,494,492,493,494,492,493,494,492,493,494,492,493,494,492,493,494,492,493,494,492,493,494,492,493,494,
500,501,502,500,501,502,500,501,502,500,501,502,500,501,502,500,501,502,500,501,502,500,501,502,500,501,502,500,501,502,500,501,502,500,501,502,500,501,502,500,501,502,500,501,502,500,501,502,500,501,502,500,501,502,500,501,502,500,501,502,
508,509,510,508,509,510,508,509,510,508,509,510,508,509,510,508,509,510,508,509,510,508,509,510,508,509,510,508,509,510,508,509,510,508,509,510,508,509,510,508,509,510,508,509,510,508,509,510,508,509,510,508,509,510,508,509,510,508,509,510,
0,0,0,0,0,0,0,0,0,0,0,0,0,0,0,0,0,0,0,0,0,0,0,0,0,0,0,0,0,0,0,0,0,0,0,0,0,0,0,0,0,0,0,0,0,0,0,0,0,0,0,0,0,0,0,0,0,0,0,0,
0,0,0,0,0,0,0,0,0,0,0,0,0,0,0,0,0,0,0,0,0,0,0,0,0,0,0,0,0,0,0,0,0,0,0,0,0,0,0,0,0,0,0,0,0,0,0,0,0,0,0,0,0,0,0,0,0,0,0,0,
0,0,0,0,0,0,0,0,0,0,0,0,0,0,0,0,0,0,0,0,0,0,0,0,0,0,0,0,0,0,0,0,0,0,0,0,0,0,0,0,0,0,0,0,0,0,0,0,0,0,0,0,0,0,0,0,0,0,0,0,
0,0,0,0,0,0,0,0,0,0,0,0,0,0,0,0,0,0,0,0,0,0,0,0,0,0,0,0,0,0,0,0,0,0,0,0,0,0,0,0,0,0,0,0,0,0,0,0,0,0,0,0,0,0,0,0,0,0,0,0,
0,0,0,0,0,0,0,0,0,0,0,0,0,0,0,0,0,0,0,0,0,0,0,0,0,0,0,0,0,0,0,0,0,0,0,0,0,0,0,0,0,0,0,0,0,0,0,0,0,0,0,0,0,0,0,0,0,0,0,0,
0,0,0,0,0,0,0,0,0,0,0,0,0,0,0,0,0,0,0,0,0,0,0,0,0,0,0,0,0,0,0,0,0,0,0,0,0,0,0,0,0,0,0,0,0,0,0,0,0,0,0,0,0,0,0,0,0,0,0,0,
0,0,0,0,0,0,0,0,0,0,0,0,0,0,0,0,0,0,0,0,0,0,0,0,0,0,0,0,0,0,0,0,0,0,0,0,0,0,0,0,0,0,0,0,0,0,0,0,0,0,0,0,0,0,0,0,0,0,0,0,
0,0,0,0,0,0,0,0,0,0,0,0,0,0,0,0,0,0,0,0,0,0,0,0,0,0,0,0,0,0,0,0,0,0,0,0,0,0,0,0,0,0,0,0,0,0,0,0,0,0,0,0,0,0,0,0,0,0,0,0,
0,0,0,0,0,0,0,0,0,0,0,0,0,0,0,0,0,0,0,0,0,0,0,0,0,0,0,0,0,0,0,0,0,0,0,0,0,0,0,0,0,0,0,0,0,0,0,0,0,0,0,0,0,0,0,0,0,0,0,0,
0,0,0,0,0,0,0,0,0,0,0,0,0,0,0,0,0,0,0,0,0,0,0,0,0,0,0,0,0,0,0,0,0,0,0,0,0,0,0,0,0,0,0,0,0,0,0,0,0,0,0,0,0,0,0,0,0,0,0,0,
0,0,0,0,0,0,0,0,0,0,0,0,0,0,0,0,0,0,0,0,0,0,0,0,0,0,0,0,0,0,0,0,0,0,0,0,0,0,0,0,0,0,0,0,0,0,0,0,0,0,0,0,0,0,0,0,0,0,0,0,
0,0,0,0,0,0,0,0,0,0,0,0,0,0,0,0,0,0,0,0,0,0,0,0,0,0,0,0,0,0,0,0,0,0,0,0,0,0,0,0,0,0,0,0,0,0,0,0,0,0,0,0,0,0,0,0,0,0,0,0,
0,0,0,0,0,0,0,0,0,0,0,0,0,0,0,0,0,0,0,0,0,0,0,0,0,0,0,0,0,0,0,0,0,0,0,0,0,0,0,0,0,0,0,0,0,0,0,0,0,0,0,0,0,0,0,0,0,0,0,0,
0,0,0,0,0,0,0,0,0,0,0,0,0,0,0,0,0,0,0,0,0,0,0,0,0,0,0,0,0,0,0,0,0,0,0,0,0,0,0,0,0,0,0,0,0,0,0,0,0,0,0,0,0,0,0,0,0,0,0,0,
0,0,0,0,0,0,0,0,0,0,0,0,0,0,0,0,0,0,0,0,0,0,0,0,0,0,0,0,0,0,0,0,0,0,0,0,0,0,0,0,0,0,0,0,0,0,0,0,0,0,0,0,0,0,0,0,0,0,0,0,
0,0,0,0,0,0,0,0,0,0,0,0,0,0,0,0,0,0,0,0,0,0,0,0,0,0,0,0,0,0,0,0,0,0,0,0,0,0,0,0,0,0,0,0,0,0,0,0,0,0,0,0,0,0,0,0,0,0,0,0,
0,0,0,0,0,0,0,0,0,0,0,0,0,0,0,0,0,0,0,0,0,0,0,0,0,0,0,0,0,0,0,0,0,0,0,0,0,0,0,0,0,0,0,0,0,0,0,0,0,0,0,0,0,0,0,0,0,0,0,0,
0,0,0,0,0,0,0,0,0,0,0,0,0,0,0,0,0,0,0,0,0,0,0,0,0,0,0,0,0,0,0,0,0,0,0,0,0,0,0,0,0,0,0,0,0,0,0,0,0,0,0,0,0,0,0,0,0,0,0,0,
0,0,0,0,0,0,0,0,0,0,0,0,0,0,0,0,0,0,0,0,0,0,0,0,0,0,0,0,0,0,0,0,0,0,0,0,0,0,0,0,0,0,0,0,0,0,0,0,0,0,0,0,0,0,0,0,0,0,0,0,
0,0,0,0,0,0,0,0,0,0,0,0,0,0,0,0,0,0,0,0,0,0,0,0,0,0,0,0,0,0,0,0,0,0,0,0,0,0,0,0,0,0,0,0,0,0,0,0,0,0,0,0,0,0,0,0,0,0,0,0,
0,0,0,0,0,0,0,0,0,0,0,0,0,0,0,0,0,0,0,0,0,0,0,0,0,0,0,0,0,0,0,0,0,0,0,0,0,0,0,0,0,0,0,0,0,0,0,0,0,0,0,0,0,0,0,0,0,0,0,0,
0,0,0,0,0,0,0,0,0,0,0,0,0,0,0,0,0,0,0,0,0,0,0,0,0,0,0,0,0,0,0,0,0,0,0,0,0,0,0,0,0,0,0,0,0,0,0,0,0,0,0,0,0,0,0,0,0,0,0,0,
0,0,0,0,0,0,0,0,0,0,0,0,0,0,0,0,0,0,0,0,0,0,0,0,0,0,0,0,0,0,0,0,0,0,0,0,0,0,0,0,0,0,0,0,0,0,0,0,0,0,0,0,0,0,0,0,0,0,0,0,
0,0,0,0,0,0,0,0,0,0,0,0,0,0,0,0,0,0,0,0,0,0,0,0,0,0,0,0,0,0,0,0,0,0,0,0,0,0,0,0,0,0,0,0,0,0,0,0,0,0,0,0,0,0,0,0,0,0,0,0,
0,0,0,0,0,0,0,0,0,0,0,0,0,0,0,0,0,0,0,0,0,0,0,0,0,0,0,0,0,0,0,0,0,0,0,0,0,0,0,0,0,0,0,0,0,0,0,0,0,0,0,0,0,0,0,0,0,0,0,0,
0,0,0,0,0,0,0,0,0,0,0,0,0,0,0,0,0,0,0,0,0,0,0,0,0,0,0,0,0,0,0,0,0,0,0,0,0,0,0,0,0,0,0,0,0,0,0,0,0,0,0,0,0,0,0,0,0,0,0,0,
0,0,0,0,0,0,0,0,0,0,0,0,0,0,0,0,0,0,0,0,0,0,0,0,0,0,0,0,0,0,0,0,0,0,0,0,0,0,0,0,0,0,0,0,0,0,0,0,0,0,0,0,0,0,0,0,0,0,0,0,
0,0,0,0,0,0,0,0,0,0,0,0,0,0,0,0,0,0,0,0,0,0,0,0,0,0,0,0,0,0,0,0,0,0,0,0,0,0,0,0,0,0,0,0,0,0,0,0,0,0,0,0,0,0,0,0,0,0,0,0,
0,0,0,0,0,0,0,0,0,0,0,0,0,0,0,0,0,0,0,0,0,0,0,0,0,0,0,0,0,0,0,0,0,0,0,0,0,0,0,0,0,0,0,0,0,0,0,0,0,0,0,0,0,0,0,0,0,0,0,0,
0,0,0,0,0,0,0,0,0,0,0,0,0,0,0,0,0,0,0,0,0,0,0,0,0,0,0,0,0,0,0,0,0,0,0,0,0,0,0,0,0,0,0,0,0,0,0,0,0,0,0,0,0,0,0,0,0,0,0,0,
0,0,0,0,0,0,0,0,0,0,0,0,0,0,0,0,0,0,0,0,0,0,0,0,0,0,0,0,0,0,0,0,0,0,0,0,0,0,0,0,0,0,0,0,0,0,0,0,0,0,0,0,0,0,0,0,0,0,0,0,
0,0,0,0,0,0,0,0,0,0,0,0,0,0,0,0,0,0,0,0,0,0,0,0,0,0,0,0,0,0,0,0,0,0,0,0,0,0,0,0,0,0,0,0,0,0,0,0,0,0,0,0,0,0,0,0,0,0,0,0,
0,0,0,0,0,0,0,0,0,0,0,0,0,0,0,0,0,0,0,0,0,0,0,0,0,0,0,0,0,0,0,0,0,0,0,0,0,0,0,0,0,0,0,0,0,0,0,0,0,0,0,0,0,0,0,0,0,0,0,0,
0,0,0,0,0,0,0,0,0,0,0,0,0,0,0,0,0,0,0,0,0,0,0,0,0,0,0,0,0,0,0,0,0,0,0,0,0,0,0,0,0,0,0,0,0,0,0,0,0,0,0,0,0,0,0,0,0,0,0,0,
0,0,0,0,0,0,0,0,0,0,0,0,0,0,0,0,0,0,0,0,0,0,0,0,0,0,0,0,0,0,0,0,0,0,0,0,0,0,0,0,0,0,0,0,0,0,0,0,0,0,0,0,0,0,0,0,0,0,0,0,
2910,0,0,0,0,0,0,0,0,0,0,0,0,0,0,0,0,0,0,0,0,0,0,0,0,0,0,0,0,0,0,0,0,0,0,0,0,0,0,0,0,0,0,0,0,0,0,0,0,0,0,0,0,0,0,0,0,0,0,0,
2918,2919,0,0,0,0,0,0,0,0,0,0,0,0,0,0,0,0,0,0,0,0,0,0,0,0,0,0,0,0,0,0,0,0,0,0,0,0,0,0,0,0,0,0,0,0,0,0,0,0,0,0,0,0,0,0,0,0,0,0,
2926,2927,0,0,0,0,0,0,0,0,0,0,0,0,0,0,0,0,0,0,0,0,0,0,0,0,0,0,0,0,0,0,0,0,0,0,0,0,0,0,0,0,0,0,0,0,0,0,0,0,0,0,0,0,0,0,0,0,0,0,
2934,2935,0,0,0,0,0,0,0,0,0,0,0,0,0,0,0,0,0,0,0,0,0,0,0,0,0,0,0,0,0,0,0,0,0,0,0,0,0,0,0,0,0,0,0,0,0,0,0,0,0,0,0,0,0,0,0,0,0,0,
2942,2943,0,0,466,0,0,466,0,0,466,0,0,466,0,0,466,0,0,466,0,0,466,0,0,466,0,0,466,0,0,466,0,0,466,0,0,466,0,0,466,0,0,466,0,0,466,0,0,466,0,0,466,0,0,466,0,0,466,0,
473,474,475,473,474,475,473,474,475,473,474,475,473,474,475,473,474,475,473,474,475,473,474,475,473,474,475,473,474,475,473,474,475,473,474,475,473,474,475,473,474,475,473,474,475,473,474,475,473,474,475,473,474,475,473,474,475,473,474,475,
481,482,483,481,482,483,481,482,483,481,482,483,481,482,483,481,482,483,481,482,483,481,482,483,481,482,483,481,482,483,481,482,483,481,482,483,481,482,483,481,482,483,481,482,483,481,482,483,481,482,483,481,482,483,481,482,483,481,482,483,
489,490,491,489,490,491,489,490,491,489,490,491,489,490,491,489,490,491,489,490,491,489,490,491,489,490,491,489,490,491,489,490,491,489,490,491,489,490,491,489,490,491,489,490,491,489,490,491,489,490,491,489,490,491,489,490,491,489,490,491,
497,498,499,497,498,499,497,498,499,497,498,499,497,498,499,497,498,499,497,498,499,497,498,499,497,498,499,497,498,499,497,498,499,497,498,499,497,498,499,497,498,499,497,498,499,497,498,499,497,498,499,497,498,499,497,498,499,497,498,499
</data>
 </layer>
 <objectgroup id="20" name="collisioni">
  <object id="54" x="-3" y="856.333" width="176" height="481.667"/>
  <object id="55" x="1910" y="515" height="300"/>
  <object id="57" x="1907" y="23" width="6" height="318"/>
  <object id="58" x="-6" y="8" width="1916" height="160"/>
  <object id="69" x="1390" y="518" width="18" height="8"/>
  <object id="70" x="1381" y="789" width="18" height="8"/>
  <object id="79" x="1672" y="142" width="18" height="8"/>
  <object id="82" x="1553.33" y="955.833" width="56" height="151"/>
  <object id="83" x="1741.33" y="99.8333" width="176" height="1099"/>
  <object id="84" x="1366.67" y="1309.83" width="56" height="151"/>
  <object id="85" x="816" y="512.5" width="56" height="151"/>
  <object id="86" x="597.333" y="225.833" width="56" height="151"/>
  <object id="87" x="764" y="563.167" width="56" height="57.6667"/>
  <object id="88" x="906.667" y="583.167" width="112" height="21.6667"/>
  <object id="89" x="1030.67" y="515.833" width="112" height="21.6667"/>
  <object id="90" x="1148" y="515.833" width="112" height="21.6667"/>
  <object id="91" x="1262.67" y="518.5" width="112" height="21.6667"/>
  <object id="92" x="1390.67" y="707.833" width="72" height="21.6667"/>
  <object id="93" x="1004" y="542.5" width="41.3333" height="21.6667"/>
  <object id="94" x="1382.67" y="742.5" width="17.3333" height="531"/>
  <object id="96" x="1416.33" y="556" width="18" height="8"/>
  <object id="97" x="1452.33" y="554.667" width="18" height="8"/>
  <object id="98" x="1477.67" y="586.667" width="18" height="8"/>
  <object id="99" x="1512.33" y="618.667" width="18" height="8"/>
  <object id="100" x="1515" y="648" width="18" height="8"/>
  <object id="101" x="1479" y="649.333" width="18" height="8"/>
  <object id="102" x="1477.67" y="689.333" width="18" height="8"/>
  <object id="103" x="1416.33" y="522.667" width="18" height="8"/>
  <object id="104" x="11.3333" y="1481.33" width="1901.33" height="106.667"/>
  <object id="105" x="5.33333" y="1325.33" width="25.3333" height="133.333"/>
  <object id="106" x="29.3333" y="1336" width="12" height="54.6667"/>
  <object id="107" x="8" y="211.166" width="176" height="481.667"/>
  <object id="108" x="4" y="705.333" width="205.333" height="16"/>
  <object id="111" x="1.33333" y="840" width="221.333" height="18.6667"/>
 </objectgroup>
 <objectgroup color="#ff0000" id="6" name="eventi">
  <object id="4" name="trainer" type="trainer" x="1631.42" y="1436.92" width="32" height="32">
   <properties>
    <property name="direzione" value="nord"/>
    <property name="id" value="all-p7-extra-1"/>
    <property name="sprite" value="YOUNGSTER"/>
    <property name="type" value="trainer"/>
    <property name="vista" type="int" value="4"/>
   </properties>
  </object>
  <object id="5" name="trainer" type="trainer" x="1261.56" y="806.325" width="26.5335" height="24.9716">
   <properties>
    <property name="direzione" value="ovest"/>
    <property name="id" value="all-p7-extra-2"/>
    <property name="sprite" value="LASS"/>
    <property name="type" value="trainer"/>
    <property name="vista" type="int" value="8"/>
   </properties>
  </object>
  <object id="8" name="trainer" type="trainer" x="1244.86" y="679.521" width="32" height="32">
   <properties>
    <property name="dialogo" value="Vuoi fottermi la bici?"/>
    <property name="direzione" value="est"/>
    <property name="id" value="all-p7-1"/>
    <property name="sprite" value="YOUNGSTER"/>
    <property name="type" value="trainer"/>
    <property name="vista" type="int" value="4"/>
   </properties>
  </object>
  <object id="9" name="trainer" type="trainer" x="817.99" y="1429.09" width="32" height="32">
   <properties>
    <property name="direzione" value="ovest"/>
    <property name="id" value="all-p7-2"/>
    <property name="sprite" value="LASS"/>
    <property name="type" value="trainer"/>
    <property name="vista" type="int" value="5"/>
   </properties>
  </object>
  <object id="10" name="trainer" type="trainer" x="668" y="244" width="32" height="32">
   <properties>
    <property name="direzione" value="sud"/>
    <property name="direzione_ciclo" value="EO"/>
    <property name="id" value="all-p7-3"/>
    <property name="pattuglia" type="bool" value="true"/>
    <property name="sprite" value="BUGCATCHER"/>
    <property name="type" value="trainer"/>
    <property name="vista" type="int" value="4"/>
   </properties>
  </object>
  <object id="11" name="trainer" type="trainer" x="324" y="378" width="32" height="32">
   <properties>
    <property name="direzione" value="sud"/>
    <property name="id" value="all-p7-4"/>
    <property name="sprite" value="YOUNGSTER"/>
    <property name="type" value="trainer"/>
    <property name="vista" type="int" value="5"/>
   </properties>
  </object>
  <object id="12" name="trainer" type="trainer" x="1031.12" y="480.493" width="32" height="32">
   <properties>
    <property name="direzione" value="est"/>
    <property name="direzione_ciclo" value="EO"/>
    <property name="id" value="all-p7-5"/>
    <property name="pattuglia" type="bool" value="true"/>
    <property name="sprite" value="BIRDKEEPER"/>
    <property name="type" value="trainer"/>
    <property name="vista" type="int" value="5"/>
   </properties>
  </object>
  <object id="13" name="trainer" type="trainer" x="1254" y="1316" width="32" height="32">
   <properties>
    <property name="direzione" value="ovest"/>
    <property name="id" value="all-p7-6"/>
    <property name="sprite" value="LASS"/>
    <property name="type" value="trainer"/>
    <property name="vista" type="int" value="4"/>
   </properties>
  </object>
  <object id="14" name="trainer" type="trainer" x="1410" y="760" width="32" height="32">
   <properties>
    <property name="direzione" value="est"/>
    <property name="id" value="all-p7-7"/>
    <property name="sprite" value="YOUNGSTER"/>
    <property name="type" value="trainer"/>
    <property name="vista" type="int" value="5"/>
   </properties>
  </object>
  <object id="15" name="trainer" type="trainer" x="1669.26" y="228.002" width="32" height="32">
   <properties>
    <property name="direzione" value="ovest"/>
    <property name="direzione_ciclo" value="EO"/>
    <property name="id" value="all-p7-8"/>
    <property name="pattuglia" type="bool" value="true"/>
    <property name="sprite" value="BIRDKEEPER"/>
    <property name="type" value="trainer"/>
    <property name="vista" type="int" value="5"/>
   </properties>
  </object>
  <object id="16" name="npc" type="npc" x="405.333" y="1357.33" width="32" height="32">
   <properties>
    <property name="direzione" value="sud"/>
    <property name="id" value="p3_npc1"/>
    <property name="sprite" value="NPC_65"/>
    <property name="type" value="npc"/>
   </properties>
  </object>
  <object id="17" name="npc" type="npc" x="1408" y="576" width="32" height="32">
   <properties>
    <property name="direzione" value="nord"/>
    <property name="id" value="p3_npc2"/>
    <property name="movimento" value="random"/>
    <property name="raggio" type="int" value="3"/>
    <property name="sprite" value="NPC_66"/>
    <property name="type" value="npc"/>
   </properties>
  </object>
  <object id="18" name="npc" type="npc" x="564.63" y="971.582" width="32" height="32">
   <properties>
    <property name="direzione" value="ovest"/>
    <property name="id" value="p3_npc3"/>
    <property name="sprite" value="NPC_67"/>
    <property name="type" value="npc"/>
   </properties>
  </object>
  <object id="22" name="cartello" type="cartello" x="232" y="1353.34" width="32" height="32">
   <properties>
    <property name="testo" value="← Grottaferrata"/>
    <property name="type" value="cartello"/>
   </properties>
  </object>
  <object id="80" name="spawn_da_percorso 7" type="spawn" x="49.4234" y="1409.07" width="32" height="32">
   <properties>
    <property name="id" value="da_percorso 7"/>
   </properties>
  </object>
  <object id="81" name="warp_Percorso 7" type="warp" x="33.2172" y="1386.01" width="13.3167" height="77.3331" rotation="359.898">
   <properties>
    <property name="destinazione" value="via dei laghi da percorso 7"/>
    <property name="spawn_id" value="da_Percorso 7"/>
   </properties>
  </object>
  <object id="116" name="erba_alta" type="erba_alta" x="386" y="240" width="64" height="96">
   <properties>
    <property name="id" value="incontri percorso 7"/>
    <property name="type" value="erba_alta"/>
   </properties>
  </object>
  <object id="117" name="cartello_verso_albano" type="cartello" x="500" y="800" width="32" height="32">
   <properties>
    <property name="testo" value="Albano Laziale →"/>
    <property name="type" value="cartello"/>
   </properties>
  </object>
 </objectgroup>
</map>
