<?xml version="1.0" encoding="UTF-8"?>
<map version="1.10" tiledversion="1.12.2" orientation="orthogonal" renderorder="right-down" width="25" height="25" tilewidth="32" tileheight="32" infinite="0" nextlayerid="6" nextobjectid="20">
 <editorsettings>
  <export target="Percorso_4.tmj" format="json"/>
 </editorsettings>
 <tileset firstgid="1" source="../Outside_pallet.tsx"/>
 <layer id="1" name="ground" width="25" height="25">
  <data encoding="csv">
3,3,3,3,3,3,3,3,3,3,3,3,3,3,3,3,3,3,3,3,3,3,3,3,3,
3,3,3,3,3,3,3,3,3,3,3,3,3,3,3,3,3,3,3,3,3,3,3,3,3,
3,3,3,3,3,3,3,3,3,3,3,3,3,3,3,3,3,3,3,3,3,3,3,3,3,
3,3,3,3,3,3,3,3,3,3,3,3,3,3,3,3,3,3,3,3,3,3,3,3,3,
3,3,3,3,3,3,3,3,3,3,3,3,3,3,3,3,3,3,3,3,3,3,3,3,3,
3,3,3,3,3,3,3,3,3,3,3,3,3,3,3,3,3,3,3,3,3,3,3,3,3,
3,3,3,3,3,3,3,3,3,3,3,3,3,3,3,3,3,3,3,3,3,3,3,3,3,
3,3,3,3,3,3,3,3,3,3,3,3,3,3,3,3,3,3,3,3,3,3,3,3,3,
3,3,3,3,3,3,3,3,3,3,3,3,3,3,3,3,3,3,3,3,3,3,3,3,3,
3,3,3,3,3,3,3,3,3,3,3,3,3,3,3,3,3,3,3,3,3,3,3,3,3,
3,3,3,3,3,3,3,3,3,3,3,3,3,3,3,3,3,3,3,3,3,3,3,3,3,
3,3,3,3,3,3,3,3,3,3,3,3,3,3,3,3,3,3,3,3,3,3,3,3,3,
3,3,3,3,3,3,3,3,3,3,3,3,3,3,3,3,3,3,3,3,3,3,3,3,3,
3,3,3,3,3,3,3,3,3,3,3,3,3,3,3,3,3,3,3,3,3,3,3,3,3,
3,3,3,3,3,3,3,3,3,3,3,3,3,3,3,3,3,3,3,3,3,3,3,3,3,
3,3,3,3,3,3,3,3,3,3,3,3,3,3,3,3,3,3,3,3,3,3,3,3,3,
3,3,3,3,3,3,3,3,3,3,3,3,3,3,3,3,3,3,3,3,3,3,3,3,3,
3,3,3,3,3,3,3,3,3,3,3,3,3,3,3,3,3,3,3,3,3,3,3,3,3,
3,3,3,3,3,3,3,3,3,3,3,3,3,3,3,3,3,3,3,3,3,3,3,3,3,
3,3,3,3,3,3,3,3,3,3,3,3,3,3,3,3,3,3,3,3,3,3,3,3,3,
3,3,3,3,3,3,3,3,3,3,3,3,3,3,3,3,3,3,3,3,3,3,3,3,3,
3,3,3,3,3,3,3,3,3,3,3,3,3,3,3,3,3,3,3,3,3,3,3,3,3,
3,3,3,3,3,3,3,3,3,3,3,3,3,3,3,3,3,3,3,3,3,3,3,3,3,
3,3,3,3,3,3,3,3,3,3,3,3,3,3,3,3,3,3,3,3,3,3,3,3,3,
3,3,3,3,3,3,3,3,3,3,3,3,3,3,3,3,3,3,3,3,3,3,3,3,3
</data>
 </layer>
 <layer id="2" name="deco_sotto" width="25" height="25">
  <data encoding="csv">
0,0,0,0,0,0,0,0,0,0,0,0,0,0,0,0,0,0,0,0,0,0,0,0,0,
0,0,0,0,0,0,0,0,0,0,0,0,0,0,0,0,0,0,0,0,0,0,0,0,0,
0,0,0,0,0,0,0,0,0,0,0,0,0,0,0,0,0,0,0,0,0,0,0,0,0,
0,0,0,0,0,0,0,0,0,0,0,162,164,0,0,0,0,0,0,0,0,0,0,0,0,
0,0,0,0,0,0,0,0,0,0,0,162,164,955,0,0,0,0,0,0,0,0,0,0,0,
0,0,0,0,0,0,0,0,0,0,0,162,164,0,0,0,0,0,0,0,0,0,0,0,0,
0,0,0,0,0,0,0,0,0,0,0,162,164,0,0,0,0,0,0,0,0,0,0,0,0,
0,0,0,0,0,0,0,0,0,0,0,162,164,0,0,0,0,0,0,0,0,0,0,0,0,
0,0,0,0,0,0,0,0,0,0,0,162,164,0,0,0,0,0,0,0,0,0,0,0,0,
0,0,0,0,0,1063,1064,0,0,0,0,162,164,0,0,0,0,0,1063,1064,0,0,0,0,0,
0,955,0,0,0,1071,1072,0,0,0,0,162,164,0,0,0,0,0,1071,1072,0,0,955,0,0,
155,155,155,155,155,155,155,155,155,155,155,175,173,155,155,155,155,155,155,155,155,155,155,155,155,
163,163,163,163,163,163,163,163,163,163,163,163,163,163,163,163,163,163,163,163,163,163,163,163,163,
171,171,171,171,171,171,171,171,171,171,171,171,171,171,171,171,171,171,171,171,171,171,171,171,171,
0,0,0,0,0,0,0,0,0,0,0,0,0,0,0,0,0,0,0,0,0,0,0,0,0,
0,0,0,0,0,0,0,0,0,0,0,0,0,0,0,0,0,0,0,0,0,0,0,0,0,
0,0,0,0,0,0,0,0,0,0,0,0,0,0,0,0,0,0,0,0,0,0,0,0,0,
0,0,0,0,0,0,0,0,0,0,0,0,0,0,0,0,0,0,0,0,0,0,0,0,0,
0,0,0,0,0,0,0,0,0,0,0,0,0,0,0,0,0,0,0,0,0,0,0,0,0,
0,0,0,0,0,0,0,0,0,0,0,0,0,0,0,0,0,0,0,0,0,0,0,0,0,
0,0,0,0,0,0,0,0,0,0,0,0,0,0,0,0,0,0,0,0,0,0,0,0,0,
0,0,0,0,0,0,0,0,0,0,0,0,0,0,0,0,0,0,0,0,0,0,0,0,0,
0,0,0,0,0,0,0,0,0,0,0,0,0,0,0,0,0,0,0,0,0,0,0,0,0,
0,0,0,0,0,0,0,0,0,0,0,0,0,0,0,0,0,0,0,0,0,0,0,0,0,
0,0,0,0,0,0,0,0,0,0,0,0,0,0,0,0,0,0,0,0,0,0,0,0,0
</data>
 </layer>
 <layer id="3" name="edifici" width="25" height="25">
  <data encoding="csv">
420,417,418,419,420,419,420,417,418,419,445,446,447,417,418,419,420,417,418,419,420,417,418,419,420,
428,425,426,427,428,427,428,425,426,427,453,454,455,425,426,427,428,425,426,427,428,425,426,427,428,
436,433,434,435,436,435,436,433,434,435,461,462,463,433,434,435,436,433,434,435,436,433,434,435,436,
0,0,0,0,0,0,0,0,0,0,0,0,0,0,0,0,0,0,0,0,0,0,0,0,0,
0,0,0,0,0,0,0,0,0,0,0,0,0,0,0,0,0,0,0,0,0,0,0,0,0,
0,0,0,0,0,0,0,0,0,0,0,0,0,0,0,0,0,0,0,0,0,0,0,0,0,
0,0,0,0,0,0,0,0,0,0,0,0,0,0,0,0,0,0,0,0,0,0,0,0,0,
0,0,0,0,0,0,0,0,0,0,0,0,0,0,0,0,0,0,0,0,0,0,0,0,0,
0,0,0,0,0,0,0,0,0,0,0,0,0,0,0,0,0,0,0,0,0,0,0,0,0,
0,0,0,0,0,0,0,0,0,0,0,0,0,0,0,0,0,0,0,0,0,0,0,0,0,
0,0,0,0,0,0,0,0,0,0,0,0,0,0,0,0,0,0,0,0,0,0,0,0,0,
0,0,0,0,0,0,0,0,0,0,0,0,0,0,0,0,0,0,0,0,0,0,0,0,0,
0,0,0,0,0,0,0,0,0,0,0,0,0,0,0,0,0,0,0,0,0,0,0,0,0,
0,0,0,0,0,0,0,0,0,0,0,0,0,0,0,0,0,0,0,0,0,0,0,0,0,
0,0,0,0,0,0,0,0,0,0,0,0,0,0,0,0,0,0,0,0,0,0,0,0,0,
0,0,0,0,0,0,0,0,0,0,0,0,0,0,0,0,0,0,0,0,0,0,0,0,0,
421,422,421,422,421,422,421,422,421,422,421,422,421,422,421,422,421,422,421,422,421,422,421,422,421,
429,430,429,430,429,430,429,430,429,430,429,430,429,430,429,430,429,430,429,430,429,430,429,430,429,
437,438,437,438,437,438,437,438,437,438,437,438,437,438,437,438,437,438,437,438,437,438,437,438,437,
421,422,421,422,421,422,421,422,421,422,421,422,421,422,421,422,421,422,421,422,421,422,421,422,421,
429,430,429,430,429,430,429,430,429,430,429,430,429,430,429,430,429,430,429,430,429,430,429,430,429,
437,438,437,438,437,438,437,438,437,438,437,438,437,438,437,438,437,438,437,438,437,438,437,438,437,
421,422,421,422,421,422,421,422,421,422,421,422,421,422,421,422,421,422,421,422,421,422,421,422,421,
429,430,429,430,429,430,429,430,429,430,429,430,429,430,429,430,429,430,429,430,429,430,429,430,429,
437,438,437,438,437,438,437,438,437,438,437,438,437,438,437,438,437,438,437,438,437,438,437,438,437
</data>
 </layer>
 <objectgroup id="4" name="collisioni">
  <object id="1" x="-2.67618" y="522.748" width="801.07" height="272.525"/>
  <object id="2" x="0.44603" y="-0.44603" width="343.443" height="90.0981"/>
  <object id="3" x="429.973" y="-0.892061" width="365.299" height="87.868"/>
 </objectgroup>
 <objectgroup id="5" name="eventi">
  <object id="6" name="spawn" type="spawn" x="94.563" y="384.816" width="32" height="32" rotation="89.7387">
   <properties>
    <property name="id" value="da_marino"/>
    <property name="type" value="spawn"/>
   </properties>
  </object>
  <object id="8" name="spawn" type="spawn" x="736.895" y="382.811" width="32" height="32" rotation="89.7387">
   <properties>
    <property name="id" value="da_castel gandolfo"/>
    <property name="type" value="spawn"/>
   </properties>
  </object>
  <object id="10" name="spawn" type="spawn" x="387.258" y="80.0155" width="20.7904" height="19.1161" rotation="89.7387">
   <properties>
    <property name="id" value="lago di albano"/>
    <property name="type" value="spawn"/>
   </properties>
  </object>
  <object id="11" name="cartello" type="cartello" x="37.7252" y="325.023" width="20" height="19">
   <properties>
    <property name="testo" value="Marino"/>
    <property name="type" value="cartello"/>
   </properties>
  </object>
  <object id="12" name="cartello" type="cartello" x="421.757" y="134.568" width="20" height="19">
   <properties>
    <property name="testo" value="Lago di Albano"/>
    <property name="type" value="cartello"/>
   </properties>
  </object>
  <object id="13" name="cartello" type="cartello" x="709.001" y="325.915" width="20" height="19">
   <properties>
    <property name="testo" value="Castel Gandolfo"/>
    <property name="type" value="cartello"/>
   </properties>
  </object>
  <object id="14" name="warp" type="warp" x="-3.06512" y="373.164" width="32" height="50.7287">
   <properties>
    <property name="destinazione" value="marino"/>
    <property name="spawn_id" value="da_percorso_4"/>
    <property name="type" value="warp"/>
   </properties>
  </object>
  <object id="17" name="warp" type="warp" x="340.326" y="59.3648" width="32" height="35.5898" rotation="270.176">
   <properties>
    <property name="destinazione" value="lago di albano"/>
    <property name="spawn_id" value="da_percorso_4"/>
    <property name="type" value="warp"/>
   </properties>
  </object>
  <object id="18" name="warp" type="warp" x="766.337" y="371.38" width="32" height="61.4335">
   <properties>
    <property name="destinazione" value="castel gandolfo"/>
    <property name="spawn_id" value="da_percorso_4"/>
    <property name="type" value="warp"/>
   </properties>
  </object>
  <object id="19" name="warp" type="warp" x="379.629" y="59.3683" width="32" height="35.5898" rotation="270.176">
   <properties>
    <property name="destinazione" value="lago di albano"/>
    <property name="spawn_id" value="da_percorso_4"/>
    <property name="type" value="warp"/>
   </properties>
  </object>
 </objectgroup>
</map>
