<?xml version="1.0" encoding="UTF-8"?>
<map version="1.10" tiledversion="1.12.2" orientation="orthogonal" renderorder="right-down" width="15" height="12" tilewidth="32" tileheight="32" infinite="0" nextlayerid="7" nextobjectid="41">
 <tileset firstgid="1" source="../Tiled/Interior general.tsx"/>
 <tileset firstgid="8033" source="../professor Castagno.tsx"/>
 <tileset firstgid="8129" source="../../outside.tsx"/>
 <tileset firstgid="12145" source="../Tiled/Gyms interior.tsx"/>
 <tileset firstgid="13297" source="../outside.tsx"/>
 <layer id="1" name="ground" width="15" height="12">
  <data encoding="csv">
12483,12483,12483,12483,12483,12483,12483,12483,12483,12483,12483,12483,12483,12483,12483,
12483,12483,12483,12483,12483,12483,12483,12483,12483,12483,12483,12483,12483,12483,12483,
12483,12483,12483,12483,12483,12483,12483,12483,12483,12483,12483,12483,12483,12483,12483,
12483,12483,12483,12483,12483,12483,12483,12483,12483,12483,12483,12483,12483,12483,12483,
12483,12483,12483,12483,12483,12483,12483,12483,12483,12483,12483,12483,12483,12483,12483,
12483,12483,12483,12483,12483,12483,12483,12483,12483,12483,12483,12483,12483,12483,12483,
12483,12483,12483,12483,12483,12483,12483,12483,12483,12483,12483,12483,12483,12483,12483,
12483,12483,12483,12483,12483,12483,12483,12483,12483,12483,12483,12483,12483,12483,12483,
12483,12483,12483,12483,12483,12483,12483,12483,12483,12483,12483,12483,12483,12483,12483,
12483,12483,12483,12483,12483,12483,12483,12483,12483,12483,12483,12483,12483,12483,12483,
12483,12483,12483,12483,12483,12483,12483,12483,12483,12483,12483,12483,12483,12483,12483,
12483,12483,12483,12483,12483,12483,12483,12483,12483,12483,12483,12483,12483,12483,12483
</data>
 </layer>
 <layer id="2" name="deco_sotto" width="15" height="12">
  <data encoding="csv">
12457,12458,12459,12459,12459,12460,12459,12459,12459,12460,12459,12459,12459,12460,12463,
12465,12466,12467,12467,12467,12468,12467,12467,12467,12468,12467,12467,12467,12468,12465,
12465,12474,12475,12476,12476,12476,12476,12476,12476,12476,12476,12476,12476,12476,12465,
12465,12482,0,0,0,0,12493,12493,12493,0,0,0,0,0,12465,
12465,12490,13304,13304,0,0,12493,12493,12493,0,0,13304,13304,0,12465,
12465,12482,13312,13312,0,0,0,12493,0,0,0,13312,13312,0,12465,
12465,12482,13304,13304,0,0,12493,12493,12493,0,0,13304,13304,0,12465,
12465,12490,13312,13312,0,0,0,12493,0,12479,12479,13312,13312,0,12465,
12465,12482,13304,13304,12479,0,12493,12493,12493,0,0,13304,13304,0,12465,
12473,12490,13312,13312,0,0,0,12493,0,0,0,13312,13312,0,12473,
12481,12490,13304,13304,0,0,0,12493,0,0,0,13304,13304,0,12481,
12489,12485,12485,12485,12485,12485,12485,12485,12485,12485,12485,12485,12485,12485,12485
</data>
 </layer>
 <layer id="3" name="edifici" width="15" height="12">
  <data encoding="csv">
0,0,0,0,0,0,0,0,0,0,0,0,0,0,0,
0,0,0,0,0,0,12717,12718,12719,0,0,0,0,0,0,
0,12464,0,0,0,12146,12725,12726,12727,12146,0,0,0,12464,0,
0,12472,0,0,0,12154,12733,12734,12735,12154,0,0,0,12472,0,
0,12480,0,0,0,0,0,0,0,0,0,0,0,12480,0,
0,12464,0,0,0,0,0,0,0,0,0,0,0,12464,0,
0,12472,0,0,0,0,0,0,0,0,0,0,0,12472,0,
0,12480,0,0,0,0,0,0,0,0,0,0,0,12480,0,
0,12464,0,0,0,0,0,0,0,0,0,0,0,12464,0,
0,12472,0,0,0,13279,0,0,0,13279,0,0,0,12472,0,
0,12480,0,0,0,13287,0,0,0,13287,0,0,0,12480,0,
0,0,0,0,0,0,0,0,0,0,0,0,0,0,0
</data>
 </layer>
 <layer id="4" name="sopra_testa" width="15" height="12">
  <data encoding="csv">
0,0,0,0,0,0,0,0,0,0,0,0,0,0,0,
0,0,0,0,0,0,0,0,0,0,0,0,0,0,0,
0,0,0,0,0,0,0,0,0,0,0,0,0,0,0,
0,0,0,0,0,0,0,0,0,0,0,0,0,0,0,
0,0,0,0,0,0,0,0,0,0,0,0,0,0,0,
0,0,0,0,0,0,0,0,0,0,0,0,0,0,0,
0,0,0,0,0,0,0,0,0,0,0,0,0,0,0,
0,0,0,0,0,0,0,0,0,0,0,0,0,0,0,
0,0,0,0,0,0,0,0,0,0,0,0,0,0,0,
0,0,0,0,0,0,0,0,0,0,0,0,0,0,0,
0,0,0,0,0,0,0,0,0,0,0,0,0,0,0,
0,0,0,0,0,0,12147,12148,12149,0,0,0,0,0,0
</data>
 </layer>
 <objectgroup id="5" name="collisioni">
  <object id="29" x="-2" y="0" width="129.5" height="383"/>
  <object id="30" x="-2" y="-1" width="480.5" height="65.5"/>
  <object id="31" x="352" y="3" width="127.5" height="381.5"/>
  <object id="33" x="162.5" y="295" width="26" height="55.5"/>
  <object id="35" x="292" y="294.25" width="26" height="55.5"/>
  <object id="36" x="291" y="70.75" width="26" height="55.5"/>
  <object id="37" x="161" y="69.25" width="26" height="55.5"/>
  <object id="38" x="290.5" y="226" width="59.5" height="26.5"/>
  <object id="39" x="133.5" y="260.5" width="20.5" height="20.5"/>
 </objectgroup>
 <objectgroup id="6" name="eventi">
  <object id="20" x="172" y="273">
   <properties>
    <property name="direzione" value="est"/>
    <property name="id" value="gregario 1 palestra frascati"/>
    <property name="type" value="trainer"/>
    <property name="vista" value="12"/>
   </properties>
   <point/>
  </object>
  <object id="21" x="271" y="238">
   <properties>
    <property name="direzione" value="ovest"/>
    <property name="id" value="gregario 2 palestra frascati"/>
    <property name="type" value="trainer"/>
    <property name="vista" value="15"/>
   </properties>
   <point/>
  </object>
  <object id="22" x="143" y="173.5">
   <properties>
    <property name="direzione" value="est"/>
    <property name="id" value="gregario 3 palestra frascati"/>
    <property name="type" value="trainer"/>
    <property name="vista" value="15"/>
   </properties>
   <point/>
  </object>
  <object id="23" x="239.5" y="82">
   <properties>
    <property name="direzione" value="sud"/>
    <property name="id" value="gym_leader_palestra frascati"/>
    <property name="type" value="trainer"/>
   </properties>
   <point/>
  </object>
  <object id="24" name="warp" type="warp" x="207" y="374.42" width="67" height="9">
   <properties>
    <property name="destinazione" value="frascati_centro"/>
    <property name="spawn_id" value="da_palestra_frascati"/>
    <property name="type" value="warp"/>
   </properties>
  </object>
  <object id="28" name="spawn" type="spawn" x="222.658" y="352.08" width="32" height="16.5">
   <properties>
    <property name="id" value="da_frascati centro"/>
    <property name="type" value="spawn"/>
   </properties>
  </object>
 </objectgroup>
</map>
