<?xml version="1.0" encoding="UTF-8"?>
<map version="1.10" tiledversion="1.12.2" orientation="orthogonal" renderorder="right-down" width="79" height="20" tilewidth="32" tileheight="32" infinite="0" nextlayerid="10" nextobjectid="60">
 <editorsettings>
  <export target="pokemon-castelli-Borgata_Tuscolana.tmj" format="json"/>
 </editorsettings>
 <tileset firstgid="1" source="../../outside.tsx"/>
 <tileset firstgid="4017" source="../Tiled/Gyms interior.tsx"/>
 <tileset firstgid="5169" source="../outside.tsx"/>
 <layer id="1" name="ground" width="79" height="20">
  <data encoding="csv">
4,4,4,4,4,4,4,4,5172,5172,5172,5172,5172,5172,5172,5172,5172,5172,5172,5172,5172,5172,5172,5172,5172,5172,5172,5172,5172,5172,5330,163,163,5325,5340,5172,5172,5172,5172,5172,5172,5172,5172,5172,5172,5172,5172,5172,5172,5172,5172,5172,5172,5172,4,4,4,4,4,4,4,4,3,3,3,3,3,3,3,3,3,3,3,3,3,3,3,3,3,
4,4,4,4,4,4,4,4,5172,5172,5172,5172,5172,5172,5172,5172,5172,5172,5172,5172,5172,5172,5172,5172,5172,5172,5172,5172,5172,5172,5330,163,163,5332,5172,5172,5172,5172,5172,5172,5172,5172,5172,5172,5172,5172,5172,5172,5172,5172,5172,5172,5172,5172,4,4,4,4,4,4,4,4,3,3,3,3,3,3,3,3,3,3,3,3,3,3,3,3,3,
4,4,4,4,4,4,4,4,5172,5172,5172,5172,5172,5172,5172,5172,5172,5172,5172,5172,5172,5172,5172,5172,5172,5172,5172,5172,5172,5172,5330,163,163,5332,5172,5172,5172,5172,5172,5172,5172,5172,5172,5172,5172,5172,5172,5172,5172,5172,5172,5172,5172,5172,4,4,4,4,4,4,4,4,3,3,3,3,3,3,3,3,3,3,3,3,3,3,3,3,3,
4,4,4,4,4,4,4,4,5172,5172,5172,5172,5172,5172,5172,5172,5172,5172,5172,2,3,4,2,3,4,2,3,4,2,3,4,2,3,4,2,3,4,4,3,4,2,3,4,3,3,5172,5172,5172,5172,5172,5172,5172,5172,5172,4,4,4,4,4,4,4,4,3,3,3,3,3,3,3,3,3,3,3,3,3,3,3,3,3,
4,4,4,4,4,4,4,4,5172,5172,5172,5172,5172,5172,5172,5172,5172,5172,5172,2,3,4,2,3,2,2,3,4,4,2,3,4,4,2,3,4,2,3,4,4,2,3,4,3,3,5172,5172,5172,5172,5172,5172,5172,5172,5172,4,4,4,4,4,4,4,4,3,3,3,3,3,3,3,3,3,3,3,3,3,3,3,3,3,
4,4,4,4,4,4,4,4,5172,5172,5172,5172,5172,5172,5172,5172,5172,5172,5172,2,3,4,2,2,3,2,2,2,2,2,2,2,2,3,4,4,4,4,4,4,2,3,4,3,3,5172,5172,5172,5172,5172,5172,5172,5172,5172,4,4,4,4,4,4,4,4,3,3,3,3,3,3,3,3,3,3,3,3,3,3,3,3,3,
4,4,4,4,4,4,4,4,5172,5172,5172,5172,5172,5172,5172,5172,5172,5172,5172,2,3,2,3,2,2,2,3,4,2,3,2,2,3,4,4,4,3,4,3,4,2,3,4,3,3,5172,5172,5172,5172,5172,5172,5172,5172,5172,4,4,4,4,4,4,4,4,3,3,3,3,3,3,3,3,3,3,3,3,3,3,3,3,3,
4,4,4,4,4,4,4,4,5172,5172,5172,5172,5172,5172,5172,5172,5172,5172,5172,2,3,2,3,2,2,2,2,2,2,2,2,3,2,3,4,4,3,4,3,4,2,3,4,3,3,5172,5172,5172,5172,5172,5172,5172,5172,5172,4,4,4,4,4,4,4,4,3,3,3,3,3,3,3,3,3,3,3,3,3,3,3,3,3,
4,4,4,4,4,4,4,4,5172,5172,5172,5172,5172,5172,5172,5172,5172,5172,5172,2,3,2,3,2,2,2,2,3,4,2,3,4,2,3,4,2,3,4,3,4,2,3,4,3,3,5172,5172,5172,5172,5172,5172,5172,5172,5172,4,4,4,4,4,4,4,4,3,3,3,3,3,3,3,3,3,3,3,3,3,3,3,3,3,
4,4,4,4,4,4,4,4,5172,5172,5172,5172,5172,5172,5172,5172,5172,5172,5172,2,3,2,2,3,4,4,4,2,2,2,3,2,3,4,4,4,3,4,3,4,2,3,4,3,3,5172,5172,5172,5172,5172,5172,5172,5172,5172,4,4,4,4,4,4,4,4,3,3,3,3,3,3,3,3,3,3,3,3,3,3,3,3,3,
4,4,4,4,4,4,4,4,5172,5172,5172,5172,5172,5172,5172,5172,5172,5172,5172,2,2,3,2,3,2,3,4,3,2,3,2,2,3,4,4,3,4,2,3,4,2,3,4,3,3,5172,5172,5172,5172,5172,5172,5172,5172,5172,4,4,4,4,4,4,4,4,3,3,3,3,3,3,3,3,3,3,3,3,3,3,3,3,3,
4,4,4,4,4,4,4,4,5172,5172,5172,5172,5172,5172,5172,5172,5172,5172,5172,2,4,4,4,4,4,3,4,3,2,3,2,3,4,4,4,3,4,2,3,4,2,3,4,3,3,5172,5172,5172,5172,5172,5172,5172,5172,5172,4,4,4,4,4,4,4,4,3,3,3,3,3,3,3,3,3,3,3,3,3,3,3,3,3,
4,4,4,4,4,4,4,4,5172,5172,5172,5172,5172,5172,5172,5172,5172,5172,5172,2,4,4,4,4,4,2,2,3,4,4,2,3,4,3,4,3,4,2,3,4,2,3,4,3,3,5172,5172,5172,5172,5172,5172,5172,5172,5172,4,4,4,4,4,4,4,4,3,3,3,3,3,3,3,3,3,3,3,3,3,3,3,3,3,
4,4,4,4,4,4,4,4,5172,5172,5172,5172,5172,5172,5172,5172,5172,5172,5172,2,4,4,4,4,4,4,3,2,3,4,2,3,4,2,3,4,4,2,3,4,2,3,4,3,3,5172,5172,5172,5172,5172,5172,5172,5172,5172,4,4,4,4,4,4,4,4,3,3,3,3,3,3,3,3,3,3,3,3,3,3,3,3,3,
4,4,4,4,4,4,4,4,5172,5172,5172,5172,5172,5172,5172,5172,5172,5172,5172,2,4,4,4,4,4,4,3,4,4,4,4,2,3,2,3,4,4,2,3,4,2,3,4,3,3,5172,5172,5172,5172,5172,5172,5172,5172,5172,4,4,4,4,4,4,4,4,3,3,3,3,3,3,3,3,3,3,3,3,3,3,3,3,3,
4,4,4,4,4,4,4,4,5172,5172,5172,5172,5172,5172,5172,5172,5172,5172,5172,2,4,4,4,4,4,4,2,2,2,2,2,2,2,2,3,4,4,2,3,4,2,3,4,3,3,5172,5172,5172,5172,5172,5172,5172,5172,5172,4,4,4,4,4,4,4,4,3,3,3,3,3,3,3,3,3,3,3,3,3,3,3,3,3,
4,4,4,4,4,4,4,4,5172,5172,5172,5172,5172,5172,5172,5172,5172,5172,5172,2,3,4,2,3,4,2,3,4,2,3,4,2,3,4,2,3,4,2,3,4,2,3,4,3,3,5172,5172,5172,5172,5172,5172,5172,5172,5172,4,4,4,4,4,4,4,4,3,3,3,3,3,3,3,3,3,3,3,3,3,3,3,3,3,
4,4,4,4,4,4,4,4,5172,5172,5172,5172,5172,5172,5172,5172,5172,5172,5172,5172,5172,5172,5172,5172,5172,5172,5172,5172,5172,5172,5172,5172,5172,5172,5172,5172,5172,5172,5172,5172,5172,5172,5172,5172,5172,5172,5172,5172,5172,5172,5172,5172,5172,5172,4,4,4,4,4,4,4,4,3,3,3,3,3,3,3,3,3,3,3,3,3,3,3,3,3,
4,4,4,4,4,4,4,4,5172,5172,5172,5172,5172,5172,5172,5172,5172,5172,5172,5172,5172,5172,5172,5172,5172,5172,5172,5172,5172,5172,5172,5172,5172,5172,5172,5172,5172,5172,5172,5172,5172,5172,5172,5172,5172,5172,5172,5172,5172,5172,5172,5172,5172,5172,4,4,4,4,4,4,4,4,3,3,3,3,3,3,3,3,3,3,3,3,3,3,3,3,3,
4,4,4,4,4,4,4,4,5172,5172,5172,5172,5172,5172,5172,5172,5172,5172,5172,5172,5172,5172,5172,5172,5172,5172,5172,5172,5172,5172,5172,5172,5172,5172,5172,5172,5172,5172,5172,5172,5172,5172,5172,5172,5172,5172,5172,5172,5172,5172,5172,5172,5172,5172,4,4,4,4,4,4,4,4,3,3,3,3,3,3,3,3,3,3,3,3,3,3,3,3,3
</data>
 </layer>
 <layer id="2" name="deco_sotto" width="79" height="20">
  <data encoding="csv">
0,0,0,0,0,0,0,0,0,0,0,0,0,0,0,0,0,0,0,0,0,0,0,0,0,0,0,0,0,0,0,0,0,0,0,0,0,0,0,0,0,0,0,0,0,0,0,0,0,0,0,0,0,0,0,0,0,0,0,0,0,0,0,0,0,0,0,0,0,0,0,0,0,0,0,0,0,0,0,
0,0,0,0,0,0,0,0,0,0,0,0,0,0,0,0,0,0,0,0,0,0,0,0,0,0,0,0,0,0,0,0,0,0,0,0,0,0,0,0,0,0,0,0,0,0,0,0,0,0,0,0,0,0,0,0,0,0,0,0,0,0,0,0,0,0,0,0,0,0,0,0,0,0,0,0,0,0,0,
0,0,0,0,0,0,0,0,0,0,0,0,0,0,0,0,0,0,0,0,0,0,0,0,0,0,0,0,0,0,0,0,0,0,0,0,0,0,0,0,0,0,0,0,0,0,0,0,0,0,0,0,0,0,0,0,0,0,0,0,0,0,0,0,0,0,0,0,0,0,0,0,0,0,0,0,0,0,0,
0,0,0,0,0,0,0,0,0,0,0,0,0,0,0,0,0,0,0,0,0,0,0,0,0,0,0,0,0,0,0,0,0,0,0,0,0,0,0,0,0,0,0,0,0,0,0,0,0,0,0,0,0,0,0,0,0,0,0,0,0,0,0,0,0,0,0,0,0,0,0,0,0,0,0,0,0,0,0,
0,0,0,0,0,0,0,0,0,0,0,0,0,0,0,0,0,0,0,0,32,0,1817,1818,1819,1820,0,0,0,0,0,32,0,0,0,0,1817,1818,1819,1820,0,32,0,0,0,0,0,0,0,0,0,0,0,0,0,0,0,0,0,0,0,0,0,0,0,0,0,0,0,0,0,0,0,0,0,0,0,0,0,
0,0,0,0,0,0,0,0,0,0,0,0,0,0,0,0,0,0,0,0,988,989,1825,1826,1827,1828,988,989,0,0,0,0,0,0,988,989,1825,1826,1827,1828,988,989,0,0,0,0,0,0,0,0,0,0,0,0,0,0,0,0,0,0,0,0,0,0,0,0,0,0,0,0,0,0,0,0,0,0,0,0,0,
0,0,0,0,0,0,0,0,0,0,0,0,0,0,0,0,0,0,0,0,996,997,1833,1834,1835,1836,996,997,0,0,0,0,0,0,996,997,1833,1834,1835,1836,996,997,0,0,0,0,0,0,0,0,0,0,0,0,0,0,0,0,0,0,0,0,0,0,0,0,0,0,0,0,0,0,0,0,0,0,0,0,0,
0,0,0,0,0,0,0,0,0,0,0,0,0,0,0,0,0,0,0,0,1297,1298,1841,1842,1843,1844,1297,1298,0,0,0,0,0,0,1297,1298,1841,1842,1843,1844,1297,1298,0,0,0,0,0,0,0,0,0,0,0,0,0,0,0,0,0,0,0,0,0,0,0,0,0,0,0,0,0,0,0,0,0,0,0,0,0,
0,0,0,0,0,0,0,0,0,0,0,0,0,0,0,0,0,0,0,0,0,0,0,0,0,0,0,0,0,0,0,0,0,0,0,0,0,0,0,0,0,0,0,0,0,0,0,0,0,0,0,0,0,0,0,0,0,0,0,0,0,0,0,0,0,0,0,0,0,0,0,0,0,0,0,0,0,0,0,
0,0,0,0,0,0,0,0,0,0,0,0,0,0,0,0,0,0,0,0,32,0,0,0,0,0,0,0,0,32,0,0,32,0,0,0,0,0,0,0,0,0,0,0,0,0,0,0,0,0,0,0,0,0,0,0,0,0,0,0,0,0,0,0,0,0,0,0,0,0,0,0,0,0,0,0,0,0,0,
0,0,0,0,0,0,0,0,0,0,0,0,0,0,0,0,0,0,0,0,0,2609,2610,2611,2612,2613,0,32,0,0,0,0,0,0,0,0,0,0,0,0,0,32,0,0,0,0,0,0,0,0,0,0,0,0,0,0,0,0,0,0,0,0,0,0,0,0,0,0,0,0,0,0,0,0,0,0,0,0,0,
0,0,0,0,0,0,0,0,0,0,0,0,0,0,0,0,0,0,0,0,0,2617,2618,2619,2620,2621,0,0,0,0,0,0,0,0,2281,2282,2283,2284,2285,2286,0,0,0,0,0,0,0,0,0,0,0,0,0,0,0,0,0,0,0,0,0,0,0,0,0,0,0,0,0,0,0,0,0,0,0,0,0,0,0,
0,0,0,0,0,0,0,0,0,0,0,0,0,0,0,0,0,0,0,0,0,2625,2626,2627,2628,2629,0,0,0,0,32,0,0,0,2289,2290,2291,2292,2293,2294,0,0,0,0,0,0,0,0,0,0,0,0,0,0,0,0,0,0,0,0,0,0,0,0,0,0,0,0,0,0,0,0,0,0,0,0,0,0,0,
0,0,0,0,0,0,0,0,0,0,0,0,0,0,0,0,0,0,0,0,0,2633,2634,2635,2636,2637,0,0,0,0,0,0,32,0,2297,2298,2299,2300,2301,2302,0,0,0,0,0,0,0,0,0,0,0,0,0,0,0,0,0,0,0,0,0,0,0,0,0,0,0,0,0,0,0,0,0,0,0,0,0,0,0,
0,0,0,0,0,0,0,0,0,0,0,0,0,0,0,0,0,0,0,0,0,2641,2642,2643,2644,2645,0,0,0,0,0,0,0,0,2305,2306,2307,2308,2309,2310,0,32,0,0,0,0,0,0,0,0,0,0,0,0,0,0,0,0,0,0,0,0,0,0,0,0,0,0,0,0,0,0,0,0,0,0,0,0,0,
0,0,0,0,0,0,0,0,0,0,0,0,0,0,0,0,0,0,0,32,0,0,0,0,0,0,0,0,32,0,0,0,0,0,0,0,0,0,0,0,0,32,0,0,0,0,0,0,0,0,0,0,0,0,0,0,0,0,0,0,0,0,0,0,0,0,0,0,0,0,0,0,0,0,0,0,0,0,0,
0,0,0,0,0,0,0,0,0,0,0,0,0,0,0,0,0,0,0,0,0,0,0,0,0,0,0,0,0,0,0,0,0,0,0,0,0,0,0,0,0,0,0,0,0,0,0,0,0,0,0,0,0,0,0,0,0,0,0,0,0,0,0,0,0,0,0,0,0,0,0,0,0,0,0,0,0,0,0,
0,0,0,0,0,0,0,0,0,0,0,0,0,0,0,0,0,0,0,0,0,0,0,0,0,0,0,0,0,0,0,0,0,0,0,0,0,0,0,0,0,0,0,0,0,0,0,0,0,0,0,0,0,0,0,0,0,0,0,0,0,0,0,0,0,0,0,0,0,0,0,0,0,0,0,0,0,0,0,
0,0,0,0,0,0,0,0,0,0,0,0,0,0,0,0,0,0,0,0,0,0,0,0,0,0,0,0,0,0,0,0,0,0,0,0,0,0,0,0,0,0,0,0,0,0,0,0,0,0,0,0,0,0,0,0,0,0,0,0,0,0,0,0,0,0,0,0,0,0,0,0,0,0,0,0,0,0,0,
0,0,0,0,0,0,0,0,0,0,0,0,0,0,0,0,0,0,0,0,0,0,0,0,0,0,0,0,0,0,0,0,0,0,0,0,0,0,0,0,0,0,0,0,0,0,0,0,0,0,0,0,0,0,0,0,0,0,0,0,0,0,0,0,0,0,0,0,0,0,0,0,0,0,0,0,0,0,0
</data>
 </layer>
 <layer id="4" name="edifici" width="79" height="20">
  <data encoding="csv">
421,422,421,422,421,422,421,422,0,0,0,0,0,0,0,0,0,0,0,0,5589,5590,5589,5590,5589,5590,5589,5590,5589,5590,0,0,0,0,5589,5590,5589,5590,5589,5590,5589,5590,0,0,0,0,0,0,0,0,0,0,0,0,429,430,429,430,429,430,429,430,429,430,429,430,0,0,0,0,0,0,0,0,0,0,0,0,0,
429,430,429,430,429,430,429,430,0,0,0,0,0,0,0,0,0,0,0,0,5597,5598,5597,5598,5597,5598,5597,5598,5597,5598,0,0,0,0,5597,5598,5597,5598,5597,5598,5597,5598,0,0,0,0,0,0,0,0,0,0,0,0,437,438,437,438,437,438,437,438,437,438,437,438,0,0,0,0,0,0,0,0,0,0,0,0,0,
437,438,437,438,437,438,437,438,5589,5590,5589,5590,5589,5590,5589,5590,5589,5590,5589,5590,5605,5606,5605,5606,5605,5606,5605,5606,5605,5606,0,0,0,0,5605,5606,5605,5606,5605,5606,5605,5606,896,5589,5590,5589,5590,5589,5590,5589,5590,5589,5590,421,422,421,422,421,422,421,422,0,421,422,421,422,421,422,421,422,421,422,421,422,421,422,421,422,0,
421,422,421,422,421,422,421,422,5597,5598,5597,5598,5597,5598,5597,5598,5597,5598,5597,5598,0,0,0,0,0,0,0,0,0,0,0,0,0,953,0,0,0,0,0,0,0,0,0,5597,5598,5597,5598,5597,5598,5597,5598,5597,5598,429,430,429,430,429,430,429,430,0,429,430,429,430,429,430,429,430,429,430,429,430,429,430,429,430,0,
429,430,429,430,429,430,429,430,5605,5606,5605,5606,5605,5606,5605,5606,5605,5606,5605,5606,0,0,0,0,0,0,0,0,0,0,0,0,0,0,0,0,0,0,0,0,0,0,0,5605,5606,5605,5606,5605,5606,5605,5606,5605,5606,437,438,437,438,437,438,437,438,0,437,438,437,438,437,438,437,438,437,438,437,438,437,438,437,438,0,
437,438,437,438,437,438,437,438,5589,5590,5589,5590,5589,5590,5589,5590,5589,5590,5589,5590,0,0,0,0,0,0,0,0,0,0,0,0,0,0,0,0,0,0,0,0,0,0,0,5589,5590,5589,5590,5589,5590,5589,5590,5589,5590,421,422,421,422,421,422,421,422,0,421,422,421,422,421,422,421,422,421,422,421,422,421,422,421,422,0,
421,422,421,422,421,422,421,422,5597,5598,5597,5598,5597,5598,5597,5598,5597,5598,5597,5598,0,0,0,0,0,0,0,0,0,0,0,0,0,0,0,0,0,0,0,0,0,0,0,5597,5598,5597,5598,5597,5598,5597,5598,5597,5598,429,430,429,430,429,430,429,430,0,429,430,429,430,429,430,429,430,429,430,429,430,429,430,429,430,0,
429,430,429,430,429,430,429,430,5605,5606,5605,5606,5605,5606,5605,5606,5605,5606,5605,5606,0,0,0,0,0,0,0,0,0,0,0,0,0,0,0,0,0,0,0,0,0,0,0,5605,5606,5605,5606,5605,5606,5605,5606,5605,5606,437,438,437,438,437,438,437,438,0,437,438,437,438,437,438,437,438,437,438,437,438,437,438,437,438,0,
437,438,437,438,437,438,437,438,5589,5590,5589,5590,5589,5590,5589,5590,5589,5590,5589,5590,0,0,0,0,0,0,0,0,0,0,0,0,0,0,0,0,0,0,0,0,0,0,0,5589,5590,5589,5590,5589,5590,5589,5590,5589,5590,421,422,421,422,421,422,421,422,0,421,422,421,422,421,422,421,422,421,422,421,422,421,422,421,422,0,
421,422,421,422,421,422,421,422,5597,5598,5597,5598,5597,5598,5597,5598,5597,5598,5597,5598,0,0,0,0,0,0,0,0,0,0,0,0,0,0,0,0,0,0,0,0,0,0,0,5597,5598,5597,5598,5597,5598,5597,5598,5597,5598,429,430,429,430,429,430,429,430,0,429,430,429,430,429,430,429,430,429,430,429,430,429,430,429,430,0,
429,430,429,430,429,430,429,430,5605,5606,5605,5606,5605,5606,5605,5606,5605,5606,5605,5606,0,0,0,0,0,0,0,0,0,0,0,0,0,0,0,0,0,0,0,0,0,0,0,5605,5606,5605,5606,5605,5606,5605,5606,5605,5606,437,438,437,438,437,438,437,438,0,437,438,437,438,437,438,437,438,437,438,437,438,437,438,437,438,0,
437,438,437,438,437,438,437,438,5589,5590,5589,5590,5589,5590,5589,5590,5589,5590,5589,5590,0,0,0,0,0,0,0,0,0,0,0,0,0,0,0,0,0,0,0,0,0,0,0,5589,5590,5589,5590,5589,5590,5589,5590,5589,5590,421,422,421,422,421,422,421,422,0,421,422,421,422,421,422,421,422,421,422,421,422,421,422,421,422,0,
421,422,421,422,421,422,421,422,5597,5598,5597,5598,5597,5598,5597,5598,5597,5598,5597,5598,0,0,0,0,0,0,0,0,0,0,0,0,0,0,0,0,0,0,0,0,0,0,0,5597,5598,5597,5598,5597,5598,5597,5598,5597,5598,429,430,429,430,429,430,429,430,0,429,430,429,430,429,430,429,430,429,430,429,430,429,430,429,430,0,
429,430,429,430,429,430,429,430,5605,5606,5605,5606,5605,5606,5605,5606,5605,5606,5605,5606,0,0,0,0,0,0,0,0,0,0,0,0,0,0,0,0,0,0,0,0,0,0,0,5605,5606,5605,5606,5605,5606,5605,5606,5605,5606,437,438,437,438,437,438,437,438,0,437,438,437,438,437,438,437,438,437,438,437,438,437,438,437,438,0,
437,438,437,438,437,438,437,438,5589,5590,5589,5590,5589,5590,5589,5590,5589,5590,5589,5590,0,0,0,0,0,0,0,0,0,0,0,0,0,0,0,0,0,0,0,0,0,0,0,5589,5590,5589,5590,5589,5590,5589,5590,5589,5590,421,422,421,422,421,422,421,422,0,421,422,421,422,421,422,421,422,421,422,421,422,421,422,421,422,0,
421,422,421,422,421,422,421,422,5597,5598,5597,5598,5597,5598,5597,5598,5597,5598,5597,5598,0,0,0,0,0,0,0,0,0,0,0,0,0,0,0,0,0,0,0,0,0,0,0,5597,5598,5597,5598,5597,5598,5597,5598,5597,5598,429,430,429,430,429,430,429,430,0,429,430,429,430,429,430,429,430,429,430,429,430,429,430,429,430,0,
429,430,429,430,429,430,429,430,5605,5606,5605,5606,5605,5606,5605,5606,5605,5606,5605,5606,0,0,0,0,0,0,0,0,0,0,0,0,0,0,0,0,0,0,0,0,0,0,0,5605,5606,5605,5606,5605,5606,5605,5606,5605,5606,437,438,437,438,437,438,437,438,0,437,438,437,438,437,438,437,438,437,438,437,438,437,438,437,438,0,
437,438,437,438,437,438,437,438,5589,5590,5589,5590,5589,5590,5589,5590,5589,5590,5589,5590,5589,5590,5589,5590,5589,5590,5589,5590,5589,5590,5589,5590,5589,5590,5589,5590,5589,5590,5589,5590,5589,5590,5589,5590,5589,5590,5589,5590,5589,5590,5589,5590,5589,421,422,421,422,421,422,421,422,0,421,422,421,422,421,422,421,422,421,422,421,422,421,422,421,422,0,
421,422,421,422,421,422,421,422,5597,5598,5597,5598,5597,5598,5597,5598,5597,5598,5597,5598,5597,5598,5597,5598,5597,5598,5597,5598,5597,5598,5597,5598,5597,5598,5597,5598,5597,5598,5597,5598,5597,5598,5597,5598,5597,5598,5597,5598,5597,5598,5597,5598,5597,429,430,429,430,429,430,429,430,0,429,430,429,430,429,430,429,430,429,430,429,430,429,430,429,430,0,
429,430,429,430,429,430,429,430,5605,5606,5605,5606,5605,5606,5605,5606,5605,5606,5605,5606,5605,5606,5605,5606,5605,5606,5605,5606,5605,5606,5605,5606,5605,5606,5605,5606,5605,5606,5605,5606,5605,5606,5605,5606,5605,5606,5605,5606,5605,5606,5605,5606,5605,437,438,437,438,437,438,437,438,0,437,438,437,438,437,438,437,438,437,438,437,438,437,438,437,438,0
</data>
 </layer>
 <layer id="9" name="sopra_testa" width="79" height="20">
  <data encoding="csv">
0,0,0,0,0,0,0,0,0,0,0,0,0,0,0,0,0,0,0,0,0,0,0,0,0,0,0,0,0,0,0,0,0,0,0,0,0,0,0,0,0,0,0,0,0,0,0,0,0,0,0,0,0,0,0,0,0,0,0,0,0,0,0,0,0,0,0,0,0,0,0,0,0,0,0,0,0,0,0,
0,0,0,0,0,0,0,0,0,0,0,0,0,0,0,0,0,0,0,0,0,0,0,0,0,0,0,0,0,0,0,0,0,0,0,0,0,0,0,0,0,0,0,0,0,0,0,0,0,0,0,0,0,0,0,0,0,0,0,0,0,0,0,0,0,0,0,0,0,0,0,0,0,0,0,0,0,0,0,
0,0,0,0,0,0,0,0,0,0,0,0,0,0,0,0,0,0,0,0,0,0,0,0,0,0,0,0,0,0,0,0,0,0,0,0,0,0,0,0,0,0,0,0,0,0,0,0,0,0,0,0,0,0,0,0,0,0,0,0,0,0,0,0,0,0,0,0,0,0,0,0,0,0,0,0,0,0,0,
0,0,0,0,0,0,0,0,0,0,0,0,0,0,0,0,0,0,0,0,0,0,0,0,0,0,0,0,0,0,0,0,0,0,0,0,0,0,0,0,0,0,0,0,0,0,0,0,0,0,0,0,0,0,0,0,0,0,0,0,0,0,0,0,0,0,0,0,0,0,0,0,0,0,0,0,0,0,0,
0,0,0,0,0,0,0,0,0,0,0,0,0,0,0,0,0,0,0,0,0,0,0,0,0,0,0,0,0,0,0,0,0,0,0,0,0,0,0,0,0,0,0,0,0,0,0,0,0,0,0,0,0,0,0,0,0,0,0,0,0,0,0,0,0,0,0,0,0,0,0,0,0,0,0,0,0,0,0,
0,0,0,0,0,0,0,0,0,0,0,0,0,0,0,0,0,0,0,0,0,0,0,0,0,0,0,0,0,0,0,0,0,0,0,0,0,0,0,0,0,0,0,0,0,0,0,0,0,0,0,0,0,0,0,0,0,0,0,0,0,0,0,0,0,0,0,0,0,0,0,0,0,0,0,0,0,0,0,
0,0,0,0,0,0,0,0,0,0,0,0,0,0,0,0,0,0,0,0,0,0,0,0,0,0,0,0,0,0,0,0,0,0,0,0,0,0,0,0,0,0,0,0,0,0,0,0,0,0,0,0,0,0,0,0,0,0,0,0,0,0,0,0,0,0,0,0,0,0,0,0,0,0,0,0,0,0,0,
0,0,0,0,0,0,0,0,0,0,0,0,0,0,0,0,0,0,0,0,0,0,0,0,0,0,0,0,0,0,0,0,0,0,0,0,0,0,0,0,0,0,0,0,0,0,0,0,0,0,0,0,0,0,0,0,0,0,0,0,0,0,0,0,0,0,0,0,0,0,0,0,0,0,0,0,0,0,0,
0,0,0,0,0,0,0,0,0,0,0,0,0,0,0,0,0,0,0,0,0,0,0,0,0,0,0,0,0,0,0,0,0,0,0,0,0,0,0,0,0,0,0,0,0,0,0,0,0,0,0,0,0,0,0,0,0,0,0,0,0,0,0,0,0,0,0,0,0,0,0,0,0,0,0,0,0,0,0,
0,0,0,0,0,0,0,0,0,0,0,0,0,0,0,0,0,0,0,0,0,0,0,0,0,0,0,0,0,0,0,0,0,0,0,0,0,0,0,0,0,0,0,0,0,0,0,0,0,0,0,0,0,0,0,0,0,0,0,0,0,0,0,0,0,0,0,0,0,0,0,0,0,0,0,0,0,0,0,
0,0,0,0,0,0,0,0,0,0,0,0,0,0,0,0,0,0,0,0,0,0,0,0,0,0,0,0,0,0,0,0,0,0,0,0,0,0,0,0,0,0,0,0,0,0,0,0,0,0,0,0,0,0,0,0,0,0,0,0,0,0,0,0,0,0,0,0,0,0,0,0,0,0,0,0,0,0,0,
0,0,0,0,0,0,0,0,0,0,0,0,0,0,0,0,0,0,0,0,0,0,0,0,0,0,0,0,0,0,0,0,0,0,0,0,0,0,0,0,0,0,0,0,0,0,0,0,0,0,0,0,0,0,0,0,0,0,0,0,0,0,0,0,0,0,0,0,0,0,0,0,0,0,0,0,0,0,0,
0,0,0,0,0,0,0,0,0,0,0,0,0,0,0,0,0,0,0,0,0,0,0,0,0,0,0,0,0,0,0,0,0,0,0,0,0,0,0,0,0,0,0,0,0,0,0,0,0,0,0,0,0,0,0,0,0,0,0,0,0,0,0,0,0,0,0,0,0,0,0,0,0,0,0,0,0,0,0,
0,0,0,0,0,0,0,0,0,0,0,0,0,0,0,0,0,0,0,0,0,0,0,0,0,0,0,0,0,0,0,0,0,0,0,0,0,0,0,0,0,0,0,0,0,0,0,0,0,0,0,0,0,0,0,0,0,0,0,0,0,0,0,0,0,0,0,0,0,0,0,0,0,0,0,0,0,0,0,
0,0,0,0,0,0,0,0,0,0,0,0,0,0,0,0,0,0,0,0,0,0,0,0,0,0,0,0,0,0,0,0,0,0,0,0,0,0,0,0,0,0,0,0,0,0,0,0,0,0,0,0,0,0,0,0,0,0,0,0,0,0,0,0,0,0,0,0,0,0,0,0,0,0,0,0,0,0,0,
0,0,0,0,0,0,0,0,0,0,0,0,0,0,0,0,0,0,0,0,0,0,0,0,0,0,0,0,0,0,0,0,0,0,0,0,0,0,0,0,0,0,0,0,0,0,0,0,0,0,0,0,0,0,0,0,0,0,0,0,0,0,0,0,0,0,0,0,0,0,0,0,0,0,0,0,0,0,0,
0,0,0,0,0,0,0,0,0,0,0,0,0,0,0,0,0,0,0,0,0,0,0,0,0,0,0,0,0,0,0,0,0,0,0,0,0,0,0,0,0,0,0,0,0,0,0,0,0,0,0,0,0,0,0,0,0,0,0,0,0,0,0,0,0,0,0,0,0,0,0,0,0,0,0,0,0,0,0,
0,0,0,0,0,0,0,0,0,0,0,0,0,0,0,0,0,0,0,0,0,0,0,0,0,0,0,0,0,0,0,0,0,0,0,0,0,0,0,0,0,0,0,0,0,0,0,0,0,0,0,0,0,0,0,0,0,0,0,0,0,0,0,0,0,0,0,0,0,0,0,0,0,0,0,0,0,0,0,
0,0,0,0,0,0,0,0,0,0,0,0,0,0,0,0,0,0,0,0,0,0,0,0,0,0,0,0,0,0,0,0,0,0,0,0,0,0,0,0,0,0,0,0,0,0,0,0,0,0,0,0,0,0,0,0,0,0,0,0,0,0,0,0,0,0,0,0,0,0,0,0,0,0,0,0,0,0,0,
0,0,0,0,0,0,0,0,0,0,0,0,0,0,0,0,0,0,0,0,0,0,0,0,0,0,0,0,0,0,0,0,0,0,0,0,0,0,0,0,0,0,0,0,0,0,0,0,0,0,0,0,0,0,0,0,0,0,0,0,0,0,0,0,0,0,0,0,0,0,0,0,0,0,0,0,0,0,0
</data>
 </layer>
 <objectgroup id="5" name="collisioni">
  <object id="1" x="551.704" y="5.13609" width="406.617" height="77.0414"/>
  <object id="2" x="581.753" y="79.1164" width="53.929" height="539.29"/>
  <object id="3" x="619.757" y="553.414" width="875.704" height="78.3254"/>
  <object id="4" x="1380.25" y="31.359" width="56.497" height="523.881"/>
  <object id="5" x="1090.05" y="14.1243" width="333.501" height="64.2012"/>
  <object id="7" x="1165.47" y="157.935" width="104.006" height="51.3609"/>
  <object id="8" x="1233.52" y="225.988" width="37.2367" height="19.2603"/>
  <object id="9" x="1169.32" y="227.272" width="2.56805" height="17.9763"/>
  <object id="10" x="1098.7" y="240.112" width="61.6331" height="2.56805"/>
  <object id="11" x="1107.69" y="186.183" width="29.5325"/>
  <object id="12" x="1301.57" y="190.035" width="29.5325"/>
  <object id="13" x="1291.3" y="240.112" width="39.8047"/>
  <object id="14" x="1197.57" y="374.935" width="73.1893" height="88.5976"/>
  <object id="15" x="1096.13" y="382.639" width="92.4497" height="53.929"/>
  <object id="16" x="1096.13" y="444.272" width="30.8166" height="20.5444"/>
  <object id="17" x="653.142" y="241.396" width="59.0651" height="11.5562"/>
  <object id="18" x="710.923" y="155.367" width="5.13609" height="91.1657"/>
  <object id="19" x="710.923" y="147.663" width="112.525" height="73.6331"/>
  <object id="20" x="780.26" y="232.284" width="109.142" height="14.2485"/>
  <object id="21" x="844.461" y="190.035" width="33.3846" height="1.28402"/>
  <object id="22" x="659.562" y="182.652" width="32.1006" height="8.66667"/>
  <object id="23" x="680.106" y="354.39" width="148.947" height="86.0296"/>
  <object id="24" x="677.86" y="439.495" width="53.138" height="36.927"/>
  <object id="25" x="778.927" y="439.309" width="43.6568" height="30.8777"/>
  <object id="54" x="843.95" y="186.333" width="32.1006" height="8.66667"/>
  <object id="55" x="1295.28" y="187.667" width="32.1006" height="8.66667"/>
  <object id="56" x="1102.62" y="189.667" width="32.1006" height="8.66667"/>
  <object id="57" x="1065.95" y="111" width="18.1006" height="5.33334"/>
 </objectgroup>
 <objectgroup id="6" name="eventi">
  <object id="31" name="npc old man" x="888" y="397.333">
   <properties>
    <property name="dialogo" value="AO NAMOOOO. IL VINO DELI CASTELLIIIII"/>
    <property name="direzione" value="sud"/>
    <property name="id" value="pallet_oldman"/>
    <property name="movimento" value="random"/>
    <property name="sprite" value="oldman"/>
    <property name="type" value="npc"/>
   </properties>
   <point/>
  </object>
  <object id="35" name="npc girl" x="960" y="128">
   <properties>
    <property name="dialogo" value="Preso il pokemon si? guarda che qua ti rubano tutto"/>
    <property name="direzione" value="sud"/>
    <property name="id" value="pallet_girl"/>
    <property name="sprite" value="girl"/>
    <property name="type" value="npc"/>
   </properties>
   <point/>
  </object>
  <object id="36" name="npc man" x="1132.08" y="287.621">
   <properties>
    <property name="dialogo" value="Casa del nipote del professore. Dicono sia abusiva, non entrerei fossi in te"/>
    <property name="direzione" value="ovest"/>
    <property name="id" value="pallet_man"/>
    <property name="sprite" value="man"/>
    <property name="type" value="npc"/>
   </properties>
   <point/>
  </object>
  <object id="41" name="Porta_poke_center" x="738.961" y="448.84" width="24.1006" height="16.6194">
   <properties>
    <property name="arrivo_x" value="5"/>
    <property name="arrivo_y" value="8"/>
    <property name="destinazione" value="pokecenter"/>
    <property name="type" value="porta"/>
   </properties>
  </object>
  <object id="42" name="Porta_lab" x="1150.7" y="446.84" width="32.1006" height="35.9527">
   <properties>
    <property name="arrivo_x" value="12"/>
    <property name="arrivo_y" value="20"/>
    <property name="destinazione" value="lab_professore"/>
    <property name="type" value="porta"/>
   </properties>
  </object>
  <object id="52" x="1069.33" y="106.667">
   <properties>
    <property name="dialogo" value="&quot;Percorso 1 - Frascati&quot;"/>
    <property name="type" value="cartel"/>
   </properties>
   <point/>
  </object>
  <object id="58" x="750" y="271.333">
   <properties>
    <property name="id" value="spawn del player"/>
   </properties>
   <point/>
  </object>
 </objectgroup>
</map>
