<?xml version="1.0" encoding="UTF-8"?>
<map version="1.10" tiledversion="1.12.2" orientation="orthogonal" renderorder="right-down" width="12" height="10" tilewidth="32" tileheight="32" infinite="0" nextlayerid="6" nextobjectid="29">
 <editorsettings>
  <export target="pokemon-castelli-Pokemon_center_Borgata_tuscolana.tmx" format="tmx"/>
 </editorsettings>
 <tileset firstgid="1" source="../Tiled/Poke Centre interior.tsx"/>
 <layer id="1" name="livello tile 1" width="12" height="10">
  <data encoding="csv">
22,22,22,22,22,22,22,22,22,22,22,22,
65,65,65,202,65,65,65,204,65,65,65,65,
65,65,65,202,65,65,65,204,65,65,65,65,
65,65,65,210,225,226,227,212,65,65,65,65,
65,65,65,65,65,65,65,65,65,65,65,65,
65,65,65,65,65,65,65,65,65,65,65,65,
65,65,65,65,65,65,65,65,65,65,65,65,
65,65,65,65,65,65,65,65,65,65,65,65,
65,65,65,65,65,65,65,65,65,65,65,65,
65,65,65,65,65,65,65,65,65,65,65,65
</data>
 </layer>
 <layer id="2" name="Livello tile 2" width="12" height="10">
  <data encoding="csv">
279,279,279,0,0,0,200,0,255,279,279,279,
287,287,287,0,198,199,208,0,263,287,287,287,
295,295,295,0,206,207,0,0,271,295,295,295,
0,0,0,0,0,211,228,0,0,0,0,0,
0,0,0,0,0,0,0,0,0,0,0,0,
0,235,236,237,0,102,103,104,0,0,0,0,
250,243,244,245,0,110,111,112,0,0,0,0,
258,65,238,239,240,118,119,120,0,0,0,0,
266,65,246,247,248,0,0,0,0,0,0,0,
0,0,0,0,0,169,170,171,0,0,0,0
</data>
 </layer>
 <layer id="3" name="Livello tile 3" width="12" height="10">
  <data encoding="csv">
0,0,0,0,0,0,0,0,0,0,0,0,
0,0,0,0,0,0,0,0,0,0,0,0,
0,0,0,0,0,0,0,0,0,0,0,0,
0,0,0,0,0,0,0,0,0,0,0,0,
0,0,0,0,0,0,0,0,0,0,0,0,
0,0,0,0,0,0,0,0,0,0,0,0,
0,0,0,0,0,0,0,0,0,0,0,0,
0,0,0,0,0,0,0,0,0,0,0,0,
0,0,0,0,0,0,0,0,0,0,0,0,
0,0,0,0,0,0,0,0,0,0,0,0
</data>
 </layer>
 <objectgroup id="4" name="collisioni">
  <object id="3" x="-2.96342" y="-1.18537" width="256.04" height="78.2343"/>
  <object id="4" x="245.964" y="-6.51952" width="136.91" height="86.3361"/>
  <object id="6" x="24.8927" y="176.62" width="101.942" height="16.5952"/>
  <object id="7" x="2.37074" y="215.737" width="1.18537" height="55.1196"/>
  <object id="8" x="-1.18537" y="80.605" width="13.039" height="235.888"/>
  <object id="9" x="374.576" y="85.3465" width="6.51952" height="224.035"/>
  <object id="12" x="244.186" y="308.196" width="136.91" height="8.89026"/>
  <object id="13" x="4.74147" y="311.752" width="174.249" height="6.51952"/>
  <object id="22" x="97.9501" y="95.1225" width="159.089" height="31.1233"/>
  <object id="24" x="97.9502" y="77.7832" width="28.2053" height="31.6233"/>
  <object id="25" x="224.919" y="77.0374" width="28.2053" height="31.6233"/>
  <object id="27" x="65.8818" y="224.328" width="59.155" height="60.7086"/>
 </objectgroup>
 <objectgroup id="5" name="eventi">
  <object id="18" name="npc_joy" x="271.032" y="117.661">
   <properties>
    <property name="id" value="npc_joy"/>
    <property name="type" value="npc"/>
   </properties>
   <point/>
  </object>
  <object id="19" name="box_pc" x="272.635" y="59.8611">
   <properties>
    <property name="id" value="pc_box"/>
    <property name="type" value="pc"/>
   </properties>
   <point/>
  </object>
  <object id="20" name="uscita pokemon center" x="180.176" y="307.603" width="56.8977" height="10.0756">
   <properties>
    <property name="type" value="uscita"/>
   </properties>
  </object>
  <object id="28" name="spawn" type="spawn" x="202.5" y="293" width="13" height="12.5">
   <properties>
    <property name="id" value="da_borgata_tuscolana"/>
    <property name="type" value="spawn"/>
   </properties>
  </object>
 </objectgroup>
</map>
