<?xml version="1.0" encoding="UTF-8"?>
<map version="1.10" tiledversion="1.12.2" orientation="orthogonal" renderorder="right-down" width="12" height="10" tilewidth="32" tileheight="32" infinite="0" nextlayerid="6" nextobjectid="30">
 <tileset firstgid="1" source="../Tiled/Poke Centre interior.tsx"/>
 <layer id="1" name="livello tile 1" width="12" height="10">
  <data encoding="csv">
22,22,22,22,22,22,22,22,22,22,22,22,
65,65,65,202,65,65,65,204,65,65,65,65,
65,65,65,202,65,65,65,204,65,65,65,65,
65,65,65,210,225,226,227,212,65,65,65,65,
65,65,65,65,65,65,65,65,65,65,65,65,
65,65,65,65,65,65,65,65,65,65,65,65,
65,65,65,65,65,65,65,65,65,65,65,65,
65,65,65,65,65,65,65,65,65,65,65,65,
65,65,65,65,65,65,65,65,65,65,65,65,
65,65,65,65,65,65,65,65,65,65,65,65
</data>
 </layer>
 <layer id="2" name="Livello tile 2" width="12" height="10">
  <data encoding="csv">
279,279,279,0,0,0,200,0,255,279,279,279,
287,287,287,0,198,199,208,0,263,287,287,287,
295,295,295,0,206,207,0,0,271,295,295,295,
0,0,0,0,0,211,228,0,0,0,0,0,
0,0,0,0,0,0,0,0,0,0,0,0,
0,235,236,237,0,102,103,104,0,0,0,0,
250,243,244,245,0,110,111,112,0,0,0,0,
258,65,238,239,240,118,119,120,0,0,0,0,
266,65,246,247,248,0,0,0,0,0,0,0,
0,0,0,0,0,169,170,171,0,0,0,0
</data>
 </layer>
 <layer id="3" name="Livello tile 3" width="12" height="10">
  <data encoding="csv">
0,0,0,0,0,0,0,0,0,0,0,0,
0,0,0,0,0,0,0,0,0,0,0,0,
0,0,0,0,0,0,0,0,0,0,0,0,
0,0,0,0,0,0,0,0,0,0,0,0,
0,0,0,0,0,0,0,0,0,0,0,0,
0,0,0,0,0,0,0,0,0,0,0,0,
0,0,0,0,0,0,0,0,0,0,0,0,
0,0,0,0,0,0,0,0,0,0,0,0,
0,0,0,0,0,0,0,0,0,0,0,0,
0,0,0,0,0,0,0,0,0,0,0,0
</data>
 </layer>
 <objectgroup id="4" name="collisioni">
  <object id="3" x="-2.96342" y="-1.18537" width="252.293" height="78.2343"/>
  <object id="4" x="292.708" y="-6.51952" width="90.166" height="79.0212"/>
  <object id="6" x="37.56" y="183.578" width="89.2747" height="9.63713"/>
  <object id="7" x="2.37074" y="215.737" width="4.21838" height="55.1196"/>
  <object id="22" x="97.9501" y="95.1225" width="150.168" height="28.8039"/>
  <object id="24" x="97.9502" y="77.7832" width="28.2053" height="31.6233"/>
  <object id="25" x="224.919" y="77.0374" width="24.6371" height="31.6233"/>
  <object id="27" x="76.2297" y="232" width="39.8865" height="42.5106"/>
  <object id="29" x="224.409" y="-6.68274" width="95.34" height="72.7767"/>
 </objectgroup>
 <objectgroup id="5" name="eventi">
  <object id="18" name="npc_joy" x="238.026" y="143.352">
   <properties>
    <property name="id" value="npc_joy"/>
    <property name="type" value="npc"/>
   </properties>
   <point/>
  </object>
  <object id="19" name="box_pc" x="270.672" y="80.0217">
   <properties>
    <property name="id" value="pc_box"/>
    <property name="type" value="pc"/>
   </properties>
   <point/>
  </object>
  <object id="20" name="uscita pokemon center" x="180.176" y="307.603" width="56.8977" height="10.0756">
   <properties>
    <property name="type" value="uscita"/>
   </properties>
  </object>
  <object id="28" name="spawn" type="spawn" x="202.5" y="293" width="13" height="12.5">
   <properties>
    <property name="id" value="da_borgata_tuscolana"/>
    <property name="type" value="spawn"/>
   </properties>
  </object>
 </objectgroup>
</map>
