{"compressionlevel":-1,"height":10,"infinite":false,"layers":[{"data":[22,22,22,22,22,22,22,22,22,22,22,22,65,65,65,202,65,65,65,204,65,65,65,65,65,65,65,202,65,65,65,204,65,65,65,65,65,65,65,210,225,226,227,212,65,65,65,65,65,65,65,65,65,65,65,65,65,65,65,65,65,65,65,65,65,65,65,65,65,65,65,65,65,65,65,65,65,65,65,65,65,65,65,65,65,65,65,65,65,65,65,65,65,65,65,65,65,65,65,65,65,65,65,65,65,65,65,65,65,65,65,65,65,65,65,65,65,65,65,65],"height":10,"id":1,"name":"livello tile 1","opacity":1,"type":"tilelayer","visible":true,"width":12,"x":0,"y":0},{"data":[279,279,279,0,0,0,200,0,255,279,279,279,287,287,287,0,198,199,208,0,263,287,287,287,295,295,295,0,206,207,0,0,271,295,295,295,0,0,0,0,0,211,228,0,0,0,0,0,0,0,0,0,0,0,0,0,0,0,0,0,0,235,236,237,0,102,103,104,0,0,0,0,250,243,244,245,0,110,111,112,0,0,0,0,258,65,238,239,240,118,119,120,0,0,0,0,266,65,246,247,248,0,0,0,0,0,0,0,0,0,0,0,0,169,170,171,0,0,0,0],"height":10,"id":2,"name":"Livello tile 2","opacity":1,"type":"tilelayer","visible":true,"width":12,"x":0,"y":0},{"data":[0,0,0,0,0,0,0,0,0,0,0,0,0,0,0,0,0,0,0,0,0,0,0,0,0,0,0,0,0,0,0,0,0,0,0,0,0,0,0,0,0,0,0,0,0,0,0,0,0,0,0,0,0,0,0,0,0,0,0,0,0,0,0,0,0,0,0,0,0,0,0,0,0,0,0,0,0,0,0,0,0,0,0,0,0,0,0,0,0,0,0,0,0,0,0,0,0,0,0,0,0,0,0,0,0,0,0,0,0,0,0,0,0,0,0,0,0,0,0,0],"height":10,"id":3,"name":"Livello tile 3","opacity":1,"type":"tilelayer","visible":true,"width":12,"x":0,"y":0},{"draworder":"topdown","id":4,"name":"collisioni","objects":[{"height":78.2343,"id":3,"name":"","opacity":1,"rotation":0,"type":"","visible":true,"width":252.293345227475,"x":-2.96342,"y":-1.18537},{"height":79.0211544157003,"id":4,"name":"","opacity":1,"rotation":0,"type":"","visible":true,"width":90.1660481712756,"x":292.707951828724,"y":-6.51952},{"height":9.63712685102586,"id":6,"name":"","opacity":1,"rotation":0,"type":"","visible":true,"width":89.2747386262266,"x":37.5599613737734,"y":183.578073148974},{"height":55.1196,"id":7,"name":"","opacity":1,"rotation":0,"type":"","visible":true,"width":4.21837624442462,"x":2.37074,"y":215.737},{"height":28.8039422836753,"id":22,"name":"","opacity":1,"rotation":0,"type":"","visible":true,"width":150.168393398751,"x":97.9501,"y":95.1225},{"height":31.6233,"id":24,"name":"","opacity":1,"rotation":0,"type":"","visible":true,"width":28.2053,"x":97.9502,"y":77.7832},{"height":31.6233,"id":25,"name":"","opacity":1,"rotation":0,"type":"","visible":true,"width":24.6370573595004,"x":224.919,"y":77.0374},{"height":42.5105625334523,"id":27,"name":"","opacity":1,"rotation":0,"type":"","visible":true,"width":39.8864897413024,"x":76.2297036574487,"y":231.999721677074},{"height":72.7767,"id":29,"name":"","opacity":1,"rotation":0,"type":"","visible":true,"width":95.34,"x":224.409,"y":-6.68274}],"opacity":1,"type":"objectgroup","visible":true,"x":0,"y":0},{"draworder":"topdown","id":5,"name":"eventi","objects":[{"height":0,"id":18,"name":"npc_joy","opacity":1,"point":true,"properties":[{"name":"id","type":"string","value":"npc_joy"},{"name":"type","type":"string","value":"npc"}],"rotation":0,"type":"","visible":true,"width":0,"x":238.026,"y":143.352},{"height":0,"id":19,"name":"box_pc","opacity":1,"point":true,"properties":[{"name":"id","type":"string","value":"pc_box"},{"name":"type","type":"string","value":"pc"}],"rotation":0,"type":"","visible":true,"width":0,"x":270.672,"y":80.0217},{"height":10.0756,"id":20,"name":"uscita pokemon center","opacity":1,"properties":[{"name":"type","type":"string","value":"uscita"}],"rotation":0,"type":"","visible":true,"width":56.8977,"x":180.176,"y":307.603},{"height":12.5,"id":28,"name":"spawn","opacity":1,"properties":[{"name":"id","type":"string","value":"da_marino"},{"name":"type","type":"string","value":"spawn"}],"rotation":0,"type":"spawn","visible":true,"width":13,"x":202.5,"y":293},{"id":30,"name":"mercante_scambi","type":"npc","properties":[{"name":"id","type":"string","value":"mercante_scambi"},{"name":"type","type":"string","value":"npc"}],"x":60,"y":200,"width":0,"height":0},{"id":31,"name":"npc_pokecenter_marino_1","type":"npc","properties":[{"name":"id","type":"string","value":"npc_pokecenter_marino_1"},{"name":"type","type":"string","value":"npc"}],"x":150,"y":200,"width":0,"height":0}],"opacity":1,"type":"objectgroup","visible":true,"x":0,"y":0}],"nextlayerid":6,"nextobjectid":32,"orientation":"orthogonal","renderorder":"right-down","tiledversion":"1.12.2","tileheight":32,"tilesets":[{"firstgid":1,"source":"../Tiled/Poke Centre interior.tsx"}],"tilewidth":32,"type":"map","version":"1.10","width":12}