<?xml version="1.0" encoding="UTF-8"?>
<map version="1.10" tiledversion="1.12.2" orientation="orthogonal" renderorder="right-down" width="15" height="13" tilewidth="32" tileheight="32" infinite="0" nextlayerid="7" nextobjectid="65">
 <tileset firstgid="1" source="../Tiled/Interior general.tsx"/>
 <tileset firstgid="8033" source="../professor Castagno.tsx"/>
 <tileset firstgid="8129" source="../../outside.tsx"/>
 <tileset firstgid="12145" source="../Tiled/Gyms interior.tsx"/>
 <tileset firstgid="13297" source="../outside.tsx"/>
 <tileset firstgid="17313" source="../Mart interior.tsx"/>
 <layer id="1" name="ground" width="15" height="13">
  <data encoding="csv">
17345,17346,17347,17345,17346,17347,17345,17346,17347,17345,17346,17347,17345,17346,17347,
17353,17354,17355,17353,17354,17355,17353,17354,17355,17353,17354,17355,17353,17354,17355,
17361,17362,17363,17361,17362,17363,17361,17362,17363,17361,17362,17363,17361,17362,17363,
17345,17346,17347,17345,17346,17347,17345,17346,17347,17345,17346,17347,17345,17346,17347,
17353,17354,17355,17353,17354,17355,17353,17354,17355,17353,17354,17355,17353,17354,17355,
17361,17362,17363,17361,17362,17363,17361,17362,17363,17361,17362,17363,17361,17362,17363,
17345,17346,17347,17345,17346,17347,17345,17346,17347,17345,17346,17347,17345,17346,17347,
17353,17354,17355,17353,17354,17355,17353,17354,17355,17353,17354,17355,17353,17354,17355,
17361,17362,17363,17361,17362,17363,17361,17362,17363,17361,17362,17363,17361,17362,17363,
17345,17346,17347,17345,17346,17347,17345,17346,17347,17345,17346,17347,17345,17346,17347,
17353,17354,17355,17353,17354,17355,17353,17354,17355,17353,17354,17355,17353,17354,17355,
17361,17362,17363,17361,17362,17363,17361,17362,17363,17361,17362,17363,17361,17362,17363,
0,0,0,0,0,0,0,8129,0,0,0,0,0,0,0
</data>
 </layer>
 <layer id="2" name="deco_sotto" width="15" height="13">
  <data encoding="csv">
17314,17314,17314,17314,17314,17314,17314,17314,17314,17314,17314,17314,17314,17314,17314,
17322,17322,17322,17322,17322,17322,17322,17322,17322,17322,17322,17322,17322,17322,17322,
0,0,0,0,0,0,0,0,0,17383,17384,0,0,0,0,
0,0,0,0,0,0,0,0,0,17391,17392,0,0,0,0,
0,0,0,0,0,0,0,0,0,17399,17400,0,0,0,0,
0,0,0,0,0,0,0,0,0,17407,17408,0,0,0,0,
0,0,0,0,0,0,0,0,0,0,0,0,0,0,0,
0,0,0,0,0,0,0,0,0,0,0,0,0,0,0,
0,0,0,0,0,0,0,0,0,0,0,0,0,0,0,
0,0,0,0,0,0,0,0,0,0,0,0,0,0,0,
0,0,0,0,0,0,17349,17349,17349,0,0,0,0,0,0,
0,0,0,0,0,0,17332,17333,17334,0,0,0,0,0,0,
0,0,0,0,0,0,17340,17341,17342,0,0,0,0,0,0
</data>
 </layer>
 <layer id="3" name="edifici" width="15" height="13">
  <data encoding="csv">
0,0,0,0,0,0,0,0,17414,17415,17416,0,17414,17415,17416,
0,0,0,0,17413,17318,0,0,17422,17423,17424,17318,17422,17423,17424,
0,0,0,0,17421,17326,0,0,0,17383,17384,17326,0,17383,17384,
0,0,0,0,17421,0,0,0,0,17391,17392,0,0,17391,17392,
17417,17418,17419,17420,17421,0,0,0,0,17399,17400,0,0,17399,17400,
17425,17426,17427,17428,17429,0,0,0,0,17407,17408,0,0,17407,17408,
17318,0,0,0,0,0,0,0,0,0,0,0,0,0,0,
17326,0,0,0,0,0,0,0,0,0,17383,17384,0,17383,17384,
17318,0,0,0,0,0,0,0,0,0,17391,17392,0,17391,17392,
17326,0,0,0,0,0,0,0,0,0,17399,17400,0,17399,17400,
17318,0,17318,0,0,17318,0,0,0,0,17407,17408,0,17407,17408,
17326,0,17326,0,0,17326,0,0,0,0,0,0,0,0,0,
0,0,0,0,0,0,0,0,0,0,0,0,0,0,0
</data>
 </layer>
 <layer id="4" name="sopra_testa" width="15" height="13">
  <data encoding="csv">
0,0,0,0,0,0,17317,0,17414,17415,17416,0,17414,17415,17416,
0,0,0,0,17381,17318,17325,0,17422,17423,17424,17318,17422,17423,17424,
0,0,0,0,17389,17326,0,0,17430,17431,17432,17326,17430,17431,17432,
0,0,0,0,0,0,0,0,0,0,0,0,0,17391,17392,
0,0,0,0,0,0,0,0,0,0,0,0,0,17399,17400,
0,0,0,0,0,0,0,0,0,0,0,0,0,17407,17408,
17318,0,0,0,0,0,0,0,0,0,0,0,0,0,0,
17326,0,0,0,0,0,0,0,0,0,17383,17384,0,17383,17384,
17318,0,0,0,0,0,0,0,0,0,17391,17392,0,17391,17392,
17326,0,0,0,0,0,0,0,0,0,17399,17400,0,17399,17400,
17318,0,17318,0,0,17318,0,0,0,0,17407,17408,0,17407,17408,
17326,0,17326,0,0,17326,0,0,0,0,0,0,0,0,0,
0,0,0,0,0,0,0,0,0,0,0,0,0,0,0
</data>
 </layer>
 <objectgroup id="5" name="collisioni">
  <object id="41" x="-2" y="0.5" width="162.5" height="186.5"/>
  <object id="42" x="-4" y="183" width="34.5" height="200"/>
  <object id="43" x="2.5" y="359" width="184" height="23.5"/>
  <object id="44" x="424.5" y="250.5" width="60.5" height="102.5"/>
  <object id="45" x="297.25" y="91.25" width="50.25" height="94.75"/>
  <object id="46" x="157" y="1.5" width="324.5" height="55.25"/>
  <object id="47" name="bancone_market" x="64" y="96" width="96" height="96"/>
  <object id="51" x="422.125" y="97.375" width="50.25" height="86.5"/>
  <object id="52" x="327.875" y="254.875" width="50.25" height="94.75"/>
  <object id="53" x="160.875" y="48.375" width="23.75" height="42.5"/>
  <object id="55" x="258.125" y="34.75" width="227.5" height="42.5"/>
  <object id="56" x="357.375" y="49" width="23.75" height="42.5"/>
  <object id="57" x="165.625" y="344" width="23.75" height="42.5"/>
  <object id="58" x="71.125" y="342.25" width="23.75" height="42.5"/>
  <object id="59" x="71.125" y="342.25" width="23.75" height="42.5"/>
 </objectgroup>
 <objectgroup id="6" name="eventi">
  <object id="47" name="npc" type="npc" x="103.5" y="133.5" width="15" height="13.5">
   <properties>
    <property name="direzione" value="sud"/>
    <property name="id" value="pokemon market venditore"/>
    <property name="type" value="npc"/>
   </properties>
  </object>
  <object id="61" name="npc" type="npc" x="231.5" y="76.5" width="16.5" height="17">
   <properties>
    <property name="direzione" value="sud"/>
    <property name="id" value="dentro il market cliente 1"/>
    <property name="type" value="npc"/>
   </properties>
  </object>
  <object id="62" name="npc" type="npc" x="368.5" y="128.25" width="16.5" height="17">
   <properties>
    <property name="direzione" value="sud"/>
    <property name="id" value="dentro il market cliente 2"/>
    <property name="type" value="npc"/>
   </properties>
  </object>
  <object id="63" name="npc" type="npc" x="397.5" y="207.5" width="16.5" height="17">
   <properties>
    <property name="direzione" value="sud"/>
    <property name="id" value="dentro il market cliente 3"/>
    <property name="type" value="npc"/>
   </properties>
  </object>
  <object id="49" name="warp" type="warp" x="233" y="391.326" width="22" height="22">
   <properties>
    <property name="destinazione" value="frascati centro"/>
    <property name="spawn_id" value="da_poke market frascati"/>
    <property name="type" value="warp"/>
   </properties>
  </object>
  <object id="49" name="warp" type="warp" x="233" y="391.326" width="22" height="22">
   <properties>
    <property name="destinazione" value="frascati centro"/>
    <property name="spawn_id" value="da_poke market frascati"/>
    <property name="type" value="warp"/>
   </properties>
  </object>
  <object id="50" name="spawn" type="spawn" x="223.076" y="354.924" width="32" height="32">
   <properties>
    <property name="id" value="da_frascati centro"/>
    <property name="type" value="spawn"/>
   </properties>
  </object>
 </objectgroup>
</map>
