<?xml version="1.0" encoding="UTF-8"?>
<map version="1.10" tiledversion="1.12.2" orientation="orthogonal" renderorder="right-down" width="28" height="28" tilewidth="32" tileheight="32" infinite="0" nextlayerid="7" nextobjectid="162">
 <tileset firstgid="1" source="../../outside.tsx"/>
 <tileset firstgid="4017" source="../Tiled/Gyms interior.tsx"/>
 <tileset firstgid="5169" source="../../Emerald_Outside.tsx"/>
 <tileset firstgid="10417" source="../outside.tsx"/>
 <tileset firstgid="14433" source="../palestre.tsj"/>
 <tileset firstgid="15457" source="../palestre2.tsj"/>
 <tileset firstgid="16481" source="../palestre3.tsj"/>
 <tileset firstgid="17505" source="../Caves.tsj"/>
 <tileset firstgid="19097" source="../lava_animata_v2.tsj"/>
 <layer id="1" name="ground" width="28" height="28">
  <data encoding="csv">
10417,10417,10417,10417,10417,10417,10417,10417,10417,10417,10417,10417,10417,10417,10417,10417,10417,10417,10417,10417,10417,10417,10417,10417,10417,10417,10417,10417,
16161,16357,16356,16357,16356,16357,16356,16357,16356,16357,16356,16357,16356,16357,16356,16357,16356,16357,16356,16357,16356,16357,16356,16357,16356,16357,16356,16264,
16161,16325,16324,16325,16324,16325,16324,16325,16324,16325,16324,16325,16324,16325,16324,16325,16324,16325,16324,16325,16324,16325,16324,16325,16324,16325,16324,16264,
16161,16357,16356,16357,16356,16357,16356,16357,16356,16357,16356,16357,16356,16357,16356,16357,16356,16357,16356,16357,16356,16357,16356,16357,16356,16357,16356,16264,
16161,16325,16324,16325,16324,16325,16324,16325,16324,16325,16324,16325,16324,16325,16324,16325,16324,16325,16324,16325,16324,16325,16324,16325,16324,16325,16324,16264,
16161,16357,16356,16357,16356,16357,16356,16357,16356,16357,16356,16357,16356,16357,16356,16357,16356,16357,16356,16357,16356,16357,16356,16357,16356,16357,16356,16264,
16161,16325,16324,16325,16324,16325,16324,16325,16324,16325,16324,16325,16324,16325,16324,16325,16324,16325,16324,16325,16324,16325,16324,16325,16324,16325,16324,16264,
16161,16357,16356,16357,16356,16357,16356,16357,16356,16357,16356,16357,16356,16357,16356,16357,16356,16357,16356,16357,16356,16357,16356,16357,16356,16357,16356,16264,
16161,16325,16324,16325,16324,16325,16324,16325,16324,16325,16324,16325,16324,16325,16324,16325,16324,16325,16324,16325,16324,16325,16324,16325,16324,16325,16324,16264,
16161,16357,16356,16357,16356,16357,16356,16357,16356,16357,16356,16357,16356,16357,16356,16357,16356,16357,16356,16357,16356,16357,16356,16357,16356,16357,16356,16264,
16161,16325,16324,16325,16324,16325,16324,16325,16324,16325,16324,16325,16324,16325,16324,16325,16324,16325,16324,16325,16324,16325,16324,16325,16324,16325,16324,16264,
16161,16357,16356,16357,16356,16357,16356,16357,16356,16357,16356,16357,16356,16357,16356,16357,16356,16357,16356,16357,16356,16357,16356,16357,16356,16357,16356,16264,
16161,16325,16324,16325,16324,16325,16324,16325,16324,16325,16324,16325,16324,16325,16324,16325,16324,16325,16324,16325,16324,16325,16324,16325,16324,16325,16324,16264,
16161,16357,16356,16357,16356,16357,16356,16357,16356,16357,16356,16357,16356,16357,16356,16357,16356,16357,16356,16357,16356,16357,16356,16357,16356,16357,16356,16264,
16161,16325,16324,16325,16324,16325,16324,16325,16324,16325,16324,16325,16324,16325,16324,16325,16324,16325,16324,16325,16324,16325,16324,16325,16324,16325,16324,16264,
16161,16357,16356,16357,16356,16357,16356,16357,16356,16357,16356,16357,16356,16357,16356,16357,16356,16357,16356,16357,16356,16357,16356,16357,16356,16357,16356,16264,
16161,16325,16324,16325,16324,16325,16324,16325,16324,16325,16324,16325,16324,16325,16324,16325,16324,16325,16324,16325,16324,16325,16324,16325,16324,16325,16324,16264,
16161,16357,16356,16357,16356,16357,16356,16357,16356,16357,16356,16357,16356,16357,16356,16357,16356,16357,16356,16357,16356,16357,16356,16357,16356,16357,16356,16264,
16161,16325,16324,16325,16324,16325,16324,16325,16324,16325,16324,16325,16324,16325,16324,16325,16324,16325,16324,16325,16324,16325,16324,16325,16324,16325,16324,16264,
16161,16357,16356,16357,16356,16357,16356,16357,16356,16357,16356,16357,16356,16357,16356,16357,16356,16357,16356,16357,16356,16357,16356,16357,16356,16357,16356,16264,
16161,16325,16324,16325,16324,16325,16324,16325,16324,16325,16324,16325,16324,16325,16324,16325,16324,16325,16324,16325,16324,16325,16324,16325,16324,16325,16324,16264,
16161,16357,16356,16357,16356,16357,16356,16357,16356,16357,16356,16357,16356,16357,16356,16357,16356,16357,16356,16357,16356,16357,16356,16357,16356,16357,16356,16264,
16161,16325,16324,16325,16324,16325,16324,16325,16324,16325,16324,16325,16324,16325,16324,16325,16324,16325,16324,16325,16324,16325,16324,16325,16324,16325,16324,16264,
16161,16357,16356,16357,16356,16357,16356,16357,16356,16357,16356,16357,16356,16357,16356,16357,16356,16357,16356,16357,16356,16357,16356,16357,16356,16357,16356,16264,
16161,16325,16324,16325,16324,16325,16324,16325,16324,16325,16324,16325,16324,16325,16324,16325,16324,16325,16324,16325,16324,16325,16324,16325,16324,16325,16324,16264,
16161,16357,16356,16357,16356,16357,16356,16357,16356,16357,16356,16357,16356,16357,16356,16357,16356,16357,16356,16357,16356,16357,16356,16357,16356,16357,16356,16264,
16161,16325,16324,16325,16324,16325,16324,16325,16324,16325,16324,16325,16324,16325,16324,16325,16324,16325,16324,16325,16324,16325,16324,16325,16324,16325,16324,16264,
17318,17318,17318,17318,17318,17318,17318,17318,17318,17318,17318,17318,17318,17318,17318,17318,17318,17318,17318,17318,17318,17318,17318,17318,17318,17318,17318,1
</data>
 </layer>
 <layer id="2" name="deco_sotto" width="28" height="28">
  <data encoding="csv">
16140,16141,16140,16141,16140,16141,16140,16141,16140,16141,16140,16141,16140,16141,16140,16141,16140,16141,16140,16141,16140,16141,16140,16141,16140,16141,16140,16141,
16172,16173,16172,16173,16172,16173,16172,16173,16172,16173,16172,16173,16172,16173,16172,16173,16172,16173,16172,16173,16172,16173,16172,16173,16172,16173,16172,16173,
16204,16205,16204,16205,16204,16205,16204,16205,16204,16205,16204,16205,16204,16205,16204,16205,16204,16205,16204,16205,16204,16205,16204,16205,16204,16205,16204,16205,
0,0,0,0,0,0,0,0,0,0,0,0,0,0,0,0,0,0,0,0,0,0,0,0,0,0,0,0,
0,0,0,0,0,0,0,0,0,0,0,0,0,0,0,0,0,0,0,0,0,0,0,0,0,0,0,0,
0,0,0,0,0,0,0,0,0,0,0,0,0,0,0,0,0,0,0,0,0,0,0,0,0,0,0,0,
0,0,0,0,0,0,0,0,0,0,0,0,0,0,0,0,0,0,0,0,0,0,0,0,0,0,0,0,
0,0,0,0,0,0,0,0,0,0,0,0,0,0,0,0,0,0,0,0,0,0,0,0,0,0,0,0,
0,0,0,0,0,0,0,0,0,0,0,0,0,0,0,0,0,0,0,0,0,0,0,0,0,0,0,0,
0,0,0,0,0,0,0,0,0,0,0,0,0,0,0,0,0,0,0,0,0,0,0,0,0,0,0,0,
0,0,0,0,0,0,0,0,0,0,0,0,0,0,0,0,0,0,0,0,0,0,0,0,0,0,0,0,
0,0,0,0,0,0,0,0,0,0,0,0,0,0,0,0,0,0,0,0,0,0,0,0,0,0,0,0,
0,0,0,0,0,0,0,0,0,0,0,0,0,0,0,0,0,0,0,0,0,0,0,0,0,0,0,0,
0,0,0,0,0,0,0,0,0,0,0,0,0,0,0,0,0,0,0,0,0,0,0,0,0,0,0,0,
0,0,0,0,0,0,0,0,0,0,0,0,0,0,0,0,0,0,0,0,0,0,0,0,0,0,0,0,
0,0,0,0,0,0,0,0,0,0,0,0,0,0,0,0,0,0,0,0,0,0,0,0,0,0,0,0,
0,0,0,0,0,0,0,0,0,0,0,0,0,0,0,0,0,0,0,0,0,0,0,0,0,0,0,0,
0,0,0,0,0,0,0,0,0,0,0,0,0,0,0,0,0,0,0,0,0,0,0,0,0,0,0,0,
0,0,0,0,0,0,0,0,0,0,0,0,0,0,0,0,0,0,0,0,0,0,0,0,0,0,0,0,
0,0,0,0,0,0,0,0,0,0,0,0,0,0,0,0,0,0,0,0,0,0,0,0,0,0,0,0,
0,0,0,0,0,0,0,0,0,0,0,0,0,0,0,0,0,0,0,0,0,0,0,0,0,0,0,0,
0,0,0,0,0,0,0,0,0,0,0,0,0,0,0,0,0,0,0,0,0,0,0,0,0,0,0,0,
0,0,0,0,0,0,0,0,0,0,0,0,0,0,0,0,0,0,0,0,0,0,0,0,0,0,0,0,
0,0,0,0,0,0,0,0,0,0,0,0,0,0,0,0,0,0,0,0,0,0,0,0,0,0,0,0,
0,0,0,0,0,0,0,0,0,0,0,0,0,0,0,0,0,0,0,0,0,0,0,0,0,0,0,0,
0,0,0,0,0,0,0,0,0,0,0,0,0,0,0,0,0,0,0,0,0,0,0,0,0,0,0,0,
0,0,0,0,0,0,0,0,0,0,0,0,0,0,0,0,0,0,0,0,0,0,0,0,0,0,0,0,
4017,4017,4017,4017,4017,4017,4017,4017,4017,4017,4017,4017,4027,4028,4029,4017,4017,4017,4017,4017,4017,4017,4017,4017,4017,4017,4017,0
</data>
 </layer>
 <layer id="3" name="edfici" width="28" height="28">
  <data encoding="csv">
0,0,0,0,0,0,0,0,0,0,0,0,0,0,0,0,0,0,0,0,0,0,0,0,0,0,0,0,
0,0,0,0,0,0,0,0,0,0,0,0,0,0,0,0,0,0,0,0,0,0,0,0,0,0,0,0,
0,0,0,0,0,0,0,0,0,0,0,0,0,0,0,0,0,0,0,0,0,0,0,0,0,0,0,0,
19195,0,0,0,0,0,0,17833,17834,17835,17833,15284,17881,17882,17882,17883,15284,17835,17833,17834,17835,0,0,0,0,0,0,19193,
19195,0,0,0,0,0,0,17841,17842,17843,17841,15316,17889,17890,17890,17891,15316,17843,17841,17842,17843,0,0,0,0,0,0,19193,
19195,0,15290,15291,15292,15293,0,17849,17850,17851,17841,15348,17897,17890,17890,17899,15348,17843,17849,17850,17851,0,15290,15291,15292,15293,0,19193,
19195,0,15322,15323,15324,15325,0,0,0,0,17849,17850,17850,17868,17868,17850,17850,17851,0,0,0,0,15322,15323,15324,15325,0,19193,
19195,0,15354,15355,15356,15357,0,0,0,0,19194,0,0,0,0,0,0,19194,0,0,0,0,15354,15355,15356,15357,0,19193,
19195,0,0,0,0,19194,0,0,0,0,19194,19194,0,0,0,0,0,19194,0,0,0,0,0,0,0,0,0,19193,
19195,0,0,0,0,19194,0,0,0,0,0,19194,19194,0,0,0,0,19194,0,0,0,0,0,0,0,0,0,19193,
19195,0,0,0,0,19194,0,0,0,0,0,0,19194,0,0,0,0,19194,0,0,0,0,0,0,0,0,0,19193,
19195,0,0,0,0,19194,0,0,19194,0,19194,0,0,0,0,0,0,19194,0,0,0,0,0,0,0,0,0,19193,
19195,0,0,0,0,19194,19194,19194,19194,19194,19194,0,19194,19194,19194,19194,19194,0,0,19194,19194,0,0,0,0,0,0,19193,
19195,0,0,0,0,19194,0,0,19194,0,0,19194,0,0,0,0,0,0,0,0,19194,19194,0,0,0,0,0,19193,
19195,0,0,0,0,0,0,0,0,0,0,0,0,0,0,0,0,0,0,0,0,19194,0,0,0,0,0,19193,
19195,0,0,0,0,0,0,0,0,0,0,0,0,0,0,0,0,0,0,0,0,19194,19194,0,0,0,0,19193,
19195,0,0,0,0,0,0,0,0,0,0,0,0,0,0,0,0,0,0,0,0,0,19194,0,0,0,0,19193,
19195,0,0,0,0,0,0,0,0,0,0,0,0,0,0,0,0,0,0,0,0,0,19194,0,0,0,0,19193,
19195,0,0,0,0,0,0,0,0,0,0,19194,19194,19194,19194,19194,19194,19194,19194,19194,19194,19194,19194,0,0,0,0,19193,
19195,0,0,0,0,0,0,0,0,0,0,19194,0,0,0,0,0,0,0,0,0,0,0,0,0,0,0,19193,
19195,0,0,0,0,0,0,0,0,0,19194,19194,0,0,0,0,0,0,0,0,0,0,0,0,0,0,0,19193,
19195,0,0,0,0,15290,15291,15292,15293,0,19194,0,0,0,0,0,0,0,0,0,0,0,0,0,0,0,0,19193,
19195,0,0,0,0,15322,15323,15324,15325,0,19194,0,0,0,0,0,0,0,0,0,0,0,0,15290,15291,15292,15293,19193,
19195,0,0,19194,19194,15354,15355,15356,15357,0,19194,0,0,0,0,0,0,0,0,0,0,0,0,15322,15323,15324,15325,19193,
19195,0,0,0,19194,0,0,0,17833,17834,17835,0,0,0,0,0,17833,17834,17835,0,0,0,0,15354,15355,15356,15357,19193,
19195,16423,16423,16423,16423,16423,16423,16423,17841,17842,17843,0,0,0,0,0,17841,17842,17843,16423,16423,16423,16423,16423,16423,16423,16423,19193,
19099,19146,19146,19146,19146,19146,19146,19146,17849,17850,17851,0,5156,5157,5158,0,17849,17850,17851,19146,19146,19146,19146,19146,19146,19146,19146,19099,
0,0,0,0,0,0,0,0,0,0,0,0,5164,5165,5166,0,0,0,0,0,0,0,0,0,0,0,0,0
</data>
 </layer>
 <layer id="4" name="sopra_testa" width="28" height="28">
  <data encoding="csv">
0,0,0,0,0,0,0,0,0,0,0,0,0,0,0,0,0,0,0,0,0,0,0,0,0,0,0,0,
0,0,0,0,0,0,0,0,0,0,0,0,0,0,0,0,0,0,0,0,0,0,0,0,0,0,0,0,
0,0,0,0,0,0,0,0,0,0,0,0,0,0,0,0,0,0,0,0,0,0,0,0,0,0,0,0,
0,0,0,0,0,0,0,0,11383,0,0,0,0,0,0,0,0,0,0,11383,0,0,0,0,0,0,0,0,
0,0,0,0,0,0,0,0,11391,0,0,0,0,0,0,0,0,0,0,11391,0,0,0,0,0,0,0,0,
0,0,0,0,0,0,0,0,0,0,0,0,0,0,0,0,0,0,0,0,0,0,0,0,0,0,0,0,
0,0,0,0,0,0,0,0,0,0,0,0,0,0,0,0,0,0,0,0,0,0,0,0,0,0,0,0,
0,0,0,0,0,0,0,0,0,0,0,0,0,0,0,0,0,0,0,0,0,0,0,0,0,0,0,0,
0,0,0,0,0,0,0,0,0,0,0,0,0,0,0,0,0,0,0,0,0,0,0,0,0,0,0,0,
0,0,0,0,0,0,0,0,0,0,0,0,0,0,0,0,0,0,0,0,0,0,0,0,0,0,0,0,
0,0,0,0,0,0,0,0,0,0,0,0,0,0,0,0,0,0,0,0,0,0,0,0,0,0,0,0,
0,0,0,0,0,0,0,0,0,0,0,0,0,0,0,0,0,0,0,0,0,0,0,0,0,0,0,0,
0,0,0,0,0,0,0,0,0,0,0,0,0,0,0,0,0,0,0,0,0,0,0,0,0,0,0,0,
0,0,0,0,0,0,0,0,0,0,0,0,0,0,0,0,0,0,0,0,0,0,0,0,0,0,0,0,
0,0,0,0,0,0,0,0,0,0,0,0,0,0,0,0,0,0,0,0,0,0,0,0,0,0,0,0,
0,0,0,0,0,0,0,0,0,0,0,0,0,0,0,0,0,0,0,0,0,0,0,0,0,0,0,0,
0,0,0,0,0,0,0,0,0,0,0,0,0,0,0,0,0,0,0,0,0,0,0,0,0,0,0,0,
0,0,0,0,0,0,0,0,0,0,0,0,0,0,0,0,0,0,0,0,0,0,0,0,0,0,0,0,
0,0,0,0,0,0,0,0,0,0,0,0,0,0,0,0,0,0,0,0,0,0,0,0,0,0,0,0,
0,0,0,0,0,0,0,0,0,0,0,0,0,0,0,0,0,0,0,0,0,0,0,0,0,0,0,0,
0,0,0,0,0,0,0,0,0,0,0,0,0,0,0,0,0,0,0,0,0,0,0,0,0,0,0,0,
0,0,0,0,0,0,0,0,0,0,0,0,0,0,0,0,0,0,0,0,0,0,0,0,0,0,0,0,
0,0,0,0,0,0,0,0,0,0,0,0,0,0,0,0,0,0,0,0,0,0,0,0,0,0,0,0,
0,0,0,0,0,0,0,0,0,0,0,0,0,0,0,0,0,0,0,0,0,0,0,0,0,0,0,0,
0,0,0,0,0,0,0,0,0,11383,0,0,0,0,0,0,0,11383,0,0,0,0,0,0,0,0,0,0,
0,0,0,0,0,0,0,0,0,11391,0,0,0,0,0,0,0,11391,0,0,0,0,0,0,0,0,0,0,
0,0,0,0,0,0,0,0,0,0,0,0,0,0,0,0,0,0,0,0,0,0,0,0,0,0,0,0,
0,0,0,0,0,0,0,0,0,0,0,0,0,0,0,0,0,0,0,0,0,0,0,0,0,0,0,0
</data>
 </layer>
 <objectgroup id="6" name="collisioni">
  <object id="113" x="330" y="231" width="17.5" height="48"/>
  <object id="114" x="361" y="267" width="16.5" height="41.5"/>
  <object id="115" x="395" y="299" width="11.5" height="45.5"/>
  <object id="116" x="556" y="236" width="9" height="146"/>
  <object id="117" x="621" y="394.5" width="44.5" height="12"/>
  <object id="118" x="656.5" y="394" width="2.5" height="41.5"/>
  <object id="119" x="666" y="424" width="25.5" height="16"/>
  <object id="120" x="687.5" y="423" width="4" height="87.5"/>
  <object id="121" x="713" y="487.5" width="7.5" height="112.5"/>
  <object id="122" x="359.5" y="585.5" width="358.5" height="5"/>
  <object id="123" x="363" y="586" width="9" height="74.5"/>
  <object id="124" x="324.5" y="650" width="15.5" height="197.5"/>
  <object id="125" x="270" y="780.5" width="63.5" height="65"/>
  <object id="126" x="3.5" y="837" width="247.5" height="9.5"/>
  <object id="127" x="8" y="4" width="7.5" height="824.5"/>
  <object id="128" x="242.5" y="104.5" width="101" height="76"/>
  <object id="129" x="340.5" y="164.5" width="1.5" height="49"/>
  <object id="130" x="336.5" y="198.5" width="74.5" height="16.5"/>
  <object id="131" x="485.5" y="201.5" width="88.5" height="18"/>
  <object id="132" x="558" y="100" width="13" height="118.5"/>
  <object id="133" x="588" y="96" width="79.5" height="93.5"/>
  <object id="134" x="8" y="8" width="896" height="71.5"/>
  <object id="135" x="876.5" y="8" width="18.5" height="861"/>
  <object id="136" x="592.5" y="837" width="302.5" height="31"/>
  <object id="137" x="523.5" y="778.5" width="69" height="68.5"/>
  <object id="138" x="103" y="746" width="42" height="13.5"/>
  <object id="139" x="136.5" y="752.5" width="12.5" height="39.5"/>
  <object id="140" x="169" y="423.5" width="16.5" height="21.5"/>
  <object id="141" x="199.5" y="398.5" width="146" height="7"/>
  <object id="142" x="334.5" y="362.5" width="8" height="32.5"/>
  <object id="143" x="264" y="364.5" width="16" height="76.5"/>
  <object id="144" x="362" y="423" width="12" height="20"/>
  <object id="145" x="391.5" y="393" width="147" height="16"/>
  <object id="146" x="352.5" y="89" width="42" height="104"/>
  <object id="147" x="508.5" y="82.5" width="30.5" height="110.5"/>
  <object id="148" x="490" y="177" width="19" height="13.5"/>
  <object id="149" x="394" y="179.5" width="14" height="17"/>
  <object id="150" x="91.5" y="191" width="57.5" height="44"/>
  <object id="151" x="735.5" y="192.5" width="64" height="38.5"/>
  <object id="152" x="768" y="735" width="63.5" height="40"/>
  <object id="153" x="194.5" y="706" width="49" height="43.5"/>
  <object id="154" x="311.722" y="836.253" width="31.9715" height="54.4514"/>
  <object id="155" x="517.538" y="832.257" width="20.9813" height="59.4469"/>
  <object id="156" x="345.192" y="869.723" width="56.4496" height="25.9768"/>
  <object id="157" x="459.59" y="868.724" width="59.4469" height="24.4781"/>
  <object id="158" x="406.637" y="879.715" width="53.9518" height="17.4844"/>
  <object id="159" x="969.135" y="319.215"/>
  <object id="160" x="142" y="221" width="20" height="21"/>
  <object id="161" x="166" y="262" width="16" height="163"/>
 </objectgroup>
 <objectgroup id="5" name="eventi">
  <object id="1" name="Petalino" x="240.856" y="439.151">
   <properties>
    <property name="direzione" value="sud"/>
    <property name="id" value="gregario 1 palestra genzano"/>
    <property name="type" value="trainer"/>
    <property name="vista" value="7"/>
   </properties>
   <point/>
  </object>
  <object id="2" name="Fiamma" x="151.022" y="431.158">
   <properties>
    <property name="direzione" value="sud"/>
    <property name="id" value="gregario 2 palestra genzano"/>
    <property name="type" value="trainer"/>
    <property name="vista" value="7"/>
   </properties>
   <point/>
  </object>
  <object id="3" name="Rosa" x="684.632" y="205.859">
   <properties>
    <property name="direzione" value="sud"/>
    <property name="id" value="gregario 3 palestra genzano"/>
    <property name="type" value="trainer"/>
    <property name="vista" value="7"/>
   </properties>
   <point/>
  </object>
  <object id="4" name="Elisa" x="302.558" y="214.851">
   <properties>
    <property name="direzione" value="sud"/>
    <property name="id" value="gregario 4 palestra genzano"/>
    <property name="type" value="trainer"/>
    <property name="vista" value="7"/>
   </properties>
   <point/>
  </object>
  <object id="5" name="Elena" x="840.664" y="123.433">
   <properties>
    <property name="direzione" value="sud"/>
    <property name="id" value="gregario 5 palestra genzano"/>
    <property name="type" value="trainer"/>
    <property name="vista" value="7"/>
   </properties>
   <point/>
  </object>
  <object id="6" name="Dino" x="563.996" y="626.483">
   <properties>
    <property name="direzione" value="sud"/>
    <property name="id" value="gregario 6 palestra genzano"/>
    <property name="type" value="trainer"/>
    <property name="vista" value="7"/>
   </properties>
   <point/>
  </object>
  <object id="7" name="Titania" x="753.913" y="489.106">
   <properties>
    <property name="direzione" value="sud"/>
    <property name="id" value="gregario 7 palestra genzano"/>
    <property name="type" value="trainer"/>
    <property name="vista" value="7"/>
   </properties>
   <point/>
  </object>
  <object id="8" name="Mirko" x="527.201" y="248.821">
   <properties>
    <property name="direzione" value="ovest"/>
    <property name="id" value="gregario 8 palestra genzano"/>
    <property name="type" value="trainer"/>
    <property name="vista" value="7"/>
   </properties>
   <point/>
  </object>
  <object id="9" name="Orazio" x="394.248" y="437.666">
   <properties>
    <property name="direzione" value="sud"/>
    <property name="id" value="gregario 9 palestra genzano"/>
    <property name="type" value="trainer"/>
    <property name="vista" value="7"/>
   </properties>
   <point/>
  </object>
  <object id="10" name="Ninfa" x="331.889" y="632.492">
   <properties>
    <property name="direzione" value="nord"/>
    <property name="id" value="gregario 10 palestra genzano"/>
    <property name="type" value="trainer"/>
    <property name="vista" value="7"/>
   </properties>
   <point/>
  </object>
  <object id="11" name="Camilla" x="446.359" y="127.443">
   <properties>
    <property name="direzione" value="sud"/>
    <property name="id" value="gym_leader_palestra genzano"/>
    <property name="type" value="trainer"/>
    <property name="vista" value="7"/>
   </properties>
   <point/>
  </object>
  <object id="12" name="spawn" x="434.985" y="838.097">
   <properties>
    <property name="id" value="entrata_principale"/>
    <property name="type" value="spawn"/>
   </properties>
   <point/>
  </object>
  <object id="13" name="warp" x="433.861" y="877.885">
   <properties>
    <property name="destinazione" value="genzano"/>
    <property name="spawn_id" value="da_palestra_genzano"/>
    <property name="type" value="warp"/>
   </properties>
   <point/>
  </object>
 </objectgroup>
</map>
