<?xml version="1.0" encoding="UTF-8"?>
<map version="1.10" tiledversion="1.12.2" orientation="orthogonal" renderorder="right-down" width="28" height="28" tilewidth="32" tileheight="32" infinite="0" nextlayerid="7" nextobjectid="69">
 <tileset firstgid="1" source="../../outside.tsx"/>
 <tileset firstgid="4017" source="../Tiled/Gyms interior.tsx"/>
 <tileset firstgid="5169" source="../../Emerald_Outside.tsx"/>
 <tileset firstgid="10417" source="../outside.tsx"/>
 <layer id="1" name="ground" width="28" height="28">
  <data encoding="csv">
4241,4242,4242,4242,4242,4242,4242,4242,4244,4245,4242,4242,4242,4243,4242,4242,4242,4244,4245,4242,4242,4242,4242,4242,4242,4242,4242,4246,
4249,4250,4250,4250,4250,4250,4250,4250,4252,4253,4250,4250,4250,4250,4250,4250,4250,4252,4253,4250,4250,4250,4250,4250,4250,4250,4250,4254,
4249,4312,0,0,0,0,0,0,0,0,0,0,0,0,0,0,0,0,0,0,0,0,0,0,0,0,0,4254,
4249,4320,0,0,0,0,0,0,0,0,0,0,0,0,0,0,0,0,0,0,0,0,0,0,0,0,0,4254,
4249,4320,0,0,0,0,0,0,0,0,0,0,0,0,0,0,0,0,0,0,0,0,0,0,0,0,0,4254,
4249,4320,0,0,0,0,0,0,0,0,0,0,0,0,0,0,0,0,0,0,0,0,0,0,0,0,0,4254,
4249,4320,0,0,0,0,0,0,0,0,0,0,0,0,0,0,0,0,0,0,0,0,0,0,0,0,0,4254,
4249,4320,0,0,0,0,0,0,0,0,0,0,0,0,0,0,0,0,0,0,0,0,0,0,0,0,0,4254,
4249,4320,0,0,0,0,0,0,0,0,0,0,0,0,0,0,0,0,0,0,0,0,0,0,0,0,0,4254,
4249,4320,0,0,0,0,0,0,0,0,0,0,0,0,0,0,0,0,0,0,0,0,0,0,0,0,0,4254,
4249,4320,0,0,0,0,0,0,0,0,0,0,0,0,0,0,0,0,0,0,0,0,0,0,0,0,0,4254,
4249,4320,0,0,0,0,0,0,0,0,0,0,0,0,0,0,0,0,0,0,0,0,0,0,0,0,0,4254,
4249,4320,0,0,0,0,0,0,0,0,0,0,0,0,0,0,0,0,0,0,0,0,0,0,0,0,0,4254,
4249,4320,0,0,0,0,0,0,0,0,0,0,0,0,0,0,0,0,0,0,0,0,0,0,0,0,0,4254,
4249,4320,0,0,0,0,0,0,0,0,0,0,0,0,0,0,0,0,0,0,0,0,0,0,0,0,0,4254,
4249,4320,0,0,0,0,0,0,0,0,0,0,0,0,0,0,0,0,0,0,0,0,0,0,0,0,0,4254,
4249,4320,0,0,0,0,0,0,0,0,0,0,0,0,0,0,0,0,0,0,0,0,0,0,0,0,0,4254,
4249,4320,0,0,0,0,0,0,0,0,0,0,0,0,0,0,0,0,0,0,0,0,0,0,0,0,0,4254,
4249,4320,0,0,0,0,0,0,0,0,0,0,0,0,0,0,0,0,0,0,0,0,0,0,0,0,0,4254,
4249,4320,0,0,0,0,0,0,0,0,0,0,0,0,0,0,0,0,0,0,0,0,0,0,0,0,0,4254,
4249,4320,0,0,0,0,0,0,0,0,0,0,0,0,0,0,0,0,0,0,0,0,0,0,0,0,0,4254,
4249,4320,0,0,0,0,0,0,0,0,0,0,0,0,0,0,0,0,0,0,0,0,0,0,0,0,0,4254,
4249,4320,0,0,0,0,0,0,0,0,0,0,0,0,0,0,0,0,0,0,0,0,0,0,0,0,0,4254,
4249,4320,0,0,0,0,0,0,0,0,0,0,0,0,0,0,0,0,0,0,0,0,0,0,0,0,0,4254,
4249,4320,0,0,0,0,0,0,0,0,0,0,0,0,0,0,0,0,0,0,0,0,0,0,0,0,0,4254,
4249,4320,0,0,0,0,0,0,0,0,0,0,0,0,0,0,0,0,0,0,0,0,0,0,0,0,0,4254,
4249,4320,0,0,0,0,0,0,0,0,0,0,0,0,0,0,0,0,0,0,0,0,0,0,0,0,0,4254,
4257,4319,4319,4319,4319,4319,4319,4319,4319,4319,4319,4319,4319,4319,4319,4319,4319,4319,4319,4319,4319,4319,4319,4319,4319,4319,4319,4262
</data>
 </layer>
 <layer id="2" name="deco_sotto" width="28" height="28">
  <data encoding="csv">
0,0,0,0,0,0,0,0,0,0,0,0,0,0,0,0,0,0,0,0,0,0,0,0,0,0,0,0,
0,0,0,0,0,0,0,0,0,0,0,0,0,0,0,0,0,0,0,0,0,0,0,0,0,0,0,0,
0,0,4327,4327,4327,4327,4327,4327,4327,4327,4327,4327,4327,4327,4327,4327,4327,4327,4327,4327,4327,4327,4327,4327,4327,4327,4327,0,
0,0,4318,4318,4318,4318,4318,4318,4318,4318,4318,4318,4318,4318,4318,4318,4318,4318,4318,4318,4318,4318,4318,4318,4318,4318,4318,0,
0,0,4318,4318,4318,4318,4318,4318,4318,4318,4318,4318,4318,4279,4318,4318,4318,4318,4318,4318,4318,4318,4318,4318,4318,4318,4318,0,
0,0,4318,4279,4279,4279,4279,4279,4279,4279,4279,4279,4279,4279,4279,4279,4279,4279,4279,4318,4318,4318,4318,4318,4318,4318,4318,0,
0,0,4318,4279,4318,4318,4318,4318,4318,4318,4318,4318,4318,4318,4318,4318,4318,4318,4318,4318,4318,4318,4318,4318,4318,4318,4318,0,
0,0,4318,4279,4318,4318,4318,4318,4318,4318,4318,4318,4318,4318,4318,4318,4318,4318,4318,4318,4318,4318,4318,4318,4318,4318,4318,0,
0,0,4318,4279,4318,4318,4318,4318,4318,4279,4279,4279,4279,4279,4279,4279,4279,4279,4279,4279,4279,4279,4279,4279,4318,4318,4318,0,
0,0,4318,4279,4318,4318,4279,4279,4279,4279,4318,4318,4318,4318,4318,4318,4318,4318,4318,4318,4318,4318,4318,4279,4318,4318,4318,0,
0,0,4318,4279,4318,4318,4279,4318,4318,4318,4318,4318,4318,4318,4318,4318,4318,4318,4318,4318,4318,4318,4318,4279,4318,4318,4318,0,
0,0,4318,4279,4318,4318,4279,4318,4318,4318,4318,4318,4318,4318,4318,4318,4318,4318,4318,4318,4318,4318,4318,4279,4318,4318,4318,0,
0,0,4318,4279,4279,4279,4279,4318,4318,4318,4318,4318,4318,4318,4318,4318,4318,4318,4318,4318,4318,4318,4318,4279,4318,4318,4318,0,
0,0,4318,4318,4318,4318,4318,4318,4318,4318,4318,4318,4318,4318,4318,4318,4318,4318,4318,4318,4318,4318,4318,4279,4318,4318,4318,0,
0,0,4318,4318,4318,4318,4318,4318,4318,4318,4318,4318,4318,4318,4318,4318,4318,4318,4318,4318,4318,4318,4318,4279,4318,4318,4318,0,
0,0,4318,4318,4318,4318,4318,4279,4279,4279,4279,4279,4279,4279,4279,4279,4279,4279,4279,4279,4279,4279,4279,4279,4318,4318,4318,0,
0,0,4318,4318,4318,4318,4318,4279,4318,4318,4318,4318,4318,4318,4318,4318,4318,4318,4318,4318,4318,4318,4318,4318,4318,4318,4318,0,
0,0,4318,4318,4318,4318,4318,4279,4318,4318,4318,4318,4318,4318,4318,4318,4318,4318,4318,4318,4318,4318,4318,4318,4318,4318,4318,0,
0,0,4318,4318,4318,4318,4318,4279,4318,4318,4318,4318,4318,4318,4318,4318,4318,4318,4318,4318,4318,4318,4318,4318,4318,4318,4318,0,
0,0,4318,4318,4318,4318,4318,4279,4318,4318,4318,4318,4318,4318,4318,4318,4318,4318,4318,4318,4318,4318,4318,4318,4318,4318,4318,0,
0,0,4318,4318,4318,4318,4318,4279,4318,4318,4318,4318,4318,4318,4318,4318,4318,4318,4318,4318,4318,4318,4318,4318,4318,4318,4318,0,
0,0,4318,4318,4318,4318,4318,4279,4279,4279,4279,4279,4279,4279,4318,4318,4318,4318,4318,4318,4318,4318,4318,4318,4318,4318,4318,0,
0,0,4318,4318,4318,4318,4318,4318,4318,4318,4318,4318,4318,4279,4318,4318,4318,4318,4318,4318,4318,4318,4318,4318,4318,4318,4318,0,
0,0,4318,4318,4318,4318,4318,4318,4318,4318,4318,4318,4318,4279,4318,4318,4318,4318,4318,4318,4318,4318,4318,4318,4318,4318,4318,0,
0,0,4318,4318,4318,4318,4318,4318,4318,4318,4318,4318,4318,4279,4318,4318,4318,4318,4318,4318,4318,4318,4318,4318,4318,4318,4318,0,
0,0,4318,4318,4318,4318,4318,4318,4318,4318,4318,4318,4318,4279,4318,4318,4318,4318,4318,4318,4318,4318,4318,4318,4318,4318,4318,0,
0,0,4318,4318,4318,4318,4318,4318,4318,4318,4318,4318,4318,4279,4318,4318,4318,4318,4318,4318,4318,4318,4318,4318,4318,4318,4318,0,
0,4261,4261,4261,4261,4261,4261,4261,4261,4261,4261,4261,4258,4261,4260,4261,4261,4261,4261,4261,4261,4261,4261,4261,4261,4261,4261,0
</data>
 </layer>
 <layer id="3" name="edfici" width="28" height="28">
  <data encoding="csv">
0,0,0,0,0,0,0,0,0,0,0,0,0,0,0,0,0,0,0,0,0,0,0,0,0,0,0,0,
0,0,4248,0,4248,0,0,4248,0,0,0,0,4270,4271,4272,0,0,0,0,4248,0,0,4248,0,4248,0,0,0,
0,0,4256,0,4256,0,0,4256,4294,4294,4294,4294,4278,4279,4280,4294,4294,4294,4294,4256,0,0,4256,0,4256,0,0,0,
0,0,4264,0,4264,0,0,4264,4302,4302,4302,4302,4286,4287,4288,4302,4302,4302,4302,4264,0,0,4264,0,4264,0,0,0,
0,0,0,0,0,0,0,0,4310,4310,4310,4310,0,0,0,4310,4310,4310,4310,0,0,0,0,0,0,0,0,0,
0,0,0,0,0,0,0,0,0,0,0,0,0,0,0,0,0,0,0,0,0,0,0,0,0,0,0,0,
0,0,0,0,0,0,0,0,0,0,0,0,0,0,0,0,0,0,0,0,0,0,0,0,0,0,0,0,
0,0,0,0,11375,11375,11375,11375,11375,11375,11375,11375,11375,11375,11375,11375,11375,11375,11375,11375,11375,11375,11375,11375,11375,0,0,0,
0,4265,4266,0,0,0,0,0,0,0,0,0,0,0,0,0,0,0,0,0,0,0,0,0,11375,4268,4269,0,
0,4273,4274,0,0,0,0,0,0,0,0,0,0,0,0,0,0,0,0,0,0,0,0,0,11375,4276,4277,0,
0,0,0,0,0,0,0,0,0,0,0,0,0,0,0,0,0,0,0,0,0,0,0,0,11375,0,0,0,
0,0,0,0,0,0,0,0,0,0,4281,4282,4283,4284,4285,4297,4298,0,0,0,0,4300,4301,0,11375,0,0,0,
0,0,0,0,0,0,0,0,0,0,4305,4306,4307,4308,4309,4305,4306,4307,4307,4307,4307,4308,4309,0,11375,0,0,0,
0,4281,4282,4283,4283,4283,4283,4283,4283,4284,4285,0,0,0,0,0,0,0,0,0,0,0,0,0,11375,0,0,0,
0,4289,4290,0,0,0,0,0,0,4292,4293,0,0,0,0,0,0,0,0,0,0,0,0,0,0,0,0,0,
0,0,0,0,0,0,0,0,0,0,0,0,0,0,0,0,0,0,0,0,0,0,0,0,0,0,0,0,
0,0,0,0,0,0,0,0,0,0,0,0,0,0,0,0,0,0,0,0,0,0,0,0,0,0,0,0,
0,4281,4282,4283,4284,4285,0,0,0,0,4281,4282,4283,4284,4285,4281,4282,4283,4283,4283,4283,4283,4283,4283,4283,4284,4285,0,
0,4305,4306,4307,4308,4309,0,0,0,0,4305,4306,4307,4308,4309,4289,0,0,0,0,0,0,0,0,0,4276,4277,0,
0,0,0,0,0,0,0,0,0,0,0,0,0,0,0,0,0,0,0,0,0,0,0,0,0,0,0,0,
0,0,0,0,0,0,0,0,0,0,0,0,0,0,0,0,0,0,0,0,0,0,0,0,0,0,0,0,
0,0,0,0,0,0,0,0,0,0,0,0,5151,0,5151,0,0,0,0,0,0,0,0,0,0,0,0,0,
0,0,0,0,0,0,0,0,0,0,0,0,5159,0,5159,0,0,0,0,0,0,0,0,0,0,0,0,0,
0,0,0,0,0,0,0,0,0,0,0,0,5151,0,5151,0,0,0,0,0,0,0,0,0,0,0,0,0,
0,0,0,0,0,0,0,0,0,0,0,0,5159,0,5159,0,0,0,0,0,0,0,0,0,0,0,0,0,
0,0,0,0,0,0,0,0,0,0,0,0,4018,0,4018,0,0,0,0,0,0,0,0,0,0,0,0,0,
0,4263,0,0,0,0,0,0,0,4263,0,0,4026,0,4026,0,0,4263,0,0,0,0,0,0,0,0,4263,0,
0,0,0,0,0,0,0,0,0,0,0,0,4019,4020,4021,0,0,0,0,0,0,0,0,0,0,0,0,0
</data>
 </layer>
 <layer id="4" name="sopra_testa" width="28" height="28">
  <data encoding="csv">
0,0,0,0,0,0,0,0,0,0,0,0,0,0,0,0,0,0,0,0,0,0,0,0,0,0,0,0,
0,0,0,0,0,0,0,0,0,0,0,0,0,0,0,0,0,0,0,0,0,0,0,0,0,0,0,0,
0,0,0,0,0,0,0,0,0,0,0,0,0,0,0,0,0,0,0,0,0,0,0,0,0,0,0,0,
0,0,0,0,0,0,0,0,0,0,0,0,0,0,0,0,0,0,0,0,0,0,0,0,0,0,0,0,
0,0,0,0,0,0,0,0,0,0,0,0,0,0,0,0,0,0,0,0,0,0,0,0,0,0,0,0,
0,0,0,0,0,0,0,0,0,0,0,0,0,0,0,0,0,0,0,0,0,0,0,0,0,0,0,0,
0,0,0,0,0,0,0,0,0,0,0,0,0,0,0,0,0,0,0,0,0,0,0,0,0,0,0,0,
0,0,0,0,0,0,0,0,0,0,0,0,0,0,0,0,0,0,0,0,0,0,0,0,0,0,0,0,
0,0,0,0,0,0,0,0,0,0,0,0,0,0,0,0,0,0,0,0,0,0,0,0,0,0,0,0,
0,0,0,0,0,0,0,0,0,0,0,0,0,0,0,0,0,0,0,0,0,0,0,0,0,0,0,0,
0,0,0,0,0,0,0,0,0,0,0,0,0,0,0,0,0,0,0,0,0,0,0,0,0,0,0,0,
0,0,0,0,0,0,0,0,0,0,0,0,0,0,0,0,0,0,0,0,0,0,0,0,0,0,0,0,
0,0,0,0,0,0,0,0,0,0,0,0,0,0,0,0,0,0,0,0,0,0,0,0,0,0,0,0,
0,0,0,0,0,0,0,0,0,0,0,0,0,0,0,0,0,0,0,0,0,0,0,0,0,0,0,0,
0,0,0,0,0,0,0,0,0,0,0,0,0,0,0,0,0,0,0,0,0,0,0,0,0,0,0,0,
0,0,0,0,0,0,0,0,0,0,0,0,0,0,0,0,0,0,0,0,0,0,0,0,0,0,0,0,
0,0,0,0,0,0,0,0,0,0,0,0,0,0,0,0,0,0,0,0,0,0,0,0,0,0,0,0,
0,0,0,0,0,0,0,0,0,0,0,0,0,0,0,0,0,0,0,0,0,0,0,0,0,0,0,0,
0,0,0,0,0,0,0,0,0,0,0,0,0,0,0,0,0,0,0,0,0,0,0,0,0,0,0,0,
0,0,0,0,0,0,0,0,0,0,0,0,0,0,0,0,0,0,0,0,0,0,0,0,0,0,0,0,
0,0,0,0,0,0,0,0,0,0,0,0,0,0,0,0,0,0,0,0,0,0,0,0,0,0,0,0,
0,0,0,0,0,0,0,0,0,0,0,0,0,0,0,0,0,0,0,0,0,0,0,0,0,0,0,0,
0,0,0,0,0,0,0,0,0,0,0,0,0,0,0,0,0,0,0,0,0,0,0,0,0,0,0,0,
0,0,0,0,0,0,0,0,0,0,0,0,0,0,0,0,0,0,0,0,0,0,0,0,0,0,0,0,
0,0,0,0,0,0,0,0,0,0,0,0,0,0,0,0,0,0,0,0,0,0,0,0,0,0,0,0,
0,0,0,0,0,0,0,0,0,0,0,0,0,0,0,0,0,0,0,0,0,0,0,0,0,0,0,0,
0,0,0,0,0,0,0,0,0,0,0,0,0,0,0,0,0,0,0,0,0,0,0,0,0,0,0,0,
0,0,0,0,0,0,0,0,0,0,0,0,0,0,0,0,0,0,0,0,0,0,0,0,0,0,0,0
</data>
 </layer>
 <objectgroup id="6" name="collisioni">
 <object id="34" x="21.4808206958073" y="-0.999107939339875" width="361.177520071365" height="137.876895628903"/>
 <object id="35" x="480.07136485281" y="5.49509366636931" width="126.886708296164" height="134.879571810883"/>
 <object id="36" x="829.759143621766" y="257.270294380018" width="42.9616413916145" height="65.9411239964318"/>
 <object id="37" x="322.21231043711" y="550.508474576271" width="540.017841213203" height="17.9839429081177"/>
 <object id="38" x="324.710080285459" y="573.487957181088" width="179.339875111508" height="23.978590544157"/>
 <object id="39" x="838.751115075825" y="566.494201605709" width="11.4897413024086" height="35.4683318465655"/>
 <object id="40" x="28.9741302408564" y="548.510258697591" width="155.860838537021" height="45.9589652096342"/>
 <object id="41" x="30.4727921498662" y="421.123996431757" width="25.4772524531668" height="48.4567350579839"/>
 <object id="42" x="40.4638715432649" y="428.117752007137" width="305.227475468332" height="10.4906333630687"/>
 <object id="43" x="324.710080285459" y="424.620874219447" width="22.9794826048172" height="46.4585191793042"/>
 <object id="44" x="327.207850133809" y="356.181980374665" width="17.9839429081177" height="50.4549509366637"/>
 <object id="45" x="347.689562890277" y="367.671721677074" width="153.363068688671" height="27.9750223015165"/>
 <object id="46" x="490.561998215879" y="389.152542372881" width="243.28278322926" height="4.49598572702945"/>
 <object id="47" x="725.851917930419" y="357.181088314005" width="4.99553969669944" height="50.4549509366637"/>
 <object id="48" x="32.9705619982159" y="259.768064228368" width="28.9741302408564" height="52.4531668153434"/>
 <object id="49" x="392.649420160571" y="692.381801962533" width="15.486173059768" height="163.35414808207"/>
 <object id="50" x="459.589652096343" y="691.382694023194" width="11.9892952720785" height="160.85637823372"/>
 <object id="51" x="296.735057983943" y="839.250669045495" width="11.4897413024086" height="10.9901873327386"/>
 <object id="52" x="47.4576271186441" y="843.247100802855" width="4.99553969669937" height="7.99286351471903"/>
 <object id="53" x="553.505798394291" y="843.247100802855" width="10.9901873327386" height="9.49152542372883"/>
 <object id="54" x="845.744870651204" y="842.247992863515" width="7.4933095450491" height="11.4897413024086"/>
 <object id="64" x="139.875111507583" y="231.293487957181" width="645.923282783229" height="9.99107939339876"/>
 <object id="65" x="783.800178412132" y="233.791257805531" width="4.49598572702951" height="205.816235504014"/>
 <object id="66" x="805.780553077609" y="267.760927743087" width="54.9509366636931" height="49.4558429973238"/>
 <object id="69" x="707.368275200714" y="11.9890811775201" width="86.922682426405" height="100.410776092774"/>
 <object id="70" x="604.460148661909" y="13.2378541480821" width="285.245625958965" height="51.9542649420161"/>
 <object id="71" x="873.877" y="4.02284999999999" width="23.246" height="879.9543"/>
 <object id="72" x="2.87699999999995" y="3.52300000000002" width="23.246" height="879.954"/>
 <object id="73" x="50.377" y="879.023" width="338.246" height="17.454"/>
 <object id="74" x="472.377" y="875.273" width="410.746" height="17.454"/>
</objectgroup>
 <objectgroup id="5" name="eventi">
 <object id="57" name="Fausto" x="270.401427297056" y="274.42640499554">
  <properties>
   <property name="direzione" value="est"/>
   <property name="id" value="gregario 1 palestra monteporzio"/>
   <property name="type" value="trainer"/>
   <property name="vista" value="7"/>
  </properties>
  <point/>
 </object>
 <object id="58" name="Dora" x="788.396074933095" y="501.809099018733">
  <properties>
   <property name="direzione" value="ovest"/>
   <property name="id" value="gregario 2 palestra monteporzio"/>
   <property name="type" value="trainer"/>
   <property name="vista" value="10"/>
  </properties>
  <point/>
 </object>
 <object id="59" name="Ines" x="629.095450490633" y="180.181980374665">
  <properties>
   <property name="direzione" value="ovest"/>
   <property name="id" value="gregario 3 palestra monteporzio"/>
   <property name="type" value="trainer"/>
   <property name="vista" value="7"/>
  </properties>
  <point/>
 </object>
 <object id="60" name="Aurelio" x="112.042818911686" y="153.291703835861">
  <properties>
   <property name="direzione" value="sud"/>
   <property name="id" value="gregario 4 palestra monteporzio"/>
   <property name="type" value="trainer"/>
   <property name="vista" value="7"/>
  </properties>
  <point/>
 </object>
 <object id="61" name="Livio" x="464.656556645852" y="662.922390722569">
  <properties>
   <property name="direzione" value="ovest"/>
   <property name="id" value="gregario 5 palestra monteporzio"/>
   <property name="type" value="trainer"/>
   <property name="vista" value="7"/>
  </properties>
  <point/>
 </object>
 <object id="62" name="Nadia" x="270.344335414808" y="472.706512042819">
  <properties>
   <property name="direzione" value="sud"/>
   <property name="id" value="gregario 6 palestra monteporzio"/>
   <property name="type" value="trainer"/>
   <property name="vista" value="7"/>
  </properties>
  <point/>
 </object>
 <object id="63" name="Stella" x="432.242640499554" y="84.1106155218554">
  <properties>
   <property name="direzione" value="sud"/>
   <property name="id" value="gym_leader_palestra monteporzio"/>
   <property name="type" value="trainer"/>
  </properties>
  <point/>
 </object>
 <object id="67" name="warp" type="warp" x="418.97104367972" y="898.82170544514" width="24.4367710278842" height="24.4367710278842">
  <properties>
   <property name="destinazione" value="monteporzio"/>
   <property name="spawn_id" value="da_palestra_monteporzio"/>
   <property name="type" value="warp"/>
  </properties>
 </object>
 <object id="68" name="spawn" type="spawn" x="419.929169491525" y="833.669704954749" width="24.4367710278842" height="24.4367710278842">
  <properties>
   <property name="id" value="da_monteporzio"/>
   <property name="type" value="spawn"/>
  </properties>
 </object>
</objectgroup>
</map>
