<?xml version="1.0" encoding="UTF-8"?>
<map version="1.10" tiledversion="1.12.2" orientation="orthogonal" renderorder="right-down" width="28" height="28" tilewidth="32" tileheight="32" infinite="0" nextlayerid="7" nextobjectid="69">
 <tileset firstgid="1" source="../../outside.tsx"/>
 <tileset firstgid="4017" source="../Tiled/Gyms interior.tsx"/>
 <tileset firstgid="5169" source="../../Emerald_Outside.tsx"/>
 <tileset firstgid="10417" source="../outside.tsx"/>
 <tileset firstgid="14433" source="../palestre.tsj"/>
 <tileset firstgid="15457" source="../palestre2.tsj"/>
 <layer id="1" name="ground" width="28" height="28">
  <data encoding="csv">
16340,16341,16340,16341,16340,16341,16340,16341,16340,16341,16340,16341,16340,16341,16340,16341,16340,16341,16340,16341,16340,16341,16340,16341,16340,16341,16340,16341,
16372,16373,16372,16373,16372,16373,16372,16373,16372,16373,16372,16373,16372,16373,16372,16373,16372,16373,16372,16373,16372,16373,16372,16373,16372,16373,16372,16373,
16340,16341,16340,16341,16340,16341,16340,16341,16340,16341,16340,16341,16340,16341,16340,16341,16340,16341,16340,16341,16340,16341,16340,16341,16340,16341,16340,16341,
16372,16373,16372,16373,16372,16373,16372,16373,16372,16373,16372,797,16372,797,16372,16373,16372,16373,16372,16373,16372,16373,16372,16373,16372,16373,16372,16373,
16340,16341,16340,16341,16340,16341,16340,16341,16340,16341,16340,797,797,797,16340,16341,16340,16341,16340,16341,16340,16341,16340,16341,16340,16341,16340,16341,
16372,16373,16372,16373,16372,16373,16372,16373,16372,16373,16372,16373,16372,16373,16372,16373,16372,16373,16372,16373,16372,16373,16372,16373,16372,16373,16372,16373,
16340,16341,16340,16341,16340,16341,16340,16341,16340,16341,16340,16341,16340,16341,16340,16341,16340,16341,16340,16341,16340,16341,16340,16341,16340,16341,16340,16341,
16372,16373,16372,16373,16372,16373,16372,16373,16372,16373,16372,16373,16372,16373,16372,16373,16372,16373,16372,16373,16372,16373,16372,16373,16372,16373,16372,16373,
16340,16341,16340,16341,16340,16341,16340,16341,16340,16341,16340,16341,16340,16341,16340,16341,16340,16341,16340,16341,16340,16341,16340,16341,16340,16341,16340,16341,
16372,16373,16372,16373,16372,16373,16372,16373,16372,16373,16372,16373,16372,16373,16372,16373,16372,16373,16372,16373,16372,16373,16372,16373,16372,16373,16372,16373,
16340,16341,16340,16341,16340,16341,16340,16341,16340,16341,16340,16341,16340,16341,16340,16341,16340,16341,16340,16341,16340,16341,16340,16341,16340,16341,16340,16341,
16372,16373,16372,16373,16372,16373,16372,16373,16372,16373,16372,16373,16372,16373,16372,16373,16372,16373,16372,16373,16372,16373,16372,16373,16372,16373,16372,16373,
16340,16341,16340,16341,16340,16341,16340,16341,16340,16341,16340,16341,16340,16341,16340,16341,16340,16341,16340,16341,16340,16341,16340,16341,16340,16341,16340,16341,
16372,16373,16372,16373,16372,16373,16372,16373,16372,16373,16372,16373,16372,16373,16372,16373,16372,16373,16372,16373,16372,16373,16372,16373,16372,16373,16372,16373,
16340,16341,16340,16341,16340,16341,16340,16341,16340,16341,16340,16341,16340,16341,16340,16341,16340,16341,16340,16341,16340,16341,16340,16341,16340,16341,16340,16341,
16372,16373,16372,16373,16372,16373,16372,16373,16372,16373,16372,16373,16372,16373,16372,16373,16372,16373,16372,16373,16372,16373,16372,16373,16372,16373,16372,16373,
16340,16341,16340,16341,16340,16341,16340,16341,16340,16341,16340,16341,16340,16341,16340,16341,16340,16341,16340,16341,16340,16341,16340,16341,16340,16341,16340,16341,
16372,16373,16372,16373,16372,16373,16372,16373,16372,16373,16372,16373,16372,16373,16372,16373,16372,16373,16372,16373,16372,16373,16372,16373,16372,16373,16372,16373,
16340,16341,16340,16341,16340,16341,16340,16341,16340,16341,16340,16341,16340,16341,16340,16341,16340,16341,16340,16341,16340,16341,16340,16341,16340,16341,16340,16341,
16372,16373,16372,16373,16372,16373,16372,16373,16372,16373,16372,16373,16372,16373,16372,16373,16372,16373,16372,16373,16372,16373,16372,16373,16372,16373,16372,16373,
16340,16341,16340,16341,16340,16341,16340,16341,16340,16341,16340,16341,16340,16341,16340,16341,16340,16341,16340,16341,16340,16341,16340,16341,16340,16341,16340,16341,
16372,16373,16372,16373,16372,16373,16372,16373,16372,16373,16372,16373,16372,16373,16372,16373,16372,16373,16372,16373,16372,16373,16372,16373,16372,16373,16372,16373,
16340,16341,16340,16341,16340,16341,16340,16341,16340,16341,16340,16341,16340,16341,16340,16341,16340,16341,16340,16341,16340,16341,16340,16341,16340,16341,16340,16341,
16372,16373,16372,16373,16372,16373,16372,16373,16372,16373,16372,16373,16372,16373,16372,16373,16372,16373,16372,16373,16372,16373,16372,16373,16372,16373,16372,16373,
16340,16341,16340,16341,16340,16341,16340,16341,16340,16341,16340,16341,16340,16341,16340,16341,16340,16341,16340,16341,16340,16341,16340,16341,16340,16341,16340,16341,
16372,16373,16372,16373,16372,16373,16372,16373,16372,16373,16372,16373,16372,16373,16372,16373,16372,16373,16372,16373,16372,16373,16372,16373,16372,16373,16372,16373,
16340,16341,16340,16341,16340,16341,16340,16341,16340,16341,16340,16341,16340,16341,16340,16341,16340,16341,16340,16341,16340,16341,16340,16341,16340,16341,16340,16341,
16372,16373,16372,16373,16372,16373,16372,16373,16372,16373,16372,16373,16372,16373,16372,16373,16372,16373,16372,16373,16372,16373,16372,16373,16372,16373,16372,16373
</data>
 </layer>
 <layer id="2" name="deco_sotto" width="28" height="28">
  <data encoding="csv">
4033,4034,4035,4035,4035,4035,4035,4035,4035,4035,4035,4035,4035,4035,4035,4035,4035,4035,4035,4035,4035,4035,4035,4035,4035,4035,4038,4039,
4041,4042,4043,4043,4043,4043,4043,4043,4043,4043,4043,4043,4043,4043,4043,4043,4043,4043,4043,4043,4043,4043,4043,4043,4043,4043,4046,4047,
4041,4050,4051,4051,4051,4051,4051,4051,4051,4051,4051,4051,4051,4051,4051,4051,4051,4051,4051,4051,4051,4051,4051,4051,4051,4051,4054,4047,
4041,0,0,0,0,0,0,0,0,0,0,0,0,0,0,0,0,0,0,0,0,0,0,0,0,0,0,4047,
4041,0,0,0,0,0,0,0,0,0,0,0,0,0,0,0,0,0,0,0,0,0,0,0,0,0,0,4047,
4041,0,0,0,0,0,0,0,0,0,0,0,0,0,0,0,0,0,0,0,0,0,0,0,0,0,0,4047,
4041,0,0,0,0,0,0,0,0,0,0,0,0,0,0,0,0,0,0,0,0,0,0,0,0,0,0,4047,
4041,0,0,0,0,0,0,0,0,0,0,0,0,0,0,0,0,0,0,0,0,0,0,0,0,0,0,4047,
4041,0,0,0,0,0,0,0,0,0,0,0,0,0,0,0,0,0,0,0,0,0,0,0,0,0,0,4047,
4041,0,0,0,0,0,0,0,0,0,0,0,0,0,0,0,0,0,0,0,0,0,0,0,0,0,0,4047,
4041,0,0,0,0,0,0,0,0,0,0,0,0,0,0,0,0,0,0,0,0,0,0,0,0,0,0,4047,
4041,0,0,0,0,0,0,0,0,0,0,0,0,0,0,0,0,0,0,0,0,0,0,0,0,0,0,4047,
4041,0,0,0,0,0,0,0,0,0,0,0,0,0,0,0,0,0,0,0,0,0,0,0,0,0,0,4047,
4041,0,0,0,0,0,0,0,0,0,0,0,0,0,0,0,0,0,0,0,0,0,0,0,0,0,0,4047,
4041,0,0,0,0,0,0,0,0,0,0,0,0,0,0,0,0,0,0,0,0,0,0,0,0,0,0,4047,
4041,0,0,0,0,0,0,0,0,0,0,0,0,0,0,0,0,0,0,0,0,0,0,0,0,0,0,4047,
4041,0,0,0,0,0,0,0,0,0,0,0,0,0,0,0,0,0,0,0,0,0,0,0,0,0,0,4047,
4041,0,0,0,0,0,0,0,0,0,0,0,0,0,0,0,0,0,0,0,0,0,0,0,0,0,0,4047,
4041,0,0,0,0,0,0,0,0,0,0,0,0,0,0,0,0,0,0,0,0,0,0,0,0,0,0,4047,
4041,0,0,0,0,0,0,0,0,0,0,0,0,0,0,0,0,0,0,0,0,0,0,0,0,0,0,4047,
4041,0,0,0,0,0,0,0,0,0,0,0,0,0,0,0,0,0,0,0,0,0,0,0,0,0,0,4047,
4041,0,0,0,0,0,0,0,0,0,0,0,0,0,0,0,0,0,0,0,0,0,0,0,0,0,0,4047,
4041,0,0,0,0,0,0,0,0,0,0,0,0,0,0,0,0,0,0,0,0,0,0,0,0,0,0,4047,
4041,0,0,0,0,0,0,0,0,0,0,0,0,0,0,0,0,0,0,0,0,0,0,0,0,0,0,4047,
4041,0,0,0,0,0,0,0,0,0,0,0,0,0,0,0,0,0,0,0,0,0,0,0,0,0,0,4047,
4041,0,0,0,0,0,0,0,0,0,0,0,0,0,0,0,0,0,0,0,0,0,0,0,0,0,0,4055,
4057,0,0,0,0,0,0,0,0,0,0,0,0,0,0,0,0,0,0,0,0,0,0,0,0,0,0,4063,
4065,0,0,0,0,0,0,0,0,0,0,0,0,0,0,0,0,0,0,0,0,0,0,0,0,0,0,4071
</data>
 </layer>
 <layer id="3" name="edfici" width="28" height="28">
  <data encoding="csv">
0,0,0,0,0,0,0,0,0,0,0,0,0,0,0,0,0,0,0,0,0,0,0,0,0,0,0,0,
0,0,0,0,0,0,0,0,0,0,0,0,0,0,0,0,0,0,0,0,0,0,0,0,0,0,0,0,
0,0,0,0,0,0,0,0,0,0,0,0,0,0,0,0,0,0,0,0,0,0,0,0,0,0,0,0,
0,788,789,789,789,789,789,788,789,788,788,4094,4095,4096,790,790,789,790,789,789,789,789,789,789,789,789,790,0,
0,796,0,0,0,0,0,796,0,796,796,4102,4103,4104,798,798,0,798,0,0,0,0,0,0,0,0,798,0,
0,796,0,0,0,0,0,796,0,796,804,805,779,805,806,798,0,798,0,0,0,0,0,0,0,0,798,0,
0,796,0,0,816,0,0,796,0,796,797,797,797,797,797,798,0,798,0,0,0,0,0,816,0,0,798,0,
0,796,0,0,816,0,0,796,0,804,805,805,779,805,805,806,0,798,0,0,0,816,0,0,0,0,798,0,
0,796,0,0,816,0,0,796,0,0,0,0,0,0,0,0,0,798,0,0,0,816,0,0,0,0,798,0,
0,796,0,0,816,0,0,804,805,805,805,805,779,805,805,805,805,806,0,0,0,816,816,816,0,0,798,0,
0,796,0,0,816,0,0,816,0,0,0,816,0,0,0,0,0,0,0,816,816,0,0,0,0,0,798,0,
0,796,0,0,816,0,0,0,816,0,0,816,816,816,816,816,816,816,816,0,0,0,0,0,0,0,798,0,
0,796,785,770,787,0,0,0,0,816,0,0,0,0,0,0,0,0,0,0,0,0,0,0,0,0,798,0,
0,796,796,797,798,0,0,0,0,0,0,0,785,786,786,786,786,786,786,786,786,786,786,786,786,787,798,0,
0,796,796,797,798,0,0,0,0,0,0,0,793,794,794,794,794,794,794,794,794,794,794,794,794,795,798,0,
0,796,796,797,798,0,0,0,0,0,0,0,793,794,794,794,794,794,794,794,794,794,794,794,794,795,798,0,
0,796,796,797,798,0,0,0,0,0,0,0,793,794,794,794,794,794,794,794,794,794,794,794,794,795,798,0,
0,796,796,797,798,816,816,816,816,816,816,816,801,802,802,802,802,802,802,802,802,778,802,802,802,803,798,0,
0,796,796,797,798,0,0,0,0,816,0,0,0,0,0,0,0,0,0,0,816,0,0,0,0,0,798,0,
0,796,796,797,798,0,0,0,0,816,0,0,0,0,0,0,0,0,0,0,816,0,0,0,0,0,798,0,
0,796,796,797,798,0,0,0,809,805,805,805,805,779,805,805,805,805,810,0,816,0,0,0,0,0,798,0,
0,796,796,797,798,0,0,0,798,0,0,0,0,0,0,0,0,0,796,0,0,816,0,0,0,0,798,0,
0,796,796,797,798,0,0,0,798,0,0,0,0,0,0,0,0,0,796,0,0,816,0,0,0,0,798,0,
0,796,796,797,798,0,0,0,798,0,0,0,0,0,0,0,0,0,796,0,0,0,816,0,0,0,798,0,
0,796,804,778,806,0,0,0,798,0,0,0,0,0,0,0,0,0,796,0,0,0,816,0,0,0,798,0,
0,796,0,0,0,0,0,0,798,0,0,0,0,0,0,0,0,0,796,0,0,0,0,0,0,0,798,0,
0,796,0,0,0,0,0,0,798,0,0,0,0,0,0,0,0,0,796,0,0,0,0,0,0,0,798,0,
0,804,805,805,805,805,805,805,806,0,0,0,4019,4020,4021,0,0,0,804,805,805,805,805,805,805,805,806,0
</data>
 </layer>
 <layer id="4" name="sopra_testa" width="28" height="28">
  <data encoding="csv">
0,0,0,0,0,0,0,0,0,0,0,0,0,0,0,0,0,0,0,0,0,0,0,0,0,0,0,0,
0,0,0,0,0,0,0,0,0,0,0,0,0,0,0,0,0,0,0,0,0,0,0,0,0,0,0,0,
0,0,0,0,0,0,0,0,0,0,0,0,0,0,0,0,0,0,0,0,0,0,0,0,0,0,0,0,
0,0,0,0,0,0,0,0,0,0,0,0,0,0,0,0,0,0,0,0,0,0,0,0,0,0,0,0,
0,0,0,0,0,0,0,0,0,0,0,0,0,0,0,0,0,0,0,0,0,0,0,0,0,0,0,0,
0,0,0,0,0,0,0,0,0,0,0,0,0,0,0,0,0,0,0,0,0,0,0,0,0,0,0,0,
0,0,0,0,0,0,0,0,0,0,0,0,0,0,0,0,0,0,0,0,0,0,0,0,0,0,0,0,
0,0,0,0,0,0,0,0,0,0,0,0,0,0,0,0,0,0,0,0,0,0,0,0,0,0,0,0,
0,0,0,0,0,0,0,0,0,0,0,0,0,0,0,0,0,0,0,0,0,0,0,0,0,0,0,0,
0,0,0,0,0,0,0,0,0,0,0,0,0,0,0,0,0,0,0,0,0,0,0,0,0,0,0,0,
0,0,0,0,0,0,0,0,0,0,0,0,0,0,0,0,0,0,0,0,0,0,0,0,0,0,0,0,
0,0,0,0,0,0,0,0,0,0,0,0,0,0,0,0,0,0,0,0,0,0,0,0,0,0,0,0,
0,0,0,0,0,0,0,0,0,0,0,0,0,0,0,0,0,0,0,0,0,0,0,0,0,0,0,0,
0,0,0,0,0,0,0,0,0,0,0,0,0,0,0,0,0,0,0,0,0,0,0,0,0,0,0,0,
0,0,0,0,0,0,0,0,0,0,0,0,0,0,0,0,0,0,0,0,0,0,0,0,0,0,0,0,
0,0,0,0,0,0,0,0,0,0,0,0,0,0,0,0,0,0,0,0,0,0,0,0,0,0,0,0,
0,0,0,0,0,0,0,0,0,0,0,0,0,0,0,0,0,0,0,0,0,0,0,0,0,0,0,0,
0,0,0,0,0,0,0,0,0,0,0,0,0,0,0,0,0,0,0,0,0,0,0,0,0,0,0,0,
0,0,0,0,0,0,0,0,0,0,0,0,0,0,0,0,0,0,0,0,0,0,0,0,0,0,0,0,
0,0,0,0,0,0,0,0,0,0,0,0,0,0,0,0,0,0,0,0,0,0,0,0,0,0,0,0,
0,0,0,0,0,0,0,0,0,0,0,0,0,0,0,0,0,0,0,0,0,0,0,0,0,0,0,0,
0,0,0,0,0,0,0,0,0,0,0,0,0,0,0,0,0,0,0,0,0,0,0,0,0,0,0,0,
0,0,0,0,0,0,0,0,0,0,0,0,0,0,0,0,0,0,0,0,0,0,0,0,0,0,0,0,
0,0,0,0,0,0,0,0,0,0,0,0,0,0,0,0,0,0,0,0,0,0,0,0,0,0,0,0,
0,0,0,0,0,0,0,0,0,0,0,0,0,0,0,0,0,0,0,0,0,0,0,0,0,0,0,0,
0,0,0,0,0,0,0,0,0,0,0,0,0,0,0,0,0,0,0,0,0,0,0,0,0,0,0,0,
0,0,0,0,0,0,0,0,0,0,0,0,0,0,0,0,0,0,0,0,0,0,0,0,0,0,0,0,
0,0,0,0,0,0,0,0,0,0,0,0,0,0,0,0,0,0,0,0,0,0,0,0,0,0,0,0
</data>
 </layer>
 <objectgroup id="6" name="collisioni"/>
 <objectgroup id="5" name="eventi">
  <object id="1" name="Decio" x="488.364" y="275.996">
   <properties>
    <property name="direzione" value="ovest"/>
    <property name="id" value="gregario 1 palestra albano"/>
    <property name="type" value="trainer"/>
    <property name="vista" value="7"/>
   </properties>
   <point/>
  </object>
  <object id="2" name="Fulva" x="201.706" y="147.611">
   <properties>
    <property name="direzione" value="sud"/>
    <property name="id" value="gregario 2 palestra albano"/>
    <property name="type" value="trainer"/>
    <property name="vista" value="7"/>
   </properties>
   <point/>
  </object>
  <object id="3" name="Marco" x="337.67" y="214.551">
   <properties>
    <property name="direzione" value="est"/>
    <property name="id" value="gregario 3 palestra albano"/>
    <property name="type" value="trainer"/>
    <property name="vista" value="7"/>
   </properties>
   <point/>
  </object>
  <object id="4" name="Cesira" x="427.918" y="470.194">
   <properties>
    <property name="direzione" value="est"/>
    <property name="id" value="gregario 4 palestra albano"/>
    <property name="type" value="trainer"/>
    <property name="vista" value="7"/>
   </properties>
   <point/>
  </object>
  <object id="5" name="Tertio" x="589.859" y="153.477">
   <properties>
    <property name="direzione" value="sud"/>
    <property name="id" value="gregario 5 palestra albano"/>
    <property name="type" value="trainer"/>
    <property name="vista" value="7"/>
   </properties>
   <point/>
  </object>
  <object id="6" name="Vibio" x="815.244" y="149.98">
   <properties>
    <property name="direzione" value="sud"/>
    <property name="id" value="gregario 6 palestra albano"/>
    <property name="type" value="trainer"/>
    <property name="vista" value="7"/>
   </properties>
   <point/>
  </object>
  <object id="7" name="Lucio" x="181.638" y="601.691">
   <properties>
    <property name="direzione" value="sud"/>
    <property name="id" value="gregario 7 palestra albano"/>
    <property name="type" value="trainer"/>
    <property name="vista" value="7"/>
   </properties>
   <point/>
  </object>
  <object id="8" name="Pio" x="753.299" y="598.694">
   <properties>
    <property name="direzione" value="sud"/>
    <property name="id" value="gregario 8 palestra albano"/>
    <property name="type" value="trainer"/>
    <property name="vista" value="7"/>
   </properties>
   <point/>
  </object>
  <object id="9" name="Giorgia" x="401.256" y="119.55">
   <properties>
    <property name="direzione" value="sud"/>
    <property name="id" value="gym_leader_palestra albano"/>
    <property name="type" value="trainer"/>
    <property name="vista" value="7"/>
   </properties>
   <point/>
  </object>
  <object id="10" name="spawn" x="430.731" y="854.759">
   <properties>
    <property name="id" value="entrata_principale"/>
    <property name="type" value="spawn"/>
   </properties>
   <point/>
  </object>
  <object id="11" name="warp" x="433.028" y="894.044">
   <properties>
    <property name="destinazione" value="albano"/>
    <property name="spawn_id" value="da_palestra_albano"/>
    <property name="type" value="warp"/>
   </properties>
   <point/>
  </object>
 </objectgroup>
</map>
