<?xml version="1.0" encoding="UTF-8"?>
<map version="1.10" tiledversion="1.12.2" orientation="orthogonal" renderorder="right-down" width="36" height="52" tilewidth="32" tileheight="32" infinite="0" nextlayerid="6" nextobjectid="60">
 <editorsettings>
  <export target="pokemon-castelli-Percorso 1.tmj" format="json"/>
 </editorsettings>
 <tileset firstgid="1" source="../../outside.tsx"/>
 <layer id="1" name="ground" width="36" height="52">
  <data encoding="csv">
2,2,2,2,2,2,2,2,2,2,2,2,2,2,2,2,2,2,2,2,2,2,2,162,163,163,163,163,164,2,2,2,2,2,2,2,
2,2,2,2,2,2,2,2,2,2,2,2,2,2,2,2,2,2,2,2,2,2,2,162,163,163,163,163,164,2,2,2,2,2,2,2,
2,2,2,2,2,2,2,2,2,2,2,694,695,696,2,2,2,2,2,2,2,2,2,162,163,163,163,163,164,2,2,2,2,2,2,2,
2,2,2,2,2,2,2,2,2,2,2,702,703,704,2,2,2,2,2,2,2,2,2,2,2,2,2,2,2,2,2,2,2,2,2,2,
2,2,2,2,2,2,2,2,2,2,2,710,711,712,2,2,2,2,2,2,2,2,2,2,2,2,2,2,2,2,2,32,2,2,2,2,
2,2,2,2,2,2,2,2,2,2,2,2,2,2,2,2,2,2,2,2,2,2,2,2,2,2,2,2,2,2,2,694,695,696,2,2,
2,2,2,2,2,2,2,2,2,2,2,2,2,2,2,2,2,2,2,2,2,2,2,2,2,2,2,2,2,2,2,702,703,704,2,2,
2,2,2,2,2,2,154,2,2,2,2,2,2,2,2,2,2,2,2,2,2,2,2,2,2,2,2,2,2,2,2,710,711,712,2,2,
2,2,2,2,2,2,162,163,163,163,163,2,2,2,2,2,2,2,2,2,2,2,2,2,2,2,2,2,2,2,2,2,2,2,2,2,
2,2,2,2,2,2,162,163,163,163,163,2,2,2,2,2,2,2,2,2,2,2,2,2,2,2,2,2,2,32,32,2,2,2,2,2,
2,2,2,2,2,2,162,163,163,163,163,2,2,2,476,2,2,2,2,2,2,2,2,2,2,2,2,2,2,32,32,2,2,2,2,2,
2,2,2,2,2,2,162,163,163,163,163,164,2,2,2,2,2,2,2,2,2,2,2,2,2,2,2,2,2,32,32,2,2,2,2,2,
2,2,2,2,2,2,162,163,163,163,163,164,2,2,2,2,2,2,2,2,2,2,2,2,2,2,2,2,2,2,2,2,2,2,2,2,
2,2,2,2,2,2,162,163,163,163,163,164,2,2,2,2,2,2,2,2,2,2,2,2,2,2,2,2,2,2,2,2,2,2,2,2,
2,2,2,2,2,2,162,163,163,163,163,164,2,2,2,2,2,2,2,2,2,2,2,2,2,2,2,2,2,2,2,2,2,2,2,2,
2,2,2,2,2,2,162,163,163,163,163,164,2,2,2,2,2,2,2,2,2,2,2,2,2,2,2,32,32,2,2,2,2,2,2,2,
2,2,2,2,2,2,162,163,163,163,163,164,2,2,2,2,2,2,2,2,2,2,2,2,2,2,2,32,32,2,2,2,2,2,2,2,
2,2,2,2,2,2,162,163,163,163,163,164,2,2,2,2,2,2,2,2,2,2,2,2,2,2,2,2,2,2,2,2,2,2,2,2,
2,2,2,2,2,2,162,163,163,163,163,164,2,2,2,2,2,2,2,2,2,2,2,2,2,2,2,2,2,2,2,2,2,2,2,2,
2,32,32,2,2,2,162,163,163,163,163,164,2,2,2,2,2,2,2,2,2,2,2,2,2,2,2,2,2,2,2,2,2,2,2,2,
2,2,2,32,2,2,162,163,163,163,163,173,155,155,155,155,694,695,696,155,155,155,155,155,155,155,155,155,155,155,155,155,155,155,155,156,
2,2,2,2,2,2,162,163,163,163,163,163,163,163,163,163,702,703,704,163,163,163,163,163,163,163,163,163,163,163,163,163,163,163,163,164,
2,2,2,2,2,2,162,163,163,163,163,163,163,163,163,163,710,711,712,163,163,163,163,163,163,163,163,163,163,163,163,163,163,163,163,164,
2,2,2,2,2,2,170,171,171,171,171,171,171,171,171,171,171,171,171,171,171,171,171,171,171,171,171,171,171,171,171,163,163,163,163,164,
2,2,2,2,2,2,2,2,2,2,2,2,2,2,2,2,2,2,2,2,2,2,2,2,2,2,2,2,2,2,2,162,163,163,163,164,
2,2,2,2,2,2,2,2,2,2,2,2,2,2,2,2,2,2,2,2,2,2,2,2,2,2,2,2,2,2,2,162,163,163,163,164,
2,2,2,2,2,2,2,2,2,2,2,2,2,2,2,2,2,2,32,2,2,2,2,2,2,2,2,2,2,2,2,162,163,163,163,164,
2,2,2,2,2,2,2,2,2,2,2,2,2,2,2,32,2,2,32,2,2,2,2,2,2,2,2,2,2,2,2,162,163,163,163,164,
2,2,2,2,2,2,2,2,694,695,696,2,2,2,2,2,2,2,2,2,2,2,2,2,2,2,2,2,2,2,2,162,163,163,163,164,
2,2,2,2,2,2,2,2,702,703,704,2,2,2,2,2,2,2,2,2,42,43,44,2,2,2,2,2,2,2,2,162,163,163,163,164,
2,2,2,2,32,32,2,2,710,711,712,2,2,2,2,2,2,2,2,2,50,51,52,2,2,2,2,2,2,2,2,162,163,163,163,164,
2,2,2,2,32,32,2,2,2,2,2,2,2,2,2,2,2,2,2,2,58,59,60,2,2,2,2,2,2,2,2,162,163,163,163,164,
2,32,2,2,32,32,2,2,2,2,2,2,2,2,2,2,2,2,2,2,2,2,2,2,2,2,2,2,2,2,2,162,163,163,163,164,
2,2,2,2,2,2,2,2,2,2,2,2,2,2,2,2,2,2,2,2,2,2,2,2,2,2,2,2,2,2,2,162,163,163,163,164,
2,2,2,2,2,2,2,2,2,2,2,2,2,2,2,2,2,2,2,2,2,2,2,2,2,2,2,2,2,2,2,162,163,163,163,164,
2,2,2,2,2,2,2,2,32,2,2,2,2,2,2,2,2,2,2,2,2,2,2,2,2,2,2,2,2,2,2,162,163,163,163,164,
2,2,2,2,2,2,2,2,2,2,2,2,2,32,2,2,2,2,2,2,2,694,695,696,2,2,2,2,2,2,2,7,7,7,7,7,
2,2,2,2,2,2,2,2,2,2,2,2,2,32,2,2,2,2,2,2,2,702,703,704,2,2,2,2,2,2,2,7,7,7,7,7,
2,2,2,2,2,2,2,2,2,2,2,2,2,2,2,2,2,2,2,2,2,710,711,712,2,2,2,2,2,2,2,7,7,7,7,7,
2,2,2,2,2,2,2,2,2,2,2,2,2,2,2,2,2,2,2,2,2,2,2,2,2,2,2,2,2,2,2,7,7,7,7,7,
2,2,2,2,2,42,43,44,2,2,2,2,2,2,2,2,2,2,2,2,2,2,2,2,2,2,2,2,2,2,2,7,7,7,7,7,
2,2,2,2,2,50,51,52,2,2,2,2,2,2,2,2,2,2,2,2,2,2,2,2,2,2,2,2,2,2,2,7,7,7,7,7,
2,2,2,2,2,58,59,60,2,2,2,2,2,2,2,2,2,2,2,2,2,2,2,2,2,2,2,2,2,2,2,7,7,7,7,7,
2,2,2,2,2,2,32,2,2,2,2,2,2,2,2,2,2,2,2,2,2,2,2,2,2,2,2,2,2,2,2,7,7,7,7,7,
2,2,2,2,2,687,687,686,687,688,686,687,686,687,688,686,687,688,686,687,688,686,687,688,686,687,688,686,687,688,686,7,7,7,7,7,
686,687,688,686,687,677,2,2,2,2,2,2,154,155,155,155,155,155,155,155,155,155,155,155,155,155,155,155,155,155,155,163,163,163,163,164,
7,7,7,7,7,7,7,7,7,7,7,7,162,163,163,163,163,163,163,163,163,163,163,163,163,163,163,163,163,163,163,163,163,163,163,164,
7,7,7,7,7,7,7,7,7,7,7,7,162,163,163,163,163,163,163,163,163,163,163,163,163,163,163,163,163,163,163,163,163,163,163,164,
7,7,7,7,7,7,7,7,7,7,7,7,162,163,163,163,163,163,163,163,163,163,163,163,163,163,163,163,163,163,163,163,163,163,163,164,
7,7,7,7,7,7,7,7,7,7,7,7,162,163,163,163,157,171,171,171,171,171,171,171,171,171,171,171,171,171,171,171,171,171,171,203,
7,7,7,7,7,7,7,7,7,7,7,7,162,163,163,163,164,953,2,2,2,2,2,2,2,2,2,2,2,2,2,2,2,2,2,2,
2,2,2,2,2,2,2,2,2,2,2,2,162,163,163,163,164,2,2,2,2,2,2,2,2,2,2,2,2,2,2,2,2,2,2,2
</data>
 </layer>
 <layer id="2" name="deco_sott" width="36" height="52">
  <data encoding="csv">
0,0,0,0,0,0,0,0,0,0,0,0,0,0,0,0,0,0,0,0,0,0,0,0,0,0,0,0,0,0,0,0,0,0,0,0,
0,0,0,0,0,0,0,0,0,0,0,0,0,0,0,0,0,0,0,0,0,0,0,0,0,0,0,0,0,0,0,0,0,0,0,0,
0,0,0,0,0,0,0,0,0,0,0,0,0,0,0,0,0,0,0,0,0,0,0,0,0,0,0,0,0,0,0,0,0,0,0,0,
0,0,0,0,0,0,0,0,0,0,0,0,0,0,0,0,0,0,0,0,0,0,0,0,0,0,0,0,0,0,0,0,0,0,0,0,
0,0,0,0,0,0,0,0,0,0,0,0,0,0,0,0,0,0,0,0,0,0,0,0,0,0,0,0,0,0,0,0,0,0,0,0,
0,0,0,0,0,0,0,0,0,0,0,0,0,0,0,0,0,0,0,0,0,0,0,0,0,0,0,0,0,0,0,0,0,0,0,0,
0,0,0,0,0,0,0,0,0,0,0,0,0,0,0,0,0,0,0,0,0,0,0,0,0,0,0,0,0,0,0,0,0,0,0,0,
0,0,0,0,0,0,0,0,0,0,0,0,0,0,0,0,0,0,0,0,0,0,0,0,0,0,0,0,0,0,0,0,0,0,0,0,
0,0,0,0,0,0,0,0,0,0,0,0,0,0,0,0,0,0,0,0,0,0,0,0,0,0,0,0,0,0,0,0,0,0,0,0,
0,0,0,0,0,0,0,0,0,0,0,0,0,0,0,0,0,0,0,0,0,0,0,0,0,0,0,0,0,0,0,0,0,0,0,0,
0,0,0,0,0,0,0,0,0,0,0,0,0,0,0,0,0,0,0,0,0,0,0,0,0,0,0,0,0,0,0,0,0,0,0,0,
0,0,0,0,0,0,0,0,0,0,0,0,0,0,0,0,0,0,0,0,0,0,0,0,0,0,0,0,0,0,0,0,0,0,0,0,
0,0,0,0,0,0,0,0,0,0,0,0,0,0,0,0,0,0,0,0,0,0,0,0,0,0,0,0,0,0,0,0,0,0,0,0,
0,0,0,0,0,0,0,0,0,0,0,0,0,0,0,0,0,0,0,0,0,0,0,0,0,0,0,0,0,0,0,0,0,0,0,0,
0,0,0,0,0,0,0,0,0,0,0,0,0,0,0,0,0,0,0,0,0,0,0,0,0,0,0,0,0,0,0,0,0,0,0,0,
0,0,0,0,0,0,0,0,0,0,0,0,0,0,0,0,0,0,0,0,0,0,0,0,0,0,0,0,0,0,0,0,0,0,0,0,
0,0,0,0,0,0,0,0,0,0,0,0,0,0,0,0,0,0,0,0,0,0,0,0,0,0,0,0,0,0,0,0,0,0,0,0,
0,0,0,0,0,0,0,0,0,0,0,0,0,0,0,0,0,0,0,0,0,0,0,0,0,0,0,0,0,0,0,0,0,0,0,0,
0,0,0,0,0,0,0,0,0,0,0,0,0,0,0,0,0,0,0,0,0,0,0,0,0,0,0,0,0,0,0,0,0,0,0,0,
0,0,0,0,0,0,0,0,0,0,0,0,0,0,0,0,0,0,0,0,0,0,0,0,0,0,0,0,0,0,0,0,0,0,0,0,
0,0,0,0,0,0,0,0,0,0,0,0,0,0,0,0,0,0,0,0,0,0,0,0,0,0,0,0,0,0,0,0,0,0,0,0,
0,0,0,0,0,0,0,0,0,0,0,0,0,0,0,0,0,0,0,0,0,0,0,0,0,0,0,0,0,0,0,0,0,0,0,0,
0,0,0,0,0,0,0,0,0,0,0,0,0,0,0,0,0,0,0,0,0,0,0,0,0,0,0,0,0,0,0,0,0,0,0,0,
0,0,0,0,0,0,0,0,0,0,0,0,0,0,0,0,0,0,0,0,0,0,0,0,0,0,0,0,0,0,0,0,0,0,0,0,
0,0,0,0,0,0,0,0,0,0,0,0,0,0,0,0,0,0,0,0,0,0,0,0,0,0,0,0,0,0,0,0,0,0,0,0,
0,0,0,0,0,0,0,0,0,0,0,0,0,0,0,0,0,0,0,0,0,0,0,0,0,0,0,0,0,0,0,0,0,0,0,0,
0,0,0,0,0,0,0,0,0,0,0,0,0,0,0,0,0,0,0,0,0,0,0,0,0,0,0,0,0,0,0,0,0,0,0,0,
0,0,0,0,0,0,0,0,0,0,0,0,0,0,0,0,0,0,0,0,0,0,0,0,0,0,0,0,0,0,0,0,0,0,0,0,
0,0,0,0,0,0,0,0,0,0,0,0,0,0,0,0,0,0,0,0,0,0,0,0,0,0,0,0,0,0,0,0,0,0,0,0,
0,0,0,0,0,0,0,0,0,0,0,0,0,0,0,0,0,0,0,0,0,0,0,0,0,0,0,0,0,0,0,0,0,0,0,0,
0,0,0,0,0,0,0,0,0,0,0,0,0,0,0,0,0,0,0,0,0,0,0,0,0,0,0,0,0,0,0,0,0,0,0,0,
0,0,0,0,0,0,0,0,0,0,0,0,0,0,0,0,0,0,0,0,0,0,0,0,0,0,0,0,0,0,0,0,0,0,0,0,
0,0,0,0,0,0,0,0,0,0,0,0,0,0,0,0,0,0,0,0,0,0,0,0,0,0,0,0,0,0,0,0,0,0,0,0,
0,0,0,0,0,0,0,0,0,0,0,0,0,0,0,0,0,0,0,0,0,0,0,0,0,0,0,0,0,0,0,0,0,0,0,0,
0,0,0,0,0,0,0,0,0,0,0,0,0,0,0,0,0,0,0,0,0,0,0,0,0,0,0,0,0,0,0,0,0,0,0,0,
0,0,0,0,0,0,0,0,0,0,0,0,0,0,0,0,0,0,0,0,0,0,0,0,0,0,0,0,0,0,0,0,0,0,0,0,
0,0,0,0,0,0,0,0,0,0,0,0,0,0,0,0,0,0,0,0,0,0,0,0,0,0,0,0,0,0,0,0,0,0,0,0,
0,0,0,0,0,0,0,0,0,0,0,0,0,0,0,0,0,0,0,0,0,0,0,0,0,0,0,0,0,0,0,0,0,0,0,0,
0,0,0,0,0,0,0,0,0,0,0,0,0,0,0,0,0,0,0,0,0,0,0,0,0,0,0,0,0,0,0,0,0,0,0,0,
0,0,0,0,0,0,0,0,0,0,0,0,0,0,0,0,0,0,0,0,0,0,0,0,0,0,0,0,0,0,0,0,0,0,0,0,
0,0,0,0,0,0,0,0,0,0,0,0,0,0,0,0,0,0,0,0,0,0,0,0,0,0,0,0,0,0,0,0,0,0,0,0,
0,0,0,0,0,0,0,0,0,0,0,0,0,0,0,0,0,0,0,0,0,0,0,0,0,0,0,0,0,0,0,0,0,0,0,0,
0,0,0,0,0,0,0,0,0,0,0,0,0,0,0,0,0,0,0,0,0,0,0,0,0,0,0,0,0,0,0,0,0,0,0,0,
0,0,0,0,0,0,0,0,0,0,0,0,0,0,0,0,0,0,0,0,0,0,0,0,0,0,0,0,0,0,0,0,0,0,0,0,
0,0,0,0,0,0,0,0,0,0,0,0,0,0,0,0,0,0,0,0,0,0,0,0,0,0,0,0,0,0,0,0,0,0,0,0,
0,0,0,0,0,0,0,0,0,0,0,0,0,0,0,0,0,0,0,0,0,0,0,0,0,0,0,0,0,0,0,0,0,0,0,0,
0,0,0,0,0,0,0,0,0,0,0,0,0,0,0,0,0,0,0,0,0,0,0,0,0,0,0,0,0,0,0,0,0,0,0,0,
0,0,0,0,0,0,0,0,0,0,0,0,0,0,0,0,0,0,0,0,0,0,0,0,0,0,0,0,0,0,0,0,0,0,0,0,
0,0,0,0,0,0,0,0,0,0,0,0,0,0,0,0,0,0,0,0,0,0,0,0,0,0,0,0,0,0,0,0,0,0,0,0,
0,0,0,0,0,0,0,0,0,0,0,0,0,0,0,0,0,0,0,0,0,0,0,0,0,0,0,0,0,0,0,0,0,0,0,0,
0,0,0,0,0,0,0,0,0,0,0,0,0,0,0,0,0,0,0,0,0,0,0,0,0,0,0,0,0,0,0,0,0,0,0,0,
0,0,0,0,0,0,0,0,0,0,0,0,0,0,0,0,0,0,0,0,0,0,0,0,0,0,0,0,0,0,0,0,0,0,0,0
</data>
 </layer>
 <layer id="3" name="edifici" width="36" height="52">
  <data encoding="csv">
0,485,0,476,476,476,476,0,476,476,476,476,476,476,476,7,7,7,7,7,7,7,0,0,0,0,0,0,0,476,0,0,0,0,0,0,
492,493,494,0,0,0,0,0,0,0,0,0,0,0,0,7,7,7,7,7,7,7,0,0,0,0,0,0,0,476,0,0,0,0,0,0,
500,501,502,0,0,0,0,0,0,0,0,0,0,0,476,7,7,7,7,7,7,7,0,0,0,0,0,0,0,476,0,0,0,0,0,0,
508,509,510,0,0,0,0,0,0,0,0,0,0,0,476,7,7,7,7,7,7,7,0,162,163,163,163,163,164,476,0,0,0,0,0,0,
0,485,0,0,0,0,0,0,0,0,0,1001,1002,1003,476,7,7,7,7,7,7,7,0,162,163,163,163,163,164,476,0,0,0,0,0,0,
492,493,494,0,0,0,0,1081,1082,1083,0,1009,1010,1011,476,7,7,7,7,7,7,7,0,162,163,163,163,163,164,476,0,0,0,0,0,0,
500,501,502,0,0,0,476,1089,1090,1091,0,1017,955,1019,476,0,0,0,0,0,0,0,0,162,163,163,163,163,164,476,0,0,0,0,0,0,
508,509,510,441,442,443,0,155,155,155,155,155,155,155,155,155,155,155,155,155,155,155,155,175,163,163,163,163,164,476,0,0,0,0,0,0,
0,485,0,449,450,451,0,0,0,0,0,163,163,163,163,163,163,163,163,163,163,163,163,163,163,163,163,163,164,476,0,0,0,0,0,0,
492,493,494,457,458,459,0,0,0,0,0,163,163,163,163,163,163,163,163,163,163,163,163,163,163,163,163,163,164,476,0,0,0,0,0,0,
500,501,502,0,0,0,0,0,0,0,0,163,163,163,163,163,163,163,163,163,163,163,163,163,163,163,163,163,164,476,0,0,0,0,0,0,
508,509,510,0,0,0,0,0,0,0,0,157,171,171,171,171,171,171,171,171,171,171,171,171,171,171,171,171,172,476,476,476,476,476,476,476,
0,485,0,0,0,0,0,0,0,0,0,0,476,476,476,476,476,476,7,7,7,7,7,7,7,7,7,7,7,7,7,7,7,7,7,0,
492,493,494,441,442,443,0,0,0,0,0,0,476,0,0,0,0,0,7,7,7,7,7,7,7,7,7,7,7,7,7,7,7,7,7,0,
500,501,502,449,450,451,0,0,0,0,0,0,476,0,0,0,0,0,7,7,7,7,7,7,7,7,7,7,7,7,7,7,7,7,7,0,
508,509,510,457,458,459,0,0,0,0,0,0,476,0,0,0,0,0,7,7,7,7,7,7,7,7,7,7,7,7,7,7,7,7,7,0,
0,485,0,0,0,0,0,0,0,0,0,0,476,0,0,0,0,0,7,7,7,7,7,7,7,7,7,7,7,7,7,7,7,7,7,0,
492,493,494,0,0,0,0,0,0,0,0,0,441,442,443,441,442,443,441,442,443,441,442,443,441,442,443,441,442,443,441,442,443,441,442,443,
500,501,502,0,0,0,0,0,0,0,0,0,449,450,451,449,450,451,449,450,451,449,450,451,449,450,451,449,450,451,449,450,451,449,450,451,
508,509,510,0,0,0,0,0,0,0,0,0,457,458,459,457,458,459,457,458,459,457,458,459,457,458,459,457,458,459,457,458,459,457,458,459,
0,485,0,0,0,0,0,0,0,0,0,0,0,0,0,0,0,0,0,0,0,0,0,0,0,0,0,0,0,0,0,0,0,0,0,0,
492,493,494,441,442,443,0,0,0,0,0,0,0,0,0,0,0,0,0,0,0,0,0,0,0,0,0,0,0,0,0,0,0,0,0,0,
500,501,502,449,450,451,0,0,0,0,0,0,0,0,0,0,0,0,0,0,0,0,0,0,0,0,0,0,0,0,0,0,0,0,0,0,
508,509,510,457,458,459,0,0,0,0,0,0,0,0,0,0,0,0,0,0,0,0,0,0,0,0,0,0,0,0,0,0,0,0,0,0,
0,485,0,0,0,0,476,476,476,476,476,476,476,476,476,0,0,0,0,0,0,0,0,0,476,476,476,476,476,476,0,0,0,0,0,0,
492,493,494,0,485,0,0,0,0,0,0,0,0,0,476,0,476,476,476,476,476,476,476,476,0,0,0,0,0,476,0,0,0,0,0,0,
500,501,502,492,493,494,0,0,0,0,0,0,0,0,476,0,476,0,0,0,0,0,0,0,0,0,0,0,441,442,443,0,0,0,0,0,
508,509,510,500,501,502,0,0,0,0,0,0,0,0,476,0,476,0,0,0,0,0,0,0,0,0,0,0,449,450,451,0,0,0,0,0,
0,485,0,508,509,510,0,0,0,0,0,0,0,0,476,0,476,0,0,0,0,0,0,0,0,0,0,0,457,458,459,0,0,0,0,0,
492,493,494,0,485,0,0,0,0,0,0,0,0,0,476,0,476,0,0,0,0,0,0,0,0,0,0,0,441,442,443,0,0,0,0,0,
500,501,502,492,493,494,0,0,0,0,0,0,0,0,476,0,476,0,0,0,0,0,0,0,0,0,0,0,449,450,451,0,0,0,0,0,
508,509,510,500,501,502,0,0,0,0,0,0,0,0,476,0,476,0,0,0,0,0,0,0,0,0,0,0,457,458,459,0,0,0,0,0,
0,485,0,508,509,510,476,476,476,476,476,476,476,476,476,0,476,0,0,0,0,0,0,0,0,0,0,0,441,442,443,0,0,0,0,0,
492,493,494,0,485,0,476,0,0,0,0,0,0,0,0,0,476,0,0,0,0,0,0,0,0,0,0,0,449,450,451,0,0,0,0,0,
500,501,502,492,493,494,476,0,0,476,476,476,476,476,476,476,476,0,0,0,476,476,476,476,476,476,476,0,457,458,459,0,0,0,0,0,
508,509,510,500,501,502,476,0,0,476,476,476,476,476,476,476,476,476,476,476,0,0,0,0,0,0,476,0,441,442,443,0,0,0,0,0,
0,485,0,508,509,510,476,0,0,476,476,476,476,476,476,0,0,0,0,0,0,0,0,0,0,0,476,0,449,450,451,0,0,0,0,0,
492,493,494,0,485,0,476,0,0,0,0,0,0,0,0,0,0,0,0,0,0,0,0,0,949,0,476,0,457,458,459,0,0,0,0,0,
500,501,502,492,493,494,476,476,476,476,476,476,476,476,476,0,0,0,0,0,0,0,0,0,0,0,476,0,441,442,443,0,0,0,0,0,
508,509,510,500,501,502,0,0,0,0,0,0,0,0,0,476,476,476,476,476,0,0,0,0,0,0,476,0,449,450,451,0,0,0,0,0,
0,485,0,508,509,510,0,0,0,0,0,0,0,0,0,0,0,0,0,0,476,476,476,476,476,476,476,0,457,458,459,0,0,0,0,0,
492,493,494,0,0,0,0,0,0,0,0,0,0,0,0,0,0,0,0,0,0,0,0,0,0,0,0,0,441,442,443,0,0,0,0,0,
500,501,502,0,0,0,0,0,0,0,0,0,0,0,0,0,0,0,0,0,0,0,0,0,0,0,0,0,449,450,451,0,0,0,0,0,
508,509,510,0,0,0,0,0,0,0,0,0,0,0,0,0,0,0,0,0,0,0,0,0,0,0,0,0,457,458,459,0,0,0,0,0,
0,0,0,0,0,0,0,0,0,0,0,0,0,0,0,0,0,0,0,0,0,0,0,0,0,0,0,0,0,0,0,0,0,0,0,0,
0,0,0,0,0,0,0,0,0,0,0,0,0,0,0,0,0,0,0,0,0,0,0,0,0,0,0,0,0,0,0,0,0,0,0,0,
0,0,0,0,0,0,0,0,0,0,0,0,0,0,0,0,0,0,0,0,0,0,0,0,0,0,0,0,0,0,0,0,0,0,0,0,
0,0,0,0,0,0,0,0,0,0,0,0,0,0,0,0,0,0,0,0,0,0,0,0,0,0,0,0,0,0,0,0,0,0,0,0,
0,0,0,0,0,0,0,0,0,0,0,0,0,0,0,0,0,0,0,0,0,0,0,0,0,0,0,0,0,0,0,0,0,0,0,0,
0,0,0,0,0,0,0,0,0,0,0,0,0,0,0,0,0,0,0,0,0,0,0,0,0,0,0,0,0,0,0,0,0,0,0,0,
0,0,0,0,0,0,0,0,0,0,0,0,0,0,0,0,0,0,0,0,0,0,0,0,0,0,0,0,0,0,0,0,0,0,0,0,
476,476,476,476,476,476,476,476,476,476,476,476,0,0,0,0,0,476,476,476,476,476,476,476,476,476,476,476,476,476,476,476,476,476,476,476
</data>
 </layer>
 <objectgroup id="4" name="collisioni">
  <object id="1" x="7.83065" y="7.83065" width="88.3744" height="1455.38"/>
  <object id="2" x="5.59332" y="1656.74" width="378.108"/>
  <object id="3" x="1.11866" y="1473.28" width="8.94931" height="191.292"/>
  <object id="4" x="549.264" y="1648.91" width="599.604" height="11.1866"/>
  <object id="5" x="1138.8" y="3.35599" width="14.7027" height="1653.39"/>
  <object id="6" x="-2.23733" y="1.11866" width="738.318" height="6.71198"/>
  <object id="7" x="928.491" y="-4.47466" width="220.377" height="7.83065"/>
  <object id="8" x="102.917" y="230.445" width="82.7811" height="89.4931"/>
  <object id="9" x="104.036" y="426.211" width="86.1371" height="81.6625"/>
  <object id="10" x="100.68" y="685.741" width="96.2051" height="78.3065"/>
  <object id="11" x="97.3238" y="756.217" width="116.341" height="658.893"/>
  <object id="12" x="195.766" y="764.047" width="284.141" height="34.6786"/>
  <object id="13" x="439.635" y="789.777" width="36.9159" height="262.886"/>
  <object id="14" x="183.461" y="1017.98" width="264.005" height="32.4413"/>
  <object id="16" x="514.585" y="800.963" width="26.8479" height="316.582"/>
  <object id="17" x="289.734" y="1089.58" width="219.258" height="59.2892"/>
  <object id="18" x="288.615" y="1153.34" width="189.054" height="26.8479"/>
  <object id="19" x="227.089" y="1218.22" width="252.818" height="26.8479"/>
  <object id="20" x="484.381" y="1249.55" width="153.257" height="24.6106"/>
  <object id="21" x="643.232" y="1281.99" width="215.902" height="25.7293"/>
  <object id="22" x="896.05" y="768.522" width="96.2051" height="633.164"/>
  <object id="23" x="643.232" y="1091.82" width="219.258" height="22.3733"/>
  <object id="24" x="836.761" y="1115.31" width="24.6106" height="173.393"/>
  <object id="25" x="513.467" y="1123.14" width="120.816" height="25.7293"/>
  <object id="26" x="543.671" y="803.201" width="222.614" height="25.7293"/>
  <object id="27" x="769.641" y="767.403" width="124.172" height="27.9666"/>
  <object id="28" x="383.702" y="547.027" width="755.098" height="85.0185"/>
  <object id="37" x="930.728" y="357.972" width="212.546" height="17.8986"/>
  <object id="38" x="929.61" y="-2.23733" width="26.8479" height="368.04"/>
  <object id="39" x="99.5611" y="-1.11866" width="373.634" height="20.1359"/>
  <object id="40" x="447.466" y="64.8825" width="27.9666" height="153.257"/>
  <object id="41" x="196.885" y="159.969" width="115.222" height="49.2212"/>
  <object id="42" x="350.142" y="157.732" width="32.4413" height="61.5265"/>
  <object id="43" x="416.143" y="154.376" width="27.9666" height="66.0012"/>
  <object id="44" name="npc percorso 1" x="1079.51" y="845.71">
   <properties>
    <property name="direzione" value="sud"/>
    <property name="id" value="npc percorso 1"/>
    <property name="movimento" value="random"/>
    <property name="sprite" value="oldman"/>
    <property name="type" value="npc"/>
   </properties>
   <point/>
  </object>
  <object id="49" x="387.058" y="382.583" width="29.0853" height="158.85"/>
  <object id="50" x="419.499" y="381.464" width="156.613" height="27.9666"/>
  <object id="59" x="157.333" y="1408" width="834.667" height="28"/>
 </objectgroup>
 <objectgroup id="5" name="eventi">
  <object id="29" name="trainer percorso 1 - numero 1" x="142.07" y="620.858">
   <properties>
    <property name="direzione" value="est"/>
    <property name="id" value="trainer path 1_1"/>
    <property name="type" value="trainer"/>
    <property name="vista" value="7"/>
   </properties>
   <point/>
  </object>
  <object id="30" name="trainer percorso 1- numero 2" x="144.308" y="365.803">
   <properties>
    <property name="direzione" value="est"/>
    <property name="id" value="trainer path 1_2"/>
    <property name="type" value="trainer"/>
    <property name="vista" value="7"/>
   </properties>
   <point/>
  </object>
  <object id="31" x="788.658" y="1202.56">
   <point/>
  </object>
  <object id="32" name="trainer percorso 1 numero 0" x="1010.15" y="660.012">
   <properties>
    <property name="direzione" value="sud"/>
    <property name="id" value="trainer path 1_0"/>
    <property name="type" value="trainer"/>
    <property name="vista" value="4"/>
   </properties>
   <point/>
  </object>
  <object id="34" name="cartel percorso 1" x="397.126" y="208.071">
   <properties>
    <property name="testo" value="&quot;vendesi fava&quot;"/>
    <property name="type" value="cartello"/>
   </properties>
   <point/>
  </object>
  <object id="36" name="cartel percorso 1" x="563.807" y="1617.59">
   <properties>
    <property name="id" value="cartello percorso 1"/>
    <property name="testo" value="&quot;Percorso 1&quot;"/>
    <property name="type" value="cartello"/>
   </properties>
   <point/>
  </object>
  <object id="46" name="erba alta percorso 1" x="579.401" y="384.203" width="541.373" height="163.065">
   <properties>
    <property name="id" value="incontri percorso 1"/>
    <property name="type" value="erba_alta"/>
   </properties>
  </object>
  <object id="53" name="spwan_percorso 1" x="444.667" y="1630" width="34" height="17.3333">
   <properties>
    <property name="id" value="da Borgata Tuscolana"/>
    <property name="type" value="spwan"/>
   </properties>
  </object>
  <object id="54" name="uscita_sud" x="392.467" y="1650.49" width="144.398" height="13.0138">
   <properties>
    <property name="destinazione" value="pokemon-castelli-Borgata_Tuscolana"/>
    <property name="type" value="uscita"/>
   </properties>
  </object>
  <object id="55" name="uscita_nord_" x="745.134" y="1.4931" width="175.065" height="13.0138">
   <properties>
    <property name="destinazione" value="pokemon-castelli- Percorso 1b"/>
    <property name="type" value="uscita"/>
   </properties>
  </object>
  <object id="56" name="erba alta percorso 1" x="9.3133" y="1471.8" width="368.04" height="157.732">
   <properties>
    <property name="id" value="incontri percorso 1"/>
    <property name="type" value="erba_alta"/>
   </properties>
  </object>
  <object id="57" name="erba alta percorso 1" x="993.313" y="1153.14" width="152.04" height="293.732">
   <properties>
    <property name="id" value="incontri percorso 1"/>
    <property name="type" value="erba_alta"/>
   </properties>
  </object>
  <object id="58" name="erba alta percorso 1" x="477.313" y="3.80083" width="232.04" height="188.398">
   <properties>
    <property name="id" value="incontri percorso 1"/>
    <property name="type" value="erba_alta"/>
   </properties>
  </object>
 </objectgroup>
</map>
