<?xml version="1.0" encoding="UTF-8"?>
<map version="1.10" tiledversion="1.12.2" orientation="orthogonal" renderorder="right-down" width="24" height="22" tilewidth="32" tileheight="32" infinite="0" nextlayerid="7" nextobjectid="47">
 <tileset firstgid="1" source="../Tiled/Interior general.tsx"/>
 <tileset firstgid="8033" source="../professor Castagno.tsx"/>
 <tileset firstgid="8129" source="../../outside.tsx"/>
 <tileset firstgid="12145" source="../Tiled/Gyms interior.tsx"/>
 <tileset firstgid="15305" source="../Interior_general_32.tsj"/>
 <layer id="1" name="ground" width="24" height="22">
  <data encoding="csv">
15545,15545,15545,15545,15545,15545,15545,15545,15545,15545,15545,15545,15545,15545,15545,15545,15545,15545,15545,15545,15545,15545,15545,15545,
15545,15545,15545,15545,15545,15545,15545,15545,15545,15545,15545,15545,15545,15545,15545,15545,15545,15545,15545,15545,15545,15545,15545,15545,
15545,15545,15545,15545,15545,15545,15545,15545,15545,15545,15545,15545,15545,15545,15545,15545,15545,15545,15545,15545,15545,15545,15545,15545,
15545,15545,15545,15545,15545,15545,15545,15545,15545,15545,15545,15545,15545,15545,15545,15545,15545,15545,15545,15545,15545,15545,15545,15545,
15545,15545,15545,15545,15545,15545,15545,15545,15545,15545,15545,15545,15545,15545,15545,15545,15545,15545,15545,15545,15545,15545,15545,15545,
15545,15545,15545,15545,15545,15545,15545,15545,15545,15545,15545,15545,15545,15545,15545,15545,15545,15545,15545,15545,15545,15545,15545,15545,
15545,15545,15545,15545,15545,15545,15545,15545,15545,15545,15545,15545,15545,15545,15545,15545,15545,15545,15545,15545,15545,15545,15545,15545,
15545,15545,15545,15545,15545,15545,15545,15545,15545,15545,15545,15545,15545,15545,15545,15545,15545,15545,15545,15545,15545,15545,15545,15545,
15545,15545,15545,15545,15545,15545,15545,15545,15545,15545,15545,15545,15545,15545,15545,15545,15545,15545,15545,15545,15545,15545,15545,15545,
15545,15545,15545,15545,15545,15545,15545,15545,15545,15545,15545,15545,15545,15545,15545,15545,15545,15545,15545,15545,15545,15545,15545,15545,
15545,15545,15545,15545,15545,15545,15545,15545,15545,15545,15545,15545,15545,15545,15545,15545,15545,15545,15545,15545,15545,15545,15545,15545,
15545,15545,15545,15545,15545,15545,15545,15545,15545,15545,15545,15545,15545,15545,15545,15545,15545,15545,15545,15545,15545,15545,15545,15545,
15545,15545,15545,15545,15545,15545,15545,15545,15545,15545,15545,15545,15545,15545,15545,15545,15545,15545,15545,15545,15545,15545,15545,15545,
15545,15545,15545,15545,15545,15545,15545,15545,15545,15545,15545,15545,15545,15545,15545,15545,15545,15545,15545,15545,15545,15545,15545,15545,
15545,15545,15545,15545,15545,15545,15545,15545,15545,15545,15545,15545,15545,15545,15545,15545,15545,15545,15545,15545,15545,15545,15545,15545,
15545,15545,15545,15545,15545,15545,15545,15545,15545,15545,15545,15545,15545,15545,15545,15545,15545,15545,15545,15545,15545,15545,15545,15545,
15545,15545,15545,15545,15545,15545,15545,15545,15545,15545,15545,15545,15545,15545,15545,15545,15545,15545,15545,15545,15545,15545,15545,15545,
15545,15545,15545,15545,15545,15545,15545,15545,15545,15545,15545,15545,15545,15545,15545,15545,15545,15545,15545,15545,15545,15545,15545,15545,
15545,15545,15545,15545,15545,15545,15545,15545,15545,15545,15545,15545,15545,15545,15545,15545,15545,15545,15545,15545,15545,15545,15545,15545,
15545,15545,15545,15545,15545,15545,15545,15545,15545,15545,15545,15545,15545,15545,15545,15545,15545,15545,15545,15545,15545,15545,15545,15545,
15545,15545,15545,15545,15545,15545,15545,15545,15545,15545,15545,15545,15545,15545,15545,15545,15545,15545,15545,15545,15545,15545,15545,15545,
0,0,0,0,0,0,0,0,0,0,0,15545,15545,15545,0,0,0,0,0,0,0,0,0,0
</data>
 </layer>
 <layer id="2" name="deco_sotto" width="24" height="22">
  <data encoding="csv">
15337,15337,15337,15337,15337,15337,15337,15337,15337,15337,15337,15337,15337,15337,15337,15337,15337,15337,15337,15337,15337,15337,15337,15337,
15345,15345,15345,15345,15345,15345,15345,15345,15345,15345,15345,15345,15345,15345,15345,15345,15345,15345,15345,15345,15345,15345,15345,15345,
0,0,0,0,0,0,0,0,0,0,0,0,0,0,0,0,0,0,0,0,0,0,0,0,
0,0,0,16825,16826,16827,0,0,0,0,0,0,0,0,0,0,0,0,0,16825,16826,16827,0,0,
0,0,0,16833,16834,16835,0,0,0,0,0,0,0,0,0,0,0,0,0,16833,16834,16835,0,0,
0,0,0,0,0,0,0,0,0,0,0,0,0,0,0,0,0,0,0,0,0,0,0,0,
0,0,0,0,0,0,0,0,0,0,0,0,0,0,0,0,0,0,0,0,0,0,0,0,
0,0,0,0,0,0,0,0,0,0,0,0,0,0,0,0,0,0,0,0,0,0,0,0,
0,0,0,0,0,0,0,0,0,0,0,0,0,0,0,0,0,0,0,0,0,0,0,0,
0,0,0,0,0,0,0,0,0,0,0,0,0,0,0,0,0,0,0,0,0,0,0,0,
0,0,0,0,0,0,0,0,0,0,0,0,0,0,0,0,0,0,0,0,0,0,0,0,
0,0,0,0,0,0,0,0,0,0,0,0,0,0,0,0,0,0,0,0,0,0,0,0,
0,0,0,0,0,0,0,0,0,0,0,0,0,0,0,0,0,0,0,0,0,0,0,0,
0,0,0,0,0,0,0,0,0,0,0,0,0,0,0,0,0,0,0,0,0,0,0,0,
0,0,0,0,0,0,0,0,0,0,0,0,0,0,0,0,0,0,0,0,0,0,0,0,
0,0,0,0,0,0,0,0,0,0,0,0,0,0,0,0,0,0,0,0,0,0,0,0,
0,0,0,0,0,0,0,0,0,0,0,0,0,0,0,0,0,0,0,0,0,0,0,0,
0,0,0,0,0,0,0,0,0,0,0,0,0,0,0,0,0,0,0,0,0,0,0,0,
0,0,0,0,0,0,0,0,0,0,0,0,0,0,0,0,0,0,0,0,0,0,0,0,
0,0,0,0,0,0,0,0,0,0,0,0,0,0,0,0,0,0,0,0,0,0,0,0,
0,0,0,0,0,0,0,0,0,0,0,0,0,0,0,0,0,0,0,0,0,0,0,0,
0,0,0,0,0,0,0,0,0,0,0,0,0,0,0,0,0,0,0,0,0,0,0,0
</data>
 </layer>
 <layer id="3" name="edifici" width="24" height="22">
  <data encoding="csv">
0,0,0,0,0,0,0,0,0,0,0,0,0,0,0,0,0,0,0,0,0,0,0,0,
0,0,0,0,0,0,0,0,0,0,0,0,0,0,0,0,0,0,0,0,0,0,0,0,
17079,17080,0,0,0,0,0,17079,17080,0,0,0,0,0,0,0,17079,17080,0,0,0,0,0,0,
17087,17088,0,16779,16780,16639,0,17087,17088,0,0,0,0,0,0,0,17087,17088,0,16779,16780,16639,0,0,
17095,17096,0,16787,16788,0,0,17095,17096,0,0,0,0,0,0,0,17095,17096,0,16787,16788,0,0,0,
0,0,16659,0,0,0,0,0,0,0,0,0,0,0,0,0,0,0,0,0,16659,0,0,0,
0,16659,16667,16705,16706,0,0,0,0,0,16841,16842,16843,0,0,0,0,0,0,0,16667,0,0,0,
0,16667,0,16713,16714,0,0,0,0,0,16849,16850,16851,0,0,0,0,0,0,0,0,16659,16659,0,
16659,0,0,16721,16722,0,0,0,0,0,16857,16858,16859,0,0,0,0,0,0,0,0,16667,16667,0,
16667,0,0,0,0,0,0,0,0,0,0,0,0,0,0,0,0,0,0,0,0,0,0,16659,
16428,16429,16428,16429,16428,16429,16428,16429,0,0,0,0,0,0,0,16428,16429,16428,16429,16428,16429,16428,16429,16667,
16436,16437,16436,16437,16436,16437,16436,16437,0,0,0,0,0,0,0,16436,16437,16436,16437,16436,16437,16436,16437,16659,
16444,16445,16444,16445,16444,16445,16444,16445,0,0,0,0,0,0,0,16444,16445,16444,16445,16444,16445,16444,16445,16667,
16692,0,0,0,0,0,0,0,0,0,0,0,0,0,0,0,0,0,0,0,0,0,0,16692,
16700,0,0,0,0,0,0,0,0,0,0,0,0,0,0,0,0,0,0,0,0,0,0,16700,
0,0,0,16705,16706,0,0,0,0,0,0,0,0,0,0,0,0,0,0,0,0,0,0,0,
16692,0,0,16713,16714,0,0,0,0,0,0,0,0,0,0,0,0,0,0,0,0,0,0,16692,
16700,0,0,16721,16722,0,0,0,0,0,0,0,0,0,0,0,0,0,0,0,0,0,0,16700,
0,0,0,0,0,0,0,0,0,0,0,0,0,0,0,0,0,0,0,0,0,0,0,0,
16692,0,0,0,0,0,0,0,0,0,0,0,0,0,0,0,0,0,0,0,0,0,0,0,
16700,0,0,0,0,0,0,0,0,0,0,0,0,0,0,0,0,0,0,0,0,0,0,16692,
0,0,0,0,0,0,0,0,0,0,0,15437,15438,0,0,0,0,0,0,0,0,0,0,16700
</data>
 </layer>
 <layer id="4" name="sopra_testa" width="24" height="22">
  <data encoding="csv">
0,0,0,0,0,0,0,0,0,0,0,0,0,0,0,0,0,0,0,0,0,0,0,0,
0,0,0,0,0,0,0,0,0,0,0,0,0,0,0,0,0,0,0,0,0,0,0,0,
0,0,0,0,0,0,0,0,0,0,0,0,0,0,0,0,0,0,0,0,0,0,0,0,
0,0,0,0,0,0,0,0,0,0,0,0,0,0,0,0,0,0,0,0,0,0,0,0,
0,0,0,0,0,0,0,0,0,0,0,0,0,0,0,0,0,0,0,0,0,0,0,0,
0,0,0,0,0,0,0,0,0,0,0,0,0,0,0,0,0,0,0,0,0,0,0,0,
0,0,0,0,0,0,0,0,0,0,0,0,0,0,0,0,0,0,0,0,0,0,0,0,
0,0,0,0,0,0,0,0,0,0,9077,9077,9077,0,0,0,0,0,0,0,0,0,0,0,
0,0,0,0,0,0,0,0,0,0,0,0,0,0,0,0,0,0,0,0,0,0,0,0,
0,0,0,0,0,0,0,0,0,0,0,0,0,0,0,0,0,0,0,0,0,0,0,0,
0,0,0,0,0,0,0,0,0,0,0,0,0,0,0,0,0,0,0,0,0,0,0,0,
0,0,0,0,0,0,0,0,0,0,0,0,0,0,0,0,0,0,0,0,0,0,0,0,
0,0,0,0,0,0,0,0,0,0,0,0,0,0,0,0,0,0,0,0,0,0,0,0,
0,0,0,0,0,0,0,0,0,0,0,0,0,0,0,0,0,0,0,0,0,0,0,0,
0,0,0,0,0,0,0,0,0,0,0,0,0,0,0,0,0,0,0,0,0,0,0,0,
0,0,0,0,0,0,0,0,0,0,0,0,0,0,0,0,0,0,0,0,0,0,0,0,
0,0,0,0,0,0,0,0,0,0,0,0,0,0,0,0,0,0,0,0,0,0,0,0,
0,0,0,0,0,0,0,0,0,0,0,0,0,0,0,0,0,0,0,0,0,0,0,0,
0,0,0,0,0,0,0,0,0,0,0,0,0,0,0,0,0,0,0,0,0,0,0,0,
0,0,0,0,0,0,0,0,0,0,0,0,0,0,0,0,0,0,0,0,0,0,0,0,
0,0,0,0,0,0,0,0,0,0,0,0,0,0,0,0,0,0,0,0,0,0,0,0,
0,0,0,0,0,0,0,0,0,0,0,0,0,0,0,0,0,0,0,0,0,0,0,0
</data>
 </layer>
 <objectgroup id="5" name="collisioni">
  <object id="28" x="1.33333" y="-1.33333" width="284.667" height="152"/>
  <object id="29" x="2" y="143.333" width="153.333" height="138.667"/>
  <object id="30" x="-0.666667" y="263.333" width="20.6667" height="52"/>
  <object id="31" x="4.66667" y="346" width="244.667" height="49.3333"/>
  <object id="32" x="4.66667" y="396.667" width="12" height="277.333"/>
  <object id="33" x="745.333" y="388.667" width="22" height="311.333"/>
  <object id="34" x="484" y="347.333" width="290.667" height="45.3333"/>
  <object id="35" x="674.667" y="226.667" width="54" height="51.3333"/>
  <object id="36" x="737.333" y="294" width="24.6667" height="62.6667"/>
  <object id="37" x="648" y="166" width="12.6667" height="48.6667"/>
  <object id="38" x="615.333" y="112.667" width="84.6667" height="34.6667"/>
  <object id="39" x="512.667" y="84.6667" width="58" height="52.6667"/>
  <object id="40" x="321.333" y="218" width="93.3333" height="52"/>
  <object id="41" x="512.667" y="3.33333" width="188.667" height="146"/>
  <object id="42" x="104.667" y="502" width="50.6667" height="66"/>
  <object id="43" x="292.667" y="-52.6667" width="264.667" height="110"/>
 </objectgroup>
 <objectgroup id="6" name="eventi">
  <object id="44" name="spawn" type="spawn" x="390.167" y="654.417" width="13" height="12.5">
   <point/>
   <properties>
    <property name="id" value="da_borgata_tuscolana"/>
    <property name="type" value="spawn"/>
   </properties>
  </object>
  <object id="7" name="prof_castagno" x="360.816" y="151.401">
   <properties>
    <property name="id" value="prof_castagno"/>
    <property name="type" value="npc"/>
   </properties>
   <point/>
  </object>
  <object id="14" name="uscita laboratorio professore" x="390.947" y="683.447" width="8.74624" height="5.52375">
   <properties>
    <property name="type" value="uscita"/>
   </properties>
  </object>
  <object id="15" x="526.938" y="280.174">
   <properties>
    <property name="id" value="Rivale"/>
    <property name="type" value="npc"/>
   </properties>
   <point/>
  </object>
  <object id="45" name="scienziato_lab_1" x="230" y="560">
   <properties>
    <property name="id" value="scienziato_lab_1"/>
    <property name="type" value="npc"/>
   </properties>
   <point/>
  </object>
  <object id="46" name="scienziato_lab_2" x="550" y="560">
   <properties>
    <property name="id" value="scienziato_lab_2"/>
    <property name="type" value="npc"/>
   </properties>
   <point/>
  </object>
 </objectgroup>
</map>
