<?xml version="1.0" encoding="UTF-8"?>
<map version="1.10" tiledversion="1.12.2" orientation="orthogonal" renderorder="right-down" width="14" height="10" tilewidth="32" tileheight="32" infinite="0" nextlayerid="4" nextobjectid="58">
 <tileset firstgid="1" name="PROVA_pokecenter_1f_tileset" tilewidth="32" tileheight="32" tilecount="176" columns="16">
  <image source="../PROVA_pokecenter_1f_tileset.png" width="512" height="352"/>
 </tileset>
 <tileset firstgid="177" source="../outside.tsx"/>
 <layer id="1" name="ground" width="14" height="10">
  <data encoding="csv">
1,3,5,7,9,9,9,11,13,9,15,17,19,21,
23,25,27,29,31,33,35,37,39,41,43,45,47,49,
51,53,55,57,59,61,63,65,67,69,71,73,75,77,
79,81,83,85,87,89,89,91,89,93,95,85,85,97,
79,85,85,85,99,101,103,105,107,109,111,85,85,97,
113,115,85,85,85,117,119,121,123,85,85,85,85,97,
125,127,85,85,85,129,131,133,135,85,83,137,139,97,
141,143,85,85,85,145,147,149,151,85,81,153,155,97,
157,85,85,85,85,85,159,161,85,85,85,81,83,163,
0,0,0,0,0,0,177,177,0,0,0,0,0,0
</data>
 </layer>
 <layer id="5" name="deco_sotto" width="14" height="10">
  <data encoding="csv">
0,0,6,8,10,10,10,0,0,10,16,0,0,0,
24,0,0,0,0,0,0,0,0,0,44,0,0,50,
52,0,0,0,0,0,0,66,0,0,0,74,76,78,
80,0,0,86,0,0,0,0,0,0,96,86,86,98,
80,86,86,86,0,102,104,106,108,110,112,86,86,98,
114,116,86,86,86,118,120,122,124,86,86,86,86,98,
0,128,86,86,86,130,132,134,136,86,0,0,0,98,
0,144,86,86,86,146,148,150,152,86,0,0,0,98,
158,86,86,86,86,86,0,0,86,86,86,0,0,164,
0,0,0,0,0,0,0,0,0,0,0,0,0,0
</data>
 </layer>
 <layer id="2" name="edifici" width="14" height="10">
  <data encoding="csv">
2,4,0,0,0,0,0,12,14,0,0,18,20,22,
0,26,28,30,32,34,36,38,40,42,0,46,48,0,
0,54,56,58,60,62,64,0,68,70,72,0,0,0,
0,82,84,0,88,90,90,92,90,94,0,0,0,0,
0,0,0,0,100,0,0,0,0,0,0,0,0,0,
0,0,0,0,0,0,0,0,0,0,0,0,0,0,
126,0,0,0,0,0,0,0,0,0,84,138,140,0,
142,0,0,0,0,0,0,0,0,0,82,154,156,0,
0,0,0,0,0,0,160,162,0,0,0,82,84,0,
0,0,0,0,0,0,0,0,0,0,0,0,0,0
</data>
 </layer>
 <objectgroup id="3" name="collisioni">
  <object id="1000" x="0" y="0" width="32" height="32"/>
  <object id="1001" x="32" y="0" width="32" height="32"/>
  <object id="1002" x="64" y="0" width="32" height="32"/>
  <object id="1003" x="96" y="0" width="32" height="32"/>
  <object id="1004" x="128" y="0" width="32" height="32"/>
  <object id="1005" x="160" y="0" width="32" height="32"/>
  <object id="1006" x="192" y="0" width="32" height="32"/>
  <object id="1007" x="224" y="0" width="32" height="32"/>
  <object id="1008" x="256" y="0" width="32" height="32"/>
  <object id="1009" x="288" y="0" width="32" height="32"/>
  <object id="1010" x="320" y="0" width="32" height="32"/>
  <object id="1011" x="352" y="0" width="32" height="32"/>
  <object id="1012" x="384" y="0" width="32" height="32"/>
  <object id="1013" x="416" y="0" width="32" height="32"/>
  <object id="1014" x="0" y="32" width="32" height="32"/>
  <object id="1015" x="32" y="32" width="32" height="32"/>
  <object id="1016" x="64" y="32" width="32" height="32"/>
  <object id="1017" x="96" y="32" width="32" height="32"/>
  <object id="1018" x="128" y="32" width="32" height="32"/>
  <object id="1019" x="160" y="32" width="32" height="32"/>
  <object id="1020" x="192" y="32" width="32" height="32"/>
  <object id="1021" x="224" y="32" width="32" height="32"/>
  <object id="1022" x="256" y="32" width="32" height="32"/>
  <object id="1023" x="288" y="32" width="32" height="32"/>
  <object id="1024" x="320" y="32" width="32" height="32"/>
  <object id="1025" x="352" y="32" width="32" height="32"/>
  <object id="1026" x="384" y="32" width="32" height="32"/>
  <object id="1027" x="416" y="32" width="32" height="32"/>
  <object id="1028" x="128" y="64" width="32" height="32"/>
  <object id="1029" x="160" y="64" width="32" height="32"/>
  <object id="1030" x="192" y="64" width="32" height="32"/>
  <object id="1031" x="256" y="64" width="32" height="32"/>
  <object id="1032" x="288" y="64" width="32" height="32"/>
  <object id="1033" x="128" y="96" width="32" height="32"/>
  <object id="1034" x="160" y="96" width="32" height="32"/>
  <object id="1035" x="192" y="96" width="32" height="32"/>
  <object id="1037" x="256" y="96" width="32" height="32"/>
  <object id="1038" x="288" y="96" width="32" height="32"/>
  <object id="1039" x="0" y="192" width="32" height="32"/>
  <object id="1040" x="352" y="192" width="32" height="32"/>
  <object id="1041" x="384" y="192" width="32" height="32"/>
  <object id="1042" x="352" y="224" width="32" height="32"/>
  <object id="1043" x="384" y="224" width="32" height="32"/>
  <object id="1044" x="0" y="256" width="32" height="32"/>
  <object id="1045" x="416" y="256" width="32" height="32"/>
  <object id="57" x="224.667" y="98.3333" width="30.3333" height="26.6667"/>
 </objectgroup>
 <objectgroup id="4" name="eventi">
  <object id="1" name="npc_joy" x="239.789" y="83.3458">
   <properties>
    <property name="id" value="npc_joy"/>
    <property name="type" value="npc"/>
   </properties>
   <point/>
  </object>
  <object id="54" name="pc_box" x="336.39" y="65.8017">
   <properties>
    <property name="id" value="pc_box"/>
    <property name="type" value="pc"/>
   </properties>
   <point/>
  </object>
  <object id="7" name="npc_cantiere_scale" x="69.1189" y="198.538" width="17.6586" height="22.0876">
   <properties>
    <property name="id" value="npc_cantiere_scale_pokecenter"/>
    <property name="nota_origine" value="placeholder davanti alle scale per il 2F, zona in costruzione (richiesta di Luca, 1 ott 2026)"/>
    <property name="type" value="npc"/>
   </properties>
  </object>
  <object id="5" name="uscita_1" x="223.789" y="288.69" width="32" height="32">
   <properties>
    <property name="nota_origine" value="verso MAP_FALLARBOR_TOWN (da ricollegare a una tua mappa)"/>
    <property name="type" value="uscita"/>
   </properties>
  </object>
  <object id="6" name="uscita_2" x="191.789" y="288.69" width="32" height="32">
   <properties>
    <property name="nota_origine" value="verso MAP_FALLARBOR_TOWN (da ricollegare a una tua mappa)"/>
    <property name="type" value="uscita"/>
   </properties>
  </object>
  <object id="2" name="pokecenter cliente 1" x="336" y="224">
   <properties>
    <property name="id" value="pokecenter cliente 1"/>
    <property name="nota_origine" value="OBJ_EVENT_GFX_GIRL_3"/>
    <property name="type" value="npc"/>
   </properties>
   <point/>
  </object>
  <object id="3" name="pokecenter cliente 2" x="80" y="128">
   <properties>
    <property name="id" value="pokecenter cliente 2"/>
    <property name="nota_origine" value="OBJ_EVENT_GFX_EXPERT_M"/>
    <property name="type" value="npc"/>
   </properties>
   <point/>
  </object>
  <object id="4" name="pokecenter cliente 3" x="413.401" y="118.988">
   <properties>
    <property name="id" value="pokecenter cliente 3"/>
    <property name="nota_origine" value="OBJ_EVENT_GFX_WOMAN_2"/>
    <property name="type" value="npc"/>
   </properties>
   <point/>
  </object>
  <object id="55" name="spawn" x="206.685" y="255.643" width="32" height="32">
   <properties>
    <property name="id" value="da_frascati_centro"/>
    <property name="type" value="spawn"/>
   </properties>
  </object>
 </objectgroup>
</map>
