<?xml version="1.0" encoding="UTF-8"?>
<map version="1.10" tiledversion="1.12.2" orientation="orthogonal" renderorder="right-down" width="49" height="40" tilewidth="32" tileheight="32" infinite="0" nextlayerid="6" nextobjectid="16">
 <tileset firstgid="1" name="powerplant_tileset" tilewidth="32" tileheight="32" tilecount="272" columns="16">
  <image source="../powerplant_tileset.png" width="512" height="544"/>
 </tileset>
 <tileset firstgid="273" source="../outside.tsx"/>
 <layer id="1" name="ground" width="49" height="40">
  <data encoding="csv">
1,3,5,5,5,5,5,5,5,7,9,3,5,5,5,5,5,5,5,7,9,3,5,5,5,5,5,5,5,5,5,5,7,9,3,5,5,5,5,5,5,5,5,5,5,5,5,7,11,
13,15,17,19,21,21,21,23,25,27,29,15,17,19,21,21,21,23,25,27,29,15,17,19,21,21,21,21,21,21,23,25,27,29,15,17,19,21,21,21,21,21,21,21,21,23,25,27,31,
33,35,37,39,39,39,39,39,41,43,45,35,37,39,39,39,39,39,41,43,47,35,37,39,39,39,39,39,39,39,39,41,43,47,35,37,39,39,39,39,39,39,39,39,39,39,41,43,49,
33,51,53,53,55,55,55,55,55,57,59,51,53,53,55,55,55,55,55,57,47,51,53,53,53,53,53,53,53,53,53,53,57,47,51,55,55,55,61,61,61,61,61,61,55,55,55,57,49,
33,63,65,65,65,65,65,67,67,65,69,63,65,65,65,65,65,67,67,67,47,63,65,65,65,65,65,65,65,65,65,65,65,47,71,67,67,67,73,73,73,73,73,73,67,65,67,67,49,
33,63,65,65,65,65,65,65,65,65,53,75,65,65,65,65,65,65,67,67,77,79,81,65,65,83,79,79,79,79,85,65,65,47,71,67,65,65,87,73,73,73,87,87,67,65,65,67,49,
33,63,65,65,65,65,65,65,65,65,89,79,79,81,65,65,83,79,79,79,91,21,93,63,65,95,21,21,97,99,47,63,65,47,71,65,65,65,67,87,87,87,67,67,65,65,65,67,49,
33,79,79,81,65,65,83,79,79,79,91,21,21,93,63,65,95,103,21,21,47,39,105,63,65,107,39,39,109,111,47,63,65,47,71,67,67,65,67,67,67,67,65,65,65,65,65,67,49,
33,21,103,93,63,65,95,21,21,21,47,39,39,105,63,65,107,115,39,39,47,117,53,75,65,53,53,55,55,55,47,63,65,47,71,67,67,65,65,67,67,65,65,65,65,65,65,67,49,
33,39,115,105,121,123,107,125,127,129,47,55,55,53,75,65,53,55,55,55,45,63,65,65,65,65,65,65,67,67,47,63,65,47,71,65,65,65,65,67,67,65,67,67,67,131,131,131,49,
33,65,65,139,141,123,139,143,145,147,47,71,67,65,65,65,65,65,67,67,59,63,65,65,65,65,65,65,65,67,47,63,65,47,63,65,65,65,65,67,65,65,67,67,67,73,73,73,49,
33,65,65,123,123,123,123,153,155,157,47,71,67,67,65,65,65,65,65,65,69,63,65,65,65,65,65,65,65,65,47,63,65,47,63,65,65,65,65,65,65,65,65,67,67,87,87,87,49,
33,65,65,123,123,123,123,163,165,167,47,71,65,67,65,65,65,65,65,65,53,75,65,65,65,65,65,65,65,65,47,63,65,47,63,65,65,65,65,65,65,65,65,65,65,67,67,67,49,
33,79,79,79,79,79,79,79,79,79,171,79,79,79,79,79,79,79,79,79,173,79,81,65,65,83,79,79,79,79,91,63,65,175,79,79,79,79,81,65,65,83,79,79,79,79,79,79,177,
33,179,181,21,21,21,21,21,97,99,45,179,181,21,21,21,21,21,97,99,47,21,93,63,65,95,103,21,21,183,47,63,65,95,21,21,21,103,93,63,65,95,21,21,21,21,97,99,49,
33,185,187,39,39,39,39,39,109,111,59,185,187,39,39,39,39,39,109,111,47,39,105,63,65,107,115,189,191,193,47,63,65,107,39,39,39,115,105,63,65,107,39,39,39,39,109,111,49,
33,55,55,55,55,53,53,53,53,53,69,117,53,53,53,53,55,55,55,55,47,117,53,75,65,53,53,195,197,199,47,63,65,53,53,53,53,53,53,75,65,53,53,53,53,53,53,53,49,
33,71,67,65,65,65,65,65,65,65,53,75,65,65,65,65,65,65,67,67,47,63,65,65,65,65,65,65,65,65,47,63,65,65,65,65,65,65,65,65,65,65,65,65,65,65,65,65,49,
33,71,65,65,65,65,65,65,65,65,65,65,65,65,65,65,65,65,65,67,77,79,79,79,79,79,79,79,79,79,201,79,79,79,79,79,79,79,79,79,79,79,79,79,85,65,65,65,49,
203,79,79,79,81,65,65,65,65,65,205,65,65,65,65,65,65,65,65,67,45,179,181,21,21,21,21,21,21,21,21,21,21,21,21,21,21,21,21,21,21,21,97,99,47,63,65,65,49,
33,21,21,21,93,63,65,65,65,65,47,71,67,67,65,65,65,65,65,65,59,185,187,39,39,39,39,39,39,39,39,39,39,39,39,39,39,39,39,39,39,39,109,111,47,63,65,65,49,
33,189,39,39,105,63,65,65,65,65,47,71,67,67,65,65,65,65,65,65,69,55,55,55,61,61,53,61,61,61,61,61,61,61,61,61,61,61,61,61,53,53,53,53,47,63,65,65,49,
33,195,53,53,53,75,65,65,65,65,47,71,65,65,65,65,65,65,65,65,53,75,65,67,73,73,131,73,73,73,73,73,73,73,73,73,73,73,73,73,65,65,65,65,47,63,65,65,49,
33,63,65,65,83,79,79,79,79,79,91,63,65,65,83,79,79,79,79,79,85,65,65,67,87,87,87,87,87,87,87,87,87,87,87,87,87,87,87,87,67,67,65,65,47,63,65,65,49,
33,63,65,65,95,21,21,21,21,21,47,63,65,65,95,103,21,21,21,21,47,63,65,65,65,65,65,131,131,131,131,131,131,131,131,131,65,65,65,65,65,65,65,65,47,63,65,65,49,
33,63,65,65,107,191,191,39,39,39,47,63,65,65,107,115,39,39,189,191,47,63,65,65,65,67,67,87,87,87,87,87,87,87,87,87,67,67,67,67,67,65,65,65,47,63,65,65,49,
33,63,65,65,53,197,197,55,55,55,47,63,65,65,53,53,53,53,195,197,47,63,65,65,65,65,65,65,65,65,65,65,65,65,65,65,65,65,65,65,65,65,65,65,47,63,65,65,49,
33,63,65,65,65,65,65,65,67,67,47,63,65,65,65,65,65,65,65,65,77,79,79,79,79,79,79,79,79,79,79,79,79,79,79,79,79,79,79,79,79,79,79,79,207,63,65,65,49,
203,79,79,79,79,81,65,65,83,79,171,79,79,79,79,79,81,65,65,65,45,21,21,21,21,21,21,21,21,21,21,21,21,21,21,21,21,21,21,21,21,21,21,21,93,63,65,65,49,
33,21,21,21,103,93,63,65,95,21,47,21,21,21,21,103,93,63,65,65,59,39,39,39,39,39,39,39,39,39,39,39,39,39,39,39,39,39,39,39,39,39,39,39,105,63,65,67,49,
33,39,39,39,115,105,63,65,107,39,47,39,39,39,39,115,105,63,65,65,69,117,53,53,53,53,53,53,53,55,55,55,55,53,53,53,53,53,53,55,53,53,53,53,53,75,65,67,49,
33,117,53,53,53,53,75,65,53,53,47,55,55,53,53,53,53,75,65,65,53,75,65,65,67,67,65,65,65,65,67,65,65,65,65,67,67,65,65,65,65,65,65,65,65,65,67,67,49,
33,63,65,65,65,65,65,65,65,65,47,63,65,65,65,65,65,65,65,65,65,65,65,65,67,67,65,65,65,65,65,65,65,65,67,67,67,65,65,67,67,67,67,67,67,67,67,67,49,
33,71,65,65,65,65,65,65,67,67,77,79,79,81,65,65,83,79,79,79,79,79,79,79,79,79,79,79,79,79,79,79,173,79,79,81,67,67,65,83,79,79,79,79,79,79,79,79,177,
33,71,67,65,65,65,65,65,67,67,47,21,21,93,63,65,95,103,21,21,21,21,21,21,21,21,21,183,21,21,21,21,47,21,21,93,63,67,65,95,103,21,21,21,21,21,21,21,49,
33,71,67,65,65,65,65,65,67,67,47,39,39,105,63,65,107,115,191,39,39,39,39,39,39,39,189,193,209,211,213,39,47,39,39,105,63,65,65,107,115,39,191,189,215,215,39,39,49,
33,71,65,65,65,65,65,65,65,67,47,55,55,53,75,65,53,53,197,55,55,55,55,53,53,53,195,199,217,219,221,55,47,117,61,61,75,65,131,61,61,53,197,195,73,73,55,55,49,
33,63,65,137,137,137,137,137,65,65,47,71,65,65,65,65,65,65,67,67,67,67,65,65,65,65,65,65,223,225,227,67,47,63,87,87,65,65,87,87,87,65,65,65,87,87,65,65,49,
33,63,65,137,229,231,233,137,65,65,47,63,65,65,65,65,65,65,65,65,65,65,65,65,65,65,65,65,235,237,239,65,47,63,65,65,65,65,65,65,65,65,65,65,65,65,65,65,49,
241,243,243,245,247,249,251,253,243,243,255,243,243,243,243,243,243,243,243,243,243,243,243,243,243,243,243,243,243,243,243,243,255,243,243,243,243,243,243,243,243,243,243,243,243,243,243,243,257
</data>
 </layer>
 <layer id="2" name="deco_sotto" width="49" height="40">
  <data encoding="csv">
2,4,6,6,6,6,6,6,6,8,10,4,6,6,6,6,6,6,6,8,10,4,6,6,6,6,6,6,6,6,6,6,8,10,4,6,6,6,6,6,6,6,6,6,6,6,6,8,12,
14,16,18,20,22,22,22,24,26,28,30,16,18,20,22,22,22,24,26,28,30,16,18,20,22,22,22,22,22,22,24,26,28,30,16,18,20,22,22,22,22,22,22,22,22,24,26,28,32,
34,36,38,40,40,40,40,40,42,44,46,36,38,40,40,40,40,40,42,44,48,36,38,40,40,40,40,40,40,40,40,42,44,48,36,38,40,40,40,40,40,40,40,40,40,40,42,44,50,
34,52,54,54,0,0,0,0,0,58,60,52,54,54,0,0,0,0,0,58,48,52,54,54,54,54,54,54,54,54,54,54,58,48,52,0,0,0,62,62,62,62,62,62,0,0,0,58,50,
34,64,66,66,66,66,66,0,0,66,70,64,66,66,66,66,66,0,0,0,48,64,66,66,66,66,66,66,66,66,66,66,66,48,0,0,0,0,0,0,0,0,0,0,0,66,0,0,50,
34,64,66,66,66,66,66,66,66,66,54,76,66,66,66,66,66,66,0,0,78,80,82,66,66,84,80,80,80,80,86,66,66,48,0,0,66,66,0,0,0,0,0,0,0,66,66,0,50,
34,64,66,66,66,66,66,66,66,66,90,80,80,82,66,66,84,80,80,80,92,22,94,64,66,96,22,22,98,100,48,64,66,48,0,66,66,66,0,0,0,0,0,0,66,66,66,0,50,
102,80,80,82,66,66,84,80,80,80,92,22,22,94,64,66,96,104,22,22,48,40,106,64,66,108,40,40,110,112,48,64,66,48,0,0,0,66,0,0,0,0,66,66,66,66,66,0,50,
114,22,104,94,64,66,96,22,22,22,48,40,40,106,64,66,108,116,40,40,48,118,54,76,66,54,54,0,0,0,48,64,66,48,0,0,0,66,66,0,0,66,66,66,66,66,66,0,50,
120,40,116,106,0,124,108,126,128,130,48,0,0,54,76,66,54,0,0,0,46,64,66,66,66,66,66,66,0,0,48,64,66,48,0,66,66,66,66,0,0,66,0,0,0,132,132,132,50,
0,102,138,140,142,124,140,0,0,0,48,0,0,66,66,66,66,66,0,0,60,64,66,66,66,66,66,66,66,0,48,64,66,48,64,66,66,66,66,0,66,66,0,0,0,0,0,0,50,
0,102,138,124,124,1221,124,0,0,0,48,0,0,0,66,66,66,66,66,66,70,64,66,66,66,66,66,66,66,66,48,64,66,48,64,66,66,66,66,66,66,66,66,0,0,0,0,0,50,
0,102,138,124,124,124,124,0,0,0,48,0,66,0,66,66,66,66,66,66,54,76,66,66,66,66,66,66,66,66,48,64,66,48,64,66,66,66,66,66,66,66,66,66,66,0,0,0,50,
170,80,80,80,80,80,80,80,80,80,172,80,80,80,80,80,80,80,80,80,174,80,82,66,66,84,80,80,80,80,92,64,66,176,80,80,80,80,82,66,66,84,80,80,80,80,80,80,178,
34,180,182,22,22,22,22,22,98,100,46,180,182,22,22,22,22,22,98,100,48,22,94,64,66,96,104,22,22,0,48,64,66,96,22,22,22,104,94,64,66,96,22,22,22,22,98,100,50,
34,186,188,40,40,40,40,40,110,112,60,186,188,40,40,40,40,40,110,112,48,40,106,64,66,108,116,0,0,0,48,64,66,108,40,40,40,116,106,64,66,108,40,40,40,40,110,112,50,
34,0,0,0,0,54,54,54,54,54,70,118,54,54,54,54,0,0,0,0,48,118,54,76,66,54,54,0,0,0,48,64,66,54,54,54,54,54,54,76,66,54,54,54,54,54,54,54,50,
34,0,0,66,66,66,66,66,66,66,54,76,66,66,66,66,66,66,0,0,48,64,66,66,66,66,66,66,66,66,48,64,66,66,66,66,66,66,66,66,66,66,66,66,66,66,66,66,50,
34,0,66,66,66,66,66,66,66,66,66,66,66,66,66,66,66,66,66,0,78,80,80,80,80,80,80,80,80,80,202,80,80,80,80,80,80,80,80,80,80,80,80,80,86,66,66,66,50,
204,80,80,80,82,66,66,66,66,66,206,66,66,66,66,66,66,66,66,0,46,180,182,22,22,22,22,22,22,22,22,22,22,22,22,22,22,22,22,22,22,22,98,100,48,64,66,66,50,
34,22,22,22,94,64,66,66,66,66,48,0,0,0,66,66,66,66,66,66,60,186,188,40,40,40,40,40,40,40,40,40,40,40,40,40,40,40,40,40,40,40,110,112,48,64,66,66,50,
34,0,40,40,106,64,66,66,66,66,48,0,0,0,66,66,66,66,66,66,70,0,0,0,62,62,54,62,62,62,62,62,62,62,62,62,62,62,62,62,54,54,54,54,48,64,66,66,50,
34,0,54,54,54,76,66,66,66,66,48,0,66,66,66,66,66,66,66,66,54,76,66,0,0,0,132,0,0,0,0,0,0,0,0,0,0,0,0,0,66,66,66,66,48,64,66,66,50,
34,64,66,66,84,80,80,80,80,80,92,64,66,66,84,80,80,80,80,80,86,66,66,0,0,0,0,0,0,0,0,0,0,0,0,0,0,0,0,0,0,0,66,66,48,64,66,66,50,
34,64,66,66,96,22,22,22,22,22,48,64,66,66,96,104,22,22,22,22,48,64,66,66,66,66,66,132,132,132,132,132,132,132,132,132,66,66,66,66,66,66,66,66,48,64,66,66,50,
34,64,66,66,108,0,0,40,40,40,48,64,66,66,108,116,40,40,0,0,48,64,66,66,66,0,0,0,0,0,0,0,0,0,0,0,0,0,0,0,0,66,66,66,48,64,66,66,50,
34,64,66,66,54,0,0,0,0,0,48,64,66,66,54,54,54,54,0,0,48,64,66,66,66,66,66,66,66,66,66,66,66,66,66,66,66,66,66,66,66,66,66,66,48,64,66,66,50,
34,64,66,66,66,66,66,1221,0,0,48,64,66,66,66,66,66,66,66,66,78,80,80,80,80,80,80,80,80,80,80,80,80,80,80,80,80,80,80,80,80,80,80,80,208,64,66,66,50,
204,80,80,80,80,82,66,66,84,80,172,80,80,80,80,80,82,66,66,66,46,22,22,22,22,22,22,22,22,22,22,22,22,22,22,22,22,22,22,22,22,22,22,22,94,64,66,66,50,
34,22,22,22,104,94,64,66,96,22,48,22,22,22,22,104,94,64,66,66,60,40,40,40,40,40,40,40,40,40,40,40,40,40,40,40,40,40,40,40,40,40,40,40,106,64,66,0,50,
34,40,40,40,116,106,64,66,108,40,48,40,40,40,40,116,106,64,66,66,70,118,54,54,54,54,54,54,54,0,0,0,0,54,54,54,54,54,54,0,54,54,54,54,54,76,66,0,50,
34,118,54,54,54,54,76,66,54,54,48,0,0,54,54,54,54,76,66,66,54,76,66,66,0,0,66,66,66,66,0,66,66,66,66,0,0,66,66,66,66,66,66,66,66,66,0,0,50,
34,64,66,66,66,66,66,66,66,66,48,64,66,66,66,66,66,66,66,66,66,66,66,66,0,0,66,66,66,66,66,66,66,66,0,0,0,66,66,0,0,0,0,0,0,0,0,0,50,
34,0,66,66,66,66,66,66,0,0,78,80,80,82,66,66,84,80,80,80,80,80,80,80,80,80,80,80,80,80,80,80,174,80,80,82,0,0,66,84,80,80,80,80,80,80,80,80,178,
34,0,0,66,66,66,66,66,0,0,48,22,22,94,64,66,96,104,22,22,22,22,22,22,22,22,22,0,22,22,22,22,48,22,22,94,64,0,66,96,104,22,22,22,22,22,22,22,50,
34,0,0,66,66,66,66,66,0,0,48,40,40,106,64,66,108,116,0,40,40,40,40,40,40,40,0,0,210,212,214,40,48,40,40,106,64,66,66,108,116,40,0,0,0,0,40,40,50,
34,0,66,66,66,66,66,66,66,0,48,0,0,54,76,66,54,54,0,0,0,0,0,54,54,54,0,0,0,0,0,0,48,118,62,62,76,66,132,62,62,54,0,0,0,0,0,0,50,
34,64,66,138,138,138,138,138,66,66,48,0,66,66,66,66,66,66,0,0,0,0,66,66,66,66,66,66,0,0,0,0,48,64,0,0,66,66,0,0,0,66,66,66,0,0,66,66,50,
34,64,66,138,0,0,0,138,66,66,48,64,66,66,66,66,66,66,66,66,66,66,66,66,66,66,66,66,0,0,1221,66,48,64,66,66,66,66,66,66,66,66,66,66,66,66,66,66,50,
242,244,244,246,0,0,0,254,244,244,256,244,244,244,244,244,244,244,244,244,244,244,244,244,244,244,244,244,244,244,244,244,256,244,244,244,244,244,244,244,244,244,244,244,244,244,244,244,258
</data>
 </layer>
 <layer id="3" name="edifici" width="49" height="40">
  <data encoding="csv">
0,0,0,0,0,0,0,0,0,0,0,0,0,0,0,0,0,0,0,0,0,0,0,0,0,0,0,0,0,0,0,0,0,0,0,0,0,0,0,0,0,0,0,0,0,0,0,0,0,
0,0,0,0,0,0,0,0,0,0,0,0,0,0,0,0,0,0,0,0,0,0,0,0,0,0,0,0,0,0,0,0,0,0,0,0,0,0,0,0,0,0,0,0,0,0,0,0,0,
0,0,0,0,0,0,0,0,0,0,0,0,0,0,0,0,0,0,0,0,0,0,0,0,0,0,0,0,0,0,0,0,0,0,0,0,0,0,0,0,0,0,0,0,0,0,0,0,0,
0,0,0,0,56,56,56,56,56,0,0,0,0,0,56,56,56,56,56,0,0,0,0,0,0,0,0,0,0,0,0,0,0,0,0,56,56,56,0,0,0,0,0,0,56,56,56,0,0,
0,0,0,0,0,0,0,68,68,0,0,0,0,0,0,0,0,68,68,68,0,0,0,0,0,0,0,0,0,0,0,0,0,0,72,68,68,68,74,74,74,74,74,74,68,1221,68,68,0,
0,0,0,0,0,0,0,0,0,0,0,0,0,0,0,0,0,0,68,68,0,0,0,0,0,0,0,0,0,0,0,0,0,0,72,68,1221,0,88,74,74,74,88,88,68,0,0,68,0,
0,0,0,0,0,0,0,0,0,0,0,0,0,0,0,0,0,0,0,0,0,0,0,0,0,0,0,0,0,0,0,0,0,0,72,0,0,0,68,88,88,88,68,68,0,0,0,68,0,
0,0,0,0,0,0,0,0,0,0,0,0,0,0,0,0,0,0,0,0,0,0,0,0,0,0,0,0,0,0,0,0,0,0,72,68,68,0,68,68,68,68,0,0,0,0,0,68,0,
0,0,0,0,0,0,0,0,0,0,0,0,0,0,0,0,0,0,0,0,0,0,0,0,0,0,0,56,56,56,0,0,0,0,72,68,68,0,0,68,68,0,0,0,0,0,0,68,0,
0,0,0,0,122,0,0,0,0,0,0,56,56,0,0,0,0,56,56,56,0,0,0,0,0,0,0,0,68,68,0,0,0,0,72,0,0,0,0,68,68,0,68,68,68,0,0,0,0,
0,65,0,0,0,0,0,144,146,148,0,72,68,0,0,0,0,0,68,68,0,0,0,0,0,0,0,0,0,68,0,0,0,0,0,0,0,0,0,68,0,0,68,68,68,74,74,74,0,
0,65,0,0,0,0,0,154,156,158,0,72,68,68,0,0,0,0,0,0,0,0,0,0,0,0,0,0,0,0,0,0,0,0,0,0,0,0,0,0,0,0,0,68,68,88,88,88,0,
0,65,0,0,0,0,0,164,166,168,0,72,0,68,0,0,0,0,0,0,0,0,0,0,0,0,0,0,0,0,0,0,0,0,0,0,0,0,0,0,0,0,0,0,0,68,68,68,0,
0,0,0,0,0,0,0,0,0,0,0,0,0,0,0,0,0,0,0,0,0,0,0,0,0,0,0,0,0,0,0,0,0,0,0,0,0,0,0,0,0,0,0,0,0,0,0,0,0,
0,0,0,0,0,0,0,0,0,0,0,0,0,0,0,0,0,0,0,0,0,0,0,0,0,0,0,0,0,184,0,0,0,0,0,0,0,0,0,0,0,0,0,0,0,0,0,0,0,
0,0,0,0,0,0,0,0,0,0,0,0,0,0,0,0,0,0,0,0,0,0,0,0,0,0,0,190,192,194,0,0,0,0,0,0,0,0,0,0,0,0,0,0,0,0,0,0,0,
0,56,56,56,56,0,0,0,0,0,0,0,0,0,0,0,56,56,56,56,0,0,0,0,0,0,0,196,198,200,0,0,0,0,0,0,0,0,0,0,0,0,0,0,0,0,0,0,0,
0,72,68,0,0,0,0,0,0,0,0,0,0,0,0,0,0,0,68,68,0,0,0,0,0,0,0,0,0,0,0,0,0,0,0,0,0,0,0,0,0,0,0,0,0,0,0,0,0,
0,72,0,0,0,0,0,0,0,0,0,0,0,0,0,0,0,0,0,68,0,0,0,0,0,0,0,0,0,0,0,0,0,0,0,0,0,0,0,0,0,0,0,0,0,0,0,0,0,
0,0,0,0,0,0,0,0,0,0,0,0,0,0,0,0,0,0,0,68,0,0,0,0,0,0,0,0,0,0,0,0,0,0,0,0,0,0,0,0,0,0,0,0,0,0,0,0,0,
0,0,0,0,0,0,0,0,0,0,0,72,68,68,0,0,0,0,0,0,0,0,0,0,0,0,0,0,0,0,0,0,0,0,0,0,0,0,0,0,0,0,0,0,0,0,0,0,0,
0,190,0,0,0,0,0,0,0,0,0,72,68,68,0,0,0,0,0,0,0,56,56,56,0,0,0,0,0,0,0,0,0,0,0,0,0,0,0,0,0,0,0,0,0,0,0,0,0,
0,196,0,0,0,0,0,0,0,0,0,72,0,0,0,0,0,0,0,0,0,0,0,68,74,74,1221,74,74,74,74,74,74,74,74,74,74,74,74,74,1221,0,0,0,0,0,0,0,0,
0,0,0,0,0,0,0,0,0,0,0,0,0,0,0,0,0,0,0,0,0,0,0,68,88,88,88,88,88,88,88,88,88,88,88,88,88,88,88,88,68,68,0,0,0,0,0,0,0,
0,0,0,0,0,0,0,0,0,0,0,0,0,0,0,0,0,0,0,0,0,0,0,0,0,0,0,0,0,0,0,0,0,0,0,0,0,0,0,0,0,0,0,0,0,0,0,0,0,
0,0,0,0,0,192,192,0,0,0,0,0,0,0,0,0,0,0,190,192,0,0,0,0,0,68,68,88,88,88,88,88,88,88,88,88,68,68,68,68,68,0,0,0,0,0,0,0,0,
0,0,0,0,0,198,198,56,56,56,0,0,0,0,0,0,0,0,196,198,0,0,0,0,0,0,0,0,0,0,0,0,0,0,0,0,0,0,0,0,0,0,0,0,0,0,0,0,0,
0,0,0,0,0,0,0,0,68,68,0,0,0,0,0,0,0,0,0,0,0,0,0,0,0,0,0,0,0,0,0,0,0,0,0,0,0,0,0,0,0,0,0,0,0,0,0,0,0,
0,0,0,0,0,0,0,0,0,0,0,0,0,0,0,0,0,0,0,0,0,0,0,0,0,0,0,0,0,0,0,0,0,0,0,0,0,0,0,0,0,0,0,0,0,0,0,0,0,
0,0,0,0,0,0,0,0,0,0,0,0,0,0,0,0,0,0,0,0,0,0,0,0,0,0,0,0,0,0,0,0,0,0,0,0,0,0,0,0,0,0,0,0,0,0,0,68,0,
0,0,0,0,0,0,0,0,0,0,0,0,0,0,0,0,0,0,0,0,0,0,0,0,0,0,0,0,0,56,56,56,56,0,0,0,0,0,0,56,0,0,0,0,0,0,0,68,0,
0,0,0,0,0,0,0,0,0,0,0,56,56,0,0,0,0,0,0,0,0,0,0,0,68,68,0,0,0,0,68,0,0,0,0,68,68,0,0,0,0,0,0,0,0,0,68,68,0,
0,0,0,0,0,0,0,0,0,0,0,0,0,0,0,0,0,0,0,0,0,0,0,0,68,68,0,0,0,0,0,0,0,0,68,68,68,0,0,68,68,68,68,68,68,68,68,68,0,
0,72,0,0,0,0,0,0,68,68,0,0,0,0,0,0,0,0,0,0,0,0,0,0,0,0,0,0,0,0,0,0,0,0,0,0,68,68,0,0,0,0,0,0,0,0,0,0,0,
0,72,68,0,0,0,0,0,68,68,0,0,0,0,0,0,0,0,0,0,0,0,0,0,0,0,0,184,0,0,0,0,0,0,0,0,0,68,0,0,0,0,0,0,0,0,0,0,0,
0,72,68,0,0,0,0,0,68,68,0,0,0,0,0,0,0,0,192,0,0,0,0,0,0,0,190,194,0,0,0,0,0,0,0,0,0,0,0,0,0,0,192,190,216,216,0,0,0,
0,72,0,0,0,0,0,0,0,68,0,56,56,0,0,0,0,0,198,56,56,56,56,0,0,0,196,200,218,220,222,56,0,0,0,0,0,0,0,0,0,0,198,196,74,74,56,56,0,
0,0,0,0,0,0,0,0,0,0,0,72,0,0,0,0,0,0,68,68,68,68,0,0,0,0,0,0,224,226,228,68,0,0,88,88,0,0,88,88,88,0,0,0,88,88,1221,0,0,
0,0,0,0,230,232,234,0,0,0,0,0,0,0,0,0,0,0,0,0,0,0,0,0,0,0,0,0,236,238,240,0,0,0,0,0,0,0,0,0,0,0,0,0,0,0,0,0,0,
0,0,0,0,248,250,252,0,0,0,0,0,0,0,0,0,0,0,0,0,0,0,0,0,0,0,0,0,0,0,0,0,0,0,0,0,0,0,0,0,0,0,0,0,0,0,0,0,0
</data>
 </layer>
 <objectgroup id="4" name="collisioni">
 <object id="1000" x="0" y="0" width="32" height="32"/>
 <object id="1001" x="32" y="0" width="32" height="32"/>
 <object id="1002" x="64" y="0" width="32" height="32"/>
 <object id="1003" x="96" y="0" width="32" height="32"/>
 <object id="1004" x="128" y="0" width="32" height="32"/>
 <object id="1005" x="160" y="0" width="32" height="32"/>
 <object id="1006" x="192" y="0" width="32" height="32"/>
 <object id="1007" x="224" y="0" width="32" height="32"/>
 <object id="1008" x="256" y="0" width="32" height="32"/>
 <object id="1009" x="288" y="0" width="32" height="32"/>
 <object id="1010" x="320" y="0" width="32" height="32"/>
 <object id="1011" x="352" y="0" width="32" height="32"/>
 <object id="1012" x="384" y="0" width="32" height="32"/>
 <object id="1013" x="416" y="0" width="32" height="32"/>
 <object id="1014" x="448" y="0" width="32" height="32"/>
 <object id="1015" x="480" y="0" width="32" height="32"/>
 <object id="1016" x="512" y="0" width="32" height="32"/>
 <object id="1017" x="544" y="0" width="32" height="32"/>
 <object id="1018" x="576" y="0" width="32" height="32"/>
 <object id="1019" x="608" y="0" width="32" height="32"/>
 <object id="1020" x="640" y="0" width="32" height="32"/>
 <object id="1021" x="672" y="0" width="32" height="32"/>
 <object id="1022" x="704" y="0" width="32" height="32"/>
 <object id="1023" x="736" y="0" width="32" height="32"/>
 <object id="1024" x="768" y="0" width="32" height="32"/>
 <object id="1025" x="800" y="0" width="32" height="32"/>
 <object id="1026" x="832" y="0" width="32" height="32"/>
 <object id="1027" x="864" y="0" width="32" height="32"/>
 <object id="1028" x="896" y="0" width="32" height="32"/>
 <object id="1029" x="928" y="0" width="32" height="32"/>
 <object id="1030" x="960" y="0" width="32" height="32"/>
 <object id="1031" x="992" y="0" width="32" height="32"/>
 <object id="1032" x="1024" y="0" width="32" height="32"/>
 <object id="1033" x="1056" y="0" width="32" height="32"/>
 <object id="1034" x="1088" y="0" width="32" height="32"/>
 <object id="1035" x="1120" y="0" width="32" height="32"/>
 <object id="1036" x="1152" y="0" width="32" height="32"/>
 <object id="1037" x="1184" y="0" width="32" height="32"/>
 <object id="1038" x="1216" y="0" width="32" height="32"/>
 <object id="1039" x="1248" y="0" width="32" height="32"/>
 <object id="1040" x="1280" y="0" width="32" height="32"/>
 <object id="1041" x="1312" y="0" width="32" height="32"/>
 <object id="1042" x="1344" y="0" width="32" height="32"/>
 <object id="1043" x="1376" y="0" width="32" height="32"/>
 <object id="1044" x="1408" y="0" width="32" height="32"/>
 <object id="1045" x="1440" y="0" width="32" height="32"/>
 <object id="1046" x="1472" y="0" width="32" height="32"/>
 <object id="1047" x="1504" y="0" width="32" height="32"/>
 <object id="1048" x="1536" y="0" width="32" height="32"/>
 <object id="1049" x="0" y="32" width="32" height="32"/>
 <object id="1050" x="32" y="32" width="32" height="32"/>
 <object id="1051" x="64" y="32" width="32" height="32"/>
 <object id="1052" x="96" y="32" width="32" height="32"/>
 <object id="1053" x="128" y="32" width="32" height="32"/>
 <object id="1054" x="160" y="32" width="32" height="32"/>
 <object id="1055" x="192" y="32" width="32" height="32"/>
 <object id="1056" x="224" y="32" width="32" height="32"/>
 <object id="1057" x="256" y="32" width="32" height="32"/>
 <object id="1058" x="288" y="32" width="32" height="32"/>
 <object id="1059" x="320" y="32" width="32" height="32"/>
 <object id="1060" x="352" y="32" width="32" height="32"/>
 <object id="1061" x="384" y="32" width="32" height="32"/>
 <object id="1062" x="416" y="32" width="32" height="32"/>
 <object id="1063" x="448" y="32" width="32" height="32"/>
 <object id="1064" x="480" y="32" width="32" height="32"/>
 <object id="1065" x="512" y="32" width="32" height="32"/>
 <object id="1066" x="544" y="32" width="32" height="32"/>
 <object id="1067" x="576" y="32" width="32" height="32"/>
 <object id="1068" x="608" y="32" width="32" height="32"/>
 <object id="1069" x="640" y="32" width="32" height="32"/>
 <object id="1070" x="672" y="32" width="32" height="32"/>
 <object id="1071" x="704" y="32" width="32" height="32"/>
 <object id="1072" x="736" y="32" width="32" height="32"/>
 <object id="1073" x="768" y="32" width="32" height="32"/>
 <object id="1074" x="800" y="32" width="32" height="32"/>
 <object id="1075" x="832" y="32" width="32" height="32"/>
 <object id="1076" x="864" y="32" width="32" height="32"/>
 <object id="1077" x="896" y="32" width="32" height="32"/>
 <object id="1078" x="928" y="32" width="32" height="32"/>
 <object id="1079" x="960" y="32" width="32" height="32"/>
 <object id="1080" x="992" y="32" width="32" height="32"/>
 <object id="1081" x="1024" y="32" width="32" height="32"/>
 <object id="1082" x="1056" y="32" width="32" height="32"/>
 <object id="1083" x="1088" y="32" width="32" height="32"/>
 <object id="1084" x="1120" y="32" width="32" height="32"/>
 <object id="1085" x="1152" y="32" width="32" height="32"/>
 <object id="1086" x="1184" y="32" width="32" height="32"/>
 <object id="1087" x="1216" y="32" width="32" height="32"/>
 <object id="1088" x="1248" y="32" width="32" height="32"/>
 <object id="1089" x="1280" y="32" width="32" height="32"/>
 <object id="1090" x="1312" y="32" width="32" height="32"/>
 <object id="1091" x="1344" y="32" width="32" height="32"/>
 <object id="1092" x="1376" y="32" width="32" height="32"/>
 <object id="1093" x="1408" y="32" width="32" height="32"/>
 <object id="1094" x="1440" y="32" width="32" height="32"/>
 <object id="1095" x="1472" y="32" width="32" height="32"/>
 <object id="1096" x="1504" y="32" width="32" height="32"/>
 <object id="1097" x="1536" y="32" width="32" height="32"/>
 <object id="1098" x="0" y="64" width="32" height="32"/>
 <object id="1099" x="32" y="64" width="32" height="32"/>
 <object id="1100" x="64" y="64" width="32" height="32"/>
 <object id="1101" x="96" y="64" width="32" height="32"/>
 <object id="1102" x="128" y="64" width="32" height="32"/>
 <object id="1103" x="160" y="64" width="32" height="32"/>
 <object id="1104" x="192" y="64" width="32" height="32"/>
 <object id="1105" x="224" y="64" width="32" height="32"/>
 <object id="1106" x="256" y="64" width="32" height="32"/>
 <object id="1107" x="288" y="64" width="32" height="32"/>
 <object id="1108" x="320" y="64" width="32" height="32"/>
 <object id="1109" x="352" y="64" width="32" height="32"/>
 <object id="1110" x="384" y="64" width="32" height="32"/>
 <object id="1111" x="416" y="64" width="32" height="32"/>
 <object id="1112" x="448" y="64" width="32" height="32"/>
 <object id="1113" x="480" y="64" width="32" height="32"/>
 <object id="1114" x="512" y="64" width="32" height="32"/>
 <object id="1115" x="544" y="64" width="32" height="32"/>
 <object id="1116" x="576" y="64" width="32" height="32"/>
 <object id="1117" x="608" y="64" width="32" height="32"/>
 <object id="1118" x="640" y="64" width="32" height="32"/>
 <object id="1119" x="672" y="64" width="32" height="32"/>
 <object id="1120" x="704" y="64" width="32" height="32"/>
 <object id="1121" x="736" y="64" width="32" height="32"/>
 <object id="1122" x="768" y="64" width="32" height="32"/>
 <object id="1123" x="800" y="64" width="32" height="32"/>
 <object id="1124" x="832" y="64" width="32" height="32"/>
 <object id="1125" x="864" y="64" width="32" height="32"/>
 <object id="1126" x="896" y="64" width="32" height="32"/>
 <object id="1127" x="928" y="64" width="32" height="32"/>
 <object id="1128" x="960" y="64" width="32" height="32"/>
 <object id="1129" x="992" y="64" width="32" height="32"/>
 <object id="1130" x="1024" y="64" width="32" height="32"/>
 <object id="1131" x="1056" y="64" width="32" height="32"/>
 <object id="1132" x="1088" y="64" width="32" height="32"/>
 <object id="1133" x="1120" y="64" width="32" height="32"/>
 <object id="1134" x="1152" y="64" width="32" height="32"/>
 <object id="1135" x="1184" y="64" width="32" height="32"/>
 <object id="1136" x="1216" y="64" width="32" height="32"/>
 <object id="1137" x="1248" y="64" width="32" height="32"/>
 <object id="1138" x="1280" y="64" width="32" height="32"/>
 <object id="1139" x="1312" y="64" width="32" height="32"/>
 <object id="1140" x="1344" y="64" width="32" height="32"/>
 <object id="1141" x="1376" y="64" width="32" height="32"/>
 <object id="1142" x="1408" y="64" width="32" height="32"/>
 <object id="1143" x="1440" y="64" width="32" height="32"/>
 <object id="1144" x="1472" y="64" width="32" height="32"/>
 <object id="1145" x="1504" y="64" width="32" height="32"/>
 <object id="1146" x="1536" y="64" width="32" height="32"/>
 <object id="1147" x="0" y="96" width="32" height="32"/>
 <object id="1148" x="128" y="96" width="32" height="32"/>
 <object id="1149" x="160" y="96" width="32" height="32"/>
 <object id="1150" x="192" y="96" width="32" height="32"/>
 <object id="1151" x="224" y="96" width="32" height="32"/>
 <object id="1152" x="256" y="96" width="32" height="32"/>
 <object id="1153" x="320" y="96" width="32" height="32"/>
 <object id="1154" x="448" y="96" width="32" height="32"/>
 <object id="1155" x="480" y="96" width="32" height="32"/>
 <object id="1156" x="512" y="96" width="32" height="32"/>
 <object id="1157" x="544" y="96" width="32" height="32"/>
 <object id="1158" x="576" y="96" width="32" height="32"/>
 <object id="1159" x="608" y="96" width="32" height="32"/>
 <object id="1160" x="640" y="96" width="32" height="32"/>
 <object id="1161" x="1056" y="96" width="32" height="32"/>
 <object id="1162" x="1088" y="96" width="32" height="32"/>
 <object id="1163" x="1120" y="96" width="32" height="32"/>
 <object id="1164" x="1152" y="96" width="32" height="32"/>
 <object id="1165" x="1184" y="96" width="32" height="32"/>
 <object id="1166" x="1408" y="96" width="32" height="32"/>
 <object id="1167" x="1440" y="96" width="32" height="32"/>
 <object id="1168" x="1472" y="96" width="32" height="32"/>
 <object id="1169" x="1504" y="96" width="32" height="32"/>
 <object id="1170" x="1536" y="96" width="32" height="32"/>
 <object id="1171" x="0" y="128" width="32" height="32"/>
 <object id="1172" x="224" y="128" width="32" height="32"/>
 <object id="1173" x="256" y="128" width="32" height="32"/>
 <object id="1174" x="320" y="128" width="32" height="32"/>
 <object id="1175" x="544" y="128" width="32" height="32"/>
 <object id="1176" x="576" y="128" width="32" height="32"/>
 <object id="1177" x="608" y="128" width="32" height="32"/>
 <object id="1178" x="640" y="128" width="32" height="32"/>
 <object id="1179" x="1056" y="128" width="32" height="32"/>
 <object id="1180" x="1088" y="128" width="32" height="32"/>
 <object id="1181" x="1120" y="128" width="32" height="32"/>
 <object id="1182" x="1152" y="128" width="32" height="32"/>
 <object id="1183" x="1184" y="128" width="32" height="32"/>
 <object id="1184" x="1216" y="128" width="32" height="32"/>
 <object id="1185" x="1248" y="128" width="32" height="32"/>
 <object id="1186" x="1280" y="128" width="32" height="32"/>
 <object id="1187" x="1312" y="128" width="32" height="32"/>
 <object id="1188" x="1344" y="128" width="32" height="32"/>
 <object id="1189" x="1376" y="128" width="32" height="32"/>
 <object id="1190" x="1408" y="128" width="32" height="32"/>
 <object id="1191" x="1472" y="128" width="32" height="32"/>
 <object id="1192" x="1504" y="128" width="32" height="32"/>
 <object id="1193" x="1536" y="128" width="32" height="32"/>
 <object id="1194" x="0" y="160" width="32" height="32"/>
 <object id="1195" x="576" y="160" width="32" height="32"/>
 <object id="1196" x="608" y="160" width="32" height="32"/>
 <object id="1197" x="640" y="160" width="32" height="32"/>
 <object id="1198" x="1056" y="160" width="32" height="32"/>
 <object id="1199" x="1088" y="160" width="32" height="32"/>
 <object id="1200" x="1120" y="160" width="32" height="32"/>
 <object id="1201" x="1216" y="160" width="32" height="32"/>
 <object id="1202" x="1248" y="160" width="32" height="32"/>
 <object id="1203" x="1280" y="160" width="32" height="32"/>
 <object id="1204" x="1312" y="160" width="32" height="32"/>
 <object id="1205" x="1344" y="160" width="32" height="32"/>
 <object id="1206" x="1376" y="160" width="32" height="32"/>
 <object id="1207" x="1408" y="160" width="32" height="32"/>
 <object id="1208" x="1504" y="160" width="32" height="32"/>
 <object id="1209" x="1536" y="160" width="32" height="32"/>
 <object id="1210" x="0" y="192" width="32" height="32"/>
 <object id="1211" x="576" y="192" width="32" height="32"/>
 <object id="1212" x="608" y="192" width="32" height="32"/>
 <object id="1213" x="640" y="192" width="32" height="32"/>
 <object id="1214" x="672" y="192" width="32" height="32"/>
 <object id="1215" x="704" y="192" width="32" height="32"/>
 <object id="1216" x="800" y="192" width="32" height="32"/>
 <object id="1217" x="832" y="192" width="32" height="32"/>
 <object id="1218" x="864" y="192" width="32" height="32"/>
 <object id="1219" x="896" y="192" width="32" height="32"/>
 <object id="1220" x="928" y="192" width="32" height="32"/>
 <object id="1221" x="960" y="192" width="32" height="32"/>
 <object id="1222" x="1056" y="192" width="32" height="32"/>
 <object id="1223" x="1088" y="192" width="32" height="32"/>
 <object id="1224" x="1216" y="192" width="32" height="32"/>
 <object id="1225" x="1248" y="192" width="32" height="32"/>
 <object id="1226" x="1280" y="192" width="32" height="32"/>
 <object id="1227" x="1312" y="192" width="32" height="32"/>
 <object id="1228" x="1344" y="192" width="32" height="32"/>
 <object id="1229" x="1376" y="192" width="32" height="32"/>
 <object id="1230" x="1504" y="192" width="32" height="32"/>
 <object id="1231" x="1536" y="192" width="32" height="32"/>
 <object id="1232" x="0" y="224" width="32" height="32"/>
 <object id="1233" x="320" y="224" width="32" height="32"/>
 <object id="1234" x="352" y="224" width="32" height="32"/>
 <object id="1235" x="384" y="224" width="32" height="32"/>
 <object id="1236" x="416" y="224" width="32" height="32"/>
 <object id="1237" x="512" y="224" width="32" height="32"/>
 <object id="1238" x="544" y="224" width="32" height="32"/>
 <object id="1239" x="576" y="224" width="32" height="32"/>
 <object id="1240" x="608" y="224" width="32" height="32"/>
 <object id="1241" x="640" y="224" width="32" height="32"/>
 <object id="1242" x="672" y="224" width="32" height="32"/>
 <object id="1243" x="704" y="224" width="32" height="32"/>
 <object id="1244" x="800" y="224" width="32" height="32"/>
 <object id="1245" x="832" y="224" width="32" height="32"/>
 <object id="1246" x="864" y="224" width="32" height="32"/>
 <object id="1247" x="896" y="224" width="32" height="32"/>
 <object id="1248" x="928" y="224" width="32" height="32"/>
 <object id="1249" x="960" y="224" width="32" height="32"/>
 <object id="1250" x="1056" y="224" width="32" height="32"/>
 <object id="1251" x="1088" y="224" width="32" height="32"/>
 <object id="1252" x="1120" y="224" width="32" height="32"/>
 <object id="1253" x="1152" y="224" width="32" height="32"/>
 <object id="1254" x="1216" y="224" width="32" height="32"/>
 <object id="1255" x="1248" y="224" width="32" height="32"/>
 <object id="1256" x="1280" y="224" width="32" height="32"/>
 <object id="1257" x="1312" y="224" width="32" height="32"/>
 <object id="1258" x="1504" y="224" width="32" height="32"/>
 <object id="1259" x="1536" y="224" width="32" height="32"/>
 <object id="1260" x="0" y="256" width="32" height="32"/>
 <object id="1261" x="32" y="256" width="32" height="32"/>
 <object id="1262" x="64" y="256" width="32" height="32"/>
 <object id="1263" x="96" y="256" width="32" height="32"/>
 <object id="1264" x="192" y="256" width="32" height="32"/>
 <object id="1265" x="224" y="256" width="32" height="32"/>
 <object id="1266" x="256" y="256" width="32" height="32"/>
 <object id="1267" x="288" y="256" width="32" height="32"/>
 <object id="1268" x="320" y="256" width="32" height="32"/>
 <object id="1269" x="352" y="256" width="32" height="32"/>
 <object id="1270" x="384" y="256" width="32" height="32"/>
 <object id="1271" x="416" y="256" width="32" height="32"/>
 <object id="1272" x="512" y="256" width="32" height="32"/>
 <object id="1273" x="544" y="256" width="32" height="32"/>
 <object id="1274" x="576" y="256" width="32" height="32"/>
 <object id="1275" x="608" y="256" width="32" height="32"/>
 <object id="1276" x="640" y="256" width="32" height="32"/>
 <object id="1277" x="864" y="256" width="32" height="32"/>
 <object id="1278" x="896" y="256" width="32" height="32"/>
 <object id="1279" x="928" y="256" width="32" height="32"/>
 <object id="1280" x="960" y="256" width="32" height="32"/>
 <object id="1281" x="1056" y="256" width="32" height="32"/>
 <object id="1282" x="1088" y="256" width="32" height="32"/>
 <object id="1283" x="1120" y="256" width="32" height="32"/>
 <object id="1284" x="1152" y="256" width="32" height="32"/>
 <object id="1285" x="1248" y="256" width="32" height="32"/>
 <object id="1286" x="1280" y="256" width="32" height="32"/>
 <object id="1287" x="1504" y="256" width="32" height="32"/>
 <object id="1288" x="1536" y="256" width="32" height="32"/>
 <object id="1289" x="0" y="288" width="32" height="32"/>
 <object id="1290" x="32" y="288" width="32" height="32"/>
 <object id="1291" x="64" y="288" width="32" height="32"/>
 <object id="1292" x="96" y="288" width="32" height="32"/>
 <object id="1293" x="192" y="288" width="32" height="32"/>
 <object id="1294" x="224" y="288" width="32" height="32"/>
 <object id="1295" x="256" y="288" width="32" height="32"/>
 <object id="1296" x="288" y="288" width="32" height="32"/>
 <object id="1297" x="320" y="288" width="32" height="32"/>
 <object id="1298" x="352" y="288" width="32" height="32"/>
 <object id="1299" x="384" y="288" width="32" height="32"/>
 <object id="1300" x="544" y="288" width="32" height="32"/>
 <object id="1301" x="576" y="288" width="32" height="32"/>
 <object id="1302" x="608" y="288" width="32" height="32"/>
 <object id="1303" x="640" y="288" width="32" height="32"/>
 <object id="1304" x="896" y="288" width="32" height="32"/>
 <object id="1305" x="928" y="288" width="32" height="32"/>
 <object id="1306" x="960" y="288" width="32" height="32"/>
 <object id="1307" x="1056" y="288" width="32" height="32"/>
 <object id="1308" x="1088" y="288" width="32" height="32"/>
 <object id="1309" x="1248" y="288" width="32" height="32"/>
 <object id="1310" x="1280" y="288" width="32" height="32"/>
 <object id="1311" x="1344" y="288" width="32" height="32"/>
 <object id="1312" x="1376" y="288" width="32" height="32"/>
 <object id="1313" x="1408" y="288" width="32" height="32"/>
 <object id="1314" x="1536" y="288" width="32" height="32"/>
 <object id="1315" x="0" y="320" width="32" height="32"/>
 <object id="1316" x="224" y="320" width="32" height="32"/>
 <object id="1317" x="256" y="320" width="32" height="32"/>
 <object id="1318" x="288" y="320" width="32" height="32"/>
 <object id="1319" x="320" y="320" width="32" height="32"/>
 <object id="1320" x="352" y="320" width="32" height="32"/>
 <object id="1321" x="384" y="320" width="32" height="32"/>
 <object id="1322" x="576" y="320" width="32" height="32"/>
 <object id="1323" x="608" y="320" width="32" height="32"/>
 <object id="1324" x="640" y="320" width="32" height="32"/>
 <object id="1325" x="928" y="320" width="32" height="32"/>
 <object id="1326" x="960" y="320" width="32" height="32"/>
 <object id="1327" x="1056" y="320" width="32" height="32"/>
 <object id="1328" x="1248" y="320" width="32" height="32"/>
 <object id="1329" x="1344" y="320" width="32" height="32"/>
 <object id="1330" x="1376" y="320" width="32" height="32"/>
 <object id="1331" x="1408" y="320" width="32" height="32"/>
 <object id="1332" x="1440" y="320" width="32" height="32"/>
 <object id="1333" x="1472" y="320" width="32" height="32"/>
 <object id="1334" x="1504" y="320" width="32" height="32"/>
 <object id="1335" x="1536" y="320" width="32" height="32"/>
 <object id="1336" x="0" y="352" width="32" height="32"/>
 <object id="1337" x="224" y="352" width="32" height="32"/>
 <object id="1338" x="256" y="352" width="32" height="32"/>
 <object id="1339" x="288" y="352" width="32" height="32"/>
 <object id="1340" x="320" y="352" width="32" height="32"/>
 <object id="1341" x="352" y="352" width="32" height="32"/>
 <object id="1342" x="384" y="352" width="32" height="32"/>
 <object id="1343" x="416" y="352" width="32" height="32"/>
 <object id="1344" x="640" y="352" width="32" height="32"/>
 <object id="1345" x="960" y="352" width="32" height="32"/>
 <object id="1346" x="1056" y="352" width="32" height="32"/>
 <object id="1347" x="1376" y="352" width="32" height="32"/>
 <object id="1348" x="1408" y="352" width="32" height="32"/>
 <object id="1349" x="1440" y="352" width="32" height="32"/>
 <object id="1350" x="1472" y="352" width="32" height="32"/>
 <object id="1351" x="1504" y="352" width="32" height="32"/>
 <object id="1352" x="1536" y="352" width="32" height="32"/>
 <object id="1353" x="0" y="384" width="32" height="32"/>
 <object id="1354" x="320" y="384" width="32" height="32"/>
 <object id="1355" x="352" y="384" width="32" height="32"/>
 <object id="1356" x="416" y="384" width="32" height="32"/>
 <object id="1357" x="960" y="384" width="32" height="32"/>
 <object id="1358" x="1056" y="384" width="32" height="32"/>
 <object id="1359" x="1440" y="384" width="32" height="32"/>
 <object id="1360" x="1472" y="384" width="32" height="32"/>
 <object id="1361" x="1504" y="384" width="32" height="32"/>
 <object id="1362" x="1536" y="384" width="32" height="32"/>
 <object id="1363" x="0" y="416" width="32" height="32"/>
 <object id="1364" x="320" y="416" width="32" height="32"/>
 <object id="1365" x="352" y="416" width="32" height="32"/>
 <object id="1366" x="416" y="416" width="32" height="32"/>
 <object id="1367" x="960" y="416" width="32" height="32"/>
 <object id="1368" x="1056" y="416" width="32" height="32"/>
 <object id="1369" x="1440" y="416" width="32" height="32"/>
 <object id="1370" x="1472" y="416" width="32" height="32"/>
 <object id="1371" x="1504" y="416" width="32" height="32"/>
 <object id="1372" x="1536" y="416" width="32" height="32"/>
 <object id="1373" x="0" y="448" width="32" height="32"/>
 <object id="1374" x="32" y="448" width="32" height="32"/>
 <object id="1375" x="64" y="448" width="32" height="32"/>
 <object id="1376" x="96" y="448" width="32" height="32"/>
 <object id="1377" x="128" y="448" width="32" height="32"/>
 <object id="1378" x="160" y="448" width="32" height="32"/>
 <object id="1379" x="192" y="448" width="32" height="32"/>
 <object id="1380" x="224" y="448" width="32" height="32"/>
 <object id="1381" x="256" y="448" width="32" height="32"/>
 <object id="1382" x="288" y="448" width="32" height="32"/>
 <object id="1383" x="320" y="448" width="32" height="32"/>
 <object id="1384" x="352" y="448" width="32" height="32"/>
 <object id="1385" x="384" y="448" width="32" height="32"/>
 <object id="1386" x="416" y="448" width="32" height="32"/>
 <object id="1387" x="448" y="448" width="32" height="32"/>
 <object id="1388" x="480" y="448" width="32" height="32"/>
 <object id="1389" x="512" y="448" width="32" height="32"/>
 <object id="1390" x="544" y="448" width="32" height="32"/>
 <object id="1391" x="576" y="448" width="32" height="32"/>
 <object id="1392" x="608" y="448" width="32" height="32"/>
 <object id="1393" x="640" y="448" width="32" height="32"/>
 <object id="1394" x="672" y="448" width="32" height="32"/>
 <object id="1395" x="704" y="448" width="32" height="32"/>
 <object id="1396" x="800" y="448" width="32" height="32"/>
 <object id="1397" x="832" y="448" width="32" height="32"/>
 <object id="1398" x="864" y="448" width="32" height="32"/>
 <object id="1399" x="896" y="448" width="32" height="32"/>
 <object id="1400" x="928" y="448" width="32" height="32"/>
 <object id="1401" x="960" y="448" width="32" height="32"/>
 <object id="1402" x="1056" y="448" width="32" height="32"/>
 <object id="1403" x="1088" y="448" width="32" height="32"/>
 <object id="1404" x="1120" y="448" width="32" height="32"/>
 <object id="1405" x="1152" y="448" width="32" height="32"/>
 <object id="1406" x="1184" y="448" width="32" height="32"/>
 <object id="1407" x="1216" y="448" width="32" height="32"/>
 <object id="1408" x="1312" y="448" width="32" height="32"/>
 <object id="1409" x="1344" y="448" width="32" height="32"/>
 <object id="1410" x="1376" y="448" width="32" height="32"/>
 <object id="1411" x="1408" y="448" width="32" height="32"/>
 <object id="1412" x="1440" y="448" width="32" height="32"/>
 <object id="1413" x="1472" y="448" width="32" height="32"/>
 <object id="1414" x="1504" y="448" width="32" height="32"/>
 <object id="1415" x="1536" y="448" width="32" height="32"/>
 <object id="1416" x="0" y="480" width="32" height="32"/>
 <object id="1417" x="32" y="480" width="32" height="32"/>
 <object id="1418" x="64" y="480" width="32" height="32"/>
 <object id="1419" x="96" y="480" width="32" height="32"/>
 <object id="1420" x="128" y="480" width="32" height="32"/>
 <object id="1421" x="160" y="480" width="32" height="32"/>
 <object id="1422" x="192" y="480" width="32" height="32"/>
 <object id="1423" x="224" y="480" width="32" height="32"/>
 <object id="1424" x="256" y="480" width="32" height="32"/>
 <object id="1425" x="288" y="480" width="32" height="32"/>
 <object id="1426" x="320" y="480" width="32" height="32"/>
 <object id="1427" x="352" y="480" width="32" height="32"/>
 <object id="1428" x="384" y="480" width="32" height="32"/>
 <object id="1429" x="416" y="480" width="32" height="32"/>
 <object id="1430" x="448" y="480" width="32" height="32"/>
 <object id="1431" x="480" y="480" width="32" height="32"/>
 <object id="1432" x="512" y="480" width="32" height="32"/>
 <object id="1433" x="544" y="480" width="32" height="32"/>
 <object id="1434" x="576" y="480" width="32" height="32"/>
 <object id="1435" x="608" y="480" width="32" height="32"/>
 <object id="1436" x="640" y="480" width="32" height="32"/>
 <object id="1437" x="672" y="480" width="32" height="32"/>
 <object id="1438" x="704" y="480" width="32" height="32"/>
 <object id="1439" x="800" y="480" width="32" height="32"/>
 <object id="1440" x="832" y="480" width="32" height="32"/>
 <object id="1441" x="864" y="480" width="32" height="32"/>
 <object id="1442" x="896" y="480" width="32" height="32"/>
 <object id="1443" x="928" y="480" width="32" height="32"/>
 <object id="1444" x="960" y="480" width="32" height="32"/>
 <object id="1445" x="1056" y="480" width="32" height="32"/>
 <object id="1446" x="1088" y="480" width="32" height="32"/>
 <object id="1447" x="1120" y="480" width="32" height="32"/>
 <object id="1448" x="1152" y="480" width="32" height="32"/>
 <object id="1449" x="1184" y="480" width="32" height="32"/>
 <object id="1450" x="1216" y="480" width="32" height="32"/>
 <object id="1451" x="1312" y="480" width="32" height="32"/>
 <object id="1452" x="1344" y="480" width="32" height="32"/>
 <object id="1453" x="1376" y="480" width="32" height="32"/>
 <object id="1454" x="1408" y="480" width="32" height="32"/>
 <object id="1455" x="1440" y="480" width="32" height="32"/>
 <object id="1456" x="1472" y="480" width="32" height="32"/>
 <object id="1457" x="1504" y="480" width="32" height="32"/>
 <object id="1458" x="1536" y="480" width="32" height="32"/>
 <object id="1459" x="0" y="512" width="32" height="32"/>
 <object id="1460" x="32" y="512" width="32" height="32"/>
 <object id="1461" x="64" y="512" width="32" height="32"/>
 <object id="1462" x="96" y="512" width="32" height="32"/>
 <object id="1463" x="128" y="512" width="32" height="32"/>
 <object id="1464" x="320" y="512" width="32" height="32"/>
 <object id="1465" x="512" y="512" width="32" height="32"/>
 <object id="1466" x="544" y="512" width="32" height="32"/>
 <object id="1467" x="576" y="512" width="32" height="32"/>
 <object id="1468" x="608" y="512" width="32" height="32"/>
 <object id="1469" x="640" y="512" width="32" height="32"/>
 <object id="1470" x="960" y="512" width="32" height="32"/>
 <object id="1471" x="1536" y="512" width="32" height="32"/>
 <object id="1472" x="0" y="544" width="32" height="32"/>
 <object id="1473" x="32" y="544" width="32" height="32"/>
 <object id="1474" x="64" y="544" width="32" height="32"/>
 <object id="1475" x="576" y="544" width="32" height="32"/>
 <object id="1476" x="608" y="544" width="32" height="32"/>
 <object id="1477" x="640" y="544" width="32" height="32"/>
 <object id="1478" x="960" y="544" width="32" height="32"/>
 <object id="1479" x="1536" y="544" width="32" height="32"/>
 <object id="1480" x="0" y="576" width="32" height="32"/>
 <object id="1481" x="32" y="576" width="32" height="32"/>
 <object id="1482" x="608" y="576" width="32" height="32"/>
 <object id="1483" x="640" y="576" width="32" height="32"/>
 <object id="1484" x="960" y="576" width="32" height="32"/>
 <object id="1485" x="1536" y="576" width="32" height="32"/>
 <object id="1486" x="0" y="608" width="32" height="32"/>
 <object id="1487" x="32" y="608" width="32" height="32"/>
 <object id="1488" x="608" y="608" width="32" height="32"/>
 <object id="1489" x="640" y="608" width="32" height="32"/>
 <object id="1490" x="672" y="608" width="32" height="32"/>
 <object id="1491" x="704" y="608" width="32" height="32"/>
 <object id="1492" x="736" y="608" width="32" height="32"/>
 <object id="1493" x="768" y="608" width="32" height="32"/>
 <object id="1494" x="800" y="608" width="32" height="32"/>
 <object id="1495" x="832" y="608" width="32" height="32"/>
 <object id="1496" x="864" y="608" width="32" height="32"/>
 <object id="1497" x="896" y="608" width="32" height="32"/>
 <object id="1498" x="928" y="608" width="32" height="32"/>
 <object id="1499" x="960" y="608" width="32" height="32"/>
 <object id="1500" x="992" y="608" width="32" height="32"/>
 <object id="1501" x="1024" y="608" width="32" height="32"/>
 <object id="1502" x="1056" y="608" width="32" height="32"/>
 <object id="1503" x="1088" y="608" width="32" height="32"/>
 <object id="1504" x="1120" y="608" width="32" height="32"/>
 <object id="1505" x="1152" y="608" width="32" height="32"/>
 <object id="1506" x="1184" y="608" width="32" height="32"/>
 <object id="1507" x="1216" y="608" width="32" height="32"/>
 <object id="1508" x="1248" y="608" width="32" height="32"/>
 <object id="1509" x="1280" y="608" width="32" height="32"/>
 <object id="1510" x="1312" y="608" width="32" height="32"/>
 <object id="1511" x="1344" y="608" width="32" height="32"/>
 <object id="1512" x="1376" y="608" width="32" height="32"/>
 <object id="1513" x="1408" y="608" width="32" height="32"/>
 <object id="1514" x="1536" y="608" width="32" height="32"/>
 <object id="1515" x="0" y="640" width="32" height="32"/>
 <object id="1516" x="32" y="640" width="32" height="32"/>
 <object id="1517" x="64" y="640" width="32" height="32"/>
 <object id="1518" x="96" y="640" width="32" height="32"/>
 <object id="1519" x="128" y="640" width="32" height="32"/>
 <object id="1520" x="320" y="640" width="32" height="32"/>
 <object id="1521" x="352" y="640" width="32" height="32"/>
 <object id="1522" x="384" y="640" width="32" height="32"/>
 <object id="1523" x="416" y="640" width="32" height="32"/>
 <object id="1524" x="640" y="640" width="32" height="32"/>
 <object id="1525" x="672" y="640" width="32" height="32"/>
 <object id="1526" x="704" y="640" width="32" height="32"/>
 <object id="1527" x="736" y="640" width="32" height="32"/>
 <object id="1528" x="768" y="640" width="32" height="32"/>
 <object id="1529" x="800" y="640" width="32" height="32"/>
 <object id="1530" x="832" y="640" width="32" height="32"/>
 <object id="1531" x="864" y="640" width="32" height="32"/>
 <object id="1532" x="896" y="640" width="32" height="32"/>
 <object id="1533" x="928" y="640" width="32" height="32"/>
 <object id="1534" x="960" y="640" width="32" height="32"/>
 <object id="1535" x="992" y="640" width="32" height="32"/>
 <object id="1536" x="1024" y="640" width="32" height="32"/>
 <object id="1537" x="1056" y="640" width="32" height="32"/>
 <object id="1538" x="1088" y="640" width="32" height="32"/>
 <object id="1539" x="1120" y="640" width="32" height="32"/>
 <object id="1540" x="1152" y="640" width="32" height="32"/>
 <object id="1541" x="1184" y="640" width="32" height="32"/>
 <object id="1542" x="1216" y="640" width="32" height="32"/>
 <object id="1543" x="1248" y="640" width="32" height="32"/>
 <object id="1544" x="1280" y="640" width="32" height="32"/>
 <object id="1545" x="1312" y="640" width="32" height="32"/>
 <object id="1546" x="1344" y="640" width="32" height="32"/>
 <object id="1547" x="1376" y="640" width="32" height="32"/>
 <object id="1548" x="1408" y="640" width="32" height="32"/>
 <object id="1549" x="1536" y="640" width="32" height="32"/>
 <object id="1550" x="0" y="672" width="32" height="32"/>
 <object id="1551" x="32" y="672" width="32" height="32"/>
 <object id="1552" x="64" y="672" width="32" height="32"/>
 <object id="1553" x="96" y="672" width="32" height="32"/>
 <object id="1554" x="128" y="672" width="32" height="32"/>
 <object id="1555" x="320" y="672" width="32" height="32"/>
 <object id="1556" x="352" y="672" width="32" height="32"/>
 <object id="1557" x="384" y="672" width="32" height="32"/>
 <object id="1558" x="416" y="672" width="32" height="32"/>
 <object id="1559" x="640" y="672" width="32" height="32"/>
 <object id="1560" x="672" y="672" width="32" height="32"/>
 <object id="1561" x="704" y="672" width="32" height="32"/>
 <object id="1562" x="736" y="672" width="32" height="32"/>
 <object id="1563" x="1408" y="672" width="32" height="32"/>
 <object id="1564" x="1536" y="672" width="32" height="32"/>
 <object id="1565" x="0" y="704" width="32" height="32"/>
 <object id="1566" x="320" y="704" width="32" height="32"/>
 <object id="1567" x="352" y="704" width="32" height="32"/>
 <object id="1568" x="736" y="704" width="32" height="32"/>
 <object id="1569" x="768" y="704" width="32" height="32"/>
 <object id="1570" x="800" y="704" width="32" height="32"/>
 <object id="1571" x="864" y="704" width="32" height="32"/>
 <object id="1572" x="896" y="704" width="32" height="32"/>
 <object id="1573" x="928" y="704" width="32" height="32"/>
 <object id="1574" x="960" y="704" width="32" height="32"/>
 <object id="1575" x="992" y="704" width="32" height="32"/>
 <object id="1576" x="1024" y="704" width="32" height="32"/>
 <object id="1577" x="1056" y="704" width="32" height="32"/>
 <object id="1578" x="1088" y="704" width="32" height="32"/>
 <object id="1579" x="1120" y="704" width="32" height="32"/>
 <object id="1580" x="1152" y="704" width="32" height="32"/>
 <object id="1581" x="1184" y="704" width="32" height="32"/>
 <object id="1582" x="1216" y="704" width="32" height="32"/>
 <object id="1583" x="1248" y="704" width="32" height="32"/>
 <object id="1584" x="1408" y="704" width="32" height="32"/>
 <object id="1585" x="1536" y="704" width="32" height="32"/>
 <object id="1586" x="0" y="736" width="32" height="32"/>
 <object id="1587" x="320" y="736" width="32" height="32"/>
 <object id="1588" x="736" y="736" width="32" height="32"/>
 <object id="1589" x="768" y="736" width="32" height="32"/>
 <object id="1590" x="800" y="736" width="32" height="32"/>
 <object id="1591" x="832" y="736" width="32" height="32"/>
 <object id="1592" x="864" y="736" width="32" height="32"/>
 <object id="1593" x="896" y="736" width="32" height="32"/>
 <object id="1594" x="928" y="736" width="32" height="32"/>
 <object id="1595" x="960" y="736" width="32" height="32"/>
 <object id="1596" x="992" y="736" width="32" height="32"/>
 <object id="1597" x="1024" y="736" width="32" height="32"/>
 <object id="1598" x="1056" y="736" width="32" height="32"/>
 <object id="1599" x="1088" y="736" width="32" height="32"/>
 <object id="1600" x="1120" y="736" width="32" height="32"/>
 <object id="1601" x="1152" y="736" width="32" height="32"/>
 <object id="1602" x="1184" y="736" width="32" height="32"/>
 <object id="1603" x="1216" y="736" width="32" height="32"/>
 <object id="1604" x="1248" y="736" width="32" height="32"/>
 <object id="1605" x="1280" y="736" width="32" height="32"/>
 <object id="1606" x="1312" y="736" width="32" height="32"/>
 <object id="1607" x="1408" y="736" width="32" height="32"/>
 <object id="1608" x="1536" y="736" width="32" height="32"/>
 <object id="1609" x="0" y="768" width="32" height="32"/>
 <object id="1610" x="128" y="768" width="32" height="32"/>
 <object id="1611" x="160" y="768" width="32" height="32"/>
 <object id="1612" x="192" y="768" width="32" height="32"/>
 <object id="1613" x="224" y="768" width="32" height="32"/>
 <object id="1614" x="256" y="768" width="32" height="32"/>
 <object id="1615" x="288" y="768" width="32" height="32"/>
 <object id="1616" x="320" y="768" width="32" height="32"/>
 <object id="1617" x="448" y="768" width="32" height="32"/>
 <object id="1618" x="480" y="768" width="32" height="32"/>
 <object id="1619" x="512" y="768" width="32" height="32"/>
 <object id="1620" x="544" y="768" width="32" height="32"/>
 <object id="1621" x="576" y="768" width="32" height="32"/>
 <object id="1622" x="608" y="768" width="32" height="32"/>
 <object id="1623" x="640" y="768" width="32" height="32"/>
 <object id="1624" x="1408" y="768" width="32" height="32"/>
 <object id="1625" x="1536" y="768" width="32" height="32"/>
 <object id="1626" x="0" y="800" width="32" height="32"/>
 <object id="1627" x="128" y="800" width="32" height="32"/>
 <object id="1628" x="160" y="800" width="32" height="32"/>
 <object id="1629" x="192" y="800" width="32" height="32"/>
 <object id="1630" x="224" y="800" width="32" height="32"/>
 <object id="1631" x="256" y="800" width="32" height="32"/>
 <object id="1632" x="288" y="800" width="32" height="32"/>
 <object id="1633" x="320" y="800" width="32" height="32"/>
 <object id="1634" x="448" y="800" width="32" height="32"/>
 <object id="1635" x="480" y="800" width="32" height="32"/>
 <object id="1636" x="512" y="800" width="32" height="32"/>
 <object id="1637" x="544" y="800" width="32" height="32"/>
 <object id="1638" x="576" y="800" width="32" height="32"/>
 <object id="1639" x="608" y="800" width="32" height="32"/>
 <object id="1640" x="640" y="800" width="32" height="32"/>
 <object id="1641" x="800" y="800" width="32" height="32"/>
 <object id="1642" x="832" y="800" width="32" height="32"/>
 <object id="1643" x="864" y="800" width="32" height="32"/>
 <object id="1644" x="896" y="800" width="32" height="32"/>
 <object id="1645" x="928" y="800" width="32" height="32"/>
 <object id="1646" x="960" y="800" width="32" height="32"/>
 <object id="1647" x="992" y="800" width="32" height="32"/>
 <object id="1648" x="1024" y="800" width="32" height="32"/>
 <object id="1649" x="1056" y="800" width="32" height="32"/>
 <object id="1650" x="1088" y="800" width="32" height="32"/>
 <object id="1651" x="1120" y="800" width="32" height="32"/>
 <object id="1652" x="1152" y="800" width="32" height="32"/>
 <object id="1653" x="1184" y="800" width="32" height="32"/>
 <object id="1654" x="1216" y="800" width="32" height="32"/>
 <object id="1655" x="1248" y="800" width="32" height="32"/>
 <object id="1656" x="1280" y="800" width="32" height="32"/>
 <object id="1657" x="1408" y="800" width="32" height="32"/>
 <object id="1658" x="1536" y="800" width="32" height="32"/>
 <object id="1659" x="0" y="832" width="32" height="32"/>
 <object id="1660" x="224" y="832" width="32" height="32"/>
 <object id="1661" x="256" y="832" width="32" height="32"/>
 <object id="1662" x="288" y="832" width="32" height="32"/>
 <object id="1663" x="320" y="832" width="32" height="32"/>
 <object id="1664" x="640" y="832" width="32" height="32"/>
 <object id="1665" x="1408" y="832" width="32" height="32"/>
 <object id="1666" x="1536" y="832" width="32" height="32"/>
 <object id="1667" x="0" y="864" width="32" height="32"/>
 <object id="1668" x="256" y="864" width="32" height="32"/>
 <object id="1669" x="288" y="864" width="32" height="32"/>
 <object id="1670" x="320" y="864" width="32" height="32"/>
 <object id="1671" x="640" y="864" width="32" height="32"/>
 <object id="1672" x="1408" y="864" width="32" height="32"/>
 <object id="1673" x="1536" y="864" width="32" height="32"/>
 <object id="1674" x="0" y="896" width="32" height="32"/>
 <object id="1675" x="256" y="896" width="32" height="32"/>
 <object id="1676" x="288" y="896" width="32" height="32"/>
 <object id="1677" x="320" y="896" width="32" height="32"/>
 <object id="1678" x="640" y="896" width="32" height="32"/>
 <object id="1679" x="672" y="896" width="32" height="32"/>
 <object id="1680" x="704" y="896" width="32" height="32"/>
 <object id="1681" x="736" y="896" width="32" height="32"/>
 <object id="1682" x="768" y="896" width="32" height="32"/>
 <object id="1683" x="800" y="896" width="32" height="32"/>
 <object id="1684" x="832" y="896" width="32" height="32"/>
 <object id="1685" x="864" y="896" width="32" height="32"/>
 <object id="1686" x="896" y="896" width="32" height="32"/>
 <object id="1687" x="928" y="896" width="32" height="32"/>
 <object id="1688" x="960" y="896" width="32" height="32"/>
 <object id="1689" x="992" y="896" width="32" height="32"/>
 <object id="1690" x="1024" y="896" width="32" height="32"/>
 <object id="1691" x="1056" y="896" width="32" height="32"/>
 <object id="1692" x="1088" y="896" width="32" height="32"/>
 <object id="1693" x="1120" y="896" width="32" height="32"/>
 <object id="1694" x="1152" y="896" width="32" height="32"/>
 <object id="1695" x="1184" y="896" width="32" height="32"/>
 <object id="1696" x="1216" y="896" width="32" height="32"/>
 <object id="1697" x="1248" y="896" width="32" height="32"/>
 <object id="1698" x="1280" y="896" width="32" height="32"/>
 <object id="1699" x="1312" y="896" width="32" height="32"/>
 <object id="1700" x="1344" y="896" width="32" height="32"/>
 <object id="1701" x="1376" y="896" width="32" height="32"/>
 <object id="1702" x="1408" y="896" width="32" height="32"/>
 <object id="1703" x="1536" y="896" width="32" height="32"/>
 <object id="1704" x="0" y="928" width="32" height="32"/>
 <object id="1705" x="32" y="928" width="32" height="32"/>
 <object id="1706" x="64" y="928" width="32" height="32"/>
 <object id="1707" x="96" y="928" width="32" height="32"/>
 <object id="1708" x="128" y="928" width="32" height="32"/>
 <object id="1709" x="160" y="928" width="32" height="32"/>
 <object id="1710" x="256" y="928" width="32" height="32"/>
 <object id="1711" x="288" y="928" width="32" height="32"/>
 <object id="1712" x="320" y="928" width="32" height="32"/>
 <object id="1713" x="352" y="928" width="32" height="32"/>
 <object id="1714" x="384" y="928" width="32" height="32"/>
 <object id="1715" x="416" y="928" width="32" height="32"/>
 <object id="1716" x="448" y="928" width="32" height="32"/>
 <object id="1717" x="480" y="928" width="32" height="32"/>
 <object id="1718" x="512" y="928" width="32" height="32"/>
 <object id="1719" x="640" y="928" width="32" height="32"/>
 <object id="1720" x="672" y="928" width="32" height="32"/>
 <object id="1721" x="704" y="928" width="32" height="32"/>
 <object id="1722" x="736" y="928" width="32" height="32"/>
 <object id="1723" x="768" y="928" width="32" height="32"/>
 <object id="1724" x="800" y="928" width="32" height="32"/>
 <object id="1725" x="832" y="928" width="32" height="32"/>
 <object id="1726" x="864" y="928" width="32" height="32"/>
 <object id="1727" x="896" y="928" width="32" height="32"/>
 <object id="1728" x="928" y="928" width="32" height="32"/>
 <object id="1729" x="960" y="928" width="32" height="32"/>
 <object id="1730" x="992" y="928" width="32" height="32"/>
 <object id="1731" x="1024" y="928" width="32" height="32"/>
 <object id="1732" x="1056" y="928" width="32" height="32"/>
 <object id="1733" x="1088" y="928" width="32" height="32"/>
 <object id="1734" x="1120" y="928" width="32" height="32"/>
 <object id="1735" x="1152" y="928" width="32" height="32"/>
 <object id="1736" x="1184" y="928" width="32" height="32"/>
 <object id="1737" x="1216" y="928" width="32" height="32"/>
 <object id="1738" x="1248" y="928" width="32" height="32"/>
 <object id="1739" x="1280" y="928" width="32" height="32"/>
 <object id="1740" x="1312" y="928" width="32" height="32"/>
 <object id="1741" x="1344" y="928" width="32" height="32"/>
 <object id="1742" x="1376" y="928" width="32" height="32"/>
 <object id="1743" x="1408" y="928" width="32" height="32"/>
 <object id="1744" x="1504" y="928" width="32" height="32"/>
 <object id="1745" x="1536" y="928" width="32" height="32"/>
 <object id="1746" x="0" y="960" width="32" height="32"/>
 <object id="1747" x="32" y="960" width="32" height="32"/>
 <object id="1748" x="64" y="960" width="32" height="32"/>
 <object id="1749" x="96" y="960" width="32" height="32"/>
 <object id="1750" x="128" y="960" width="32" height="32"/>
 <object id="1751" x="160" y="960" width="32" height="32"/>
 <object id="1752" x="256" y="960" width="32" height="32"/>
 <object id="1753" x="288" y="960" width="32" height="32"/>
 <object id="1754" x="320" y="960" width="32" height="32"/>
 <object id="1755" x="352" y="960" width="32" height="32"/>
 <object id="1756" x="384" y="960" width="32" height="32"/>
 <object id="1757" x="416" y="960" width="32" height="32"/>
 <object id="1758" x="448" y="960" width="32" height="32"/>
 <object id="1759" x="480" y="960" width="32" height="32"/>
 <object id="1760" x="512" y="960" width="32" height="32"/>
 <object id="1761" x="640" y="960" width="32" height="32"/>
 <object id="1762" x="928" y="960" width="32" height="32"/>
 <object id="1763" x="960" y="960" width="32" height="32"/>
 <object id="1764" x="992" y="960" width="32" height="32"/>
 <object id="1765" x="1024" y="960" width="32" height="32"/>
 <object id="1766" x="1248" y="960" width="32" height="32"/>
 <object id="1767" x="1504" y="960" width="32" height="32"/>
 <object id="1768" x="1536" y="960" width="32" height="32"/>
 <object id="1769" x="0" y="992" width="32" height="32"/>
 <object id="1770" x="320" y="992" width="32" height="32"/>
 <object id="1771" x="352" y="992" width="32" height="32"/>
 <object id="1772" x="384" y="992" width="32" height="32"/>
 <object id="1773" x="768" y="992" width="32" height="32"/>
 <object id="1774" x="800" y="992" width="32" height="32"/>
 <object id="1775" x="960" y="992" width="32" height="32"/>
 <object id="1776" x="1120" y="992" width="32" height="32"/>
 <object id="1777" x="1152" y="992" width="32" height="32"/>
 <object id="1778" x="1472" y="992" width="32" height="32"/>
 <object id="1779" x="1504" y="992" width="32" height="32"/>
 <object id="1780" x="1536" y="992" width="32" height="32"/>
 <object id="1781" x="0" y="1024" width="32" height="32"/>
 <object id="1782" x="320" y="1024" width="32" height="32"/>
 <object id="1783" x="768" y="1024" width="32" height="32"/>
 <object id="1784" x="800" y="1024" width="32" height="32"/>
 <object id="1785" x="1088" y="1024" width="32" height="32"/>
 <object id="1786" x="1120" y="1024" width="32" height="32"/>
 <object id="1787" x="1152" y="1024" width="32" height="32"/>
 <object id="1788" x="1248" y="1024" width="32" height="32"/>
 <object id="1789" x="1280" y="1024" width="32" height="32"/>
 <object id="1790" x="1312" y="1024" width="32" height="32"/>
 <object id="1791" x="1344" y="1024" width="32" height="32"/>
 <object id="1792" x="1376" y="1024" width="32" height="32"/>
 <object id="1793" x="1408" y="1024" width="32" height="32"/>
 <object id="1794" x="1440" y="1024" width="32" height="32"/>
 <object id="1795" x="1472" y="1024" width="32" height="32"/>
 <object id="1796" x="1504" y="1024" width="32" height="32"/>
 <object id="1797" x="1536" y="1024" width="32" height="32"/>
 <object id="1798" x="0" y="1056" width="32" height="32"/>
 <object id="1799" x="32" y="1056" width="32" height="32"/>
 <object id="1800" x="256" y="1056" width="32" height="32"/>
 <object id="1801" x="288" y="1056" width="32" height="32"/>
 <object id="1802" x="320" y="1056" width="32" height="32"/>
 <object id="1803" x="768" y="1056" width="32" height="32"/>
 <object id="1804" x="800" y="1056" width="32" height="32"/>
 <object id="1805" x="1088" y="1056" width="32" height="32"/>
 <object id="1806" x="1120" y="1056" width="32" height="32"/>
 <object id="1807" x="1152" y="1056" width="32" height="32"/>
 <object id="1808" x="1184" y="1056" width="32" height="32"/>
 <object id="1809" x="1248" y="1056" width="32" height="32"/>
 <object id="1810" x="1280" y="1056" width="32" height="32"/>
 <object id="1811" x="1312" y="1056" width="32" height="32"/>
 <object id="1812" x="1344" y="1056" width="32" height="32"/>
 <object id="1813" x="1376" y="1056" width="32" height="32"/>
 <object id="1814" x="1408" y="1056" width="32" height="32"/>
 <object id="1815" x="1440" y="1056" width="32" height="32"/>
 <object id="1816" x="1472" y="1056" width="32" height="32"/>
 <object id="1817" x="1504" y="1056" width="32" height="32"/>
 <object id="1818" x="1536" y="1056" width="32" height="32"/>
 <object id="1819" x="0" y="1088" width="32" height="32"/>
 <object id="1820" x="32" y="1088" width="32" height="32"/>
 <object id="1821" x="64" y="1088" width="32" height="32"/>
 <object id="1822" x="256" y="1088" width="32" height="32"/>
 <object id="1823" x="288" y="1088" width="32" height="32"/>
 <object id="1824" x="320" y="1088" width="32" height="32"/>
 <object id="1825" x="352" y="1088" width="32" height="32"/>
 <object id="1826" x="384" y="1088" width="32" height="32"/>
 <object id="1827" x="416" y="1088" width="32" height="32"/>
 <object id="1828" x="512" y="1088" width="32" height="32"/>
 <object id="1829" x="544" y="1088" width="32" height="32"/>
 <object id="1830" x="576" y="1088" width="32" height="32"/>
 <object id="1831" x="608" y="1088" width="32" height="32"/>
 <object id="1832" x="640" y="1088" width="32" height="32"/>
 <object id="1833" x="672" y="1088" width="32" height="32"/>
 <object id="1834" x="704" y="1088" width="32" height="32"/>
 <object id="1835" x="736" y="1088" width="32" height="32"/>
 <object id="1836" x="768" y="1088" width="32" height="32"/>
 <object id="1837" x="800" y="1088" width="32" height="32"/>
 <object id="1838" x="832" y="1088" width="32" height="32"/>
 <object id="1839" x="864" y="1088" width="32" height="32"/>
 <object id="1840" x="896" y="1088" width="32" height="32"/>
 <object id="1841" x="928" y="1088" width="32" height="32"/>
 <object id="1842" x="960" y="1088" width="32" height="32"/>
 <object id="1843" x="992" y="1088" width="32" height="32"/>
 <object id="1844" x="1024" y="1088" width="32" height="32"/>
 <object id="1845" x="1056" y="1088" width="32" height="32"/>
 <object id="1846" x="1088" y="1088" width="32" height="32"/>
 <object id="1847" x="1120" y="1088" width="32" height="32"/>
 <object id="1848" x="1184" y="1088" width="32" height="32"/>
 <object id="1849" x="1248" y="1088" width="32" height="32"/>
 <object id="1850" x="1280" y="1088" width="32" height="32"/>
 <object id="1851" x="1312" y="1088" width="32" height="32"/>
 <object id="1852" x="1344" y="1088" width="32" height="32"/>
 <object id="1853" x="1376" y="1088" width="32" height="32"/>
 <object id="1854" x="1408" y="1088" width="32" height="32"/>
 <object id="1855" x="1440" y="1088" width="32" height="32"/>
 <object id="1856" x="1472" y="1088" width="32" height="32"/>
 <object id="1857" x="1504" y="1088" width="32" height="32"/>
 <object id="1858" x="1536" y="1088" width="32" height="32"/>
 <object id="1859" x="0" y="1120" width="32" height="32"/>
 <object id="1860" x="32" y="1120" width="32" height="32"/>
 <object id="1861" x="64" y="1120" width="32" height="32"/>
 <object id="1862" x="256" y="1120" width="32" height="32"/>
 <object id="1863" x="288" y="1120" width="32" height="32"/>
 <object id="1864" x="320" y="1120" width="32" height="32"/>
 <object id="1865" x="352" y="1120" width="32" height="32"/>
 <object id="1866" x="384" y="1120" width="32" height="32"/>
 <object id="1867" x="416" y="1120" width="32" height="32"/>
 <object id="1868" x="512" y="1120" width="32" height="32"/>
 <object id="1869" x="544" y="1120" width="32" height="32"/>
 <object id="1870" x="576" y="1120" width="32" height="32"/>
 <object id="1871" x="608" y="1120" width="32" height="32"/>
 <object id="1872" x="640" y="1120" width="32" height="32"/>
 <object id="1873" x="672" y="1120" width="32" height="32"/>
 <object id="1874" x="704" y="1120" width="32" height="32"/>
 <object id="1875" x="736" y="1120" width="32" height="32"/>
 <object id="1876" x="768" y="1120" width="32" height="32"/>
 <object id="1877" x="800" y="1120" width="32" height="32"/>
 <object id="1878" x="832" y="1120" width="32" height="32"/>
 <object id="1879" x="864" y="1120" width="32" height="32"/>
 <object id="1880" x="896" y="1120" width="32" height="32"/>
 <object id="1881" x="928" y="1120" width="32" height="32"/>
 <object id="1882" x="960" y="1120" width="32" height="32"/>
 <object id="1883" x="992" y="1120" width="32" height="32"/>
 <object id="1884" x="1024" y="1120" width="32" height="32"/>
 <object id="1885" x="1056" y="1120" width="32" height="32"/>
 <object id="1886" x="1088" y="1120" width="32" height="32"/>
 <object id="1887" x="1120" y="1120" width="32" height="32"/>
 <object id="1888" x="1248" y="1120" width="32" height="32"/>
 <object id="1889" x="1280" y="1120" width="32" height="32"/>
 <object id="1890" x="1312" y="1120" width="32" height="32"/>
 <object id="1891" x="1344" y="1120" width="32" height="32"/>
 <object id="1892" x="1376" y="1120" width="32" height="32"/>
 <object id="1893" x="1408" y="1120" width="32" height="32"/>
 <object id="1894" x="1440" y="1120" width="32" height="32"/>
 <object id="1895" x="1472" y="1120" width="32" height="32"/>
 <object id="1896" x="1504" y="1120" width="32" height="32"/>
 <object id="1897" x="1536" y="1120" width="32" height="32"/>
 <object id="1898" x="0" y="1152" width="32" height="32"/>
 <object id="1899" x="32" y="1152" width="32" height="32"/>
 <object id="1900" x="288" y="1152" width="32" height="32"/>
 <object id="1901" x="320" y="1152" width="32" height="32"/>
 <object id="1902" x="352" y="1152" width="32" height="32"/>
 <object id="1903" x="384" y="1152" width="32" height="32"/>
 <object id="1904" x="608" y="1152" width="32" height="32"/>
 <object id="1905" x="640" y="1152" width="32" height="32"/>
 <object id="1906" x="672" y="1152" width="32" height="32"/>
 <object id="1907" x="704" y="1152" width="32" height="32"/>
 <object id="1908" x="896" y="1152" width="32" height="32"/>
 <object id="1909" x="928" y="1152" width="32" height="32"/>
 <object id="1910" x="960" y="1152" width="32" height="32"/>
 <object id="1911" x="992" y="1152" width="32" height="32"/>
 <object id="1912" x="1024" y="1152" width="32" height="32"/>
 <object id="1913" x="1408" y="1152" width="32" height="32"/>
 <object id="1914" x="1440" y="1152" width="32" height="32"/>
 <object id="1915" x="1472" y="1152" width="32" height="32"/>
 <object id="1916" x="1504" y="1152" width="32" height="32"/>
 <object id="1917" x="1536" y="1152" width="32" height="32"/>
 <object id="1918" x="0" y="1184" width="32" height="32"/>
 <object id="1919" x="320" y="1184" width="32" height="32"/>
 <object id="1920" x="352" y="1184" width="32" height="32"/>
 <object id="1921" x="576" y="1184" width="32" height="32"/>
 <object id="1922" x="608" y="1184" width="32" height="32"/>
 <object id="1923" x="640" y="1184" width="32" height="32"/>
 <object id="1924" x="672" y="1184" width="32" height="32"/>
 <object id="1925" x="896" y="1184" width="32" height="32"/>
 <object id="1926" x="928" y="1184" width="32" height="32"/>
 <object id="1927" x="960" y="1184" width="32" height="32"/>
 <object id="1928" x="992" y="1184" width="32" height="32"/>
 <object id="1929" x="1024" y="1184" width="32" height="32"/>
 <object id="1930" x="1088" y="1184" width="32" height="32"/>
 <object id="1931" x="1120" y="1184" width="32" height="32"/>
 <object id="1932" x="1216" y="1184" width="32" height="32"/>
 <object id="1933" x="1248" y="1184" width="32" height="32"/>
 <object id="1934" x="1280" y="1184" width="32" height="32"/>
 <object id="1935" x="1408" y="1184" width="32" height="32"/>
 <object id="1936" x="1440" y="1184" width="32" height="32"/>
 <object id="1937" x="1536" y="1184" width="32" height="32"/>
 <object id="1938" x="0" y="1216" width="32" height="32"/>
 <object id="1939" x="320" y="1216" width="32" height="32"/>
 <object id="1940" x="1024" y="1216" width="32" height="32"/>
 <object id="1941" x="1536" y="1216" width="32" height="32"/>
 <object id="1942" x="0" y="1248" width="32" height="32"/>
 <object id="1943" x="32" y="1248" width="32" height="32"/>
 <object id="1944" x="64" y="1248" width="32" height="32"/>
 <object id="1945" x="96" y="1248" width="54.25" height="32"/>
 <object id="1949" x="203" y="1248" width="53" height="32"/>
 <object id="1950" x="256" y="1248" width="32" height="32"/>
 <object id="1951" x="288" y="1248" width="32" height="32"/>
 <object id="1952" x="320" y="1248" width="32" height="32"/>
 <object id="1953" x="352" y="1248" width="32" height="32"/>
 <object id="1954" x="384" y="1248" width="32" height="32"/>
 <object id="1955" x="416" y="1248" width="32" height="32"/>
 <object id="1956" x="448" y="1248" width="32" height="32"/>
 <object id="1957" x="480" y="1248" width="32" height="32"/>
 <object id="1958" x="512" y="1248" width="32" height="32"/>
 <object id="1959" x="544" y="1248" width="32" height="32"/>
 <object id="1960" x="576" y="1248" width="32" height="32"/>
 <object id="1961" x="608" y="1248" width="32" height="32"/>
 <object id="1962" x="640" y="1248" width="32" height="32"/>
 <object id="1963" x="672" y="1248" width="32" height="32"/>
 <object id="1964" x="704" y="1248" width="32" height="32"/>
 <object id="1965" x="736" y="1248" width="32" height="32"/>
 <object id="1966" x="768" y="1248" width="32" height="32"/>
 <object id="1967" x="800" y="1248" width="32" height="32"/>
 <object id="1968" x="832" y="1248" width="32" height="32"/>
 <object id="1969" x="864" y="1248" width="32" height="32"/>
 <object id="1970" x="896" y="1248" width="32" height="32"/>
 <object id="1971" x="928" y="1248" width="32" height="32"/>
 <object id="1972" x="960" y="1248" width="32" height="32"/>
 <object id="1973" x="992" y="1248" width="32" height="32"/>
 <object id="1974" x="1024" y="1248" width="32" height="32"/>
 <object id="1975" x="1056" y="1248" width="32" height="32"/>
 <object id="1976" x="1088" y="1248" width="32" height="32"/>
 <object id="1977" x="1120" y="1248" width="32" height="32"/>
 <object id="1978" x="1152" y="1248" width="32" height="32"/>
 <object id="1979" x="1184" y="1248" width="32" height="32"/>
 <object id="1980" x="1216" y="1248" width="32" height="32"/>
 <object id="1981" x="1248" y="1248" width="32" height="32"/>
 <object id="1982" x="1280" y="1248" width="32" height="32"/>
 <object id="1983" x="1312" y="1248" width="32" height="32"/>
 <object id="1984" x="1344" y="1248" width="32" height="32"/>
 <object id="1985" x="1376" y="1248" width="32" height="32"/>
 <object id="1986" x="1408" y="1248" width="32" height="32"/>
 <object id="1987" x="1440" y="1248" width="32" height="32"/>
 <object id="1988" x="1472" y="1248" width="32" height="32"/>
 <object id="1989" x="1504" y="1248" width="32" height="32"/>
 <object id="1990" x="1536" y="1248" width="32" height="32"/>
</objectgroup>
 <objectgroup id="5" name="eventi">
 <object id="1" name="oggetto_powerplant_1" x="240" y="896">
  <properties>
   <property name="contenuto" value="iperpozione"/>
   <property name="id" value="oggetto_powerplant_1"/>
   <property name="quantita" value="1"/>
   <property name="type" value="oggetto"/>
  </properties>
  <point/>
 </object>
 <object id="2" name="oggetto_powerplant_2" x="1296" y="736">
  <properties>
   <property name="contenuto" value="ultraball"/>
   <property name="id" value="oggetto_powerplant_2"/>
   <property name="quantita" value="1"/>
   <property name="type" value="oggetto"/>
  </properties>
  <point/>
 </object>
 <object id="3" name="oggetto_powerplant_3" x="1488" y="1216">
  <properties>
   <property name="contenuto" value="rarecandy"/>
   <property name="id" value="oggetto_powerplant_3"/>
   <property name="quantita" value="1"/>
   <property name="type" value="oggetto"/>
  </properties>
  <point/>
 </object>
 <object id="4" name="oggetto_powerplant_4" x="1456" y="160">
  <properties>
   <property name="contenuto" value="revitalizzante"/>
   <property name="id" value="oggetto_powerplant_4"/>
   <property name="quantita" value="1"/>
   <property name="type" value="oggetto"/>
  </properties>
  <point/>
 </object>
 <object id="5" name="oggetto_powerplant_5" x="848" y="736">
  <properties>
   <property name="contenuto" value="mt_shock_wave"/>
   <property name="id" value="oggetto_powerplant_5"/>
   <property name="quantita" value="1"/>
   <property name="type" value="oggetto"/>
  </properties>
  <point/>
 </object>
 <object id="6" name="oggetto_powerplant_6" x="176" y="384">
  <properties>
   <property name="contenuto" value="squama_cuore"/>
   <property name="id" value="oggetto_powerplant_6"/>
   <property name="quantita" value="1"/>
   <property name="type" value="oggetto"/>
  </properties>
  <point/>
 </object>
 <object id="7" name="oggetto_powerplant_7" x="1168" y="192">
  <properties>
   <property name="contenuto" value="ultraball"/>
   <property name="id" value="oggetto_powerplant_7"/>
   <property name="quantita" value="1"/>
   <property name="type" value="oggetto"/>
  </properties>
  <point/>
 </object>
 <object id="8" name="oggetto_powerplant_8" x="976" y="1248">
  <properties>
   <property name="contenuto" value="iperpozione"/>
   <property name="id" value="oggetto_powerplant_8"/>
   <property name="quantita" value="1"/>
   <property name="type" value="oggetto"/>
  </properties>
  <point/>
 </object>
 <object id="14" name="warp" type="warp" x="151.75" y="1256.75" width="50" height="22.5">
  <properties>
   <property name="destinazione" value="percorso_9"/>
   <property name="spawn_id" value="da_percorso_9_powerplant"/>
   <property name="type" value="warp"/>
  </properties>
 </object>
 <object id="15" name="spawn" type="spawn" x="163.5" y="1223.75" width="25.5" height="21.25">
  <properties>
   <property name="id" value="da_powerplant"/>
   <property name="type" value="spawn"/>
  </properties>
 </object>
</objectgroup>
</map>
