<?xml version="1.0" encoding="UTF-8"?>
<map version="1.10" tiledversion="1.12.2" orientation="orthogonal" renderorder="right-down" width="50" height="50" tilewidth="32" tileheight="32" infinite="0" nextlayerid="4" nextobjectid="69">
 <tileset firstgid="1" source="../rifugi_nemici2.tsj"/>
 <tileset firstgid="1025" source="../rifugio_rocket.tsj"/>
 <tileset firstgid="2049" source="../rifugi nemici 3.tsj"/>
 <tileset firstgid="3073" source="../Interior_general_32.tsj"/>
 <tileset firstgid="5081" source="../RIFUGIO.tsj"/>
 <layer id="1" name="ground" width="50" height="50">
  <data encoding="csv">
3156,3146,3146,3146,3146,3146,3146,3146,3146,3146,3169,3170,3171,3146,3146,3146,3146,3146,3146,3146,3146,3146,3146,4705,4705,3146,3146,3146,3146,3146,3146,3146,3146,3146,3146,3146,3146,3146,3146,3169,3170,3171,3146,3146,3146,3146,3146,3146,3146,3156,
3156,3154,3154,3154,3154,3154,3154,3154,3154,3154,3177,3178,3179,3154,3154,3154,3154,3154,3154,3154,3154,3154,3154,4705,4705,3154,3154,3154,3154,3154,3154,3154,3154,3154,3154,3154,3154,3154,3154,3177,3178,3179,3154,3154,3154,3154,3154,3154,3154,3156,
3156,0,2216,2216,2216,2216,2216,2216,2216,2216,2216,2216,2216,2216,2216,2216,2216,2216,2216,2216,2216,2216,2216,4705,4705,2216,2216,2216,2216,2216,2216,2216,2216,2216,2216,2216,2216,2216,2216,2216,2216,2216,2216,2216,2216,2216,2216,2216,0,3156,
3156,0,2216,2216,2216,2216,2216,2216,2216,2216,2216,2216,2216,2216,2216,2216,2216,2216,2216,2216,2216,2216,2216,4705,4705,2216,2216,2216,2216,2216,2216,2216,2216,2216,2216,2216,2216,2216,2216,2216,2216,2216,2216,2216,2216,2216,2216,2216,0,3156,
3156,0,2216,2216,2216,2216,2216,2216,2216,2216,2216,2216,2216,2216,2216,2216,2216,2216,2216,2216,2216,2216,2216,4705,4705,2216,2216,2216,2216,2216,2216,2216,2216,2216,2216,2216,2216,2216,2216,2216,2216,2216,2216,2216,2216,2216,2216,2216,0,3156,
3156,0,2216,2216,2216,2216,2216,2216,2216,2216,2216,2216,2216,2216,2216,2216,2216,2216,2216,2216,2216,2216,2216,4705,4705,2216,2216,2216,2216,2216,2216,2216,2216,2216,2216,2216,2216,2216,2216,2216,2216,2216,2216,2216,2216,2216,2216,2216,0,3156,
3156,0,2216,2216,2216,2216,2216,2216,2216,2216,2216,2216,2216,2216,2216,2216,2216,2216,2216,2216,2216,2216,2216,4705,4705,2216,2216,2216,2216,2216,2216,2216,2216,2216,2216,2216,2216,2216,2216,2216,2216,2216,2216,2216,2216,2216,2216,2216,0,3156,
3156,0,2216,2216,2216,2216,2216,2216,2216,2216,2216,2216,2216,2216,2216,2216,2216,2216,2216,2216,2216,2216,2216,4705,4705,2216,2216,2216,2216,2216,2216,2216,2216,2216,2216,2216,2216,2216,2216,2216,2216,2216,2216,2216,2216,2216,2216,2216,0,3156,
3156,0,2216,2216,2216,2216,2216,2216,2216,2216,2216,2216,2216,2216,2216,2216,2216,2216,2216,2216,2216,2216,2216,4705,4705,2216,2216,2216,2216,2216,2216,2216,2216,2216,2216,2216,2216,2216,2216,2216,2216,2216,2216,2216,2216,2216,2216,2216,0,3156,
3156,0,2216,2216,2216,2216,2216,2216,2216,2216,2216,2216,2216,2216,2216,2216,2216,2216,2216,2216,2216,2216,2216,4705,4705,2216,2216,2216,2216,2216,2216,2216,2216,2216,2216,2216,2216,2216,2216,2216,2216,2216,2216,2216,2216,2216,2216,2216,0,3156,
3156,0,2216,2216,2216,2216,2216,2216,2216,2216,2216,2216,2216,2216,2216,2216,2216,2216,2216,2216,2216,2216,2216,4705,4705,2216,2216,2216,2216,2216,2216,2216,2216,2216,2216,2216,2216,2216,2216,2216,2216,2216,2216,2216,2216,2216,2216,2216,0,3156,
3156,0,2216,2216,2216,2216,2216,2216,2216,2216,2216,2216,2216,2216,2216,2216,2216,2216,2216,2216,2216,2216,2216,4705,4705,2216,2216,2216,2216,2216,2216,2216,2216,2216,2216,2216,2216,2216,2216,2216,2216,2216,2216,2216,2216,2216,2216,2216,0,3156,
3156,0,2216,2216,2216,2216,2216,2216,2216,2216,2216,2216,2216,2216,2216,2216,2216,2216,2216,2216,2216,2216,2216,4705,4705,2216,2216,2216,2216,2216,2216,2216,2216,2216,2216,2216,2216,2216,2216,2216,2216,2216,2216,2216,2216,2216,2216,2216,0,3156,
3156,0,2216,2216,2216,4698,3146,2216,2216,3146,3146,3146,3146,3146,3146,3146,3146,3146,3146,3146,3146,3146,3146,3164,3164,3146,3146,3146,3146,3146,3146,3146,3146,3146,3146,3146,3146,3146,3146,3146,3146,2216,2216,3146,3146,3146,3146,3146,3146,3156,
3156,0,2216,2216,2216,4705,3154,2216,2216,3154,3154,3154,3154,3154,3154,3154,3154,3154,3154,3154,3154,3154,3154,3172,3172,3154,3154,3154,3154,3154,3154,3154,3154,3154,3154,3154,3154,3154,3154,3154,3154,2216,2216,3154,3154,3154,3154,3154,3154,3156,
3156,3146,3146,3146,3146,3164,2216,2347,2216,2216,2216,2216,2216,2216,2216,2216,2347,2347,2347,2347,2347,2347,2347,2347,2347,2216,2216,2216,2216,2216,2216,2216,2216,0,2216,2216,2216,2216,2216,2216,2216,2216,2347,2216,2216,2216,2216,2216,0,3156,
3156,3154,3154,3154,3154,3172,2216,2347,2216,0,0,2216,2216,2216,2216,2216,2347,2216,2216,2216,2216,2216,2216,2347,2347,2216,2216,0,2216,2216,2216,0,2216,2216,2216,2216,2216,0,0,0,2216,2216,2347,2216,0,2216,2216,2216,0,3156,
3156,0,2216,2216,2216,2216,2216,2347,2216,0,0,2216,2216,2216,2216,2216,2347,0,2216,2216,2216,0,2216,2347,2347,2216,2216,2216,0,2216,2216,2216,2216,2216,0,2216,2216,0,0,0,2216,2216,2347,0,2216,2216,2216,2216,0,3156,
3156,0,2216,0,2216,2216,2216,2347,2216,0,0,2216,2216,2216,2216,2216,2347,2216,2216,2216,2216,2216,2216,2347,2347,2216,2216,2216,2216,2216,2216,0,2216,2216,2216,2216,2216,0,0,0,2216,2216,2347,2216,2216,0,2216,2216,0,3156,
3156,0,2216,2216,2216,2216,2216,2347,2216,2216,2216,2216,2216,2216,2216,2216,2347,2216,2216,0,0,2216,2216,2347,2347,2347,2347,2347,2347,2347,2347,2347,2347,2216,0,2216,2216,2216,2216,2216,2216,2216,2347,2216,0,2216,2216,2216,0,3156,
3156,0,2216,2216,2216,0,2216,2347,2216,2216,2216,2216,2216,2216,2216,2216,2347,2216,2216,2216,2216,2216,2216,2347,2347,2216,2216,2216,2216,2216,2216,2216,2347,2216,2216,2216,2216,2216,2216,2216,2216,2216,2347,2216,2216,0,2216,0,0,3156,
3156,0,2216,2216,2216,2216,2216,2347,2347,2347,2347,2347,2347,2347,2347,2347,2347,2216,2216,2216,0,2216,2216,2347,2347,2216,2216,2216,2216,2216,2216,2216,2347,2347,2347,2347,2347,2347,2347,2347,2347,2347,2347,2216,2216,2216,0,2216,0,3156,
3156,3146,3146,3146,3146,3146,3146,3146,3146,3146,3146,3146,3146,3146,3146,3146,3146,3146,3146,3146,3146,3146,2216,2347,2347,2216,3146,3146,3146,3146,3146,3146,3146,3146,3146,3146,3146,3146,3146,3146,3146,3146,3146,3146,3146,3146,3146,3146,3146,3156,
3156,3154,3154,3154,3154,3154,3154,3154,3154,3154,3154,3154,3154,3154,3154,3154,3154,3154,3154,3154,3154,3154,2216,2345,2345,2216,3154,3154,3154,3154,3154,3154,3154,3154,3154,3154,3154,3154,3154,3154,3154,3154,3154,3154,3154,3154,3154,3154,3154,3156,
3156,0,2345,2345,2345,2345,2345,2345,2345,2345,2345,2345,2345,2345,2345,2345,2345,2345,2345,2345,2345,2345,2345,2345,2345,2345,2345,2345,2345,2345,2345,2345,2345,2345,2345,2345,2345,2345,2345,2345,2345,2345,2345,2345,2345,2345,2345,2345,0,3156,
3156,0,2345,2345,2345,2345,2345,2345,2345,2345,2345,2345,2345,2345,2345,2345,2345,2345,2345,2345,2345,2345,2345,2345,2345,2345,2345,2345,2345,2345,2345,2345,2345,2345,2345,2345,2345,2345,2345,2345,2345,2345,2345,2345,2345,2345,2345,2345,0,3156,
3156,0,0,0,0,2216,2345,2345,2216,2216,0,0,2216,0,2216,0,2216,2216,0,0,2216,2216,3156,2345,2345,2216,2216,2216,2216,2216,2216,2216,2216,2216,2216,2216,2216,2216,2216,2216,2216,2216,2345,2345,2216,2216,2216,2216,2216,3156,
3156,0,0,0,0,2216,2345,2345,2216,2216,0,2216,2216,2216,2216,2216,2216,2216,2216,0,0,2215,2216,2345,2345,2216,2216,2216,2216,2216,2216,2216,2216,2216,2216,2216,2216,2216,2216,2216,2216,2216,2345,2345,2216,0,0,0,2216,3156,
3156,0,0,0,0,2216,2345,2345,2216,2216,0,2216,2216,2216,2216,2216,2216,2216,2216,2216,0,0,0,2345,2345,2216,2216,2216,2216,2216,2216,2216,2216,2216,2216,2216,2216,2216,2216,2216,2216,2216,2345,2345,2216,0,0,0,2216,3156,
3156,0,0,0,0,2216,2345,2345,2216,2216,0,2216,2216,2216,2216,2216,2216,2216,2216,2216,2216,2216,2216,2345,2345,2216,2216,2216,2216,2216,2216,2216,2216,2216,2216,2216,2216,2216,2216,2216,2216,2216,2345,2345,2216,0,0,0,2216,3156,
3156,0,0,0,0,2216,2345,2345,2216,2216,0,0,0,0,0,0,0,0,0,0,0,0,0,2345,2345,2216,2216,2215,2216,2216,2216,2216,2216,2216,2216,2216,2216,2216,2216,0,2216,2216,2345,2345,2216,0,0,0,2216,3156,
3156,0,0,0,0,2216,2216,2216,2216,2216,2216,2216,2216,2216,2216,2216,2216,2216,0,2216,2216,2216,2216,2345,2345,2216,2216,2216,2216,2216,0,2216,2216,2186,2187,2188,2189,2216,2216,0,2216,2216,2345,2345,2216,0,0,0,2216,3156,
3156,2216,0,2216,2216,2216,2216,2216,2216,2216,2216,2216,2216,2216,2216,2216,2216,0,0,2216,2216,2216,2216,2345,2345,2216,2216,2216,2216,2216,0,2216,2216,2218,2219,2220,2221,2216,2216,2216,2216,2216,2345,2345,2216,0,0,0,2216,3156,
3156,2216,2216,0,2216,2216,2216,2216,2216,2216,2216,2216,2216,2216,2216,2216,2216,0,2216,2216,2216,2216,2216,2345,2345,2216,2216,2216,2216,2216,2216,0,2216,2250,2251,2252,2253,2216,2216,2216,2216,2216,2345,2345,2216,2216,2216,2216,2216,3156,
3156,2216,2216,0,0,2216,2216,2216,2216,2216,2216,2186,2187,2188,2189,2216,0,0,2216,2216,2215,2216,2216,2345,2345,2216,2186,2187,2188,2189,2216,0,2216,2216,2216,2216,2216,2216,2216,2216,2216,2216,2345,2345,2216,2216,2216,0,2216,3156,
3156,2216,2216,2216,0,0,2216,2216,2216,2216,2216,2218,2219,2220,2221,2216,0,2216,2216,2216,2216,2216,2216,2345,2345,2216,2218,2219,2220,2221,2216,2216,0,2216,2216,2216,0,0,2216,2216,2216,2216,2345,2345,2216,2216,2216,0,2216,3156,
3156,2216,2216,2216,2216,0,0,2216,2216,2216,2216,2250,2251,2252,2253,2216,0,2216,2216,2216,2216,2216,2216,2345,2345,2216,2250,2251,2252,2253,2216,2216,0,2216,2216,2216,2216,0,2216,2216,2216,2216,2345,2345,2216,0,0,0,2216,3156,
3156,2216,2216,2216,2216,2216,0,0,2216,2216,2216,2216,2216,2216,2216,0,0,2216,2186,2187,2188,2189,2216,2345,2345,2216,2216,2216,2216,2216,2216,2216,0,0,2216,2216,2216,0,2216,2216,2216,2216,2345,2345,2216,0,0,2216,2216,3156,
3156,2216,2216,2216,2216,2216,2216,0,0,2216,2216,2216,2216,2216,0,0,2216,2216,2218,2219,2220,2221,2216,2345,2345,2216,2216,2215,2216,2216,2216,2216,2216,0,2216,2216,2216,2216,2216,2216,2216,2216,2345,2345,2216,0,0,2216,2216,3156,
3156,2216,2216,2216,2216,2216,2216,2216,0,2216,2216,2216,2216,2216,2216,2216,2216,0,2250,2251,2252,2253,2216,2345,2345,2216,2216,2216,2216,2216,2216,2216,2216,0,2216,2216,2216,2216,2216,0,2216,2216,2216,2216,2216,2216,2216,2216,2216,3156,
3156,2216,2216,2216,0,2216,2216,2216,0,2216,2216,2216,2216,2216,2216,2216,2216,2216,0,2216,2216,2216,2216,2345,2345,2216,2216,2216,2216,2216,2216,2216,2216,0,2216,2216,2216,0,2216,0,2216,2216,2216,2216,2216,2216,2216,2216,2216,3156,
3156,2216,2216,2216,0,0,0,2216,0,2216,2216,2216,2186,2187,2188,2189,2216,2216,0,2216,2216,2216,2216,2345,2345,2216,2186,2187,2188,2189,2216,2216,0,2216,2216,2216,2216,0,2216,0,2216,2216,2216,2216,2216,2216,2216,2216,2216,3156,
3156,2216,2216,2216,2216,2216,0,0,0,2216,2216,2216,2218,2219,2220,2221,2216,2216,0,0,2216,2216,2216,2345,2345,2216,2218,2219,2220,2221,2216,2216,0,2216,2216,0,2216,2216,2216,2216,2216,2216,2216,2216,2216,2216,2216,2216,2216,3156,
3156,2216,2216,2216,2216,2216,2216,2216,2216,2216,2216,2216,2250,2251,2252,2253,2216,2216,0,2216,2216,2216,2216,2345,2345,2216,2250,2251,2252,2253,2216,2216,2216,2216,2216,0,2216,2216,2216,2216,2216,2216,2216,2216,2216,2216,2216,2216,2216,3156,
3156,2216,2216,2216,2216,2216,2216,2216,2216,2216,2216,2216,2216,2216,2216,2216,2216,2216,0,2216,2216,2216,2216,2345,2345,2216,2186,2187,2188,2189,2216,2216,2216,2216,2216,2216,2216,2216,2216,2216,2216,2216,2216,2216,2216,2216,2216,2216,2216,3156,
3156,2216,2216,2216,2216,2216,2216,2216,2216,2216,2216,2216,2216,2216,2216,2216,2216,2216,0,2216,2215,2216,2216,2345,2345,2216,2218,2219,2220,2221,2216,2216,2216,2216,2216,2216,2216,2216,2216,2216,2216,2216,2216,2216,2216,2216,2216,2216,2216,3156,
0,0,0,0,0,0,0,0,0,0,0,0,0,2216,2216,2216,2216,2216,0,2216,2216,2216,2216,2345,2345,2216,2250,2251,2252,2253,2216,0,2216,2216,2216,2216,2216,2216,0,0,0,0,0,0,0,0,0,0,0,0,
0,0,0,0,0,0,0,0,0,0,0,0,0,2216,2216,0,0,0,0,2216,2216,2216,2216,2345,2345,2216,2216,2216,2216,2216,2216,2216,2216,2216,2216,2216,2216,2216,0,0,0,0,0,0,0,0,0,0,0,0,
0,0,0,0,0,0,0,0,0,0,0,0,0,2216,2216,0,0,2216,0,0,2216,2216,2216,2345,2345,2216,2215,2216,2216,2216,2216,2216,2216,2216,0,2216,2216,2216,0,0,0,0,0,0,0,0,0,0,0,0,
0,0,0,0,0,0,0,0,0,0,0,0,0,2216,2216,2216,0,0,0,2216,2216,2216,2345,2345,2345,2345,2216,2216,2216,2216,2216,2216,2216,2216,2216,2216,2216,2216,0,0,0,0,0,0,0,0,0,0,0,0
</data>
 </layer>
 <layer id="2" name="deco_sotto" width="50" height="50">
  <data encoding="csv">
0,0,0,0,0,0,0,0,0,0,0,0,0,0,0,0,0,0,0,0,0,0,0,0,0,0,0,0,0,0,5160,5161,5162,5163,5164,0,0,0,0,0,0,0,0,0,0,0,0,0,0,0,
0,0,0,0,0,0,0,0,0,0,0,0,0,0,0,0,0,0,0,0,0,0,0,0,0,0,0,0,0,0,5192,3207,3208,5195,5196,0,4217,4218,0,0,0,0,0,4223,4224,0,4223,4224,0,0,
0,0,0,0,0,0,0,0,0,0,0,0,0,0,5581,5582,5583,0,0,0,0,4426,4427,0,0,0,0,0,0,0,0,3215,3216,0,0,0,4225,4226,0,4334,4335,4336,0,4231,4232,0,4231,4232,0,0,
0,0,5760,5761,5760,5761,5762,0,0,0,0,5581,5582,5583,5613,5614,5615,0,0,0,0,4434,4435,0,0,0,0,0,0,4347,0,0,0,0,4348,0,4233,4234,0,4342,4343,4344,0,4239,4240,0,4239,4240,0,0,
0,0,5792,5793,5792,5793,5794,0,5581,5582,5583,5613,5614,5615,5645,5646,5647,0,0,0,0,0,0,0,0,0,0,0,0,4355,0,0,0,0,4356,0,4241,4242,0,0,0,0,0,0,0,4847,4848,0,0,0,
0,0,5824,5825,5824,5825,5826,0,5613,5614,5615,5645,5646,5647,5677,5678,5679,0,4847,4848,0,0,0,0,0,0,0,0,0,0,0,0,0,0,0,0,4249,4250,0,0,0,0,0,0,0,4855,4856,0,0,0,
0,0,5760,5761,5760,5761,5762,0,5645,5646,5647,5677,5678,5679,0,0,0,0,4855,4856,0,0,0,0,0,0,0,0,0,4347,0,0,0,0,4348,0,0,0,0,0,0,0,4789,4790,4791,4863,4864,0,0,0,
0,0,5792,5793,5792,5793,5794,0,5677,5678,5679,0,0,0,0,0,0,0,4863,4864,0,0,0,0,0,0,0,0,0,4355,0,0,0,0,4356,0,0,0,0,0,0,0,4797,4798,4799,0,0,0,0,0,
0,0,5824,5825,5824,5825,5578,5579,5580,0,0,4426,4427,0,0,4847,4848,0,0,0,0,0,0,0,0,0,0,0,0,0,0,0,0,0,0,0,0,0,0,0,0,4366,4805,4806,4807,4367,0,0,0,0,
0,0,4217,4218,0,0,5610,5611,5612,0,0,4434,4435,0,0,4855,4856,0,0,0,0,0,0,0,0,0,0,0,0,0,0,0,0,0,0,0,0,0,0,0,0,4374,4813,4814,4815,4375,0,0,0,0,
0,0,4225,4226,0,0,5642,5643,5644,0,0,0,0,0,0,4863,4864,0,0,0,0,0,0,0,0,0,0,0,0,0,0,0,0,0,0,0,0,0,0,0,0,0,0,0,0,0,0,0,0,0,
0,0,4233,4234,0,0,5674,5675,5676,0,0,0,0,0,0,0,0,0,0,0,0,0,0,0,0,0,0,0,0,0,0,0,0,0,0,0,0,0,0,0,0,0,0,0,0,0,0,0,0,0,
0,0,4241,4242,0,0,0,0,0,0,0,0,0,0,0,0,0,0,0,0,0,0,0,0,0,0,0,0,0,0,0,0,0,0,0,0,0,0,0,0,0,0,0,0,0,0,0,0,0,0,
0,0,4249,4250,0,0,0,0,0,0,0,0,0,0,0,0,0,0,0,0,0,0,0,0,0,0,0,0,0,0,0,0,0,0,0,0,0,0,0,0,0,0,0,0,0,0,0,0,0,0,
0,0,0,0,0,0,0,0,0,0,0,0,0,0,0,0,0,0,0,0,0,0,0,0,0,0,0,0,0,0,0,0,0,0,0,0,0,0,0,0,0,0,0,0,0,0,0,0,0,0,
0,0,0,0,0,0,0,0,0,0,0,0,0,0,0,0,0,0,0,0,0,0,0,0,0,0,0,0,0,0,0,0,0,0,0,0,0,0,0,0,0,0,0,0,0,0,0,0,0,0,
0,0,0,0,0,0,0,0,0,0,0,0,0,0,0,0,0,0,0,0,0,0,0,0,0,0,0,0,0,0,0,0,0,0,0,0,0,0,0,0,0,0,0,0,0,0,0,0,0,0,
0,0,0,0,0,0,0,0,0,0,0,0,0,0,0,0,0,0,0,0,0,0,0,0,0,0,0,0,0,0,0,0,0,0,0,0,0,0,0,0,0,0,0,0,0,0,0,0,0,0,
0,0,0,0,0,0,0,0,0,0,0,0,0,0,0,0,0,0,0,0,0,0,0,0,0,0,0,0,0,0,0,0,0,0,0,0,0,0,0,0,0,0,0,0,0,0,0,0,0,0,
0,0,0,0,0,0,0,0,0,0,0,0,0,0,0,0,0,0,0,0,0,0,0,0,0,0,0,0,0,0,0,0,0,0,0,0,0,0,0,0,0,0,0,0,0,0,0,0,0,0,
0,0,0,0,0,0,0,0,0,0,0,0,0,0,0,0,0,0,0,0,0,0,0,0,0,0,0,0,0,0,0,0,0,0,0,0,0,0,0,0,0,0,0,0,0,0,0,0,0,0,
0,0,0,0,0,0,0,0,0,0,0,0,0,0,0,0,0,0,0,0,0,0,4377,0,0,4377,0,0,0,0,0,0,0,0,0,0,0,0,0,0,0,0,0,0,0,0,0,0,0,0,
0,0,0,0,0,0,0,0,0,0,0,0,0,0,0,0,0,0,0,0,0,0,4385,0,0,4385,0,0,0,0,0,0,0,0,0,0,0,0,0,0,0,0,0,0,0,0,0,0,0,0,
0,0,0,0,0,0,0,0,0,0,0,0,0,0,0,0,0,0,0,0,0,0,4393,0,0,4393,0,0,0,0,0,0,0,0,0,0,0,0,0,0,0,0,0,0,0,0,0,0,0,0,
0,0,0,0,0,0,0,0,0,0,0,0,0,0,0,0,0,0,0,0,0,0,0,0,0,0,0,0,0,0,0,0,0,0,0,0,0,0,0,0,0,0,0,0,0,0,0,0,0,0,
0,0,0,0,0,0,0,0,0,0,0,0,0,0,0,0,0,0,0,0,0,0,0,0,0,0,0,0,0,0,0,0,0,0,0,0,0,0,0,0,0,0,0,0,0,0,0,0,0,0,
0,3146,3146,3146,3146,3148,0,0,0,3148,3146,3146,3146,3146,3146,3146,3146,3146,3146,3146,3146,3146,3156,0,0,3148,3146,3146,3146,3146,3146,3146,3146,3146,3146,3146,3146,3146,3146,3146,3146,3148,0,0,3148,3146,3146,3146,3146,0,
0,3154,3154,3154,3154,3156,0,0,0,3156,3154,3154,3154,3154,3154,3154,3154,3154,3154,3154,3154,3154,3164,0,0,3156,3154,3154,3154,3154,3154,3154,3154,3154,3154,3154,3154,3154,3154,3154,3154,3156,0,0,3156,3154,3154,3154,3146,0,
0,0,0,0,0,3156,0,0,0,3156,0,0,0,0,0,0,0,0,0,0,0,0,3172,0,0,3156,0,0,0,0,0,4443,4444,0,0,0,0,0,0,0,0,3156,0,0,3156,0,0,0,0,0,
0,0,0,0,0,3164,0,0,0,3164,0,0,0,0,0,0,0,0,0,0,0,0,0,0,0,3156,0,0,0,0,0,4451,4452,0,0,0,0,0,0,0,0,3156,0,0,3156,0,0,0,0,0,
0,0,0,0,0,3172,0,0,0,3172,0,0,0,0,0,0,0,0,0,0,0,0,0,0,0,3156,0,0,0,0,0,0,0,0,0,0,0,0,0,0,0,3156,0,0,3156,0,0,0,0,0,
0,0,0,0,0,0,0,0,0,0,0,0,0,0,0,0,0,0,0,0,0,0,3148,0,0,3156,0,0,4426,4427,0,0,0,0,0,0,0,0,0,0,0,3156,0,0,3156,0,0,0,0,0,
0,0,0,0,0,0,0,0,0,0,0,0,0,0,0,0,0,0,0,0,0,0,3156,0,0,3156,0,0,4434,4435,0,0,0,0,0,0,0,0,0,0,0,3156,0,0,3156,0,0,0,0,0,
0,0,0,0,0,0,0,0,4426,4427,0,0,0,0,0,0,0,0,0,0,0,0,3156,0,0,3156,0,0,0,0,0,0,0,0,0,0,0,0,0,0,0,3156,0,0,3156,0,0,0,0,0,
0,0,0,0,0,0,0,0,4434,4435,0,0,0,0,0,0,0,0,0,0,0,0,3156,0,0,3156,0,0,0,0,0,0,0,0,0,0,0,0,0,0,0,3156,0,0,3156,0,0,0,0,0,
0,0,0,0,0,0,0,0,0,0,0,0,0,0,0,0,0,0,0,0,0,0,3156,0,0,3156,0,0,0,0,0,0,0,0,0,0,0,0,0,0,0,3156,0,0,3156,0,0,0,0,0,
0,0,0,0,0,0,0,0,0,0,0,0,0,0,0,0,0,0,0,0,0,0,3156,0,0,3156,0,0,0,0,0,0,0,0,0,0,0,0,0,0,0,3156,0,0,3156,0,0,0,0,0,
0,0,0,0,0,0,0,0,0,0,0,0,0,0,0,0,0,0,0,0,0,0,3156,0,0,3156,0,0,0,0,0,0,0,0,0,0,0,0,0,0,0,3156,0,0,3156,0,0,0,0,0,
0,0,0,0,0,0,0,0,0,0,0,0,0,0,0,0,0,0,0,0,0,0,3156,0,0,3156,0,0,0,0,0,0,0,0,0,0,0,0,0,0,0,3156,0,0,3156,0,0,0,0,0,
0,0,0,0,0,0,0,0,0,0,0,0,0,0,0,0,0,0,0,0,0,0,3156,0,0,3156,0,0,0,0,0,0,0,0,0,0,0,0,0,0,0,3164,0,0,3164,0,0,0,0,0,
0,0,0,0,0,0,0,0,0,0,0,0,0,0,0,0,0,0,0,0,0,0,3156,0,0,3156,0,0,0,0,0,0,0,0,0,0,0,0,0,0,0,3172,0,0,3172,0,0,0,0,0,
0,0,0,0,0,0,0,0,0,0,0,0,0,0,0,0,0,0,0,0,4473,4474,3156,0,0,3156,0,0,0,0,0,0,0,0,0,0,0,0,0,0,0,0,0,0,0,0,0,0,0,0,
0,0,0,0,0,0,0,0,0,0,0,0,0,0,0,0,0,0,0,0,4481,4482,3156,0,0,3156,0,0,0,0,0,0,0,0,0,0,0,0,0,0,0,0,0,0,0,0,0,0,0,0,
0,0,4443,4444,0,0,0,0,0,0,0,0,0,0,0,0,0,0,0,0,4489,4490,3156,0,0,3156,0,0,0,0,0,0,0,0,0,0,0,0,0,0,0,0,4443,4444,0,0,0,0,0,0,
0,0,4451,4452,0,0,0,0,0,0,0,0,0,0,0,0,0,0,0,0,0,0,3156,0,0,3156,0,0,0,0,0,0,0,0,0,0,0,0,0,0,0,0,4451,4452,0,0,0,0,0,0,
0,0,0,0,0,0,0,0,0,0,0,0,0,0,0,0,0,0,0,0,0,0,3156,0,0,3156,0,0,0,0,0,0,0,0,0,0,0,0,0,0,0,0,0,0,0,0,0,0,0,0,
0,0,0,0,0,0,0,0,0,0,0,0,0,0,0,0,0,0,0,0,0,0,3156,0,0,3156,0,0,0,0,0,0,0,0,0,0,0,0,0,0,0,0,0,0,0,0,0,0,0,0,
0,0,0,0,0,0,0,0,0,0,0,0,0,0,0,0,0,0,0,0,0,0,3164,0,0,3164,0,4473,4474,0,0,0,0,0,0,0,0,0,0,0,0,0,0,0,0,0,0,0,0,0,
0,0,0,0,0,0,0,0,0,0,0,0,0,0,0,0,0,0,0,0,0,0,3172,0,0,3172,0,4481,4482,0,0,0,0,0,0,0,0,0,0,0,0,0,0,0,0,0,0,0,0,0,
0,0,0,0,0,0,0,0,0,0,0,0,0,0,0,0,0,0,0,0,0,0,0,0,0,0,0,4489,4490,0,0,0,0,0,0,0,0,0,0,0,0,0,0,0,0,0,0,0,0,0
</data>
 </layer>
 <objectgroup id="3" name="collisioni" visible="0">
  <object id="1" x="1" y="-2" width="25" height="1471"/>
  <object id="2" x="39" y="833" width="151" height="57"/>
  <object id="3" x="164" y="868" width="24" height="114"/>
  <object id="4" x="293" y="836" width="22" height="143"/>
  <object id="5" x="317" y="841" width="418" height="46"/>
  <object id="6" x="705" y="702" width="25" height="62"/>
  <object id="7" x="27" y="708" width="666" height="59"/>
  <object id="8" x="30" y="484" width="155" height="54"/>
  <object id="9" x="164" y="426" width="24" height="94"/>
  <object id="10" x="190" y="415" width="29" height="61"/>
  <object id="11" x="64" y="101" width="54" height="325"/>
  <object id="12" x="123" y="104" width="61" height="164"/>
  <object id="13" x="211" y="291" width="48" height="66"/>
  <object id="14" x="281" y="172" width="56" height="69"/>
  <object id="15" x="381" y="139" width="47" height="74"/>
  <object id="16" x="473" y="112" width="47" height="63"/>
  <object id="17" x="482" y="275" width="58" height="58"/>
  <object id="18" x="579" y="182" width="58" height="53"/>
  <object id="19" x="26" y="10" width="1566" height="49"/>
  <object id="20" x="746" y="11" width="40" height="458"/>
  <object id="21" x="295" y="421" width="1007" height="53"/>
  <object id="22" x="1381" y="421" width="213" height="53"/>
  <object id="23" x="1580" y="8" width="16" height="1456"/>
  <object id="24" x="1412" y="841" width="168" height="32"/>
  <object id="25" x="1411" y="839" width="21" height="467"/>
  <object id="26" x="1320" y="842" width="20" height="450"/>
  <object id="27" x="810.333" y="837" width="506.667" height="39"/>
  <object id="28" x="806.667" y="850" width="17" height="708"/>
  <object id="29" x="811" y="710" width="780" height="49"/>
  <object id="30" x="292" y="512" width="52" height="93"/>
  <object id="31" x="45" y="64" width="14" height="948"/>
  <object id="32" x="69" y="904" width="82" height="113"/>
  <object id="33" x="76" y="1018" width="4" height="22"/>
  <object id="34" x="106" y="1064" width="17" height="45"/>
  <object id="35" x="133" y="1102" width="21" height="36"/>
  <object id="36" x="168" y="1135" width="11" height="30"/>
  <object id="37" x="205" y="1163" width="10" height="40"/>
  <object id="38" x="677" y="1334" width="47" height="75"/>
  <object id="39" x="874" y="1534" width="43" height="61"/>
  <object id="40" x="260" y="1068" width="47" height="52"/>
  <object id="41" x="71" y="1380" width="49" height="45"/>
  <object id="42" x="999" y="900" width="49" height="49"/>
  <object id="43" x="371" y="266" width="38" height="44"/>
  <object id="44" x="681" y="71" width="57" height="51"/>
  <object id="45" x="932" y="107" width="21" height="51"/>
  <object id="46" x="928" y="190" width="26" height="64"/>
  <object id="47" x="1097" y="116" width="10" height="42"/>
  <object id="48" x="1091" y="203" width="18" height="45"/>
  <object id="49" x="1158" y="57" width="53" height="118"/>
  <object id="50" x="1248" y="90" width="86" height="24"/>
  <object id="51" x="1383" y="56" width="51" height="44"/>
  <object id="52" x="1481" y="56" width="49" height="49"/>
  <object id="53" x="1443" y="149" width="56" height="48"/>
  <object id="54" x="1345" y="218" width="90" height="79"/>
  <object id="55" x="1318" y="261" width="18" height="39"/>
  <object id="56" x="1450" y="264" width="7" height="47"/>
  <object id="57" x="994" y="42" width="61" height="35"/>
  <object id="58" x="1349" y="1383" width="52" height="45"/>
  <object id="59" x="906" y="1002" width="47" height="41"/>
 </objectgroup>
 <objectgroup id="4" name="eventi">
  <object id="1" name="spawn" x="765.333" y="1569.33">
   <properties>
    <property name="id" value="da_collegamento_cotral"/>
    <property name="type" value="spawn"/>
   </properties>
   <point/>
  </object>
  <object id="2" name="warp_collegamento_cotral" x="771.667" y="1588.67">
   <properties>
    <property name="destinazione" value="collegamento_cotral"/>
    <property name="spawn_id" value="da_nascondiglio_cotral"/>
    <property name="type" value="warp"/>
   </properties>
   <point/>
  </object>
  <object id="3" name="boss" x="1250" y="180">
   <properties>
    <property name="condizione" value="cotral_rocca_boss_sconfitto"/>
    <property name="direzione" value="sud"/>
    <property name="gate" type="bool" value="true"/>
    <property name="id" value="cotral_marcello_rocca_npc"/>
    <property name="noTestBypass" type="bool" value="true"/>
    <property name="type" value="npc"/>
   </properties>
   <point/>
  </object>
  <object id="4" name="grunt" x="400" y="700">
   <properties>
    <property name="condizione" value="cotral_rocca_boss_sconfitto"/>
    <property name="direzione" value="sud"/>
    <property name="gate" type="bool" value="true"/>
    <property name="id" value="cotral_grunt_rocca_1"/>
    <property name="noTestBypass" type="bool" value="true"/>
    <property name="type" value="trainer"/>
    <property name="vista" type="int" value="5"/>
   </properties>
   <point/>
  </object>
  <object id="5" name="grunt" x="1150" y="700">
   <properties>
    <property name="condizione" value="cotral_rocca_boss_sconfitto"/>
    <property name="direzione" value="sud"/>
    <property name="gate" type="bool" value="true"/>
    <property name="id" value="cotral_grunt_rocca_2"/>
    <property name="noTestBypass" type="bool" value="true"/>
    <property name="type" value="trainer"/>
    <property name="vista" type="int" value="5"/>
   </properties>
   <point/>
  </object>
  <object id="6" name="grunt" x="250" y="1100">
   <properties>
    <property name="condizione" value="cotral_rocca_boss_sconfitto"/>
    <property name="direzione" value="sud"/>
    <property name="gate" type="bool" value="true"/>
    <property name="id" value="cotral_grunt_rocca_3"/>
    <property name="noTestBypass" type="bool" value="true"/>
    <property name="type" value="trainer"/>
    <property name="vista" type="int" value="5"/>
   </properties>
   <point/>
  </object>
  <object id="7" name="grunt" x="1300" y="1100">
   <properties>
    <property name="condizione" value="cotral_rocca_boss_sconfitto"/>
    <property name="direzione" value="sud"/>
    <property name="gate" type="bool" value="true"/>
    <property name="id" value="cotral_grunt_rocca_4"/>
    <property name="noTestBypass" type="bool" value="true"/>
    <property name="type" value="trainer"/>
    <property name="vista" type="int" value="5"/>
   </properties>
   <point/>
  </object>
  <object id="8" name="grunt" x="800" y="1200">
   <properties>
    <property name="condizione" value="cotral_rocca_boss_sconfitto"/>
    <property name="direzione" value="sud"/>
    <property name="gate" type="bool" value="true"/>
    <property name="id" value="cotral_grunt_rocca_5"/>
    <property name="noTestBypass" type="bool" value="true"/>
    <property name="type" value="trainer"/>
    <property name="vista" type="int" value="5"/>
   </properties>
   <point/>
  </object>
  <object id="9" name="grunt" x="500" y="1450">
   <properties>
    <property name="condizione" value="cotral_rocca_boss_sconfitto"/>
    <property name="direzione" value="sud"/>
    <property name="gate" type="bool" value="true"/>
    <property name="id" value="cotral_grunt_rocca_6"/>
    <property name="noTestBypass" type="bool" value="true"/>
    <property name="type" value="trainer"/>
    <property name="vista" type="int" value="5"/>
   </properties>
   <point/>
  </object>
  <object id="60" name="grunt" x="663.333" y="184">
   <properties>
    <property name="condizione" value="cotral_rocca_boss_sconfitto"/>
    <property name="direzione" value="sud"/>
    <property name="gate" type="bool" value="true"/>
    <property name="id" value="cotral_grunt_deco_1"/>
    <property name="noTestBypass" type="bool" value="true"/>
    <property name="type" value="npc"/>
   </properties>
   <point/>
  </object>
  <object id="61" name="Baso" x="1335.33" y="169.333">
   <properties>
    <property name="condizione" value="cotral_rocca_finale"/>
    <property name="direzione" value="sud"/>
    <property name="gate" type="bool" value="true"/>
    <property name="id" value="baso_rocca_cutscene"/>
    <property name="noTestBypass" type="bool" value="true"/>
    <property name="type" value="npc"/>
   </properties>
   <point/>
  </object>
  <object id="62" name="grunt" x="1366" y="178.667">
   <properties>
    <property name="condizione" value="cotral_rocca_boss_sconfitto"/>
    <property name="direzione" value="sud"/>
    <property name="gate" type="bool" value="true"/>
    <property name="id" value="cotral_grunt_forte_1_npc"/>
    <property name="noTestBypass" type="bool" value="true"/>
    <property name="type" value="npc"/>
   </properties>
   <point/>
  </object>
  <object id="63" name="grunt" x="1330.67" y="214">
   <properties>
    <property name="condizione" value="cotral_rocca_boss_sconfitto"/>
    <property name="direzione" value="sud"/>
    <property name="gate" type="bool" value="true"/>
    <property name="id" value="cotral_grunt_forte_2_npc"/>
    <property name="noTestBypass" type="bool" value="true"/>
    <property name="type" value="npc"/>
   </properties>
   <point/>
  </object>
  <object id="64" name="Gianluca di montecavo" x="1013.33" y="146.667">
   <properties>
    <property name="condizione" value="cotral_rocca_finale"/>
    <property name="direzione" value="sud"/>
    <property name="gate" type="bool" value="true"/>
    <property name="id" value="gianluca_cotral_rocca"/>
    <property name="noTestBypass" type="bool" value="true"/>
    <property name="type" value="npc"/>
   </properties>
   <point/>
  </object>
  <object id="65" name="inizio cutscene" x="1249.33" y="367.333" width="152" height="19.3333">
   <properties>
    <property name="id" value="inizio_cutscene_baso"/>
    <property name="type" value="trigger_baso_cotral"/>
   </properties>
  </object>
  <object id="67" name="grunt" x="984.667" y="203.333">
   <properties>
    <property name="condizione" value="cotral_rocca_boss_sconfitto"/>
    <property name="direzione" value="sud"/>
    <property name="gate" type="bool" value="true"/>
    <property name="id" value="cotral_grunt_deco_2"/>
    <property name="noTestBypass" type="bool" value="true"/>
    <property name="type" value="npc"/>
   </properties>
   <point/>
  </object>
  <object id="68" name="grunt" x="1050.67" y="202">
   <properties>
    <property name="condizione" value="cotral_rocca_boss_sconfitto"/>
    <property name="direzione" value="sud"/>
    <property name="gate" type="bool" value="true"/>
    <property name="id" value="cotral_grunt_deco_3"/>
    <property name="noTestBypass" type="bool" value="true"/>
    <property name="type" value="npc"/>
   </properties>
   <point/>
  </object>
 </objectgroup>
</map>
