<?xml version="1.0" encoding="UTF-8"?>
<map version="1.10" tiledversion="1.12.2" orientation="orthogonal" renderorder="right-down" width="12" height="10" tilewidth="32" tileheight="32" infinite="0" nextlayerid="6" nextobjectid="10">
 <tileset firstgid="1" name="ristorante_laghi_1f_tileset" tilewidth="32" tileheight="32" tilecount="96" columns="16">
  <image source="../ristorante_laghi_1f_tileset.png" width="512" height="192"/>
 </tileset>
 <tileset firstgid="97" source="../../outside.tsx"/>
 <layer id="1" name="ground" width="12" height="10">
  <data encoding="csv">
1,3,5,7,9,11,13,15,9,15,17,19,
21,23,25,27,29,31,33,35,29,37,39,41,
43,45,45,45,45,47,49,51,45,45,53,55,
45,57,57,57,57,57,57,57,57,57,57,57,
45,59,61,63,59,57,57,59,61,65,59,57,
45,59,67,69,59,57,57,59,67,69,59,57,
45,57,57,57,57,57,57,57,57,57,57,57,
71,73,73,73,73,73,73,73,73,73,73,73,
75,77,77,77,77,79,81,77,77,77,77,77,
0,0,0,0,0,97,97,0,0,0,0,0
</data>
 </layer>
 <layer id="2" name="deco_sotto" width="12" height="10">
  <data encoding="csv">
0,0,6,0,0,0,0,0,0,0,0,0,
0,24,26,28,0,0,0,0,0,38,0,0,
0,46,46,46,46,0,0,0,46,46,0,0,
46,58,58,58,58,58,58,58,58,58,58,58,
46,0,0,0,0,58,58,0,0,0,0,58,
46,0,0,0,0,58,58,0,0,0,0,58,
46,58,58,58,58,58,58,58,58,58,58,58,
72,74,74,74,74,74,74,74,74,74,74,74,
76,78,78,78,78,80,82,78,78,78,78,78,
0,0,0,0,0,0,0,0,0,0,0,0
</data>
 </layer>
 <layer id="3" name="edifici" width="12" height="10">
  <data encoding="csv">
2,4,0,8,10,12,14,16,10,16,18,20,
22,0,0,0,30,32,34,36,30,0,40,42,
44,0,0,0,0,48,50,52,0,0,54,56,
0,0,0,0,0,0,0,0,0,0,0,0,
0,60,62,64,60,0,0,60,62,66,60,0,
0,60,68,70,60,0,0,60,68,70,60,0,
0,0,0,0,0,0,0,0,0,0,0,0,
0,0,0,0,0,0,0,0,0,0,0,0,
0,0,0,0,0,0,0,0,0,0,0,0,
0,0,0,0,0,0,0,0,0,0,0,0
</data>
 </layer>
 <objectgroup id="4" name="collisioni">
  <object id="1000" x="0" y="0" width="32" height="32"/>
  <object id="1001" x="32" y="0" width="32" height="32"/>
  <object id="1002" x="64" y="0" width="32" height="32"/>
  <object id="1003" x="96" y="0" width="32" height="32"/>
  <object id="1004" x="128" y="0" width="32" height="32"/>
  <object id="1005" x="160" y="0" width="32" height="32"/>
  <object id="1006" x="192" y="0" width="32" height="32"/>
  <object id="1007" x="224" y="0" width="32" height="32"/>
  <object id="1008" x="256" y="0" width="32" height="32"/>
  <object id="1009" x="288" y="0" width="32" height="32"/>
  <object id="1010" x="320" y="0" width="32" height="32"/>
  <object id="1011" x="352" y="0" width="32" height="32"/>
  <object id="1012" x="0" y="32" width="32" height="32"/>
  <object id="1013" x="32" y="32" width="32" height="32"/>
  <object id="1014" x="96" y="32" width="32" height="32"/>
  <object id="1015" x="128" y="32" width="32" height="32"/>
  <object id="1016" x="160" y="32" width="93.9919" height="46.1862"/>
  <object id="1017" x="192" y="32" width="32" height="32"/>
  <object id="1018" x="224" y="32" width="32" height="32"/>
  <object id="1019" x="256" y="32" width="32" height="32"/>
  <object id="1020" x="288" y="32" width="32" height="32"/>
  <object id="1021" x="320" y="32" width="32" height="47.7409"/>
  <object id="1022" x="352" y="32" width="32" height="32"/>
  <object id="1023" x="64" y="128" width="32" height="32"/>
  <object id="1024" x="96" y="128" width="32" height="32"/>
  <object id="1025" x="256" y="128" width="32" height="32"/>
  <object id="1026" x="288" y="128" width="32" height="32"/>
  <object id="1027" x="64" y="160" width="32" height="32"/>
  <object id="1028" x="96" y="160" width="32" height="32"/>
  <object id="1029" x="256" y="160" width="32" height="32"/>
  <object id="1030" x="288" y="160" width="32" height="32"/>
 </objectgroup>
 <objectgroup id="5" name="eventi">
  <object id="1" name="npc_ristorante_laghi_1f_1" x="336" y="128">
   <properties>
    <property name="id" value="npc_ristorante_laghi_1f_1"/>
    <property name="nota_origine" value="OBJ_EVENT_GFX_MAN_1"/>
    <property name="type" value="npc"/>
   </properties>
   <point/>
  </object>
  <object id="5" name="warp" type="warp" x="160.777" y="295.061" width="62.7045" height="24.6154">
   <properties>
    <property name="destinazione" value="via_dei_laghi"/>
    <property name="spawn_id" value="da_ristorante_laghi"/>
    <property name="type" value="warp"/>
   </properties>
  </object>
  <object id="7" name="warp" type="warp" x="64" y="32" width="32" height="32">
   <properties>
    <property name="destinazione" value="ristorante_laghi_2f"/>
    <property name="spawn_id" value="ristorante_laghi_2f_w0"/>
    <property name="type" value="warp"/>
   </properties>
  </object>
  <object id="8" name="spawn" type="spawn" x="66.7206" y="70.6721" width="23.4494" height="15.6761">
   <properties>
    <property name="id" value="ristorante_laghi_1f_w2"/>
    <property name="type" value="spawn"/>
   </properties>
  </object>
  <object id="9" name="spawn" type="spawn" x="180.47" y="266.947" width="23.4494" height="15.6761">
   <properties>
    <property name="id" value="da fuori"/>
    <property name="type" value="spawn"/>
   </properties>
  </object>
 </objectgroup>
</map>
