<?xml version="1.0" encoding="UTF-8"?>
<map version="1.10" tiledversion="1.12.2" orientation="orthogonal" renderorder="right-down" width="12" height="9" tilewidth="32" tileheight="32" infinite="0" nextlayerid="6" nextobjectid="11">
 <tileset firstgid="1" name="ristorante_laghi_2f_tileset" tilewidth="32" tileheight="32" tilecount="80" columns="16">
  <image source="../ristorante_laghi_2f_tileset.png" width="512" height="160"/>
 </tileset>
 <layer id="1" name="ground" width="12" height="9">
  <data encoding="csv">
1,3,5,7,9,11,11,9,13,15,17,19,
21,23,25,27,29,31,31,29,33,35,37,39,
41,43,43,43,43,43,43,43,45,47,49,51,
43,53,55,57,59,53,53,59,55,61,59,53,
43,59,63,65,59,53,53,59,63,65,59,53,
43,53,53,53,53,53,53,53,53,53,53,53,
43,59,55,61,59,53,53,53,55,57,53,53,
43,59,63,65,59,53,53,59,63,65,53,53,
43,53,53,53,53,53,53,53,53,53,53,53
</data>
 </layer>
 <layer id="2" name="deco_sotto" width="12" height="9">
  <data encoding="csv">
0,0,6,0,0,0,0,0,0,0,0,0,
0,24,26,28,0,32,32,0,0,0,0,0,
0,44,44,44,44,44,44,44,0,0,0,0,
44,54,0,0,0,54,54,0,0,0,0,54,
44,0,0,0,0,54,54,0,0,0,0,54,
44,54,54,54,54,54,54,54,54,54,54,54,
44,0,0,0,0,54,54,54,0,0,54,54,
44,0,0,0,0,54,54,0,0,0,54,54,
44,54,54,54,54,54,54,54,54,54,54,54
</data>
 </layer>
 <layer id="3" name="edifici" width="12" height="9">
  <data encoding="csv">
2,4,0,8,10,12,12,10,14,16,18,20,
22,0,0,0,30,0,0,30,34,36,38,40,
42,0,0,0,0,0,0,0,46,48,50,52,
0,0,56,58,60,0,0,60,56,62,60,0,
0,60,64,66,60,0,0,60,64,66,60,0,
0,0,0,0,0,0,0,0,0,0,0,0,
0,60,56,62,60,0,0,0,56,58,0,0,
0,60,64,66,60,0,0,60,64,66,0,0,
0,0,0,0,0,0,0,0,0,0,0,0
</data>
 </layer>
 <objectgroup id="4" name="collisioni">
  <object id="1000" x="0" y="0" width="32" height="32"/>
  <object id="1001" x="32" y="0" width="32" height="32"/>
  <object id="1002" x="64" y="0" width="32" height="32"/>
  <object id="1003" x="96" y="0" width="32" height="32"/>
  <object id="1004" x="128" y="0" width="32" height="32"/>
  <object id="1005" x="160" y="0" width="32" height="32"/>
  <object id="1006" x="192" y="0" width="32" height="32"/>
  <object id="1007" x="224" y="0" width="32" height="32"/>
  <object id="1008" x="256" y="0" width="32" height="32"/>
  <object id="1009" x="288" y="0" width="32" height="32"/>
  <object id="1010" x="320" y="0" width="32" height="32"/>
  <object id="1011" x="352" y="0" width="32" height="32"/>
  <object id="1012" x="0" y="32" width="32" height="32"/>
  <object id="1013" x="32" y="32" width="32" height="32"/>
  <object id="1014" x="96" y="32" width="32" height="32"/>
  <object id="1015" x="128" y="32" width="32" height="32"/>
  <object id="1016" x="160" y="32" width="32" height="32"/>
  <object id="1017" x="192" y="32" width="32" height="32"/>
  <object id="1018" x="224" y="32" width="32" height="32"/>
  <object id="1019" x="256" y="32" width="32" height="44.8259"/>
  <object id="1020" x="288" y="32" width="60.5668" height="45.7976"/>
  <object id="1021" x="320" y="32" width="32" height="32"/>
  <object id="1022" x="352" y="32" width="32" height="32"/>
  <object id="1023" x="64" y="96" width="32" height="32"/>
  <object id="1024" x="96" y="96" width="32" height="32"/>
  <object id="1025" x="256" y="96" width="32" height="32"/>
  <object id="1026" x="288" y="96" width="32" height="32"/>
  <object id="1027" x="64" y="128" width="32" height="32"/>
  <object id="1028" x="96" y="128" width="32" height="32"/>
  <object id="1029" x="256" y="128" width="32" height="32"/>
  <object id="1030" x="288" y="128" width="32" height="32"/>
  <object id="1031" x="64" y="192" width="32" height="32"/>
  <object id="1032" x="96" y="192" width="32" height="32"/>
  <object id="1033" x="256" y="192" width="32" height="32"/>
  <object id="1034" x="288" y="192" width="32" height="32"/>
  <object id="1035" x="64" y="224" width="32" height="32"/>
  <object id="1036" x="96" y="224" width="32" height="32"/>
  <object id="1037" x="256" y="224" width="32" height="32"/>
  <object id="1038" x="288" y="224" width="32" height="32"/>
 </objectgroup>
 <objectgroup id="5" name="eventi">
  <object id="1" name="npc_ristorante_laghi_2f_1" x="144" y="224">
   <properties>
    <property name="id" value="npc_ristorante_laghi_2f_1"/>
    <property name="nota_origine" value="OBJ_EVENT_GFX_MAN_3"/>
    <property name="type" value="npc"/>
   </properties>
   <point/>
  </object>
  <object id="2" name="npc_ristorante_laghi_2f_2" x="48" y="160">
   <properties>
    <property name="id" value="npc_ristorante_laghi_2f_2"/>
    <property name="nota_origine" value="OBJ_EVENT_GFX_SCIENTIST_1"/>
    <property name="type" value="npc"/>
   </properties>
   <point/>
  </object>
  <object id="3" name="npc_ristorante_laghi_2f_3" x="240" y="256">
   <properties>
    <property name="id" value="npc_ristorante_laghi_2f_3"/>
    <property name="nota_origine" value="OBJ_EVENT_GFX_FAT_MAN"/>
    <property name="type" value="npc"/>
   </properties>
   <point/>
  </object>
  <object id="4" name="npc_ristorante_laghi_2f_4" x="336" y="128">
   <properties>
    <property name="id" value="npc_ristorante_laghi_2f_4"/>
    <property name="nota_origine" value="OBJ_EVENT_GFX_MAN_4"/>
    <property name="type" value="npc"/>
   </properties>
   <point/>
  </object>
  <object id="5" name="npc_ristorante_laghi_2f_5" x="240" y="128">
   <properties>
    <property name="id" value="npc_ristorante_laghi_2f_5"/>
    <property name="nota_origine" value="OBJ_EVENT_GFX_GAMEBOY_KID"/>
    <property name="type" value="npc"/>
   </properties>
   <point/>
  </object>
  <object id="6" name="npc_ristorante_laghi_2f_6" x="144" y="160">
   <properties>
    <property name="id" value="npc_ristorante_laghi_2f_6"/>
    <property name="nota_origine" value="OBJ_EVENT_GFX_WOMAN_2"/>
    <property name="type" value="npc"/>
   </properties>
   <point/>
  </object>
  <object id="7" name="npc_ristorante_laghi_2f_7" x="48" y="256">
   <properties>
    <property name="id" value="npc_ristorante_laghi_2f_7"/>
    <property name="nota_origine" value="OBJ_EVENT_GFX_SCOTT"/>
    <property name="type" value="npc"/>
   </properties>
   <point/>
  </object>
  <object id="9" name="warp" type="warp" x="64" y="32" width="32" height="32">
   <properties>
    <property name="destinazione" value="ristorante_laghi_1f"/>
    <property name="spawn_id" value="ristorante_laghi_1f_w2"/>
    <property name="type" value="warp"/>
   </properties>
  </object>
  <object id="10" name="spawn" type="spawn" x="66.915" y="68.7287" width="24.4211" height="15.0931">
   <properties>
    <property name="id" value="ristorante_laghi_2f_w0"/>
    <property name="type" value="spawn"/>
   </properties>
  </object>
 </objectgroup>
</map>
