<?xml version="1.0" encoding="UTF-8"?>
<map version="1.10" tiledversion="1.12.2" orientation="orthogonal" renderorder="right-down" width="50" height="75" tilewidth="32" tileheight="32" infinite="0" backgroundcolor="#000000" nextlayerid="21" nextobjectid="126">
 <tileset firstgid="1" source="../../outside.tsx"/>
 <tileset firstgid="4017" source="../../Emerald_Outside.tsx"/>
 <tileset firstgid="9265" source="../snow tiles.tsj"/>
 <tileset firstgid="9337" source="../outside.tsx"/>
 <tileset firstgid="13353" source="../fiori_rossi_animati_v2.tsj"/>
 <layer id="1" name="ground" width="50" height="75">
  <data encoding="csv">
5,5,5,5,5,5,5,5,5,5,5,5,5,5,5,5,5,5,5,5,5,5,5,5,5,5,5,5,5,5,5,5,5,5,5,5,5,5,5,5,5,5,5,5,5,5,5,5,5,5,
5,5,5,5,5,5,5,5,5,5,5,5,5,5,5,5,5,5,5,5,5,5,5,5,5,5,5,5,5,5,5,5,5,5,5,5,5,5,5,5,5,5,5,5,5,5,5,5,5,5,
5,5,5,5,5,5,5,5,5,5,5,5,5,5,5,5,5,5,5,5,5,5,5,5,5,5,5,5,5,5,5,5,5,5,5,5,5,5,5,5,5,5,5,5,5,5,5,5,5,5,
5,5,5,5,5,5,5,5,5,5,5,5,5,5,5,5,5,5,5,5,5,5,5,5,5,5,5,5,5,5,5,5,5,5,5,5,5,5,5,5,5,5,5,5,5,5,5,5,5,5,
5,5,5,5,5,5,5,5,5,5,5,5,5,5,5,5,5,5,5,5,5,5,5,5,5,5,5,5,5,5,5,5,5,5,5,5,5,5,5,5,5,5,5,5,5,5,5,5,5,5,
5,5,5,5,5,5,5,5,5,5,5,5,5,5,5,5,5,5,5,5,5,5,5,5,5,5,5,5,5,5,5,5,5,5,5,5,5,5,5,5,5,5,5,5,5,5,5,5,5,5,
5,5,5,5,5,5,5,5,5,5,5,5,5,5,5,5,5,5,5,5,5,5,5,5,5,5,5,5,5,5,5,5,5,5,5,5,5,5,5,5,5,5,5,5,5,5,5,5,5,5,
5,5,5,5,5,5,5,5,5,5,5,5,5,5,5,5,5,5,5,5,5,5,5,5,5,5,5,5,5,5,5,5,5,5,5,5,5,5,5,5,5,5,5,5,5,5,5,5,5,5,
5,5,5,5,5,5,5,5,5,5,5,5,5,5,5,5,5,5,5,5,5,5,5,5,5,5,5,5,5,5,5,5,5,5,5,5,5,5,5,5,5,5,5,5,5,5,5,5,5,5,
5,5,5,5,5,5,5,5,5,5,5,5,5,5,5,5,5,5,5,5,5,5,5,5,5,5,5,5,5,5,5,5,5,5,5,5,5,5,5,5,5,5,5,5,5,5,5,5,5,5,
5,5,5,5,5,5,5,5,5,5,5,5,5,5,5,5,5,5,5,5,5,5,5,5,5,5,5,5,5,5,5,5,5,5,5,5,5,5,5,5,5,5,5,5,5,5,5,5,5,5,
5,5,5,5,5,5,5,5,5,5,5,5,5,5,5,5,5,5,5,5,5,5,5,5,5,5,5,5,5,5,5,5,5,5,5,5,5,5,5,5,5,5,5,5,5,5,5,5,5,5,
5,5,5,5,5,5,5,5,5,5,5,5,5,5,5,5,5,5,5,5,5,5,5,5,5,5,5,5,5,5,5,5,5,5,5,5,5,5,5,5,5,5,5,5,5,5,5,5,5,5,
5,5,5,5,5,5,5,5,5,5,5,5,5,5,5,5,5,5,5,5,5,5,5,5,5,5,5,5,5,5,5,5,5,5,5,5,5,5,5,5,5,5,5,5,5,5,5,5,5,5,
5,5,5,5,5,5,5,5,5,5,5,5,5,5,5,5,5,5,5,5,5,5,5,5,5,5,5,5,5,5,5,5,5,5,5,5,5,5,5,5,5,5,5,5,5,5,5,5,5,5,
2,2,2,2,2,2,2,2,2,2,2,2,2,2,2,2,2,2,2,2,2,2,2,2,2,2,2,2,2,2,2,2,2,2,2,2,2,2,2,2,2,2,2,2,2,2,2,2,2,2,
2,2,2,2,2,2,2,2,2,2,2,2,2,2,2,2,2,2,2,2,2,2,2,2,2,2,2,2,2,2,2,2,2,2,2,2,2,2,2,2,2,2,2,2,2,2,2,2,2,2,
2,2,2,2,2,2,2,2,2,2,2,2,2,2,2,2,2,2,2,2,2,2,2,2,2,2,2,2,2,2,2,2,2,2,2,2,2,2,2,2,2,2,2,2,2,2,2,2,2,2,
2,2,2,2,2,2,2,2,2,2,2,2,2,2,2,2,2,2,2,2,2,2,2,2,2,2,2,2,2,2,2,2,2,2,2,2,2,2,2,2,2,2,2,2,2,2,2,2,2,2,
2,2,2,2,2,2,2,2,2,2,2,2,2,2,2,2,2,2,2,2,2,2,2,2,2,2,2,2,2,2,2,2,2,2,2,2,2,2,2,2,2,2,2,2,2,2,2,2,2,2,
2,2,2,2,2,2,2,2,2,2,2,2,2,2,2,2,2,2,2,2,2,2,2,2,2,2,2,2,2,2,2,2,2,2,2,2,2,2,2,2,2,2,2,2,2,2,2,2,2,2,
2,2,2,2,2,2,2,2,2,2,2,2,2,2,2,2,2,2,2,2,2,2,2,2,2,2,2,2,2,2,2,2,2,2,2,2,2,2,2,2,2,2,2,2,2,2,2,2,2,2,
2,2,2,2,2,2,2,2,2,2,2,2,2,2,2,2,2,2,2,2,2,2,2,2,2,2,2,2,2,2,2,2,2,2,2,2,2,2,2,2,2,2,2,2,2,2,2,2,2,2,
2,2,2,2,2,2,2,2,2,2,2,2,2,2,2,2,2,2,2,2,2,2,2,2,2,2,2,2,2,2,2,2,2,2,2,2,2,2,2,2,2,2,2,2,2,2,2,2,2,2,
2,2,2,2,2,2,2,2,2,4,4,2,2,2,2,2,2,2,2,2,2,2,2,802,2,2,802,2,2,2,2,2,2,2,2,2,2,2,2,2,2,2,2,2,2,2,2,2,2,2,
2,2,2,2,2,2,2,2,2,4,4,2,2,2,2,2,2,2,2,2,2,2,2,2,2,2,2,2,2,2,2,2,2,2,2,2,2,2,2,2,2,2,2,2,2,2,2,2,2,2,
2,2,2,2,2,2,2,2,2,4,4,2,2,2,2,2,2,2,2,2,2,2,2,794,2,2,2,2,2,2,2,2,2,2,2,2,2,2,2,2,2,2,2,2,2,2,2,2,2,2,
2,2,2,2,2,2,2,2,2,4,4,2,2,2,2,2,2,2,2,2,2,2,2,2,2,2,2,2,2,2,2,2,2,2,2,2,2,2,2,2,2,2,2,2,2,2,2,2,2,2,
2,2,2,2,2,2,2,2,2,4,4,3,2,2,2,2,2,2,2,2,2,2,2,2,2,2,2,2,2,2,2,2,2,2,2,2,2,2,2,2,2,2,2,2,2,2,2,2,2,2,
2,2,2,2,2,2,2,2,2,3,3,3,2,2,2,2,2,2,2,2,2,2,2,338,338,338,338,2,2,2,2,2,2,2,2,2,2,2,2,2,2,2,2,2,2,2,2,2,2,2,
2,2,2,2,2,2,2,2,2,3,3,3,2,2,2,2,2,2,2,2,2,2,2,338,338,338,338,2,2,2,2,2,2,2,2,2,2,2,2,2,2,2,2,2,2,2,2,2,2,2,
2,2,2,2,2,2,2,2,2,3,3,3,2,2,2,2,2,2,2,2,2,2,2,336,337,337,338,2,2,2,2,2,2,2,2,2,2,2,2,2,2,2,2,2,2,2,2,2,2,2,
2,2,2,2,2,2,2,2,2,3,3,2,2,2,2,2,2,2,2,2,2,2,2,336,337,337,338,2,2,2,2,2,2,2,2,2,2,2,2,2,2,2,2,2,2,2,2,2,2,2,
2,2,2,2,2,2,2,2,2,3,3,2,2,2,2,2,2,2,2,2,2,2,2,336,337,337,338,2,2,51,2,2,2,2,2,2,2,2,2,2,2,2,2,2,2,2,2,2,2,2,
2,2,2,2,2,2,2,2,2,3,3,2,2,2,2,2,2,2,2,2,2,2,2,336,337,337,338,2,2,51,51,32,2,2,2,2,2,2,2,2,2,2,2,2,2,2,2,2,2,2,
2,2,2,2,2,2,2,2,2,3,3,2,2,32,32,2,2,2,2,2,2,2,2,336,337,337,338,2,2,51,51,51,32,32,51,51,2,2,2,2,2,2,2,2,2,2,2,2,2,2,
2,2,2,2,2,2,2,2,2,3,3,2,2,2,32,32,32,2,2,2,2,2,2,336,343,343,343,343,2,51,32,51,32,51,51,51,51,2,2,2,2,2,2,2,2,2,2,2,2,2,
2,2,2,2,2,2,2,2,2,3,3,2,2,2,2,2,32,32,2,2,2,2,2,336,338,338,338,343,2,51,51,32,51,2,2,2,2,2,2,2,2,2,2,2,2,2,2,2,2,2,
2,2,2,2,2,2,2,2,2,3,3,2,2,2,2,2,2,32,2,2,2,2,2,336,338,338,338,343,2,32,51,51,51,32,2,2,2,2,2,2,2,2,2,2,2,2,2,2,2,2,
2,2,2,2,2,2,2,2,2,3,3,2,2,2,2,2,2,32,2,2,2,2,2,336,338,338,338,343,2,2,2,2,2,2,2,2,2,2,2,2,2,2,2,2,2,2,2,2,2,2,
2,2,2,2,2,2,2,2,2,3,3,2,2,2,32,32,2,32,342,342,342,342,342,336,338,338,338,343,343,343,343,343,343,343,343,343,2,2,2,2,2,2,2,2,2,2,2,2,2,2,
2,2,2,2,2,2,2,2,2,3,3,2,2,2,32,2,2,2,342,338,338,338,338,338,338,338,338,330,330,330,330,330,330,330,330,343,2,2,2,2,2,2,2,2,2,2,2,2,2,2,
2,2,2,2,2,2,2,2,2,3,3,2,2,2,32,2,2,2,342,338,338,338,338,338,338,338,338,338,338,338,338,338,338,338,338,343,2,2,2,2,2,2,2,2,2,2,2,2,2,2,
2,2,2,2,2,2,2,2,2,3,3,2,2,2,32,2,2,2,342,338,338,338,338,338,338,338,338,338,338,338,338,338,338,343,343,343,2,2,2,2,2,2,2,2,2,2,2,2,2,2,
2,2,2,2,2,2,2,2,2,3,3,2,2,2,32,2,2,2,342,338,338,338,338,338,338,338,338,338,338,338,338,338,338,343,2,2,2,2,2,2,2,2,2,2,2,2,2,2,2,2,
2,2,2,2,2,2,2,2,2,3,3,2,2,2,32,2,2,2,342,338,338,338,338,338,338,338,338,338,346,346,346,346,346,343,346,2,2,2,2,2,2,2,2,2,2,2,2,2,2,2,
2,2,2,2,2,2,2,2,2,3,3,2,2,32,2,2,2,2,342,343,343,343,343,336,338,338,338,343,343,343,343,343,343,343,2,2,2,2,2,2,2,2,2,2,2,2,2,2,2,2,
2,2,2,2,2,2,2,2,2,3,3,2,2,32,2,2,2,2,342,32,2,2,2,336,338,338,338,343,2,2,2,2,2,343,2,2,2,2,2,2,2,2,2,2,2,2,2,2,2,2,
2,2,2,2,2,2,2,2,2,3,3,2,2,32,342,2,2,2,342,32,32,32,2,336,338,338,338,343,32,32,2,2,2,343,343,343,343,343,2,2,2,2,2,2,2,2,2,2,2,2,
2,2,2,2,2,2,2,2,2,3,3,2,2,32,342,342,342,342,342,2,2,32,2,336,338,338,338,343,2,32,32,32,32,32,2,2,2,2,2,2,2,2,2,2,2,2,2,2,2,2,
2,2,2,2,2,2,2,2,2,3,3,2,2,32,2,2,2,2,2,2,2,32,2,336,338,338,338,343,2,2,2,2,2,2,2,2,2,2,2,2,2,2,2,2,2,2,2,2,2,2,
2,2,2,2,2,2,2,2,2,3,3,2,2,32,2,2,2,2,2,2,2,32,2,336,338,338,338,343,2,2,2,2,2,2,2,2,2,2,2,2,2,2,2,2,2,2,2,2,2,2,
2,2,2,2,2,2,2,2,2,3,3,2,2,32,2,2,2,2,2,2,2,2,2,336,338,338,338,343,2,2,2,2,2,2,2,2,2,2,2,2,2,2,2,2,2,2,2,2,2,2,
2,2,2,2,2,2,2,2,2,3,4,2,2,32,2,2,2,2,2,2,2,2,2,336,338,338,338,343,2,2,2,2,2,2,2,2,2,2,2,2,2,2,2,2,2,2,2,2,2,2,
2,2,2,2,2,2,2,2,2,4,4,2,2,32,2,2,2,2,2,2,2,2,2,336,338,338,338,343,2,2,2,2,2,2,2,2,2,2,2,2,2,2,2,2,2,2,2,2,2,2,
2,2,2,2,2,2,2,2,2,4,4,2,2,2,2,2,2,2,2,2,2,2,2,336,338,338,338,343,2,2,2,2,2,2,2,2,2,2,2,2,2,2,2,2,2,2,2,2,2,2,
2,2,2,2,2,2,2,2,2,2,2,2,2,2,2,2,2,2,2,2,2,2,2,2,2,2,2,2,2,2,2,2,2,2,2,2,2,2,2,2,2,2,2,2,2,2,2,2,2,2,
2,2,2,2,2,2,2,2,2,2,2,2,2,2,2,2,2,2,2,2,2,2,2,2,2,2,2,2,2,2,2,2,2,2,2,2,2,2,2,2,2,2,2,2,2,2,2,2,2,2,
2,2,2,2,2,2,2,2,2,2,2,2,2,2,2,2,2,2,2,2,2,2,2,2,2,2,2,2,2,2,2,2,2,2,2,2,2,2,2,2,2,2,2,2,2,2,2,2,2,2,
2,2,2,2,2,2,2,2,2,2,2,2,2,2,2,2,2,2,2,2,2,2,2,2,2,2,2,2,2,2,2,2,2,2,2,2,2,2,2,2,2,2,2,2,2,2,2,2,2,2,
2,2,2,2,2,2,2,2,2,2,2,2,2,2,2,2,2,2,2,2,2,2,2,2,2,2,2,2,2,2,2,2,2,2,2,2,2,2,2,2,2,2,2,2,2,2,2,2,2,2,
2,2,2,2,2,2,2,2,2,2,2,2,2,2,2,2,2,2,2,2,2,2,2,2,2,2,2,2,2,2,2,2,2,2,2,2,2,2,2,2,2,2,2,2,2,2,2,2,2,2,
2,2,2,2,2,2,2,2,2,2,2,2,2,2,2,2,2,2,2,2,2,2,2,2,2,2,2,2,2,2,2,2,2,2,2,2,2,2,2,2,2,2,2,2,2,2,2,2,2,2,
2,2,2,2,2,2,2,2,2,2,2,2,2,2,2,2,2,2,2,2,2,2,2,2,2,2,2,2,2,2,2,2,2,2,2,2,2,2,2,2,2,2,2,2,2,2,2,2,2,2,
2,2,2,2,2,2,2,2,2,2,2,2,2,2,2,2,2,2,2,2,2,2,2,2,2,2,2,2,2,2,2,2,2,2,2,2,2,2,2,2,2,2,2,2,2,2,2,2,2,2,
5,5,5,5,5,5,5,5,5,5,5,5,5,5,5,5,5,5,5,5,5,5,5,5,5,5,5,5,5,5,5,5,5,5,5,5,5,5,5,5,5,5,5,5,5,5,5,5,5,5,
5,5,5,5,5,5,5,5,5,5,5,5,5,5,5,5,5,5,5,5,5,5,5,5,5,5,5,5,5,5,5,5,5,5,5,5,5,5,5,5,5,5,5,5,5,5,5,5,5,5,
5,5,5,5,5,5,5,5,5,5,5,5,5,5,5,5,5,5,5,5,5,5,5,5,5,5,5,5,5,5,5,5,5,5,5,5,5,5,5,5,5,5,5,5,5,5,5,5,5,5,
5,5,5,5,5,5,5,5,5,5,5,5,5,5,5,5,5,5,5,5,5,5,5,5,5,5,5,5,5,5,5,5,5,5,5,5,5,5,5,5,5,5,5,5,5,5,5,5,5,5,
5,5,5,5,5,5,5,5,5,5,5,5,5,5,5,5,5,5,5,5,5,5,5,5,5,5,5,5,5,5,5,5,5,5,5,5,5,5,5,5,5,5,5,5,5,5,5,5,5,5,
5,5,5,5,5,5,5,5,5,5,5,5,5,5,5,5,5,5,5,5,5,5,5,5,5,5,5,5,5,5,5,5,5,5,5,5,5,5,5,5,5,5,5,5,5,5,5,5,5,5,
5,5,5,5,5,5,5,5,5,5,5,5,5,5,5,5,5,5,5,5,5,5,5,5,5,5,5,5,5,5,5,5,5,5,5,5,5,5,5,5,5,5,5,5,5,5,5,5,5,5,
5,5,5,5,5,5,5,5,5,5,5,5,5,5,5,5,5,5,5,5,5,5,5,5,5,5,5,5,5,5,5,5,5,5,5,5,5,5,5,5,5,5,5,5,5,5,5,5,5,5,
5,5,5,5,5,5,5,5,5,5,5,5,5,5,5,5,5,5,5,5,5,5,5,5,5,5,5,5,5,5,5,5,5,5,5,5,5,5,5,5,5,5,5,5,5,5,5,5,5,5,
5,5,5,5,5,5,5,5,5,5,5,5,5,5,5,5,5,5,5,5,5,5,5,5,5,5,5,5,5,5,5,5,5,5,5,5,5,5,5,5,5,5,5,5,5,5,5,5,5,5
</data>
 </layer>
 <layer id="2" name="deco_sotto" width="50" height="75">
  <data encoding="csv">
0,0,0,0,0,0,0,0,0,0,0,0,0,0,0,0,0,0,0,0,0,0,0,0,0,0,0,0,0,0,0,0,0,0,0,0,0,0,0,0,0,0,0,0,0,0,0,0,0,0,
0,0,0,0,0,0,0,0,0,0,0,0,0,0,0,0,0,0,0,0,0,0,0,0,0,0,0,0,0,0,0,0,0,0,0,0,0,0,0,0,0,0,0,0,0,0,0,0,0,0,
0,0,0,0,0,0,0,0,0,0,0,0,0,0,0,0,0,0,0,0,0,0,0,0,0,0,0,0,0,0,0,0,0,0,0,0,0,0,0,0,0,0,0,0,0,0,0,0,0,0,
0,0,0,0,0,0,0,0,0,0,0,0,0,0,0,0,0,0,0,0,0,0,0,0,0,0,0,0,0,0,0,0,0,0,0,0,0,0,0,0,0,0,0,0,0,0,0,0,0,0,
0,0,0,0,0,0,0,0,0,0,0,0,0,0,0,0,0,0,0,0,0,0,0,0,0,0,0,0,0,0,0,0,0,0,0,0,0,0,0,0,0,0,0,0,0,0,0,0,0,0,
0,0,0,0,0,0,0,0,0,0,0,0,0,0,0,0,0,0,0,0,0,0,0,0,0,0,0,0,0,0,0,0,0,0,0,0,0,0,0,0,0,0,0,0,0,0,0,0,0,0,
0,0,0,0,0,0,0,0,0,0,0,0,0,0,0,0,0,0,0,0,0,0,0,0,0,0,0,0,0,0,0,0,0,0,0,0,0,0,0,0,0,0,0,0,0,0,0,0,0,0,
0,0,0,0,0,0,0,0,0,0,0,0,0,0,0,0,0,0,0,0,0,0,0,0,0,0,0,0,0,0,0,0,0,0,0,0,0,0,0,0,0,0,0,0,0,0,0,0,0,0,
0,0,0,0,0,0,0,0,0,0,0,0,0,0,0,0,0,0,0,0,0,0,0,0,0,0,0,0,0,0,0,0,0,0,0,0,0,0,0,0,0,0,0,0,0,0,0,0,0,0,
0,0,0,0,0,0,0,0,0,0,0,0,0,0,0,0,0,0,0,0,0,0,0,0,0,0,0,0,0,0,0,0,0,0,0,0,0,0,0,0,0,0,0,0,0,0,0,0,0,0,
0,0,0,0,0,0,0,0,0,0,0,0,0,0,0,0,0,0,0,0,0,0,0,0,0,0,0,0,0,0,0,0,0,0,0,0,0,0,0,0,0,0,0,0,0,0,0,0,0,0,
0,0,0,0,0,0,0,0,0,0,0,0,0,0,0,0,0,0,0,0,0,0,0,0,0,0,0,0,0,0,0,0,0,0,0,0,0,0,0,0,0,0,0,0,0,0,0,0,0,0,
0,0,0,0,0,0,0,0,0,0,0,0,0,0,0,0,0,0,0,0,0,0,0,0,0,0,0,0,0,0,0,0,0,0,0,0,0,0,0,0,0,0,0,0,0,0,0,0,0,0,
0,0,0,0,0,0,0,0,0,0,0,0,0,0,0,0,0,0,0,0,0,0,0,0,0,0,0,0,0,0,0,0,0,0,0,0,0,0,0,0,0,0,0,0,0,0,0,0,0,0,
0,0,0,0,0,0,0,0,0,0,0,0,0,0,0,0,0,0,0,0,0,0,0,0,0,0,0,0,0,0,0,0,0,0,0,0,0,0,0,0,0,0,0,0,0,0,0,0,0,0,
0,0,0,0,0,0,0,0,0,0,0,0,0,0,0,0,0,0,0,0,0,0,0,0,0,0,0,0,0,0,0,0,0,0,0,0,0,0,0,0,0,0,0,0,0,0,0,0,0,0,
0,0,0,0,0,0,0,0,0,0,0,0,0,0,0,0,0,0,0,0,0,0,0,0,0,0,0,0,0,0,0,0,0,0,0,0,0,0,0,0,0,0,0,0,0,0,0,0,0,0,
0,0,0,0,0,0,0,0,0,0,0,0,0,0,0,0,0,0,0,0,0,0,0,0,0,0,0,0,0,0,0,0,0,0,0,0,0,0,0,0,0,0,0,0,0,0,0,0,0,0,
0,0,0,0,0,0,0,0,0,0,0,0,0,0,0,0,0,0,0,0,0,0,0,0,0,0,0,0,0,0,0,0,0,0,0,0,0,0,0,0,0,0,0,0,0,0,0,0,0,0,
0,0,0,0,0,0,0,0,0,0,0,0,0,0,0,0,0,0,0,0,0,0,0,0,0,0,0,0,0,0,0,0,0,0,0,0,0,0,0,0,0,0,0,0,0,0,0,0,0,0,
0,0,0,0,0,0,0,0,0,0,0,0,0,0,0,0,0,0,0,0,0,0,0,0,0,0,0,0,0,0,0,0,0,0,0,0,0,0,0,0,0,0,0,0,0,0,0,0,0,0,
0,0,0,0,0,0,0,0,0,0,0,0,0,0,0,0,0,0,0,0,0,0,0,0,0,0,0,0,0,0,0,0,0,0,0,0,0,0,0,0,0,0,0,0,0,0,0,0,0,0,
0,0,0,0,0,0,0,0,0,0,0,0,0,0,0,0,0,0,0,0,0,0,0,0,0,0,0,0,0,0,0,0,0,0,0,0,0,0,0,0,0,0,0,0,0,0,0,0,0,0,
0,0,0,0,0,0,0,0,0,0,0,0,0,0,0,0,0,0,0,0,0,0,0,0,0,0,0,0,0,0,0,0,0,0,0,0,0,0,0,0,0,0,0,0,0,0,0,0,0,0,
0,0,0,0,0,0,0,0,0,0,0,0,0,0,0,0,0,0,0,0,0,0,0,0,0,0,0,0,0,0,0,0,0,0,0,0,0,0,0,0,0,0,0,0,0,0,0,0,0,0,
0,0,0,0,0,0,0,0,0,0,0,0,0,0,0,0,0,0,0,0,0,0,0,0,0,0,0,0,0,0,0,0,0,0,0,0,0,0,0,0,0,0,0,0,0,0,0,0,0,0,
0,0,0,0,0,0,0,0,0,0,0,0,0,0,0,0,0,0,0,0,0,0,0,0,0,0,0,0,0,0,0,0,0,0,0,0,0,0,0,0,0,0,0,0,0,0,0,0,0,0,
0,0,0,0,0,0,0,0,0,0,0,0,0,0,0,0,0,0,0,0,0,0,0,0,0,0,0,0,0,0,0,0,0,0,0,0,0,0,0,0,0,0,0,0,0,0,0,0,0,0,
0,0,0,0,0,0,0,0,0,0,0,0,0,0,0,0,0,0,0,0,0,0,0,0,0,0,0,0,0,0,0,0,0,0,0,0,0,0,0,0,0,0,0,0,0,0,0,0,0,0,
0,0,0,0,0,0,0,0,0,0,0,0,0,0,0,0,0,0,949,0,0,0,0,0,0,0,0,0,0,0,0,0,0,0,0,0,0,0,0,0,0,0,0,0,0,0,0,0,0,0,
0,0,0,0,0,0,0,0,0,0,0,0,0,0,0,0,0,0,0,0,0,0,802,802,802,802,802,802,802,802,0,0,0,0,0,0,0,0,0,0,0,0,0,0,0,0,0,0,0,0,
0,0,0,0,0,0,0,0,0,0,0,0,0,0,0,0,0,0,0,0,0,803,0,0,0,0,0,0,0,0,0,0,0,0,0,0,0,0,0,0,0,0,0,0,0,0,0,0,0,0,
0,0,0,0,0,0,0,0,0,0,0,0,0,0,0,0,0,0,0,0,0,0,0,0,0,0,0,0,0,0,0,0,0,0,0,0,0,0,0,0,0,0,0,0,0,0,0,0,0,0,
0,0,0,0,0,0,0,0,0,0,0,0,0,0,0,0,0,0,949,0,0,0,0,0,0,0,0,0,0,0,0,0,0,0,0,0,0,0,0,0,0,0,0,0,0,0,0,0,0,0,
0,0,0,0,0,0,0,0,0,0,0,0,0,0,0,0,0,0,0,0,0,0,0,0,0,0,0,0,0,0,0,0,0,0,0,0,0,0,0,0,0,0,0,0,0,0,0,0,0,0,
0,0,0,0,0,0,0,0,0,0,0,0,0,0,0,0,0,0,0,0,0,0,0,0,0,0,0,0,0,0,0,0,0,0,0,0,0,0,0,0,0,0,0,0,0,0,0,0,0,0,
0,0,0,0,0,0,0,0,0,0,0,0,0,0,0,0,0,0,0,0,0,0,0,0,0,0,0,0,0,0,0,0,0,0,0,0,0,0,0,0,0,0,0,0,0,0,0,0,0,0,
0,0,0,0,0,0,0,0,0,0,0,0,0,0,0,0,0,0,0,0,0,0,0,0,0,0,0,0,0,0,0,0,0,0,0,0,0,0,0,0,0,0,0,0,0,0,0,0,0,0,
0,0,0,0,0,0,0,0,0,0,0,0,0,0,0,0,0,0,0,0,0,0,0,0,0,0,0,0,0,0,0,0,0,0,0,0,0,0,0,0,0,0,0,0,0,0,0,0,0,0,
0,0,0,0,0,0,0,0,0,0,0,0,0,0,0,0,0,0,0,0,0,0,0,0,0,0,0,0,0,0,0,0,0,0,0,0,0,0,0,0,0,0,0,0,0,0,0,0,0,0,
0,0,0,0,0,0,0,0,0,0,0,0,0,0,0,0,0,0,0,0,0,0,0,0,0,0,0,0,0,0,0,0,0,0,0,0,0,0,0,0,0,0,0,0,0,0,0,0,0,0,
0,0,0,0,0,0,0,0,0,0,0,0,0,0,0,0,0,0,0,0,0,0,0,0,0,0,0,0,0,0,0,0,0,0,0,0,0,0,0,0,0,0,0,0,0,0,0,0,0,0,
0,0,0,0,0,0,0,0,0,0,0,0,0,0,0,0,0,0,0,0,0,0,0,0,0,0,0,0,0,0,0,0,0,0,0,0,0,0,0,0,0,0,0,0,0,0,0,0,0,0,
0,0,0,0,0,0,0,0,0,0,0,0,0,0,0,0,0,0,0,0,0,0,0,0,0,0,0,0,0,0,0,0,0,0,0,0,0,0,0,0,0,0,0,0,0,0,0,0,0,0,
0,0,0,0,0,0,0,0,0,0,0,0,0,0,0,0,0,0,0,0,0,0,0,0,0,0,0,0,0,0,0,0,0,0,0,0,0,0,0,0,0,0,0,0,0,0,0,0,0,0,
0,0,0,0,0,0,0,0,0,0,0,0,0,0,0,0,0,0,0,0,0,0,0,0,0,0,0,0,0,0,0,0,0,0,0,0,0,0,0,0,0,0,0,0,0,0,0,0,0,0,
0,0,0,0,0,0,0,0,0,0,0,0,0,0,0,0,0,0,0,0,0,0,0,0,0,0,0,0,0,0,0,0,0,0,0,0,0,0,0,0,0,0,0,0,0,0,0,0,0,0,
0,0,0,0,0,0,0,0,0,0,0,0,0,0,0,0,0,0,0,0,0,0,0,0,0,0,0,0,0,0,0,0,0,0,0,0,0,0,0,0,0,0,0,0,0,0,0,0,0,0,
0,0,0,0,0,0,0,0,0,0,0,0,0,0,0,0,0,0,0,0,0,0,0,0,0,0,0,0,0,0,0,0,0,0,0,0,0,0,0,0,0,0,0,0,0,0,0,0,0,0,
0,0,0,0,0,0,0,0,0,0,0,0,0,0,0,0,0,0,0,0,0,0,0,0,0,0,0,0,0,0,0,0,0,0,0,0,0,0,0,0,0,0,0,0,0,0,0,0,0,0,
0,0,0,0,0,0,0,0,0,0,0,0,0,0,0,0,0,0,0,0,0,0,0,0,0,0,0,0,0,0,0,0,0,0,0,0,0,0,0,0,0,0,0,0,0,0,0,0,0,0,
0,0,0,0,0,0,0,0,0,0,0,0,0,0,0,0,0,0,0,0,0,0,0,0,0,0,0,0,0,0,0,0,0,0,0,0,0,0,0,0,0,0,0,0,0,0,0,0,0,0,
0,0,0,0,0,0,0,0,0,0,0,0,0,0,0,0,0,0,0,0,0,0,0,0,0,0,0,0,0,0,0,0,0,0,0,0,0,0,0,0,0,0,0,0,0,0,0,0,0,0,
0,0,0,0,0,0,0,0,0,0,0,0,0,0,0,0,0,0,0,0,0,0,0,0,0,0,0,0,0,0,0,0,0,0,0,0,0,0,0,0,0,0,0,0,0,0,0,0,0,0,
0,0,0,0,0,0,0,0,0,0,0,0,0,0,0,0,0,0,0,0,0,0,0,0,0,0,0,0,0,0,0,0,0,0,0,0,0,0,0,0,0,0,0,0,0,0,0,0,0,0,
0,0,0,0,0,0,0,0,0,0,0,0,0,0,0,0,0,0,0,0,0,0,0,0,0,0,0,0,0,0,0,0,0,0,0,0,0,0,0,0,0,0,0,0,0,0,0,0,0,0,
0,0,0,0,0,0,0,0,0,0,0,0,0,0,0,0,0,0,0,0,0,0,0,0,0,0,0,0,0,0,0,0,0,0,0,0,0,0,0,0,0,0,0,0,0,0,0,0,0,0,
0,0,0,0,0,0,0,0,0,0,0,0,0,0,0,0,0,0,0,0,0,0,0,0,0,0,0,0,0,0,0,0,0,0,0,0,0,0,0,0,0,0,0,0,0,0,0,0,0,0,
0,0,0,0,0,0,0,0,0,0,0,0,0,0,0,0,0,0,0,0,0,0,0,0,0,0,0,0,0,0,0,0,0,0,0,0,0,0,0,0,0,0,0,0,0,0,0,0,0,0,
0,0,0,0,0,0,0,0,0,0,0,0,0,0,0,0,0,0,0,0,0,0,0,0,0,0,0,0,0,0,0,0,0,0,0,0,0,0,0,0,0,0,0,0,0,0,0,0,0,0,
0,0,0,0,0,0,0,0,0,0,0,0,0,0,0,0,0,0,0,0,0,0,0,0,0,0,0,0,0,0,0,0,0,0,0,0,0,0,0,0,0,0,0,0,0,0,0,0,0,0,
0,0,0,0,0,0,0,0,0,0,0,0,0,0,0,0,0,0,0,0,0,0,0,0,0,0,0,0,0,0,0,0,0,0,0,0,0,0,0,0,0,0,0,0,0,0,0,0,0,0,
0,0,0,0,0,0,0,0,0,0,0,0,0,0,0,0,0,0,0,0,0,0,0,0,0,0,0,0,0,0,0,0,0,0,0,0,0,0,0,0,0,0,0,0,0,0,0,0,0,0,
0,0,0,0,0,0,0,0,0,0,0,0,0,0,0,0,0,0,0,0,0,0,0,0,0,0,0,0,0,0,0,0,0,0,0,0,0,0,0,0,0,0,0,0,0,0,0,0,0,0,
0,0,0,0,0,0,0,0,0,0,0,0,0,0,0,0,0,0,0,0,0,0,0,0,0,0,0,0,0,0,0,0,0,0,0,0,0,0,0,0,0,0,0,0,0,0,0,0,0,0,
0,0,0,0,0,0,0,0,0,0,0,0,0,0,0,0,0,0,0,0,0,0,0,0,0,0,0,0,0,0,0,0,0,0,0,0,0,0,0,0,0,0,0,0,0,0,0,0,0,0,
0,0,0,0,0,0,0,0,0,0,0,0,0,0,0,0,0,0,0,0,0,0,0,0,0,0,0,0,0,0,0,0,0,0,0,0,0,0,0,0,0,0,0,0,0,0,0,0,0,0,
0,0,0,0,0,0,0,0,0,0,0,0,0,0,0,0,0,0,0,0,0,0,0,0,0,0,0,0,0,0,0,0,0,0,0,0,0,0,0,0,0,0,0,0,0,0,0,0,0,0,
0,0,0,0,0,0,0,0,0,0,0,0,0,0,0,0,0,0,0,0,0,0,0,0,0,0,0,0,0,0,0,0,0,0,0,0,0,0,0,0,0,0,0,0,0,0,0,0,0,0,
0,0,0,0,0,0,0,0,0,0,0,0,0,0,0,0,0,0,0,0,0,0,0,0,0,0,0,0,0,0,0,0,0,0,0,0,0,0,0,0,0,0,0,0,0,0,0,0,0,0,
0,0,0,0,0,0,0,0,0,0,0,0,0,0,0,0,0,0,0,0,0,0,0,0,0,0,0,0,0,0,0,0,0,0,0,0,0,0,0,0,0,0,0,0,0,0,0,0,0,0,
0,0,0,0,0,0,0,0,0,0,0,0,0,0,0,0,0,0,0,0,0,0,0,0,0,0,0,0,0,0,0,0,0,0,0,0,0,0,0,0,0,0,0,0,0,0,0,0,0,0,
0,0,0,0,0,0,0,0,0,0,0,0,0,0,0,0,0,0,0,0,0,0,0,0,0,0,0,0,0,0,0,0,0,0,0,0,0,0,0,0,0,0,0,0,0,0,0,0,0,0,
0,0,0,0,0,0,0,0,0,0,0,0,0,0,0,0,0,0,0,0,0,0,0,0,0,0,0,0,0,0,0,0,0,0,0,0,0,0,0,0,0,0,0,0,0,0,0,0,0,0,
0,0,0,0,0,0,0,0,0,0,0,0,0,0,0,0,0,0,0,0,0,0,0,0,0,0,0,0,0,0,0,0,0,0,0,0,0,0,0,0,0,0,0,0,0,0,0,0,0,0
</data>
 </layer>
 <layer id="3" name="edifici" width="50" height="75">
  <data encoding="csv">
0,533,0,0,533,0,0,533,0,0,533,0,0,793,796,796,796,796,796,796,796,796,796,796,9265,9267,798,798,798,798,798,798,798,798,798,798,795,0,533,0,0,533,0,0,533,0,0,533,0,0,
540,541,542,540,541,542,540,541,542,540,541,542,0,793,796,796,796,796,796,796,796,796,796,796,9273,9275,798,798,798,798,798,798,798,798,798,798,795,540,541,542,540,541,542,540,541,542,540,541,542,0,
548,549,550,548,549,550,548,549,550,548,549,550,0,793,796,796,796,796,796,796,796,796,796,796,9273,9275,798,798,798,798,798,798,798,798,798,798,795,548,549,550,548,549,550,548,549,550,548,549,550,0,
556,557,558,556,557,558,556,557,558,556,557,558,0,793,796,796,796,796,796,796,796,796,796,796,9273,9275,798,798,798,798,798,798,798,798,798,798,795,556,557,558,556,557,558,556,557,558,556,557,558,0,
0,533,0,0,533,0,0,533,0,0,533,0,0,793,796,796,796,796,796,796,796,796,796,796,9273,9275,798,798,798,798,798,798,798,798,798,798,795,0,533,0,0,533,0,0,533,0,0,533,0,0,
540,541,542,540,541,542,540,541,542,540,541,542,0,793,796,796,796,796,796,796,796,796,796,796,9273,9275,798,798,798,798,798,798,798,798,798,798,795,540,541,542,540,541,542,540,541,542,540,541,542,0,
548,549,550,548,549,550,548,549,550,548,549,550,0,793,796,796,796,796,796,796,796,796,796,796,9273,9275,798,798,798,798,798,798,798,798,798,798,795,548,549,550,548,549,550,548,549,550,548,549,550,0,
556,557,558,556,557,558,556,557,558,556,557,558,0,793,796,796,796,796,796,796,796,796,796,796,9273,9275,798,798,798,798,798,798,798,798,798,798,795,556,557,558,556,557,558,556,557,558,556,557,558,0,
0,533,0,0,533,0,0,533,0,0,533,0,0,793,796,796,796,796,796,796,796,796,796,796,9273,9275,798,798,798,798,798,798,798,798,798,798,795,0,533,0,0,533,0,0,533,0,0,533,0,0,
540,541,542,540,541,542,540,541,542,540,541,542,0,793,796,796,796,796,796,796,796,796,796,796,9273,9275,798,798,798,798,798,798,798,798,798,798,795,540,541,542,540,541,542,540,541,542,540,541,542,0,
548,549,550,548,549,550,548,549,550,548,549,550,0,793,796,796,796,796,796,796,796,796,796,796,9273,9275,798,798,798,798,798,798,798,798,798,798,795,548,549,550,548,549,550,548,549,550,548,549,550,0,
556,557,558,556,557,558,556,557,558,556,557,558,0,793,796,796,796,796,796,796,796,796,796,796,9273,9275,798,798,798,798,798,798,798,798,798,798,795,556,557,558,556,557,558,556,557,558,556,557,558,0,
0,533,0,0,533,0,0,533,0,0,533,0,0,793,796,796,796,796,796,796,796,796,796,796,9273,9275,798,798,798,798,798,798,798,798,798,798,795,0,533,0,0,533,0,0,533,0,0,533,0,0,
540,541,542,540,541,542,540,541,542,540,541,542,0,793,796,796,796,796,796,796,796,796,796,796,9273,9275,798,798,798,798,798,798,798,798,798,798,795,540,541,542,540,541,542,540,541,542,540,541,542,0,
548,549,550,548,549,550,548,549,550,548,549,550,0,793,796,796,796,796,796,796,796,796,796,796,9273,9275,798,798,798,798,798,798,798,798,798,798,795,548,549,550,548,549,550,548,549,550,548,549,550,0,
556,557,558,556,557,558,556,557,558,556,557,558,0,793,796,796,796,796,796,796,796,796,796,796,9273,9275,798,798,798,798,798,798,798,798,798,798,795,556,557,558,556,557,558,556,557,558,556,557,558,0,
540,541,542,540,541,542,540,541,542,540,541,542,0,793,796,796,796,796,796,796,796,796,796,796,9273,9275,798,798,798,798,798,798,798,798,798,798,795,540,541,542,0,0,533,0,0,533,0,0,533,0,
548,549,550,548,549,550,548,549,550,548,549,550,0,793,796,796,796,796,796,796,796,796,796,796,9273,9275,798,798,798,798,798,798,798,798,798,798,795,548,549,550,0,540,541,542,540,541,542,540,541,542,
556,557,558,556,557,558,556,557,558,556,557,558,0,793,796,796,796,796,796,796,796,796,796,796,9273,9275,798,798,798,798,798,798,798,798,798,798,795,556,557,558,0,548,549,550,548,549,550,548,549,550,
0,533,0,0,533,0,0,533,0,0,533,0,0,793,796,796,796,796,796,796,796,796,796,796,9273,9275,798,798,798,798,798,798,798,798,798,798,795,0,533,0,0,556,557,558,556,557,558,556,557,558,
540,541,542,540,541,542,540,541,542,540,541,542,0,793,796,796,796,796,796,796,796,796,796,796,9273,9275,798,798,798,798,798,798,798,798,798,798,795,540,541,542,0,0,533,0,0,533,0,0,533,0,
548,549,550,548,549,550,548,549,550,548,549,550,0,793,796,796,796,796,796,796,796,796,796,796,9281,9283,798,798,798,798,798,798,798,798,798,798,795,548,549,550,0,540,541,542,540,541,542,540,541,542,
556,557,558,556,557,558,556,557,558,556,557,558,524,793,796,796,796,796,796,796,796,796,796,804,805,805,806,798,798,798,798,798,798,798,798,798,795,556,557,558,0,548,549,550,548,549,550,548,549,550,
0,533,0,0,533,0,0,533,0,0,533,524,0,793,796,796,796,796,796,796,796,796,804,805,805,805,805,806,798,798,798,798,798,798,798,798,795,0,0,0,0,556,557,558,556,557,558,556,557,558,
540,541,542,540,541,542,540,541,542,540,541,542,0,793,796,796,796,796,796,796,796,804,802,1665,1666,1667,1668,805,806,798,798,798,798,798,798,798,795,0,521,522,523,0,533,0,0,533,0,0,533,0,
548,549,550,548,549,550,548,549,550,548,549,550,0,793,796,796,796,796,796,796,804,802,802,1673,1674,1675,1676,805,805,806,798,798,798,798,798,798,795,0,529,530,531,540,541,542,540,541,542,540,541,542,
556,557,558,556,557,558,556,557,558,556,557,558,0,807,796,796,796,796,796,804,802,802,802,1681,1682,1683,1684,805,805,805,806,798,798,798,798,798,795,0,537,538,539,548,549,550,548,549,550,548,549,550,
0,533,0,0,533,0,0,533,0,0,533,0,0,793,796,796,796,796,804,841,841,841,841,841,841,841,841,841,842,843,805,806,798,798,798,798,795,0,545,546,547,556,557,558,556,557,558,556,557,558,
540,541,542,540,541,542,540,541,542,540,541,542,0,793,796,796,796,804,802,778,802,802,802,802,802,802,802,802,805,805,805,805,806,798,798,798,795,0,553,554,555,0,533,0,0,533,0,0,533,0,
548,549,550,548,549,550,548,549,550,548,549,550,0,793,796,796,804,802,841,841,841,841,841,841,841,841,841,841,841,841,841,841,843,806,798,798,795,0,521,522,523,540,541,542,540,541,542,540,541,542,
556,557,558,556,557,558,556,557,558,556,557,558,0,793,796,804,802,802,802,802,802,805,2745,2746,2747,2748,2749,2750,2751,0,805,805,778,805,806,798,795,0,529,530,531,548,549,550,548,549,550,548,549,550,
0,533,0,0,533,0,0,533,0,0,533,0,0,793,804,802,802,802,802,802,802,806,2753,2754,2755,2756,2757,2758,2759,804,805,841,841,805,805,806,795,0,537,538,539,556,557,558,556,557,558,556,557,558,
540,541,542,540,541,542,540,541,542,540,541,542,0,801,802,802,802,802,802,802,802,803,2761,2762,2763,2764,2765,2766,2767,801,805,778,805,805,805,805,803,0,545,546,547,0,533,0,0,533,0,0,533,0,
548,549,550,548,549,550,548,549,550,548,549,550,0,0,0,0,0,0,0,0,0,0,2769,2770,2771,2772,2773,2774,2775,0,0,0,0,0,0,0,0,0,553,554,555,540,541,542,540,541,542,540,541,542,
556,557,558,556,557,558,556,557,558,556,557,558,0,0,0,0,0,0,0,0,0,0,2777,2778,2779,2780,2781,2782,2783,0,0,0,0,0,0,0,0,0,521,522,523,548,549,550,548,549,550,548,549,550,
0,533,0,0,533,0,0,533,0,0,533,0,0,0,0,0,2609,2610,2611,2612,2613,0,2785,2786,2787,2788,2789,2790,2791,0,0,0,0,0,0,0,0,0,529,530,531,556,557,558,556,557,558,556,557,558,
540,541,542,540,541,542,540,541,542,540,541,542,0,0,0,0,2617,2618,2619,2620,2621,0,0,0,0,0,0,0,0,0,0,0,0,2649,2650,2651,2652,0,537,538,539,0,533,0,0,533,0,0,533,0,
548,549,550,548,549,550,548,549,550,548,549,550,0,0,0,0,2625,2626,2627,2628,2629,0,0,0,0,0,0,0,0,0,0,0,0,2657,2658,2659,2660,0,545,546,547,540,541,542,540,541,542,540,541,542,
556,557,558,556,557,558,556,557,558,556,557,558,0,0,0,0,2633,2634,2635,2636,2637,0,0,0,0,0,0,0,0,0,0,0,0,2665,2666,2667,2668,0,553,554,555,548,549,550,548,549,550,548,549,550,
0,533,0,0,533,0,0,533,0,0,533,0,0,0,0,0,2641,2642,2643,2644,2645,0,0,0,0,0,0,0,0,0,0,0,0,2673,2674,2675,2676,0,521,522,523,556,557,558,556,557,558,556,557,558,
540,541,542,540,541,542,540,541,542,540,541,542,0,0,0,0,0,0,0,0,0,0,0,0,0,0,0,0,0,0,0,0,0,0,0,0,0,0,529,530,531,0,533,0,0,533,0,0,533,0,
548,549,550,548,549,550,548,549,550,548,549,550,0,0,0,0,0,0,0,0,0,0,0,0,0,0,0,0,0,0,0,0,0,0,0,0,0,0,537,538,539,540,541,542,540,541,542,540,541,542,
556,557,558,556,557,558,556,557,558,556,557,558,0,0,0,0,0,0,0,0,0,0,0,0,0,0,0,0,0,0,0,0,0,0,0,0,0,0,545,546,547,548,549,550,548,549,550,548,549,550,
0,533,0,0,533,0,0,533,0,0,533,0,0,0,0,0,0,0,0,0,0,0,0,0,0,0,0,0,0,0,0,0,0,0,0,0,0,0,553,554,555,556,557,558,556,557,558,556,557,558,
540,541,542,540,541,542,540,541,542,540,541,542,1337,1338,1339,1340,1341,0,0,0,0,0,0,0,0,0,0,0,0,0,0,0,0,0,1336,1337,1338,1339,1340,1341,0,0,533,0,0,533,0,0,533,0,
548,549,550,548,549,550,548,549,550,548,549,550,1345,1346,1347,1348,1349,0,0,0,0,0,0,0,0,0,0,0,0,0,0,0,0,0,0,1345,1346,1347,1348,1349,0,540,541,542,540,541,542,540,541,542,
556,557,558,556,557,558,556,557,558,556,557,558,1353,1354,1355,1356,1357,0,0,0,0,0,0,0,0,0,0,0,0,0,0,0,0,0,1352,1353,1354,1355,1356,1357,0,548,549,550,548,549,550,548,549,550,
0,533,0,0,533,0,0,533,0,0,533,0,1361,1362,1363,1364,1365,0,0,0,0,0,0,0,0,0,0,0,0,0,0,0,0,0,1360,1361,1362,1363,1364,1365,0,556,557,558,556,557,558,556,557,558,
540,541,542,540,541,542,540,541,542,540,541,542,0,0,0,0,0,954,0,0,0,0,0,0,0,0,0,0,0,0,0,0,0,0,0,0,0,0,0,0,0,0,533,0,0,533,0,0,533,0,
548,549,550,548,549,550,548,549,550,548,549,550,0,0,0,0,0,0,0,0,0,0,0,0,0,0,0,0,0,0,0,0,0,0,0,0,0,0,0,0,0,540,541,542,540,541,542,540,541,542,
556,557,558,556,557,558,556,557,558,556,557,558,0,0,0,0,0,0,0,0,0,0,0,0,0,0,0,0,785,788,849,850,850,850,850,850,850,850,851,790,787,548,549,550,548,549,550,548,549,550,
0,533,0,0,533,0,0,533,0,0,533,0,0,0,0,0,0,0,0,0,0,0,0,0,0,0,0,0,793,796,788,789,789,789,789,789,789,789,790,798,795,556,557,558,556,557,558,556,557,558,
540,541,542,540,541,542,540,541,542,540,541,542,0,0,0,0,0,0,0,0,0,0,0,0,0,0,0,0,793,796,804,805,805,805,805,805,805,805,806,798,795,0,0,0,0,0,0,0,0,0,
548,549,550,548,549,550,548,549,550,548,549,550,0,0,0,0,0,0,0,0,0,0,0,0,0,0,0,0,793,804,805,805,805,805,805,805,805,805,805,806,795,0,0,0,0,0,0,0,0,0,
556,557,558,556,557,558,556,557,558,556,557,558,0,0,0,0,0,0,0,0,0,0,0,0,0,0,0,0,793,930,930,930,930,930,930,930,930,930,930,930,795,0,0,0,0,0,0,0,0,0,
0,533,0,0,533,0,0,533,0,0,533,0,0,533,0,0,533,0,0,533,0,0,533,0,0,0,0,0,801,802,802,802,802,802,802,802,802,802,802,802,803,0,533,0,0,533,0,0,533,0,
540,541,542,540,541,542,540,541,542,540,541,542,540,541,542,540,541,542,540,541,542,540,541,542,12235,12236,12237,0,540,541,542,540,541,542,540,541,542,540,541,542,0,540,541,542,540,541,542,540,541,542,
548,549,550,548,549,550,548,549,550,548,549,550,548,549,550,548,549,550,548,549,550,548,549,550,12251,12252,12253,0,548,549,550,548,549,550,548,549,550,548,549,550,0,548,549,550,548,549,550,548,549,550,
556,557,558,556,557,558,556,557,558,556,557,558,556,557,558,556,557,558,556,557,558,556,557,558,12259,12260,12261,0,556,557,558,556,557,558,556,557,558,556,557,558,0,556,557,558,556,557,558,556,557,558,
0,533,0,0,533,0,0,533,0,0,533,0,0,533,0,0,533,0,0,533,0,0,533,0,12329,12330,12331,0,0,0,533,0,0,533,0,0,533,0,0,533,0,0,533,0,0,533,0,0,533,0,
540,541,542,540,541,542,540,541,542,540,541,542,540,541,542,540,541,542,540,541,542,540,541,542,12337,12338,12339,10303,10303,540,541,542,540,541,542,540,541,542,540,541,542,540,541,542,540,541,542,540,541,542,
548,549,550,548,549,550,548,549,550,548,549,550,548,549,550,548,549,550,548,549,550,548,549,550,0,0,0,10311,10311,548,549,550,548,549,550,548,549,550,548,549,550,548,549,550,548,549,550,548,549,550,
556,557,558,556,557,558,556,557,558,556,557,558,556,557,558,556,557,558,556,557,558,556,557,558,0,0,0,0,0,556,557,558,556,557,558,556,557,558,556,557,558,556,557,558,556,557,558,556,557,558,
0,533,0,0,533,0,0,533,0,0,533,0,0,533,0,0,533,0,0,533,0,0,533,0,0,0,0,533,0,0,533,0,0,533,0,0,533,0,0,533,0,0,533,0,0,533,0,0,533,0,
540,541,542,540,541,542,540,541,542,540,541,542,540,541,542,540,541,542,540,541,542,540,541,542,0,0,540,541,542,540,541,542,540,541,542,540,541,542,540,541,542,540,541,542,540,541,542,540,541,542,
548,549,550,548,549,550,548,549,550,548,549,550,548,549,550,548,549,550,548,549,550,548,549,550,0,0,548,549,550,548,549,550,548,549,550,548,549,550,548,549,550,548,549,550,548,549,550,548,549,550,
556,557,558,556,557,558,556,557,558,556,557,558,556,557,558,556,557,558,556,557,558,556,557,558,0,0,556,557,558,556,557,558,556,557,558,556,557,558,556,557,558,556,557,558,556,557,558,556,557,558,
0,533,0,0,533,0,0,533,0,0,533,0,0,533,0,0,533,0,0,533,0,0,533,0,0,0,0,533,0,0,533,0,0,533,0,0,533,0,0,533,0,0,533,0,0,533,0,0,533,0,
540,541,542,540,541,542,540,541,542,540,541,542,540,541,542,540,541,542,540,541,542,540,541,542,0,0,540,541,542,540,541,542,540,541,542,540,541,542,540,541,542,540,541,542,540,541,542,540,541,542,
548,549,550,548,549,550,548,549,550,548,549,550,548,549,550,548,549,550,548,549,550,548,549,550,0,0,548,549,550,548,549,550,548,549,550,548,549,550,548,549,550,548,549,550,548,549,550,548,549,550,
556,557,558,556,557,558,556,557,558,556,557,558,556,557,558,556,557,558,556,557,558,556,557,558,0,0,556,557,558,556,557,558,556,557,558,556,557,558,556,557,558,556,557,558,556,557,558,556,557,558,
0,533,0,0,533,0,0,533,0,0,533,0,0,533,0,0,533,0,0,533,0,0,533,0,0,0,0,533,0,0,533,0,0,533,0,0,533,0,0,533,0,0,533,0,0,533,0,0,533,0,
540,541,542,540,541,542,540,541,542,540,541,542,540,541,542,540,541,542,540,541,542,540,541,542,0,0,540,541,542,540,541,542,540,541,542,540,541,542,540,541,542,540,541,542,540,541,542,540,541,542,
548,549,550,548,549,550,548,549,550,548,549,550,548,549,550,548,549,550,548,549,550,548,549,550,0,0,548,549,550,548,549,550,548,549,550,548,549,550,548,549,550,548,549,550,548,549,550,548,549,550,
556,557,558,556,557,558,556,557,558,556,557,558,556,557,558,556,557,558,556,557,558,556,557,558,0,0,556,557,558,556,557,558,556,557,558,556,557,558,556,557,558,556,557,558,556,557,558,556,557,558
</data>
 </layer>
 <layer id="4" name="sopra_testa" width="50" height="75">
  <data encoding="csv">
0,0,0,0,0,0,0,0,0,0,0,0,0,0,0,0,0,0,0,0,0,0,0,0,0,0,0,0,0,0,0,0,0,0,0,0,0,0,0,0,0,0,0,0,0,0,0,0,0,0,
0,0,0,0,0,0,0,0,0,0,0,0,0,0,0,0,0,0,0,0,0,0,0,0,0,0,0,0,0,0,0,0,0,0,0,0,0,0,0,0,0,0,0,0,0,0,0,0,0,0,
0,0,0,0,0,0,0,0,0,0,0,0,0,0,0,0,0,0,0,0,0,0,0,0,0,0,0,0,0,0,0,0,0,0,0,0,0,0,0,0,0,0,0,0,0,0,0,0,0,0,
0,0,0,0,0,0,0,0,0,0,0,0,0,0,0,0,0,0,0,0,0,0,0,0,0,0,0,0,0,0,0,0,0,0,0,0,0,0,0,0,0,0,0,0,0,0,0,0,0,0,
0,0,0,0,0,0,0,0,0,0,0,0,0,0,0,0,0,0,0,0,0,0,0,0,0,0,0,0,0,0,0,0,0,0,0,0,0,0,0,0,0,0,0,0,0,0,0,0,0,0,
0,0,0,0,0,0,0,0,0,0,0,0,0,0,0,0,0,0,0,0,0,0,0,0,0,0,0,0,0,0,0,0,0,0,0,0,0,0,0,0,0,0,0,0,0,0,0,0,0,0,
0,0,0,0,0,0,0,0,0,0,0,0,0,0,0,0,0,0,0,0,0,0,0,0,0,0,0,0,0,0,0,0,0,0,0,0,0,0,0,0,0,0,0,0,0,0,0,0,0,0,
0,0,0,0,0,0,0,0,0,0,0,0,0,0,0,0,0,0,0,0,0,0,0,0,0,0,0,0,0,0,0,0,0,0,0,0,0,0,0,0,0,0,0,0,0,0,0,0,0,0,
0,0,0,0,0,0,0,0,0,0,0,0,0,0,0,0,0,0,0,0,0,0,0,0,0,0,0,0,0,0,0,0,0,0,0,0,0,0,0,0,0,0,0,0,0,0,0,0,0,0,
0,0,0,0,0,0,0,0,0,0,0,0,0,0,0,0,0,0,0,0,0,0,0,0,0,0,0,0,0,0,0,0,0,0,0,0,0,0,0,0,0,0,0,0,0,0,0,0,0,0,
0,0,0,0,0,0,0,0,0,0,0,0,0,0,0,0,0,0,0,0,0,0,0,0,0,0,0,0,0,0,0,0,0,0,0,0,0,0,0,0,0,0,0,0,0,0,0,0,0,0,
0,0,0,0,0,0,0,0,0,0,0,0,0,0,0,0,0,0,0,0,0,0,0,0,0,0,0,0,0,0,0,0,0,0,0,0,0,0,0,0,0,0,0,0,0,0,0,0,0,0,
0,0,0,0,0,0,0,0,0,0,0,0,0,0,0,0,0,0,0,0,0,0,0,0,0,0,0,0,0,0,0,0,0,0,0,0,0,0,0,0,0,0,0,0,0,0,0,0,0,0,
0,0,0,0,0,0,0,0,0,0,0,0,0,0,0,0,0,0,0,0,0,0,0,0,0,0,0,0,0,0,0,0,0,0,0,0,0,0,0,0,0,0,0,0,0,0,0,0,0,0,
0,0,0,0,0,0,0,0,0,0,0,0,0,0,0,0,0,0,0,0,0,0,0,0,0,0,0,0,0,0,0,0,0,0,0,0,0,0,0,0,0,0,0,0,0,0,0,0,0,0,
0,533,0,0,533,0,0,533,0,0,533,0,0,0,0,0,0,0,0,0,0,0,0,0,0,0,0,0,0,0,0,0,0,0,0,0,0,0,533,0,0,0,0,0,0,0,0,0,0,0,
0,0,0,0,0,0,0,0,0,0,0,0,0,0,0,0,0,0,0,0,0,0,0,0,0,0,0,0,0,0,0,0,0,0,0,0,0,0,0,0,0,0,0,0,0,0,0,0,0,0,
0,0,0,0,0,0,0,0,0,0,0,0,0,0,0,0,0,0,0,0,0,0,0,0,0,0,0,0,0,0,0,0,0,0,0,0,0,0,0,0,0,0,0,0,0,0,0,0,0,0,
0,0,0,0,0,0,0,0,0,0,0,0,0,0,0,0,0,0,0,0,0,0,0,0,0,0,0,0,0,0,0,0,0,0,0,0,0,0,0,0,0,0,0,0,0,0,0,0,0,0,
0,0,0,0,0,0,0,0,0,0,0,0,0,0,0,0,0,0,0,0,0,0,0,0,0,0,0,0,0,0,0,0,0,0,0,0,0,0,0,0,0,0,0,0,0,0,0,0,0,0,
0,0,0,0,0,0,0,0,0,0,0,0,0,0,0,0,0,0,0,0,0,0,0,0,0,0,0,0,0,0,0,0,0,0,0,0,0,0,0,0,0,0,0,0,0,0,0,0,0,0,
0,0,0,0,0,0,0,0,0,0,0,0,0,0,0,0,0,0,0,0,0,0,0,0,0,0,0,0,0,0,0,0,0,0,0,0,0,0,0,0,0,0,0,0,0,0,0,0,0,0,
0,0,0,0,0,0,0,0,0,0,0,0,0,0,0,0,0,0,0,0,0,0,0,0,0,0,0,0,0,0,0,0,0,0,0,0,0,0,0,0,0,0,0,0,0,0,0,0,0,0,
0,0,0,0,0,0,0,0,0,0,0,0,0,0,0,0,0,0,0,0,0,0,0,0,0,0,0,0,0,0,0,0,0,0,0,0,0,0,0,0,0,0,0,0,0,0,0,0,0,0,
0,0,0,0,0,0,0,0,0,0,0,0,0,0,0,0,0,0,0,0,0,0,0,0,0,0,0,0,0,0,0,0,0,0,0,0,0,0,0,0,0,0,0,0,0,0,0,0,0,0,
0,0,0,0,0,0,0,0,0,0,0,0,0,0,0,0,0,0,0,0,0,0,0,0,0,0,0,0,0,0,0,0,0,0,0,0,0,0,0,0,0,0,0,0,0,0,0,0,0,0,
0,0,0,0,0,0,0,0,0,0,0,0,0,0,0,0,0,0,0,0,0,0,0,0,0,0,0,0,0,0,0,0,0,0,0,0,0,0,0,0,0,0,0,0,0,0,0,0,0,0,
0,0,0,0,0,0,0,0,0,0,0,0,0,0,0,0,0,0,0,0,0,0,0,0,0,0,0,0,0,0,0,0,0,0,0,0,0,0,0,0,0,0,0,0,0,0,0,0,0,0,
0,0,0,0,0,0,0,0,0,0,0,0,0,0,0,0,0,0,0,0,0,0,0,0,0,0,0,0,0,0,0,0,0,0,0,0,0,0,0,514,0,0,0,0,0,0,0,0,0,0,
0,0,0,0,0,0,0,0,0,0,0,0,0,0,0,0,0,0,949,0,0,0,0,0,0,0,0,0,0,0,0,0,0,0,0,0,0,0,0,0,0,0,0,0,0,0,0,0,0,0,
0,0,0,0,0,0,0,0,0,0,0,0,0,0,0,0,0,0,0,0,0,0,0,0,0,0,0,0,0,0,0,0,0,0,0,0,0,0,0,0,0,0,0,0,0,0,0,0,0,0,
0,0,0,0,0,0,0,0,0,0,0,0,0,0,0,0,0,0,0,0,0,0,0,0,0,0,0,0,0,0,0,0,0,0,0,0,0,0,0,0,0,0,0,0,0,0,0,0,0,0,
0,0,0,0,0,0,0,0,0,0,0,0,0,0,0,0,0,0,0,0,0,0,0,0,0,0,0,0,0,0,0,0,0,0,0,0,0,0,0,0,0,0,0,0,0,0,0,0,0,0,
0,0,0,0,0,0,0,0,0,0,0,0,0,0,0,0,0,0,0,0,0,0,0,0,0,0,0,0,0,0,0,0,0,0,0,0,0,0,0,514,0,0,0,0,0,0,0,0,0,0,
0,0,0,0,0,0,0,0,0,0,0,0,0,0,0,0,0,0,0,0,0,0,0,0,0,0,0,0,0,0,0,0,0,0,0,0,0,0,0,0,0,0,0,0,0,0,0,0,0,0,
0,0,0,0,0,0,0,0,0,0,0,0,0,0,0,0,0,0,0,0,0,0,0,0,0,0,0,0,0,0,0,0,0,0,0,0,0,0,0,0,0,0,0,0,0,0,0,0,0,0,
0,0,0,0,0,0,0,0,0,0,0,0,0,0,0,0,0,0,0,0,0,0,0,0,0,0,0,0,0,0,0,0,0,0,0,0,0,0,0,0,0,0,0,0,0,0,0,0,0,0,
0,0,0,0,0,0,0,0,0,0,0,0,0,0,0,0,0,0,0,0,0,0,0,0,0,0,0,0,0,0,0,0,0,0,0,0,0,0,0,0,0,0,0,0,0,0,0,0,0,0,
0,0,0,0,0,0,0,0,0,0,0,0,0,0,0,0,0,0,0,0,0,0,0,0,0,0,0,0,0,0,0,0,0,0,0,0,0,0,0,514,0,0,0,0,0,0,0,0,0,0,
0,0,0,0,0,0,0,0,0,0,0,0,0,0,0,0,0,0,0,0,0,0,0,0,0,0,0,0,0,0,0,0,0,0,0,0,0,0,0,0,0,0,0,0,0,0,0,0,0,0,
0,0,0,0,0,0,0,0,0,0,0,0,0,0,0,0,0,0,0,0,0,0,0,0,0,0,0,0,0,0,0,0,0,0,0,0,0,0,0,0,0,0,0,0,0,0,0,0,0,0,
0,0,0,0,0,0,0,0,0,0,0,0,0,0,0,0,0,0,0,0,0,0,0,0,0,0,0,0,0,0,0,0,0,0,0,0,0,0,0,0,0,0,0,0,0,0,0,0,0,0,
0,0,0,0,0,0,0,0,0,0,0,0,0,0,0,0,0,0,0,0,0,0,0,0,0,0,0,0,0,0,0,0,0,0,0,0,0,0,0,0,0,0,0,0,0,0,0,0,0,0,
0,0,0,0,0,0,0,0,0,0,0,0,0,0,0,0,0,0,0,0,0,0,0,0,0,0,0,0,0,0,0,0,0,0,0,0,0,0,0,0,0,0,0,0,0,0,0,0,0,0,
0,0,0,0,0,0,0,0,0,0,0,0,0,0,0,0,0,0,0,0,0,0,0,0,0,0,0,0,0,0,0,0,0,0,0,0,0,0,0,0,0,0,0,0,0,0,0,0,0,0,
0,0,0,0,0,0,0,0,0,0,0,0,0,0,0,0,0,0,0,0,0,0,0,0,0,0,0,0,0,0,0,0,0,0,0,0,0,0,0,0,0,0,0,0,0,0,0,0,0,0,
0,0,0,0,0,0,0,0,0,0,0,0,0,0,0,0,0,0,0,0,0,0,0,0,0,0,0,0,0,0,0,0,0,0,0,0,0,0,0,0,0,0,0,0,0,0,0,0,0,0,
0,0,0,0,0,0,0,0,0,0,0,0,0,0,0,0,0,0,0,0,0,0,0,0,0,0,0,0,0,0,0,0,0,0,0,0,0,0,0,0,0,0,0,0,0,0,0,0,0,0,
0,0,0,0,0,0,0,0,0,0,0,0,0,0,0,0,0,0,0,0,0,0,0,0,0,0,0,0,0,0,0,0,0,0,0,0,0,0,0,0,0,0,0,0,0,0,0,0,0,0,
0,0,0,0,0,0,0,0,0,0,0,0,0,0,0,0,0,0,0,0,0,0,0,0,0,0,0,0,0,0,0,0,0,0,0,0,0,0,0,0,0,0,0,0,0,0,0,0,0,0,
0,0,0,0,0,0,0,0,0,0,0,0,0,0,0,0,0,0,0,0,0,0,0,0,0,0,0,0,0,0,13353,13353,13353,13353,13353,13353,13353,13353,13353,0,0,0,0,0,0,0,0,0,0,0,
0,0,0,0,0,0,0,0,0,0,0,0,0,0,0,0,0,0,0,0,0,0,0,0,0,0,0,0,0,0,0,0,0,0,0,0,0,0,0,0,0,0,0,0,0,0,0,0,0,0,
0,0,0,0,0,0,0,0,0,0,0,0,0,0,0,0,0,0,0,0,0,0,524,0,0,0,0,0,0,0,0,0,0,0,0,0,0,0,0,0,0,0,0,0,0,0,0,0,0,0,
0,0,0,0,0,0,0,0,0,0,0,0,0,0,0,0,0,0,0,0,0,0,524,0,0,0,0,0,0,0,0,0,0,0,0,0,0,0,0,0,0,0,0,0,0,0,0,0,0,0,
0,0,0,0,0,0,0,0,0,0,0,0,0,0,0,0,0,0,0,0,0,0,524,0,0,0,0,0,0,13353,13353,13353,13353,13353,13353,13353,13353,13353,13353,13353,0,0,0,0,0,0,0,0,0,0,
0,0,0,0,0,0,0,0,0,0,0,0,0,0,0,0,0,0,0,533,0,524,533,0,0,0,0,0,0,533,0,0,533,0,0,533,0,0,533,0,0,0,0,0,0,0,0,0,0,0,
0,0,0,0,0,0,0,0,0,0,0,0,0,0,0,0,0,0,0,0,0,0,0,0,0,0,0,0,0,0,0,0,0,0,0,0,0,0,0,0,0,0,0,0,0,0,0,0,0,0,
0,0,0,0,0,0,0,0,0,0,0,0,0,0,0,0,0,0,0,0,0,0,0,0,0,0,0,0,0,0,0,0,0,0,0,0,0,0,0,0,0,0,0,0,0,0,0,0,0,0,
0,0,0,0,0,0,0,0,0,0,0,0,0,0,0,0,0,0,0,0,0,0,0,0,0,0,0,0,0,0,0,0,0,0,0,0,0,0,0,0,0,0,0,0,0,0,0,0,0,0,
0,0,0,0,0,0,0,0,0,0,0,0,0,0,0,0,0,0,0,0,0,0,0,0,0,0,0,0,0,0,0,0,0,0,0,0,0,0,0,0,0,0,0,0,0,0,0,0,0,0,
0,0,0,0,0,0,0,0,0,0,0,0,0,0,0,0,0,0,0,0,0,0,0,0,0,0,0,0,0,0,0,0,0,0,0,0,0,0,0,0,0,0,0,0,0,0,0,0,0,0,
0,0,0,0,0,0,0,0,0,0,0,0,0,0,0,0,0,0,0,0,0,0,0,0,0,0,0,0,0,0,0,0,0,0,0,0,0,0,0,0,0,0,0,0,0,0,0,0,0,0,
0,0,0,0,0,0,0,0,0,0,0,0,0,0,0,0,0,0,0,0,0,0,0,0,0,0,0,0,0,0,0,0,0,0,0,0,0,0,0,0,0,0,0,0,0,0,0,0,0,0,
0,0,0,0,0,0,0,0,0,0,0,0,0,0,0,0,0,0,0,0,0,0,0,0,0,0,0,0,0,0,0,0,0,0,0,0,0,0,0,0,0,0,0,0,0,0,0,0,0,0,
0,0,0,0,0,0,0,0,0,0,0,0,0,0,0,0,0,0,0,0,0,0,0,0,0,0,0,0,0,0,0,0,0,0,0,0,0,0,0,0,0,0,0,0,0,0,0,0,0,0,
0,0,0,0,0,0,0,0,0,0,0,0,0,0,0,0,0,0,0,0,0,0,0,0,0,0,0,0,0,0,0,0,0,0,0,0,0,0,0,0,0,0,0,0,0,0,0,0,0,0,
0,0,0,0,0,0,0,0,0,0,0,0,0,0,0,0,0,0,0,0,0,0,0,0,0,0,0,0,0,0,0,0,0,0,0,0,0,0,0,0,0,0,0,0,0,0,0,0,0,0,
0,0,0,0,0,0,0,0,0,0,0,0,0,0,0,0,0,0,0,0,0,0,0,0,0,0,0,0,0,0,0,0,0,0,0,0,0,0,0,0,0,0,0,0,0,0,0,0,0,0,
0,0,0,0,0,0,0,0,0,0,0,0,0,0,0,0,0,0,0,0,0,0,0,0,0,0,0,0,0,0,0,0,0,0,0,0,0,0,0,0,0,0,0,0,0,0,0,0,0,0,
0,0,0,0,0,0,0,0,0,0,0,0,0,0,0,0,0,0,0,0,0,0,0,0,0,0,0,0,0,0,0,0,0,0,0,0,0,0,0,0,0,0,0,0,0,0,0,0,0,0,
0,0,0,0,0,0,0,0,0,0,0,0,0,0,0,0,0,0,0,0,0,0,0,0,0,0,0,0,0,0,0,0,0,0,0,0,0,0,0,0,0,0,0,0,0,0,0,0,0,0,
0,0,0,0,0,0,0,0,0,0,0,0,0,0,0,0,0,0,0,0,0,0,0,0,0,0,0,0,0,0,0,0,0,0,0,0,0,0,0,0,0,0,0,0,0,0,0,0,0,0,
0,0,0,0,0,0,0,0,0,0,0,0,0,0,0,0,0,0,0,0,0,0,0,0,0,0,0,0,0,0,0,0,0,0,0,0,0,0,0,0,0,0,0,0,0,0,0,0,0,0,
0,0,0,0,0,0,0,0,0,0,0,0,0,0,0,0,0,0,0,0,0,0,0,0,0,0,0,0,0,0,0,0,0,0,0,0,0,0,0,0,0,0,0,0,0,0,0,0,0,0,
0,0,0,0,0,0,0,0,0,0,0,0,0,0,0,0,0,0,0,0,0,0,0,0,0,0,0,0,0,0,0,0,0,0,0,0,0,0,0,0,0,0,0,0,0,0,0,0,0,0
</data>
 </layer>
 <objectgroup id="20" name="collisioni">
  <object id="1" x="288" y="768" width="96" height="96"/>
  <object id="2" x="128" y="1620" width="96" height="96"/>
  <object id="3" x="425.106" y="768" width="54.8938" height="56.6066"/>
  <object id="7" x="450.969" y="768" width="221.031" height="96"/>
  <object id="9" x="672" y="768" width="96" height="96"/>
  <object id="10" x="706.826" y="1670.88" width="26.3479" height="79.7871"/>
  <object id="11" x="763.604" y="775.993" width="407.151" height="46.3301"/>
  <object id="12" x="912.614" y="1610.36" width="390.594" height="177.07"/>
  <object id="13" x="1062.85" y="802.255" width="111.415" height="250.148"/>
  <object id="14" x="1056" y="1696" width="96" height="96"/>
  <object id="15" x="1222.22" y="770.284" width="96" height="96"/>
  <object id="16" x="1152" y="1696" width="96" height="96"/>
  <object id="17" x="288" y="864" width="96" height="96"/>
  <object id="18" x="1228.56" y="864" width="83.4398" height="96"/>
  <object id="19" x="288" y="960" width="96" height="96"/>
  <object id="20" x="1231.99" y="960" width="80.0143" height="96"/>
  <object id="21" x="288" y="1056" width="96" height="96"/>
  <object id="22" x="1227.99" y="1056" width="84.0107" height="96"/>
  <object id="23" x="288" y="1152" width="96" height="96"/>
  <object id="24" x="1227.99" y="1152" width="84.0107" height="96"/>
  <object id="25" x="288" y="1248" width="96" height="96"/>
  <object id="26" x="1226.85" y="1245.72" width="96" height="141.103"/>
  <object id="27" x="288" y="1344" width="96" height="96"/>
  <object id="30" x="288" y="1536" width="96" height="96"/>
  <object id="31" x="1325.33" y="1529.33" width="96" height="96"/>
  <object id="32" x="289.333" y="1653.33" width="96" height="96"/>
  <object id="33" x="1216" y="1632" width="96" height="96"/>
  <object id="34" x="518.822" y="1151.4" width="135.45" height="88.6066"/>
  <object id="35" x="522.248" y="1242.86" width="47.4434" height="32"/>
  <object id="36" x="607.971" y="1240.58" width="53.7235" height="32"/>
  <object id="38" x="1063.39" y="1159.99" width="117.153" height="90.2908"/>
  <object id="39" x="1057.68" y="1245.15" width="64" height="32"/>
  <object id="40" x="1155.97" y="1244.57" width="22.8653" height="32"/>
  <object id="42" x="682.277" y="973.131" width="301.074" height="77.2168"/>
  <object id="43" x="710.822" y="1062.34" width="86.2944" height="78.8153"/>
  <object id="44" x="802.855" y="1058.34" width="117.124" height="32"/>
  <object id="46" x="384.542" y="1418.28" width="160" height="96"/>
  <object id="47" x="373.124" y="1501.15" width="64" height="32"/>
  <object id="48" x="481.113" y="1502.29" width="57.149" height="32"/>
  <object id="49" x="1110.27" y="1409.71" width="160" height="96"/>
  <object id="50" x="1105.13" y="1499.43" width="64" height="32"/>
  <object id="51" x="1184" y="1504" width="64" height="32"/>
  <object id="60" x="555.304" y="1547.16" width="16.5852" height="17.1561"/>
  <object id="61" x="1332.21" y="799.401"/>
  <object id="62" x="679.647" y="1770.78" width="13.3333" height="14.9296"/>
  <object id="63" x="422.694" y="867.012" width="175.929" height="56.6066"/>
  <object id="64" x="427.261" y="966.922" width="246.723" height="77.7306"/>
  <object id="65" x="423.836" y="908.403" width="138.248" height="77.7306"/>
  <object id="66" x="848.314" y="1102.54" width="65.7413" height="39.4219"/>
  <object id="67" x="1033.29" y="1031.15" width="34.341" height="15.5004"/>
  <object id="68" x="645.923" y="902.98" width="408.293" height="15.5004"/>
  <object id="69" x="870.009" y="837.324" width="154.234" height="15.5004"/>
  <object id="70" x="975.914" y="871.579" width="154.234" height="15.5004"/>
  <object id="79" x="352" y="708" width="68" height="20"/>
  <object id="80" x="357.333" y="714.667" width="1.33333" height="57.3333"/>
  <object id="81" x="424" y="481.333" width="266.667" height="273.333"/>
  <object id="82" x="910.667" y="493.333" width="270.667" height="261.333"/>
  <object id="83" x="693.333" y="326.667" width="210.667" height="418.667"/>
  <object id="84" x="1192" y="4" width="386.667" height="724"/>
  <object id="85" x="1318.67" y="737.333" width="282.667" height="904"/>
  <object id="86" x="838.667" y="1916" width="781.333" height="472"/>
  <object id="87" x="913.333" y="1772" width="758.667" height="177.333"/>
  <object id="88" x="-22.6667" y="1788" width="693.333" height="596"/>
  <object id="89" x="674.667" y="1804" width="88" height="561.333"/>
  <object id="116" x="770.182" y="1801.09" width="23.0909" height="86.3636"/>
  <object id="117" x="793.091" y="1830.55" width="63.8182" height="82.9091"/>
  <object id="120" x="834.182" y="1804.73" width="21.2727" height="37.6364"/>
  <object id="121" x="795.091" y="1815.45" width="51.2727" height="17.2727"/>
  <object id="122" x="993" y="973" width="20.3333" height="10.3333"/>
  <object id="123" x="688.333" y="743.667" width="226.667" height="23"/>
  <object id="124" x="906.667" y="1621.33" width="20" height="155"/>
 </objectgroup>
 <objectgroup id="6" name="eventi">
  <object id="37" name="pc_door" x="591.386" y="1267.98">
   <properties>
    <property name="destinazione" value="pokecenter_rocca_di_papa"/>
    <property name="spawn_id" value="da_rocca_di_papa_pc"/>
    <property name="type" value="warp"/>
   </properties>
   <point/>
  </object>
  <object id="41" name="market_door" x="1129.68" y="1271.41">
   <properties>
    <property name="destinazione" value="mart_rocca_di_papa"/>
    <property name="spawn_id" value="da_rocca_di_papa_mart"/>
    <property name="type" value="warp"/>
   </properties>
   <point/>
  </object>
  <object id="76" name="spawn" type="spawn" x="591.386" y="1308">
   <properties>
    <property name="id" value="da pokecenter rocca di papa"/>
    <property name="type" value="spawn"/>
   </properties>
   <point/>
  </object>
  <object id="77" name="spawn" type="spawn" x="1129.68" y="1308">
   <properties>
    <property name="id" value="da pokemarket rocca di papa"/>
    <property name="type" value="spawn"/>
   </properties>
   <point/>
  </object>
  <object id="45" name="palestra_rocco_door" x="815.386" y="1138.27">
   <properties>
    <property name="destinazione" value="interno_palestra_rocco"/>
    <property name="spawn_id" value="entrata_principale"/>
    <property name="type" value="warp"/>
   </properties>
   <point/>
  </object>
  <object id="52" name="rocca_npc1" x="808.446" y="1462.41">
   <properties>
    <property name="condizione" value="baso_tornato"/>
    <property name="direzione" value="NORD"/>
    <property name="gate" type="bool" value="true"/>
    <property name="id" value="rocca_npc1"/>
    <property name="movimento" value="FISSO"/>
    <property name="noTestBypass" type="bool" value="true"/>
    <property name="raggio" value="3"/>
    <property name="sprite" value="NPC 60"/>
    <property name="type" value="npc"/>
   </properties>
   <point/>
  </object>
  <object id="53" name="rocca_npc2_1" x="717.661" y="1432.21">
   <properties>
    <property name="condizione" value="baso_tornato"/>
    <property name="dialogo" value="Maschio delle Faete, Monte Cavo... i due giganti. Da ragazzo ci salivo a piedi. Mo' ce mando il Pokemon."/>
    <property name="direzione" value="est"/>
    <property name="gate" type="bool" value="true"/>
    <property name="id" value="rocca_npc2_1"/>
    <property name="noTestBypass" type="bool" value="true"/>
    <property name="sprite" value="NPC 61"/>
    <property name="type" value="npc"/>
   </properties>
   <point/>
  </object>
  <object id="59" name="PLACEHOLDER" x="550.737" y="1543.74" width="20.5816" height="20.0107">
   <properties>
    <property name="testo" value="METTI: rifugio/chalet, belvedere sul cratere, arredo invernale (riempi qui)"/>
    <property name="type" value="cartello"/>
   </properties>
  </object>
  <object id="71" name="gdf_grunt_grotta_vulcano_1" x="434" y="1080.67">
   <properties>
    <property name="direzione" value="ovest"/>
    <property name="id" value="gdf_grunt_grotta_vulcano_1"/>
    <property name="sprite" value="GDF_GRUNT_SPRITE"/>
    <property name="type" value="trainer"/>
    <property name="vista" value="5"/>
   </properties>
   <point/>
  </object>
  <object id="72" name="gdf_gate_grotta_vulcano" x="405.167" y="758.5">
   <properties>
    <property name="condizione" value="gdf_sconfitto"/>
    <property name="direzione" value="sud"/>
    <property name="gate" value="true"/>
    <property name="id" value="gdf_gate_grotta_vulcano"/>
    <property name="sprite" value="GDF_GRUNT_SPRITE"/>
    <property name="type" value="npc"/>
   </properties>
   <point/>
  </object>
  <object id="74" x="593" y="949.5">
   <properties>
    <property name="contenuto" value="revitalizzante"/>
    <property name="id" value="oggetto_75"/>
    <property name="quantita" value="1"/>
    <property name="type" value="oggetto"/>
   </properties>
   <point/>
  </object>
  <object id="78" name="erba_alta" type="erba_alta" x="71" y="507.667" width="192" height="192">
   <properties>
    <property name="id" value="incontri rocca di papa"/>
    <property name="type" value="erba_alta"/>
   </properties>
  </object>
  <object id="79" name="oggetto_frammento_stella" type="oggetto" x="576.667" y="1054.67" width="32" height="32">
   <properties>
    <property name="contenuto" value="frammento_stella"/>
    <property name="id" value="oggetto_frammento_stella"/>
    <property name="quantita" type="int" value="1"/>
    <property name="type" value="oggetto"/>
   </properties>
  </object>
  <object id="90" name="rocca_npc2_2" x="754.667" y="1430.67">
   <properties>
    <property name="condizione" value="baso_tornato"/>
    <property name="dialogo" value="Maschio delle Faete, Monte Cavo... i due giganti. Da ragazzo ci salivo a piedi. Mo' ce mando il Pokemon."/>
    <property name="direzione" value="nord"/>
    <property name="gate" type="bool" value="true"/>
    <property name="id" value="rocca_npc2_2"/>
    <property name="noTestBypass" type="bool" value="true"/>
    <property name="sprite" value="NPC 61"/>
    <property name="type" value="npc"/>
   </properties>
   <point/>
  </object>
  <object id="91" name="rocca_npc2_3" x="714.667" y="1328">
   <properties>
    <property name="condizione" value="baso_tornato"/>
    <property name="dialogo" value="Maschio delle Faete, Monte Cavo... i due giganti. Da ragazzo ci salivo a piedi. Mo' ce mando il Pokemon."/>
    <property name="direzione" value="est"/>
    <property name="gate" type="bool" value="true"/>
    <property name="id" value="rocca_npc2_3"/>
    <property name="noTestBypass" type="bool" value="true"/>
    <property name="sprite" value="NPC 61"/>
    <property name="type" value="npc"/>
   </properties>
   <point/>
  </object>
  <object id="92" name="rocca_npc2_4" x="688.667" y="1368.67">
   <properties>
    <property name="condizione" value="baso_tornato"/>
    <property name="dialogo" value="Maschio delle Faete, Monte Cavo... i due giganti. Da ragazzo ci salivo a piedi. Mo' ce mando il Pokemon."/>
    <property name="direzione" value="est"/>
    <property name="gate" type="bool" value="true"/>
    <property name="id" value="rocca_npc2_4"/>
    <property name="noTestBypass" type="bool" value="true"/>
    <property name="sprite" value="NPC 61"/>
    <property name="type" value="npc"/>
   </properties>
   <point/>
  </object>
  <object id="93" name="rocca_npc2_5" x="681.333" y="1404">
   <properties>
    <property name="condizione" value="baso_tornato"/>
    <property name="dialogo" value="Maschio delle Faete, Monte Cavo... i due giganti. Da ragazzo ci salivo a piedi. Mo' ce mando il Pokemon."/>
    <property name="direzione" value="est"/>
    <property name="gate" type="bool" value="true"/>
    <property name="id" value="rocca_npc2_5"/>
    <property name="noTestBypass" type="bool" value="true"/>
    <property name="sprite" value="NPC 61"/>
    <property name="type" value="npc"/>
   </properties>
   <point/>
  </object>
  <object id="94" name="rocca_npc2_6" x="765.333" y="1301.33">
   <properties>
    <property name="condizione" value="baso_tornato"/>
    <property name="dialogo" value="Maschio delle Faete, Monte Cavo... i due giganti. Da ragazzo ci salivo a piedi. Mo' ce mando il Pokemon."/>
    <property name="direzione" value="sud"/>
    <property name="gate" type="bool" value="true"/>
    <property name="id" value="rocca_npc2_6"/>
    <property name="noTestBypass" type="bool" value="true"/>
    <property name="sprite" value="NPC 61"/>
    <property name="type" value="npc"/>
   </properties>
   <point/>
  </object>
  <object id="95" name="rocca_npc2_7" x="854" y="1314">
   <properties>
    <property name="condizione" value="baso_tornato"/>
    <property name="dialogo" value="Maschio delle Faete, Monte Cavo... i due giganti. Da ragazzo ci salivo a piedi. Mo' ce mando il Pokemon."/>
    <property name="direzione" value="ovest"/>
    <property name="gate" type="bool" value="true"/>
    <property name="id" value="rocca_npc2_7"/>
    <property name="noTestBypass" type="bool" value="true"/>
    <property name="sprite" value="NPC 61"/>
    <property name="type" value="npc"/>
   </properties>
   <point/>
  </object>
  <object id="96" name="rocca_npc2_8" x="896.667" y="1326">
   <properties>
    <property name="condizione" value="baso_tornato"/>
    <property name="dialogo" value="Maschio delle Faete, Monte Cavo... i due giganti. Da ragazzo ci salivo a piedi. Mo' ce mando il Pokemon."/>
    <property name="direzione" value="ovest"/>
    <property name="gate" type="bool" value="true"/>
    <property name="id" value="rocca_npc2_8"/>
    <property name="noTestBypass" type="bool" value="true"/>
    <property name="sprite" value="NPC 61"/>
    <property name="type" value="npc"/>
   </properties>
   <point/>
  </object>
  <object id="97" name="rocca_npc2_9" x="810" y="1307.33">
   <properties>
    <property name="condizione" value="baso_tornato"/>
    <property name="dialogo" value="Maschio delle Faete, Monte Cavo... i due giganti. Da ragazzo ci salivo a piedi. Mo' ce mando il Pokemon."/>
    <property name="direzione" value="sud"/>
    <property name="gate" type="bool" value="true"/>
    <property name="id" value="rocca_npc2_9"/>
    <property name="noTestBypass" type="bool" value="true"/>
    <property name="sprite" value="NPC 61"/>
    <property name="type" value="npc"/>
   </properties>
   <point/>
  </object>
  <object id="100" name="rocca_npc2_10" x="880" y="1432.67">
   <properties>
    <property name="condizione" value="baso_tornato"/>
    <property name="dialogo" value="Maschio delle Faete, Monte Cavo... i due giganti. Da ragazzo ci salivo a piedi. Mo' ce mando il Pokemon."/>
    <property name="direzione" value="ovest"/>
    <property name="gate" type="bool" value="true"/>
    <property name="id" value="rocca_npc2_10"/>
    <property name="noTestBypass" type="bool" value="true"/>
    <property name="sprite" value="NPC 61"/>
    <property name="type" value="npc"/>
   </properties>
   <point/>
  </object>
  <object id="101" name="rocca_npc2_11" x="938" y="1369.33">
   <properties>
    <property name="condizione" value="baso_tornato"/>
    <property name="dialogo" value="Maschio delle Faete, Monte Cavo... i due giganti. Da ragazzo ci salivo a piedi. Mo' ce mando il Pokemon."/>
    <property name="direzione" value="ovest"/>
    <property name="gate" type="bool" value="true"/>
    <property name="id" value="rocca_npc2_11"/>
    <property name="noTestBypass" type="bool" value="true"/>
    <property name="sprite" value="NPC 61"/>
    <property name="type" value="npc"/>
   </properties>
   <point/>
  </object>
  <object id="102" name="rocca_npc2_12" x="947.333" y="1328.67">
   <properties>
    <property name="condizione" value="baso_tornato"/>
    <property name="dialogo" value="Maschio delle Faete, Monte Cavo... i due giganti. Da ragazzo ci salivo a piedi. Mo' ce mando il Pokemon."/>
    <property name="direzione" value="ovest"/>
    <property name="gate" type="bool" value="true"/>
    <property name="id" value="rocca_npc2_12"/>
    <property name="noTestBypass" type="bool" value="true"/>
    <property name="sprite" value="NPC 61"/>
    <property name="type" value="npc"/>
   </properties>
   <point/>
  </object>
  <object id="103" name="gate_gianluca_casa" type="npc" x="786" y="844.667" width="32" height="32">
   <properties>
    <property name="condizione" value="baso_tornato"/>
    <property name="direzione" value="sud"/>
    <property name="gate" type="bool" value="true"/>
    <property name="id" value="gate_gianluca_casa"/>
    <property name="movimento" value="fisso"/>
    <property name="noTestBypass" type="bool" value="true"/>
    <property name="sprite" value="NPC 09"/>
    <property name="type" value="npc"/>
   </properties>
   <point/>
  </object>
  <object id="104" name="gianluca_liberato" type="npc" x="909.333" y="880.667" width="32" height="32">
   <properties>
    <property name="condizione" value="baso_tornato"/>
    <property name="direzione" value="sud"/>
    <property name="id" value="gianluca_liberato"/>
    <property name="movimento" value="fisso"/>
    <property name="sprite" value="NPC 26"/>
    <property name="type" value="npc"/>
   </properties>
   <point/>
  </object>
  <object id="105" name="gate_palestra_baso" type="npc" x="815.4" y="1170" width="32" height="32">
   <properties>
    <property name="condizione" value="baso_tornato"/>
    <property name="direzione" value="nord"/>
    <property name="gate" type="bool" value="true"/>
    <property name="id" value="gate_palestra_baso"/>
    <property name="movimento" value="fisso"/>
    <property name="noTestBypass" type="bool" value="true"/>
    <property name="sprite" value="NPC 09"/>
    <property name="type" value="npc"/>
   </properties>
  </object>
  <object id="106" name="rocca_villico_liberato_1" type="npc" x="750" y="1400" width="32" height="32">
   <properties>
    <property name="condizione" value="baso_tornato"/>
    <property name="dialogo" value="Hai salvato Gianluca, sei un grande!"/>
    <property name="direzione" value="sud"/>
    <property name="id" value="rocca_villico_liberato_1"/>
    <property name="movimento" value="random"/>
    <property name="sprite" value="NPC 60"/>
    <property name="type" value="npc"/>
   </properties>
  </object>
  <object id="107" name="rocca_villico_liberato_2" type="npc" x="880" y="1380" width="32" height="32">
   <properties>
    <property name="condizione" value="baso_tornato"/>
    <property name="dialogo" value="Hai salvato Gianluca, sei un grande!"/>
    <property name="direzione" value="sud"/>
    <property name="id" value="rocca_villico_liberato_2"/>
    <property name="movimento" value="random"/>
    <property name="sprite" value="NPC 61"/>
    <property name="type" value="npc"/>
   </properties>
  </object>
  <object id="108" name="warp_percorso_11" type="warp" x="804.152" y="1798.15" width="23.8182" height="16.3636">
   <properties>
    <property name="destinazione" value="percorso_11"/>
    <property name="spawn_id" value="da_rocca_di_papa"/>
    <property name="type" value="warp"/>
   </properties>
  </object>
  <object id="109" name="spawn" type="spawn" x="805.727" y="1771.24" width="21.6364" height="12.9091">
   <properties>
    <property name="id" value="da_percorso_11"/>
    <property name="type" value="spawn"/>
   </properties>
  </object>
  <object id="110" name="warp_grotta_vulcano" type="warp" x="425.152" y="839.379" width="17.2273" height="16.1364">
   <properties>
    <property name="destinazione" value="grotta_vulcano1_f"/>
    <property name="spawn_id" value="da_rocca_di_papa_grotta"/>
    <property name="type" value="warp"/>
   </properties>
  </object>
  <object id="111" name="spawn" type="spawn" x="389.5" y="843.833" width="18.5" height="18">
   <properties>
    <property name="id" value="da_grotta_vulcano_1f"/>
    <property name="type" value="spawn"/>
   </properties>
  </object>
  <object id="112" name="spawn" type="spawn" x="744" y="873" width="12.3333" height="14.6667">
   <properties>
    <property name="id" value="da_montecavo"/>
    <property name="type" value="spawn"/>
   </properties>
  </object>
  <object id="113" name="rocca_villico_liberato_3" type="npc" x="714" y="1328" width="32" height="32">
   <properties>
    <property name="condizione" value="baso_tornato"/>
    <property name="dialogo" value="Hai salvato Gianluca, sei un grande!"/>
    <property name="direzione" value="sud"/>
    <property name="id" value="rocca_villico_liberato_3"/>
    <property name="movimento" value="random"/>
    <property name="sprite" value="NPC 61"/>
    <property name="type" value="npc"/>
   </properties>
  </object>
  <object id="114" name="rocca_villico_liberato_4" type="npc" x="854" y="1314" width="32" height="32">
   <properties>
    <property name="condizione" value="baso_tornato"/>
    <property name="dialogo" value="Hai salvato Gianluca, sei un grande!"/>
    <property name="direzione" value="sud"/>
    <property name="id" value="rocca_villico_liberato_4"/>
    <property name="movimento" value="random"/>
    <property name="sprite" value="NPC 61"/>
    <property name="type" value="npc"/>
   </properties>
  </object>
  <object id="115" name="rocca_villico_liberato_5" type="npc" x="808" y="1462" width="32" height="32">
   <properties>
    <property name="condizione" value="baso_tornato"/>
    <property name="dialogo" value="Hai salvato Gianluca, sei un grande!"/>
    <property name="direzione" value="sud"/>
    <property name="id" value="rocca_villico_liberato_5"/>
    <property name="movimento" value="random"/>
    <property name="sprite" value="NPC 60"/>
    <property name="type" value="npc"/>
   </properties>
  </object>
  <object id="125" name="spawn" x="815.386" y="1170.27">
   <properties>
    <property name="id" value="da_palestra_rocca_di_papa"/>
    <property name="type" value="spawn"/>
   </properties>
   <point/>
  </object>
 </objectgroup>
</map>
