<?xml version="1.0" encoding="UTF-8"?>
<map version="1.10" tiledversion="1.12.2" orientation="orthogonal" renderorder="right-down" width="23" height="24" tilewidth="32" tileheight="32" infinite="0" nextlayerid="3" nextobjectid="1">
 <tileset firstgid="1" source="../Stazione_treno.tsj"/>
 <tileset firstgid="1618" source="../Interior_general_32.tsj"/>
 <layer id="1" name="ground" width="23" height="24">
  <data encoding="csv">
85,85,85,85,85,85,85,85,85,85,85,85,85,85,85,85,85,85,85,85,85,85,85,
134,134,134,134,134,134,134,134,134,134,134,134,134,134,134,134,134,134,134,134,134,134,134,
183,183,183,183,183,183,183,183,183,183,183,183,183,183,183,183,183,183,183,183,183,183,183,
232,232,232,232,232,232,232,232,232,232,232,232,232,232,232,232,232,232,232,232,232,232,232,
281,281,281,281,281,281,281,281,281,281,281,281,281,281,281,281,281,281,281,281,281,281,281,
330,330,330,330,330,330,330,330,330,330,330,330,330,330,330,330,330,330,330,330,330,330,330,
498,498,498,498,498,498,498,498,498,498,498,498,498,498,498,498,498,498,498,498,498,498,498,
498,498,498,498,498,498,498,498,498,498,498,498,498,498,498,498,498,498,498,498,498,498,498,
498,498,498,498,498,498,498,498,498,498,498,498,498,498,498,498,498,498,498,498,498,498,498,
498,498,498,498,498,498,498,498,498,498,498,498,498,498,498,498,498,498,498,498,498,498,498,
498,498,498,498,498,498,498,498,498,498,498,498,498,498,498,498,498,498,498,498,498,498,498,
498,498,498,498,498,498,498,498,498,498,498,498,498,498,498,498,498,498,498,498,498,498,498,
498,498,498,498,498,498,498,498,498,498,498,498,498,498,498,498,498,498,498,498,498,498,498,
498,498,498,498,498,498,498,498,498,498,498,498,498,498,498,498,498,498,498,498,498,498,498,
498,498,498,498,498,498,498,498,498,498,498,498,498,498,498,498,498,498,498,498,498,498,498,
498,498,498,498,498,498,498,498,498,498,498,498,498,498,498,498,498,498,498,498,498,498,498,
498,498,498,498,498,498,498,498,498,498,498,498,498,498,498,498,498,498,498,498,498,498,498,
498,498,498,498,498,498,498,498,498,498,498,498,498,498,498,498,498,498,498,498,498,498,498,
498,498,498,498,498,498,498,498,498,498,498,498,498,498,498,498,498,498,498,498,498,498,498,
498,498,498,498,498,498,498,498,498,498,498,498,498,498,498,498,498,498,498,498,498,498,498,
498,498,498,498,498,498,498,498,498,498,498,498,498,498,498,498,498,498,498,498,498,498,498,
498,498,498,498,498,498,498,498,498,498,498,498,498,498,498,498,498,498,498,498,498,498,498,
498,498,498,498,498,498,498,498,498,498,498,498,498,498,498,498,498,498,498,498,498,498,498,
498,498,498,498,498,498,498,498,498,498,498,498,498,498,498,498,498,498,498,498,498,498,498
</data>
 </layer>
 <layer id="2" name="deco_sotto" width="23" height="24">
  <data encoding="csv">
99,100,100,100,100,100,100,100,100,100,100,100,100,100,100,100,100,100,100,100,100,111,112,
148,0,0,0,0,0,0,0,0,0,0,0,0,0,0,0,0,0,0,0,0,0,1440,
148,0,0,0,0,0,0,0,201,202,203,204,205,0,0,0,0,0,0,0,0,0,1440,
148,0,0,0,0,0,0,0,250,251,252,253,254,0,0,0,0,0,0,0,0,0,1440,
148,0,0,0,0,0,0,0,299,300,301,302,303,0,0,0,0,0,0,0,0,0,1440,
148,354,354,354,354,354,354,354,348,349,350,351,352,354,354,354,354,354,354,354,354,354,1440,
148,2891,0,0,0,2890,0,0,0,0,0,0,0,0,0,0,0,0,0,0,0,0,1440,
148,2899,0,0,0,2898,0,0,0,0,0,0,0,0,0,2891,0,0,0,2890,0,0,1440,
148,2907,0,0,0,2906,0,0,0,0,0,0,0,0,0,2899,0,0,0,2898,0,0,1440,
148,0,0,0,0,0,0,0,0,0,0,0,0,0,0,2907,0,0,0,2906,0,0,1440,
148,2891,0,0,0,2890,0,0,0,0,0,0,0,0,0,0,0,0,0,0,0,0,1440,
148,2899,0,0,0,2898,0,0,0,0,0,0,0,0,0,2891,0,0,0,2890,0,0,1440,
148,2907,0,0,0,2906,0,0,0,0,0,0,0,0,0,2899,0,0,0,2898,0,0,1440,
148,0,0,0,0,0,0,0,0,0,0,0,0,0,0,2907,0,0,0,2906,0,0,1440,
148,2891,0,0,0,2890,0,0,0,0,0,0,0,0,0,0,0,0,0,0,0,0,1440,
148,2899,0,0,0,2898,0,0,0,0,0,0,0,0,0,2891,0,0,0,2890,0,0,1440,
148,2907,0,0,0,2906,0,0,0,0,0,0,0,0,0,2899,0,0,0,2898,0,0,1440,
148,0,0,0,0,0,0,0,0,0,0,0,0,0,0,2907,0,0,0,2906,0,0,1440,
148,2891,0,0,0,2890,0,0,0,0,0,0,0,0,0,0,0,0,0,0,0,0,1440,
148,2899,0,0,0,2898,0,0,0,0,0,0,0,0,0,2891,0,0,0,2890,0,0,1440,
148,2907,0,0,0,2906,0,0,0,0,0,0,0,0,0,2899,0,0,0,2898,0,0,1440,
148,0,0,0,0,0,0,0,0,2479,2480,2481,0,0,0,2907,0,0,0,2906,0,0,1440,
1471,1472,1472,1472,1472,1472,1472,1472,1472,2487,2488,2489,1472,1472,1472,1472,1472,1472,1472,1472,1472,1472,1489,
1520,1521,1522,1523,1524,1525,1526,1527,898,898,898,898,898,898,898,898,898,898,898,901,901,901,901
</data>
 </layer>
</map>
