{
 "compressionlevel": -1,
 "width": 10,
 "height": 8,
 "tilewidth": 32,
 "tileheight": 32,
 "infinite": false,
 "orientation": "orthogonal",
 "renderorder": "right-down",
 "type": "map",
 "version": "1.10",
 "tiledversion": "1.12.2",
 "nextlayerid": 4,
 "nextobjectid": 9005,
 "tilesets": [
  {
   "firstgid": 1,
   "source": "../Interior_general_32.tsj"
  }
 ],
 "layers": [
  {
   "id": 1,
   "name": "ground",
   "type": "tilelayer",
   "width": 10,
   "height": 8,
   "data": [
    2,
    2,
    2,
    2,
    2,
    2,
    2,
    2,
    2,
    2,
    2,
    2,
    2,
    2,
    2,
    2,
    2,
    2,
    2,
    2,
    2,
    2,
    2,
    2,
    2,
    2,
    2,
    2,
    2,
    2,
    2,
    2,
    2,
    2,
    2,
    2,
    2,
    2,
    2,
    2,
    2,
    2,
    2,
    2,
    2,
    2,
    2,
    2,
    2,
    2,
    2,
    2,
    2,
    2,
    2,
    2,
    2,
    2,
    2,
    2,
    2,
    2,
    2,
    2,
    2,
    2,
    2,
    2,
    2,
    2,
    2,
    2,
    2,
    2,
    2,
    2,
    2,
    2,
    2,
    2
   ],
   "opacity": 1,
   "visible": true,
   "x": 0,
   "y": 0
  },
  {
   "id": 2,
   "name": "deco_sotto",
   "type": "tilelayer",
   "width": 10,
   "height": 8,
   "data": [
    0,
    0,
    0,
    0,
    0,
    0,
    0,
    0,
    0,
    0,
    0,
    0,
    0,
    0,
    0,
    0,
    0,
    0,
    0,
    0,
    0,
    0,
    0,
    0,
    0,
    0,
    0,
    0,
    0,
    0,
    0,
    0,
    0,
    0,
    0,
    0,
    0,
    0,
    0,
    0,
    0,
    0,
    0,
    0,
    0,
    0,
    0,
    0,
    0,
    0,
    0,
    0,
    0,
    0,
    0,
    0,
    0,
    0,
    0,
    0,
    0,
    0,
    0,
    0,
    0,
    0,
    0,
    0,
    0,
    0,
    0,
    0,
    0,
    0,
    0,
    0,
    0,
    0,
    0,
    0
   ],
   "opacity": 1,
   "visible": true,
   "x": 0,
   "y": 0
  },
  {
   "id": 3,
   "name": "collisioni",
   "type": "objectgroup",
   "opacity": 1,
   "visible": true,
   "x": 0,
   "y": 0,
   "objects": [
    {
     "id": 1,
     "name": "",
     "type": "",
     "x": 0,
     "y": 0,
     "width": 320,
     "height": 32,
     "rotation": 0,
     "visible": true,
     "properties": []
    },
    {
     "id": 2,
     "name": "",
     "type": "",
     "x": 0,
     "y": 224,
     "width": 320,
     "height": 32,
     "rotation": 0,
     "visible": true,
     "properties": []
    },
    {
     "id": 3,
     "name": "",
     "type": "",
     "x": 0,
     "y": 0,
     "width": 32,
     "height": 256,
     "rotation": 0,
     "visible": true,
     "properties": []
    },
    {
     "id": 4,
     "name": "",
     "type": "",
     "x": 288,
     "y": 0,
     "width": 32,
     "height": 256,
     "rotation": 0,
     "visible": true,
     "properties": []
    }
   ]
  },
  {
   "id": 4,
   "name": "eventi",
   "type": "objectgroup",
   "opacity": 1,
   "visible": true,
   "x": 0,
   "y": 0,
   "objects": [
    {
     "id": 9001,
     "name": "warp_rocca_di_papa",
     "type": "warp",
     "point": false,
     "x": 64,
     "y": 96,
     "width": 32,
     "height": 32,
     "rotation": 0,
     "visible": true,
     "properties": [
      {
       "name": "type",
       "type": "string",
       "value": "warp"
      },
      {
       "name": "destinazione",
       "type": "string",
       "value": "rocca_di_papa"
      },
      {
       "name": "spawn_id",
       "type": "string",
       "value": "da_treno_lugia"
      }
     ]
    },
    {
     "id": 9002,
     "name": "spawn_da_rocca_di_papa",
     "type": "spawn",
     "point": false,
     "x": 160,
     "y": 96,
     "width": 32,
     "height": 32,
     "rotation": 0,
     "visible": true,
     "properties": [
      {
       "name": "type",
       "type": "string",
       "value": "spawn"
      },
      {
       "name": "id",
       "type": "string",
       "value": "da_rocca_di_papa"
      }
     ]
    },
    {
     "id": 9003,
     "name": "warp_monte_cavo",
     "type": "warp",
     "point": false,
     "x": 256,
     "y": 96,
     "width": 32,
     "height": 32,
     "rotation": 0,
     "visible": true,
     "properties": [
      {
       "name": "type",
       "type": "string",
       "value": "warp"
      },
      {
       "name": "destinazione",
       "type": "string",
       "value": "monte_cavo"
      },
      {
       "name": "spawn_id",
       "type": "string",
       "value": "da_treno_lugia"
      }
     ]
    },
    {
     "id": 9004,
     "name": "spawn_da_monte_cavo",
     "type": "spawn",
     "point": false,
     "x": 256,
     "y": 160,
     "width": 32,
     "height": 32,
     "rotation": 0,
     "visible": true,
     "properties": [
      {
       "name": "type",
       "type": "string",
       "value": "spawn"
      },
      {
       "name": "id",
       "type": "string",
       "value": "da_monte_cavo"
      }
     ]
    }
   ]
  }
 ]
}