<?xml version="1.0" encoding="UTF-8"?>
<map version="1.10" tiledversion="1.12.2" orientation="orthogonal" renderorder="right-down" width="50" height="50" tilewidth="32" tileheight="32" infinite="0" nextlayerid="7" nextobjectid="71">
 <editorsettings>
  <export target="Tunnel_roccioso_2f.tmj" format="json"/>
 </editorsettings>
 <tileset firstgid="1" source="../Caves.tsj"/>
 <tileset firstgid="1593" source="../Sea.tsj"/>
 <tileset firstgid="1691" source="../Waterfall.tsj"/>
 <tileset firstgid="1698" source="../Waterfall bottom.tsj"/>
 <tileset firstgid="1702" source="../Waterfall crest.tsj"/>
 <tileset firstgid="1706" source="../../outside.tsx"/>
 <tileset firstgid="5722" source="../../Emerald_Outside.tsx"/>
 <tileset firstgid="10970" source="../outside.tsx"/>
 <layer id="1" name="ground" width="50" height="50">
  <data encoding="csv">
1170,1167,1178,1178,1178,1178,1178,1178,1178,1178,1178,1178,1178,1178,1178,1178,1178,1178,1178,1178,1178,1178,1178,1178,1178,1178,1178,1178,1178,1178,1178,1178,1178,1178,1178,1178,1178,1178,1178,1178,1178,1178,1178,1178,1178,1178,1178,1178,1168,1170,
1170,1171,1167,1178,1178,1178,1178,1178,1178,1178,1178,1178,1178,1178,1178,1178,1178,1178,1178,1178,1178,1178,1178,1178,1178,1178,1178,1178,1178,1178,1178,1178,1178,1178,1178,1178,1178,1178,1178,1178,1178,1178,1178,1178,1178,1178,1178,1168,1169,1170,
1170,1171,1171,1167,1178,1178,1178,1178,1178,1178,1178,1178,1178,1178,1178,1178,1178,1178,1178,1178,1178,1178,1178,1178,1178,1178,1178,1178,1178,1178,1178,1178,1178,1178,1178,1178,1178,1178,1178,1178,1178,1178,1178,1178,1178,1178,1168,1169,1169,1170,
1170,1171,1171,1171,1167,1178,1178,1178,1178,1178,1178,1178,1178,1178,1178,1178,1178,1178,1178,1178,1178,1178,1178,1178,1178,1178,1178,1178,1178,1178,1178,1178,1178,1178,1178,1178,1178,1178,1178,1178,1178,1178,1178,1178,1178,1168,1169,1169,1169,1170,
1170,1171,1171,1171,1171,1167,1178,1178,1178,1178,1178,1178,1178,1178,1178,1178,1178,1178,1178,1178,1178,1178,1178,1178,1178,1178,1178,1178,1178,1178,1178,1178,1178,1178,1178,1178,1178,1178,1178,1178,1178,1178,1178,1178,1168,1169,1169,1169,1169,1170,
1170,1171,1171,1171,1171,1171,1167,1178,1178,1178,1178,1178,1178,1178,1178,1178,1178,1178,1178,1178,1178,1178,1178,1178,1178,1178,1178,1178,1178,1178,1178,1178,1178,1178,1178,1178,1178,1178,1178,1178,1178,1178,1178,1168,1169,1169,1169,1169,1169,1170,
1170,1171,1171,1171,1171,1171,1171,1243,1243,1243,1243,1243,1243,1243,1243,1243,1243,1243,1243,1243,1243,1243,1243,1243,1243,1243,1243,1243,1243,1243,1243,1243,1243,1243,1243,1243,1243,1243,1243,1243,1243,1243,1243,1169,1169,1169,1169,1169,1169,1170,
1170,1171,1171,1171,1171,1171,1171,1243,1243,1162,1162,1162,1162,1162,1162,1162,1162,1162,1162,1162,1162,1162,1162,1162,1162,1162,1162,1162,1162,1162,1243,1243,1243,1243,1243,1243,1243,1243,1243,1243,1243,1243,1243,1169,1169,1169,1169,1169,1169,1170,
1170,1171,1171,1171,1171,1171,1171,1243,1243,1170,1162,1162,1162,1162,1162,1162,1162,1162,1162,1162,1162,1162,1162,1162,1162,1162,1162,1162,1162,1170,1170,1243,1243,1170,1170,1243,1243,1243,1243,1243,1243,1243,1243,1169,1169,1169,1169,1169,1169,1170,
1170,1171,1171,1171,1171,1171,1171,1243,1243,1243,1170,1243,1243,1243,1243,1243,1243,1243,1243,1243,1243,1243,1243,1243,1243,1243,1243,1243,1243,1243,1243,1243,1243,1170,1170,1243,1243,1243,1243,1243,1243,1243,1243,1169,1169,1169,1169,1169,1169,1170,
1170,1171,1171,1171,1171,1171,1171,1243,1243,1243,1170,1167,1178,1178,1178,1178,1178,1178,1178,1178,1178,1178,1178,1178,1178,1178,1178,1178,1178,1178,1243,1243,1243,1170,1170,1243,1243,1243,1243,1243,1243,1243,1243,1169,1169,1169,1169,1169,1169,1170,
1170,1171,1171,1171,1171,1171,1171,1243,1243,1243,1170,1243,1243,1243,1243,1243,1243,1243,1243,1243,1243,1243,1243,1243,1243,1243,1243,1243,1243,1243,1243,1243,1243,1170,1170,1243,1243,1243,1243,1243,1169,1170,1171,1169,1169,1169,1169,1169,1169,1170,
1170,1171,1171,1171,1171,1171,1171,1243,1243,1243,1170,1243,1243,1243,1243,1243,1243,1243,1243,1243,1243,1243,1243,1243,1243,1170,1170,1170,1170,1170,1243,1243,1243,1170,1170,1243,1243,1243,1243,1243,1169,1170,1171,1169,1169,1169,1169,1169,1169,1170,
1170,1171,1171,1171,1171,1171,1171,1243,1243,1243,1170,1243,1243,1243,1243,1243,1243,1243,1243,1243,1243,1243,1243,1243,1243,1243,1243,1243,1243,1243,1243,1243,1243,1170,1170,1243,1243,1243,1243,1243,1169,1170,1171,1169,1169,1169,1169,1169,1169,1170,
1170,1171,1171,1171,1171,1171,1171,1243,1243,1243,1170,1243,1243,1243,1243,1243,1243,1243,1243,1243,1243,1243,1243,1243,1243,1243,1243,1243,1243,1243,1243,1243,1243,1170,1170,1243,1243,1243,1243,1243,1169,1170,1171,1169,1169,1169,1169,1169,1169,1170,
1170,1171,1171,1171,1171,1171,1171,1243,1243,1243,1170,1243,1243,1243,1243,1243,1243,1243,1243,1243,1243,1243,1243,1243,1243,1243,1243,1243,1243,1243,1243,1170,1170,1170,1170,1243,1243,1243,1243,1243,1169,1170,1171,1169,1169,1169,1169,1169,1169,1170,
1170,1171,1171,1171,1171,1171,1171,1243,1243,1243,1170,1243,1243,1243,1243,1243,1243,1243,1243,1243,1243,1243,1243,1243,1243,1243,1243,1243,1243,1243,1243,1243,1170,1243,1243,1243,1243,1243,1243,1243,1169,1170,1171,1169,1169,1169,1169,1169,1169,1170,
1170,1171,1171,1171,1171,1171,1171,1243,1243,1243,1170,1243,1243,1243,1243,1243,1243,1243,1243,1243,1243,1243,1243,1243,1243,1243,1243,1243,1243,1243,1243,1243,1243,1243,1243,1243,1243,1243,1243,1243,1169,1170,1171,1169,1169,1169,1169,1169,1169,1170,
1170,1171,1171,1171,1171,1171,1171,1243,1243,1243,1170,1243,1243,1243,1243,1243,1243,1243,1243,1243,1243,1243,1243,1243,1243,1243,1243,1243,1243,1243,1243,1243,1243,1243,1243,1243,1243,1243,1243,1243,1169,1170,1171,1169,1169,1169,1169,1169,1169,1170,
1170,1171,1171,1171,1171,1171,1171,1243,1243,1243,1170,1243,1243,1243,1243,1243,1243,1243,1243,1243,1243,1243,1243,1243,1243,1243,1243,1243,1243,1243,1243,1243,1243,1243,1243,1243,1243,1243,1243,1243,1169,1170,1171,1169,1169,1169,1169,1169,1169,1170,
1170,1171,1171,1171,1171,1171,1171,1243,1243,1243,1170,1243,1243,1243,1243,1243,1243,1243,1243,1243,1243,1243,1243,1243,1243,1243,1243,1243,1243,1243,1243,1243,1243,1243,1243,1243,1243,1243,1243,1243,1169,1170,1171,1169,1169,1169,1169,1169,1169,1170,
1170,1171,1171,1171,1171,1171,1171,1243,1243,1243,1170,1243,1243,1243,1243,1243,1243,1243,1243,1243,1243,1243,1243,1243,1243,1243,1243,1243,1243,1243,1243,1243,1243,1243,1243,1243,1243,1243,1243,1243,1169,1170,1171,1169,1169,1169,1169,1169,1169,1170,
1170,1171,1171,1171,1171,1171,1171,1243,1243,1243,1170,1243,1243,1243,1243,1243,1243,1243,1243,1243,1243,1243,1243,1243,1243,1243,1243,1243,1243,1243,1243,1243,1243,1243,1243,1243,1243,1243,1243,1243,1169,1170,1171,1169,1169,1169,1169,1169,1169,1170,
1170,1171,1171,1171,1171,1171,1171,1243,1243,1243,1170,1243,1243,1243,1243,1243,1243,1243,1243,1243,1243,1243,1243,1243,1243,1243,1243,1243,1243,1243,1243,1243,1243,1243,1243,1243,1243,1243,1243,1243,1169,1170,1171,1169,1169,1169,1169,1169,1169,1170,
1170,1171,1171,1171,1171,1171,1171,1243,1243,1243,1170,1243,1243,1243,1243,1243,1243,1243,1243,1243,1243,1243,1243,1243,1243,1243,1243,1243,1243,1243,1243,1243,1243,1243,1243,1243,1243,1243,1243,1243,1169,1170,1171,1169,1169,1169,1169,1169,1169,1170,
1170,1171,1171,1171,1171,1171,1171,1243,1243,1243,1243,1243,1243,1243,1243,1243,1243,1243,1243,1243,1243,1243,1243,1243,1243,1243,1243,1243,1243,1243,1243,1243,1243,1243,1243,1243,1243,1243,1243,1243,1169,1170,1171,1169,1169,1169,1169,1169,1169,1170,
1170,1171,1171,1171,1171,1171,1171,1243,1243,1243,1243,1243,1243,1243,1243,1243,1243,1243,1243,1243,1243,1243,1243,1243,1243,1243,1243,1243,1243,1243,1243,1243,1243,1243,1243,1243,1243,1243,1243,1243,1169,1170,1171,1169,1169,1169,1169,1169,1169,1170,
1170,1171,1171,1171,1171,1171,1171,1243,1243,1243,1243,1243,1243,1243,1243,1243,1243,1243,1243,1243,1243,1243,1243,1243,1243,1243,1243,1243,1243,1243,1243,1243,1243,1243,1243,1243,1243,1243,1243,1243,1169,1170,1171,1169,1169,1169,1169,1169,1169,1170,
1170,1171,1171,1171,1171,1171,1171,1243,1243,1243,1243,1243,1243,1243,1243,1243,1243,1243,1243,1243,1243,1243,1243,1243,1243,1243,1243,1243,1243,1243,1243,1243,1243,1243,1243,1243,1243,1243,1243,1243,1169,1170,1171,1169,1169,1169,1169,1169,1169,1170,
1170,1171,1171,1171,1171,1171,1171,1243,1243,1243,1243,1243,1243,1243,1243,1243,1243,1243,1243,1243,1243,1243,1243,1243,1243,1243,1243,1243,1243,1243,1243,1243,1243,1243,1243,1243,1243,1243,1243,1243,1169,1170,1171,1169,1169,1169,1169,1169,1169,1170,
1170,1171,1171,1171,1171,1171,1171,1243,1243,1243,1243,1243,1243,1243,1243,1243,1243,1243,1243,1243,1243,1243,1243,1243,1243,1243,1243,1243,1243,1243,1243,1243,1243,1243,1243,1243,1243,1243,1243,1162,1170,1170,1170,1169,1169,1169,1169,1169,1169,1170,
1170,1171,1171,1171,1171,1171,1171,1243,1243,1243,1243,1243,1243,1243,1243,1243,1243,1243,1243,1243,1243,1243,1243,1243,1243,1243,1243,1243,1243,1243,1243,1243,1243,1243,1243,1243,1243,1243,1243,1243,1243,1243,1243,1169,1169,1169,1169,1169,1169,1170,
1170,1171,1171,1171,1171,1171,1171,1243,1243,1243,1243,1243,1243,1243,1243,1243,1243,1243,1243,1243,1243,1243,1243,1243,1243,1243,1243,1243,1243,1243,1243,1243,1243,1243,1243,1243,1243,1243,1243,1243,1243,1243,1243,1169,1169,1169,1169,1169,1169,1170,
1170,1171,1171,1171,1171,1171,1171,1243,1243,1243,1243,1243,1243,1243,1243,1243,1243,1243,1243,1243,1243,1243,1243,1243,1243,1243,1243,1243,1243,1243,1243,1243,1243,1243,1243,1243,1243,1243,1243,1243,1243,1243,1243,1169,1169,1169,1169,1169,1169,1170,
1170,1171,1171,1171,1171,1171,1171,1243,1243,1243,1243,1243,1243,1243,1243,1243,1243,1243,1243,1243,1243,1243,1243,1243,1243,1243,1243,1243,1243,1243,1243,1243,1243,1243,1243,1243,1243,1243,1243,1243,1243,1243,1243,1169,1169,1169,1169,1169,1169,1170,
1170,1171,1171,1171,1171,1171,1171,1243,1243,1243,1243,1243,1243,1243,1243,1243,1243,1243,1243,1243,1243,1243,1243,1243,1243,1243,1243,1243,1243,1243,1243,1243,1243,1243,1243,1243,1243,1243,1243,1243,1243,1243,1243,1169,1169,1169,1169,1169,1169,1170,
1170,1171,1171,1171,1171,1171,1171,1243,1243,1243,1243,1243,1243,1243,1243,1243,1243,1243,1243,1243,1243,1243,1243,1243,1243,1243,1243,1243,1243,1243,1243,1243,1243,1243,1243,1243,1243,1243,1243,1243,1243,1243,1243,1169,1169,1169,1169,1169,1169,1170,
1170,1171,1171,1171,1171,1171,1171,1243,1243,1243,1243,1243,1243,1243,1243,1243,1243,1243,1243,1243,1243,1243,1243,1243,1243,1243,1243,1243,1243,1243,1243,1243,1243,1243,1243,1243,1243,1243,1243,1243,1243,1243,1243,1169,1169,1169,1169,1169,1169,1170,
1170,1171,1171,1171,1171,1171,1171,1243,1243,1243,1243,1243,1243,1243,1243,1243,1243,1243,1243,1243,1243,1243,1243,1243,1243,1243,1243,1243,1243,1243,1243,1243,1243,1243,1243,1243,1243,1243,1243,1243,1243,1243,1243,1169,1169,1169,1169,1169,1169,1170,
1170,1171,1171,1171,1171,1171,1171,1243,1243,1243,1243,1243,1243,1243,1243,1243,1170,1243,1243,1243,1243,1243,1243,1243,1243,1243,1243,1243,1243,1243,1243,1243,1243,1243,1243,1243,1243,1243,1243,1243,1243,1243,1243,1169,1169,1169,1169,1169,1169,1170,
1170,1171,1171,1171,1171,1171,1171,1243,1243,1243,1243,1243,1243,1243,1243,1170,1243,1243,1243,1243,1243,1243,1243,1243,1243,1243,1243,1243,1243,1243,1243,1243,1243,1243,1243,1243,1243,1243,1243,1243,1243,1243,1243,1169,1169,1169,1169,1169,1169,1170,
1170,1171,1171,1171,1171,1171,1171,1243,1243,1243,1243,1243,1243,1243,1170,1243,1243,1243,1243,1243,1243,1243,1243,1243,1243,1243,1243,1243,1243,1243,1243,1243,1243,1243,1243,1243,1243,1243,1243,1243,1243,1243,1243,1169,1169,1169,1169,1169,1169,1170,
1170,1171,1162,1171,1171,1171,1171,1243,1243,1243,1243,1243,1243,1170,1243,1243,1243,1243,1243,1243,1243,1243,1243,1243,1243,1243,1243,1243,1243,1170,1243,1243,1243,1243,1243,1243,1243,1243,1243,1243,1243,1243,1243,1169,1169,1169,1169,1169,1169,1170,
1170,1171,1171,1171,1171,1171,1171,1243,1243,1243,1243,1243,1243,1243,1243,1243,1243,1243,1243,1243,1243,1243,1243,1243,1243,1243,1243,1243,1243,1243,1170,1243,1243,1243,1243,1243,1243,1243,1243,1243,1243,1243,1243,1169,1169,1169,1169,1169,1169,1170,
1170,1171,1171,1171,1171,1171,1171,1243,1243,1243,1243,1243,1243,1243,1243,1243,1243,1243,1243,1243,1243,1243,1243,1243,1243,1243,1243,1243,1243,1243,1243,1170,1243,1243,1243,1243,1243,1243,1243,1243,1243,1243,1243,1169,1169,1169,1169,1169,1169,1170,
1170,1171,1171,1171,1171,1171,1171,1243,1243,1243,1243,1243,1243,1243,1243,1243,1243,1243,1243,1243,1243,1243,1243,1243,1243,1243,1243,1243,1243,1243,1243,1243,1170,1243,1243,1243,1243,1243,1243,1243,1243,1243,1243,1169,1169,1169,1169,1169,1169,1170,
1170,1171,1171,1171,1171,1171,1171,1243,1243,1243,1243,1243,1243,1243,1243,1243,1243,1243,1243,1243,1243,1243,1243,1243,1243,1243,1243,1243,1243,1243,1243,1243,1169,1243,1243,1243,1243,1243,1243,1243,1243,1243,1243,1169,1169,1169,1169,1169,1169,1170,
1170,1170,1170,1170,1170,1170,1170,1170,1170,1170,1170,1170,1170,1170,1170,1170,1170,1170,1170,1170,1170,1170,1170,1170,1170,1170,1170,1170,1170,1170,1170,1170,1170,1170,1170,1170,1170,1170,1170,1170,1170,1170,1170,1170,1170,1170,1170,1170,1170,1170,
1170,1170,1170,1170,1170,1170,1170,1170,1170,1170,1170,1170,1170,1170,1170,1170,1170,1170,1170,1170,1170,1170,1170,1170,1170,1170,1170,1170,1170,1170,1170,1170,1170,1170,1170,1170,1170,1170,1170,1170,1170,1170,1170,1170,1170,1170,1170,1170,1170,1170,
1170,1170,1170,1170,1170,1170,1170,1170,1170,1170,1170,1170,1170,1170,1170,1170,1170,1170,1170,1170,1170,1170,1170,1170,1170,1170,1170,1170,1170,1170,1170,1170,1170,1170,1170,1170,1170,1170,1170,1170,1170,1170,1170,1170,1170,1170,1170,1170,1170,1170
</data>
 </layer>
 <layer id="2" name="deco_sotto" width="50" height="50">
  <data encoding="csv">
0,0,0,0,0,0,0,0,0,0,0,0,0,0,0,0,0,0,0,0,0,0,0,0,0,0,0,0,0,0,0,0,0,0,0,0,0,0,0,0,0,0,0,0,0,0,0,0,0,0,
0,0,0,0,0,0,0,0,0,0,0,0,0,0,0,0,0,0,0,0,0,0,0,0,0,0,0,0,0,0,0,0,0,0,0,0,0,0,0,0,0,0,0,0,0,0,0,0,0,0,
0,0,0,0,0,0,0,0,0,0,0,0,0,0,0,0,0,0,0,0,0,0,0,0,0,0,0,0,0,0,0,0,0,0,0,0,0,0,0,0,0,0,0,0,0,0,0,0,0,0,
0,0,0,0,0,0,0,0,0,0,0,0,0,0,0,0,0,0,0,0,0,0,0,0,0,0,0,0,0,0,0,0,0,0,0,0,0,0,0,0,0,0,0,0,0,0,0,0,0,0,
0,0,0,0,0,0,0,0,0,0,0,0,0,0,0,0,0,0,0,0,0,0,0,0,0,0,0,0,0,0,0,0,0,0,0,0,0,0,0,0,0,0,0,0,0,0,0,0,0,0,
0,0,0,0,0,0,0,0,0,0,0,0,0,0,0,0,0,0,0,0,0,0,0,0,0,0,0,0,0,0,0,0,0,0,0,0,0,0,0,0,0,0,0,0,0,0,0,0,0,0,
0,0,0,0,0,0,0,0,0,0,0,0,0,0,0,0,0,0,0,0,0,0,0,0,0,0,0,0,0,0,0,0,0,0,0,0,1216,0,0,1214,1214,1214,0,0,0,0,0,0,0,0,
0,0,0,0,0,0,0,0,0,1222,0,0,1222,0,0,1222,0,0,0,0,0,0,0,0,0,0,1222,1222,1222,1222,1163,0,1161,1162,1162,1163,0,0,1214,0,1197,1214,0,0,0,0,0,0,0,0,
0,0,0,0,0,0,0,0,0,0,0,0,0,0,0,0,0,0,0,0,0,0,0,0,0,0,0,0,0,1163,1171,0,1169,0,0,1171,0,0,0,1214,1205,1214,0,0,0,0,0,0,0,0,
0,0,0,0,0,0,0,0,0,0,0,1170,1170,1170,1170,1170,1170,1170,1170,1170,1170,1170,1170,1170,1170,1170,1170,1170,1170,1171,1171,0,1169,0,0,1171,0,0,0,0,0,0,0,0,0,0,0,0,0,0,
0,0,0,0,0,0,0,0,0,0,0,0,0,0,0,0,0,0,0,0,0,0,0,0,0,0,1196,0,0,1179,1171,0,1169,0,0,1171,0,0,1161,1162,1162,1162,1163,0,0,0,0,0,0,0,
0,0,0,0,0,0,0,0,0,0,0,0,1167,1178,1178,1178,1178,1178,1178,1178,1178,1178,1178,1178,1178,1170,1170,1170,1170,1170,1171,0,1169,0,0,1171,0,0,1169,1170,1170,0,0,0,0,0,0,0,0,0,
0,0,0,0,0,0,0,0,0,0,0,0,1171,0,0,0,0,0,0,0,0,0,0,0,1169,0,0,0,0,0,1171,0,1169,0,0,1171,0,0,1177,1196,1168,0,0,0,0,0,0,0,0,0,
0,0,0,0,0,0,0,0,0,0,0,0,1171,0,0,0,0,0,0,0,0,0,0,0,1177,1178,1178,1178,1178,1178,1179,0,1169,0,0,1171,0,0,0,0,0,0,0,0,0,0,0,0,0,0,
0,0,0,0,0,0,0,0,0,0,0,0,1171,0,0,0,0,0,0,0,0,0,0,0,0,0,0,0,0,0,0,0,1169,0,0,1171,0,0,0,0,0,0,0,0,0,0,0,0,0,0,
0,0,0,0,0,0,0,0,0,0,0,0,1171,0,0,0,1161,1162,1162,1162,1162,1162,1162,1162,1162,1162,1162,1162,1162,1162,1162,1162,0,1161,1163,1171,0,0,0,0,0,0,0,0,0,0,0,0,0,0,
0,0,0,0,0,0,0,0,0,0,0,0,1171,0,0,0,1169,1170,1170,1170,1170,1170,1170,1170,1170,1170,1170,1170,1170,1170,1170,1170,0,1177,1179,1171,0,0,0,0,0,0,0,0,0,0,0,0,0,0,
0,0,0,0,0,0,0,0,0,0,0,0,1171,0,0,0,1177,1178,1178,1178,1178,1178,1178,1178,1178,1178,1178,1178,1178,1178,1178,1178,1178,1178,1178,1179,0,0,0,0,0,0,0,0,0,0,0,0,0,0,
0,0,0,0,0,0,0,0,0,0,0,0,1171,0,0,0,0,0,0,0,0,0,0,0,0,0,0,0,0,0,0,0,0,0,0,0,0,0,0,0,0,0,0,0,0,0,0,0,0,0,
0,0,0,0,0,0,0,0,0,0,0,0,1171,0,0,0,0,0,0,0,0,0,0,0,0,0,0,0,0,0,0,0,0,0,0,0,0,0,0,0,0,0,0,0,0,0,0,0,0,0,
0,0,0,0,0,0,0,0,0,0,0,0,1171,0,0,0,0,0,0,0,0,0,0,0,0,0,0,0,0,0,1161,1162,1163,0,0,0,0,0,0,0,0,0,0,0,0,0,0,0,0,0,
0,0,0,0,0,0,0,1214,0,0,0,0,1171,0,0,0,0,0,0,0,0,0,0,0,0,0,0,0,0,0,1169,1170,1171,0,0,0,0,0,0,0,0,0,0,0,0,0,0,0,0,0,
0,0,0,0,0,0,0,0,0,0,0,0,1171,0,0,0,0,0,0,0,0,0,0,0,0,0,0,0,0,0,1177,1178,1179,0,0,0,0,0,0,0,0,0,0,0,0,0,0,0,0,0,
0,0,0,0,0,0,0,1214,0,0,0,0,1171,0,0,0,0,0,0,0,0,0,0,0,0,0,0,0,0,0,0,0,0,0,0,0,0,0,0,0,0,0,0,0,0,0,0,0,0,0,
0,0,0,0,0,0,1162,1162,1162,1162,1170,1162,1162,1162,1162,1162,1162,1162,1162,1162,1162,1162,1162,1162,1162,1162,1162,1162,1162,1163,0,0,0,0,0,0,0,0,0,0,0,0,0,0,0,0,0,0,0,0,
0,0,0,0,0,0,1170,1170,1170,1170,1170,1170,1170,1170,1170,1170,1170,1170,1170,1170,1170,1170,1170,1170,1170,1170,1170,1170,1170,1171,0,0,0,0,0,0,0,0,0,0,0,0,0,0,0,0,0,0,0,0,
0,0,0,0,0,0,1170,1170,1170,1170,1170,1170,1170,1170,1170,1170,1170,1170,1170,1170,1170,1170,1170,1170,1170,1170,1167,1196,1178,1179,0,0,0,0,0,0,0,0,0,0,0,0,0,0,0,0,0,0,0,0,
0,0,0,0,0,0,1170,1170,1170,1170,1170,1170,1170,1170,1170,1170,1170,1170,1170,1170,1170,1170,1170,1170,1170,1170,1171,0,0,0,0,0,0,0,0,0,0,0,0,0,0,0,0,0,0,0,0,0,0,0,
0,0,0,0,0,0,1170,1170,1170,1170,1170,1170,1170,1170,1170,1170,1170,1170,1170,1170,1170,1170,1170,1170,1170,1170,1171,0,0,0,0,0,0,0,0,0,0,0,0,0,0,0,0,0,0,0,0,0,0,0,
0,0,0,0,0,0,1170,1170,1170,1170,1170,1170,1170,1170,1170,1170,1170,1170,1170,1170,1170,1170,1170,1170,1170,1170,1171,0,0,0,0,0,0,0,0,0,0,0,0,0,0,0,0,0,0,0,0,0,0,0,
0,0,0,0,0,0,1170,1170,1170,1170,1170,1170,1170,1170,1170,1170,1170,1170,1170,1170,1170,1170,1170,1170,1170,1170,1171,0,1161,1162,1162,1162,1162,1162,1162,1162,1162,1162,1162,0,0,0,0,0,0,0,0,0,0,0,
0,0,0,0,0,0,1170,1170,1170,1170,1170,1170,1170,1170,1170,1170,1170,1170,1170,1170,1170,1170,1170,1170,1170,1170,1171,0,1169,1170,1170,1170,1170,1170,1170,1170,1170,1170,1170,1170,1170,1170,1170,0,0,0,0,0,0,0,
0,0,0,0,0,0,1170,1170,1170,1170,1170,1170,1170,1170,1170,1170,1170,1170,1170,1170,1170,1170,1170,1170,1170,1170,1171,0,1169,1170,1170,1170,1170,1170,1170,1170,1170,1170,1170,1170,1170,1170,1170,0,0,0,0,0,0,0,
0,0,0,0,0,0,1170,1170,1170,1170,1170,1170,1170,1170,1170,1170,1170,1170,1170,1170,1170,1170,1170,1170,1170,1170,1171,0,1169,1170,1170,1170,1170,1170,1170,1170,1170,1170,1170,1170,1170,1170,1170,0,0,0,0,0,0,0,
0,0,0,0,0,0,1170,1170,1170,1170,1170,1170,1170,1170,1170,1170,1170,1170,1170,1170,1170,1170,1170,1170,1170,1170,1171,0,1169,1170,1170,1170,1170,1170,1170,1170,1170,1170,1170,1170,1170,1170,1170,0,0,0,0,0,0,0,
0,0,0,0,0,0,1170,1170,1170,1170,1170,1170,1170,1170,1170,1170,1170,1170,1170,1170,1170,1170,1170,1170,1170,1170,1171,0,1169,1170,1170,1170,1170,1170,1170,1170,1170,1170,1170,1170,1170,1170,1170,0,0,0,0,0,0,0,
0,0,0,0,0,0,1170,1170,1170,1170,1170,1170,1170,1170,1170,1170,1170,1170,1170,1170,1170,1170,1170,1170,1170,1170,1171,0,1169,1170,1170,1170,1170,1170,1170,1170,1170,1170,1170,1170,1170,1170,1170,0,0,0,0,0,0,0,
0,0,0,0,0,0,1170,1170,1170,1170,1170,1170,1170,1170,1170,1170,1170,1170,1170,1170,1170,1170,1170,1170,1170,1170,1171,0,1169,1170,1170,1170,1170,1170,1170,1170,1170,1170,1170,1170,1170,1170,1170,0,0,0,0,0,0,0,
0,0,0,0,0,0,1170,1170,1170,1170,1170,1170,1170,1170,1170,1170,1170,1170,1170,1170,1170,1170,1170,1170,1170,1170,1171,0,1169,1170,1170,1170,1170,1170,1170,1170,1170,1170,1170,1170,1170,1170,1170,0,0,0,0,0,0,0,
0,0,0,0,0,1162,1162,1162,1162,1162,1162,1162,1162,1162,1162,1162,1163,1170,1170,1170,1170,1170,1170,1170,1170,1170,1171,0,1169,1170,1170,1170,1170,1170,1170,1170,1170,1170,1170,1170,1170,1170,1170,0,0,0,0,0,0,0,
0,0,0,0,1162,1162,1162,1162,1162,1162,1162,1162,1162,1162,1162,1163,1171,1170,1170,1170,1170,1170,1170,1170,1170,1170,1171,0,1169,1170,1170,1170,1170,1170,1170,1170,1170,1170,1170,1170,1170,1170,1170,0,0,0,0,0,0,0,
0,0,0,1162,1162,1162,1162,1162,1162,1162,1162,1162,1162,1162,1163,1171,1171,1170,1170,1170,1170,1170,1170,1170,1170,1170,1171,0,1169,1170,1170,1170,1170,1170,1170,1170,1170,1170,1170,1170,1170,1170,1170,1162,0,0,0,0,0,0,
0,0,1162,1162,1162,1162,1162,1162,1162,1162,1162,1162,1162,1163,1171,1171,1171,1170,1170,1170,1170,1170,1170,1170,1170,1170,1171,0,1169,1161,1162,1162,1162,1162,1162,1162,1162,1162,1162,1162,1162,1162,1162,1162,1162,1169,1169,1169,0,0,
0,0,1170,1170,1170,1170,1170,1170,1170,1170,1170,1170,1170,1171,1171,1171,1171,1170,1170,1170,1170,1170,1170,1170,1170,1170,1171,0,1169,1169,1161,1162,1162,1162,1162,1162,1162,1162,1162,1162,1162,1162,1162,1162,1162,1162,0,0,0,0,
0,0,1170,1170,1170,1170,1170,1170,1170,1170,1170,1170,1170,1171,1171,1171,1171,1170,1170,1170,1170,1170,1170,1170,1170,1170,1171,0,1169,1169,1169,1161,1162,1162,1162,1162,1162,1162,1162,1162,1162,1162,1162,1162,1162,1162,1162,1162,0,0,
0,0,1170,1170,1170,1170,1170,1170,1170,1170,1170,1170,1170,1171,1171,1171,1171,1170,1170,1170,1170,1170,1170,1170,1170,1170,1171,1214,1169,1169,1169,1169,1161,1162,1162,1162,1162,1162,1162,1162,1162,1162,1162,1162,1162,1162,1162,1162,0,0,
0,0,1170,1170,1170,1170,1170,1170,1170,1170,1170,1170,1170,1171,1171,1171,1171,1170,1170,1170,1170,1170,1170,1170,1170,1170,1171,1214,1169,1169,1169,1169,1169,1170,1170,1170,1170,1170,1170,1170,1170,1170,1170,1170,1170,1170,1170,1170,0,0,
0,0,1162,1162,1162,1162,1162,1162,1162,1162,1162,1162,1162,1162,1162,1162,1162,1162,1162,1162,1162,1162,1162,1162,1162,1162,1162,1162,1162,1162,1162,1162,1162,1162,1162,1162,1162,1162,1162,1162,1162,1162,1162,1162,1162,1162,1162,1162,1162,0,
0,0,0,0,0,0,0,0,0,0,0,0,0,0,0,0,0,0,0,0,0,0,0,0,0,0,0,0,0,0,0,0,0,0,0,0,0,0,0,0,0,0,0,0,0,0,0,0,0,0,
0,0,0,0,0,0,0,0,0,0,0,0,0,0,0,0,0,0,0,0,0,0,0,0,0,0,0,0,0,0,0,0,0,0,0,0,0,0,0,0,0,0,0,0,0,0,0,0,0,0
</data>
 </layer>
 <layer id="3" name="edifici" width="50" height="50">
  <data encoding="csv">
0,0,0,0,0,0,0,0,0,0,0,0,0,0,0,0,0,0,0,0,0,0,0,0,0,0,0,0,0,0,0,0,0,0,0,0,0,0,0,0,0,0,0,0,0,0,0,0,0,0,
0,0,0,0,0,0,0,0,0,0,0,0,0,0,0,0,0,0,0,0,0,0,0,0,0,0,0,0,0,0,0,0,0,0,0,0,0,0,0,0,0,0,0,0,0,0,0,0,0,0,
0,0,0,0,0,0,0,0,0,0,0,0,0,0,0,0,0,0,0,0,0,0,0,0,0,0,0,0,0,0,0,0,0,0,0,0,0,0,0,0,0,0,0,0,0,0,0,0,0,0,
0,0,0,0,0,0,0,0,0,0,0,0,0,0,0,0,0,0,0,0,0,0,0,0,0,0,0,0,0,0,0,0,0,0,0,0,0,0,0,0,0,0,0,0,0,0,0,0,0,0,
0,0,0,0,0,0,0,0,0,0,0,0,0,0,0,0,0,0,0,0,0,0,0,0,0,0,0,0,0,0,0,0,0,0,0,0,0,0,0,0,0,0,0,0,0,0,0,0,0,0,
0,0,0,0,0,0,0,0,0,0,0,0,0,0,0,0,0,0,0,0,0,0,0,0,0,0,0,0,0,0,0,0,0,0,0,0,0,0,0,0,0,0,0,0,0,0,0,0,0,0,
0,0,0,0,0,0,0,0,0,0,0,0,0,0,0,0,0,0,0,0,0,0,0,0,0,0,0,0,0,0,0,0,0,0,0,0,0,0,0,0,0,0,0,0,0,0,0,0,0,0,
0,0,0,0,0,0,0,0,1161,0,0,0,0,0,0,0,0,0,0,0,0,0,0,0,0,0,0,0,0,0,0,0,0,0,0,0,0,0,0,0,0,0,0,0,0,0,0,0,0,0,
0,0,0,0,0,0,0,0,1169,1161,0,0,0,0,0,0,0,0,0,0,0,0,0,0,0,0,0,0,0,0,0,0,0,0,0,0,0,0,0,0,0,0,0,0,0,0,0,0,0,0,
0,0,0,0,0,0,0,0,1169,1169,0,0,0,0,0,0,0,0,0,0,0,0,0,0,0,0,0,0,0,0,0,0,0,0,0,0,0,0,0,0,0,0,0,0,0,0,0,0,0,0,
0,0,0,0,0,0,0,0,1169,1169,0,0,0,0,0,0,0,0,0,0,0,0,0,0,0,0,0,0,0,0,0,0,0,0,0,0,0,0,0,0,0,0,0,0,0,0,0,0,0,0,
0,0,0,0,0,0,0,0,1169,1169,0,1171,0,0,0,0,0,0,0,0,0,0,0,0,0,0,0,0,0,11918,0,0,0,0,0,0,0,0,0,0,0,0,0,0,0,0,0,0,0,0,
0,0,0,0,0,0,0,0,1169,1169,0,1171,0,0,0,0,0,0,0,0,0,0,0,0,0,0,0,0,0,0,0,0,0,0,0,0,0,0,0,0,0,0,0,0,0,0,0,0,0,0,
0,0,0,0,0,0,0,0,1169,1169,0,1171,0,0,0,0,0,0,0,0,0,0,0,0,0,0,0,0,0,0,0,0,0,0,0,0,0,0,0,0,0,0,0,0,0,0,0,0,0,0,
0,0,0,0,0,0,0,0,1169,1169,0,1171,0,0,0,0,0,0,0,0,0,0,0,0,0,0,0,0,0,0,0,0,0,0,0,0,0,0,0,0,0,0,0,0,0,0,0,0,0,0,
0,0,0,0,0,0,0,0,1169,1169,0,1171,0,0,0,0,0,0,0,0,0,0,0,0,0,0,0,0,0,0,0,0,0,0,0,0,0,0,0,0,0,0,0,0,0,0,0,0,0,0,
0,0,0,0,0,0,0,0,1169,1169,0,1171,0,0,0,0,0,0,0,0,0,0,0,0,0,0,0,0,0,0,0,0,0,0,0,0,0,0,0,0,0,0,0,0,0,0,0,0,0,0,
0,0,0,0,0,0,0,0,1169,1169,0,1171,0,0,0,0,0,0,0,0,0,0,0,0,0,0,0,0,0,0,0,0,0,0,0,0,0,0,0,0,0,0,0,0,0,0,0,0,0,0,
0,0,0,0,0,0,0,0,1169,1169,0,1171,0,0,0,0,0,0,0,0,0,0,0,0,0,0,0,0,0,0,0,0,0,0,0,0,0,0,0,0,0,0,0,0,0,0,0,0,0,0,
0,0,0,0,0,0,0,1197,1169,1169,0,1171,0,0,0,0,0,0,0,0,0,0,0,0,0,0,0,0,0,0,0,0,0,0,0,0,0,0,0,0,0,0,0,0,0,0,0,0,0,0,
0,0,0,0,0,0,0,1205,1169,1169,0,1171,0,0,0,0,0,0,0,0,0,0,0,0,0,0,0,0,0,0,0,0,0,0,0,0,0,0,0,0,0,0,0,0,0,0,0,0,0,0,
0,0,0,0,0,0,0,0,1169,1169,0,1171,0,0,0,0,0,0,0,0,0,0,0,0,0,0,0,0,0,0,0,0,0,0,0,0,0,0,0,0,0,0,0,0,0,0,0,0,0,0,
0,0,0,0,0,0,0,0,1169,1169,0,1171,0,0,0,0,0,0,0,0,0,0,0,0,0,0,0,0,0,0,0,0,0,0,0,0,0,0,0,0,0,0,0,0,0,0,0,0,0,0,
0,0,0,0,0,0,0,0,1169,1169,0,1171,0,0,0,0,0,0,0,0,0,0,0,0,0,0,0,0,0,0,0,0,0,0,0,0,0,0,0,0,0,0,0,0,0,0,0,0,0,0,
0,0,0,0,0,0,0,0,0,1169,0,1171,0,0,0,0,0,0,0,0,0,0,0,0,0,0,0,0,0,0,0,0,0,0,0,0,0,0,0,0,0,0,0,0,0,0,0,0,0,0,
0,0,0,0,0,0,0,0,0,1169,1170,1171,0,0,0,0,0,0,0,0,0,0,0,0,0,0,0,0,0,0,0,0,0,0,0,0,0,0,0,0,0,0,0,0,0,0,0,0,0,0,
0,0,0,0,0,0,0,0,0,1169,1170,1171,0,0,0,0,0,1161,1162,1163,0,0,0,0,0,0,0,0,0,0,0,0,0,0,0,0,0,0,0,0,0,0,0,0,0,0,0,0,0,0,
0,0,0,0,0,0,0,0,0,1177,1196,1179,0,0,0,0,0,1169,1170,1171,0,0,0,0,0,0,0,0,0,0,0,0,0,0,0,0,0,0,0,0,0,0,0,0,0,0,0,0,0,0,
0,0,0,0,0,0,0,0,0,0,0,0,0,0,0,0,0,1177,1178,1179,0,0,0,0,0,0,0,0,0,0,0,0,0,0,0,0,0,0,0,0,0,0,0,0,0,0,0,0,0,0,
0,0,0,0,0,0,0,0,0,0,0,0,0,0,0,0,0,0,0,0,0,0,0,0,0,0,0,0,0,0,0,0,0,0,0,0,0,0,0,0,0,0,0,0,0,0,0,0,0,0,
0,0,0,0,0,0,0,0,0,1161,1162,1163,0,0,0,0,0,0,0,0,0,0,0,0,0,0,0,0,0,0,0,0,0,0,0,0,0,0,0,0,0,0,0,0,0,0,0,0,0,0,
0,0,0,0,0,0,0,0,0,1169,1170,1171,0,0,0,0,0,0,0,0,0,0,0,0,0,0,0,0,0,0,0,0,0,0,0,0,0,0,0,0,0,0,0,0,0,0,0,0,0,0,
0,0,0,0,0,0,0,0,0,1177,1178,1179,0,0,0,0,0,0,0,0,0,0,0,0,0,0,0,0,0,0,0,0,0,0,0,0,0,0,0,0,0,0,0,0,0,0,0,0,0,0,
0,0,0,0,0,0,0,0,0,0,0,0,0,0,0,0,0,0,0,0,0,0,0,0,0,0,0,0,0,0,0,0,0,0,0,0,0,0,0,0,0,0,0,0,0,0,0,0,0,0,
0,0,0,0,0,0,0,0,0,0,0,0,0,0,0,0,0,0,0,0,0,0,0,0,0,0,0,0,0,0,0,0,0,0,0,0,0,0,0,0,0,0,0,0,0,0,0,0,0,0,
0,0,0,0,0,0,0,1214,0,0,0,0,1214,0,0,11918,0,0,0,0,0,0,0,0,0,0,0,0,0,0,0,0,0,0,0,0,1161,1162,1163,0,0,0,0,0,0,0,0,0,0,0,
0,0,0,0,0,0,0,0,0,0,0,0,0,0,0,0,0,0,0,0,0,0,0,0,0,0,0,0,0,0,0,0,0,0,0,0,1169,1170,1171,0,0,0,0,0,0,0,0,0,0,0,
0,0,0,0,0,0,0,0,0,0,0,0,0,0,0,0,0,0,0,0,0,0,0,1214,0,0,0,0,0,0,0,0,0,0,0,0,1177,1178,1179,0,0,0,0,0,0,0,0,0,0,0,
0,0,0,0,0,0,0,0,0,0,0,0,0,0,0,0,0,0,0,0,0,0,0,0,0,0,0,0,0,0,0,0,0,0,0,0,0,0,0,0,0,0,0,0,0,0,0,0,0,0,
0,0,0,0,0,0,0,0,0,0,0,0,0,0,0,0,0,0,0,0,0,0,0,0,0,0,0,0,0,0,0,0,0,0,0,0,0,0,0,0,0,0,0,0,0,0,0,0,0,0,
0,0,0,0,0,0,0,0,0,0,0,0,0,0,0,0,0,0,0,1214,0,0,0,0,0,0,0,0,0,0,0,0,0,0,0,11918,0,0,0,0,0,0,0,0,0,0,0,0,0,0,
0,0,0,0,0,0,0,0,0,0,0,0,0,0,0,0,0,0,0,0,0,0,0,0,0,0,0,0,0,0,0,0,0,0,0,0,0,0,0,0,0,0,0,0,0,0,0,0,0,0,
0,0,0,0,0,0,0,0,0,0,0,0,0,0,0,0,0,0,0,0,0,0,0,0,0,0,0,0,0,0,0,0,0,0,0,0,0,0,0,0,0,0,0,0,0,0,0,0,0,0,
0,0,0,0,0,0,0,0,0,0,0,0,0,0,0,0,0,0,0,0,0,0,0,0,0,0,0,0,0,0,0,0,0,0,0,0,0,0,0,0,0,0,0,0,0,0,0,0,0,0,
0,0,0,0,0,0,0,0,0,0,0,0,0,0,0,0,0,0,0,0,0,1214,0,0,0,0,0,0,0,0,0,0,0,0,0,0,0,0,0,0,0,0,0,0,0,0,0,0,0,0,
0,0,0,0,0,0,0,0,0,0,0,0,0,0,0,0,0,0,0,0,0,0,0,0,0,0,0,0,0,0,0,0,0,0,0,0,0,0,0,0,0,0,0,0,0,0,0,0,0,0,
0,0,0,0,0,0,0,0,0,0,0,0,0,0,0,0,0,0,0,0,0,0,0,0,0,0,0,0,0,0,0,0,0,0,0,0,0,0,0,0,0,0,0,0,0,0,0,0,0,0,
0,0,0,0,0,0,0,0,0,0,0,0,0,0,0,0,0,0,0,0,0,0,0,0,0,0,0,0,0,0,0,0,0,0,0,0,0,0,0,0,0,0,0,0,0,0,0,0,0,0,
0,0,0,0,0,0,0,0,0,0,0,0,0,0,0,0,0,0,0,0,0,0,0,0,0,0,0,0,0,0,0,0,0,0,0,0,0,0,0,0,0,0,0,0,0,0,0,0,0,0,
0,0,0,0,0,0,0,0,0,0,0,0,0,0,0,0,0,0,0,0,0,0,0,0,0,0,0,0,0,0,0,0,0,0,0,0,0,0,0,0,0,0,0,0,0,0,0,0,0,0
</data>
 </layer>
 <layer id="4" name="sopra_testa" width="50" height="50">
  <data encoding="csv">
0,0,0,0,0,0,0,0,0,0,0,0,0,0,0,0,0,0,0,0,0,0,0,0,0,0,0,0,0,0,0,0,0,0,0,0,0,0,0,0,0,0,0,0,0,0,0,0,0,0,
0,0,0,0,0,0,0,0,0,0,0,0,0,0,0,0,0,0,0,0,0,0,0,0,0,0,0,0,0,0,0,0,0,0,0,0,0,0,0,0,0,0,0,0,0,0,0,0,0,0,
0,0,0,0,0,0,0,0,0,0,0,0,0,0,0,0,0,0,0,0,0,0,0,0,0,0,0,0,0,0,0,0,0,0,0,0,0,0,0,0,0,0,0,0,0,0,0,0,0,0,
0,0,0,0,0,0,0,0,0,0,0,0,0,0,0,0,0,0,0,0,0,0,0,0,0,0,0,0,0,0,0,0,0,0,0,0,0,0,0,0,0,0,0,0,0,0,0,0,0,0,
0,0,0,0,0,0,0,0,0,0,0,0,0,0,0,0,0,0,0,0,0,0,0,0,0,0,0,0,0,0,0,0,0,0,0,0,0,0,0,0,0,0,0,0,0,0,0,0,0,0,
0,0,0,0,0,0,0,0,0,0,0,0,0,0,0,0,0,0,0,0,0,0,0,0,0,0,0,0,0,0,0,0,0,0,0,0,0,0,0,0,0,0,0,0,0,0,0,0,0,0,
0,0,0,0,0,0,0,0,0,0,0,0,0,0,0,0,0,0,0,0,0,0,0,0,0,0,0,0,0,0,0,0,0,0,0,0,0,0,0,0,0,0,0,0,0,0,0,0,0,0,
0,0,0,0,0,0,0,0,0,0,0,0,0,0,0,0,0,0,0,0,0,0,0,0,0,0,0,0,0,0,0,0,0,0,0,0,0,0,0,0,0,0,0,0,0,0,0,0,0,0,
0,0,0,0,0,0,0,0,0,0,0,0,0,0,0,0,0,0,0,0,0,0,0,0,0,0,0,0,0,0,0,0,0,0,0,0,0,0,0,0,0,0,0,0,0,0,0,0,0,0,
0,0,0,0,0,0,0,0,0,0,0,0,0,0,0,0,0,0,0,0,0,0,0,0,0,0,0,0,0,0,0,0,0,0,0,0,0,0,0,0,0,0,0,0,0,0,0,0,0,0,
0,0,0,0,0,0,0,0,0,0,0,0,0,0,0,0,0,0,0,0,0,0,0,0,0,0,0,0,0,0,0,0,0,0,0,0,0,0,0,0,0,0,0,0,0,0,0,0,0,0,
0,0,0,0,0,0,0,0,0,0,0,0,0,0,0,0,0,0,0,0,0,0,0,0,0,0,0,0,0,0,0,0,0,0,0,0,0,0,0,0,0,0,0,0,0,0,0,0,0,0,
0,0,0,0,0,0,0,0,0,0,0,0,0,0,0,0,0,0,0,0,0,0,0,0,0,0,0,0,0,0,0,0,0,0,0,0,0,0,0,0,0,0,0,0,0,0,0,0,0,0,
0,0,0,0,0,0,0,0,0,0,0,0,0,0,0,0,0,0,0,0,0,0,0,0,0,0,0,0,0,0,0,0,0,0,0,0,0,0,0,0,0,0,0,0,0,0,0,0,0,0,
0,0,0,0,0,0,0,0,0,0,0,0,0,0,0,0,0,0,0,0,0,0,0,0,0,0,0,0,0,0,0,0,0,0,0,0,0,0,0,0,0,0,0,0,0,0,0,0,0,0,
0,0,0,0,0,0,0,0,0,0,0,0,0,0,0,0,0,0,0,0,0,0,0,0,0,0,0,0,0,0,0,0,0,0,0,0,0,0,0,0,0,0,0,0,0,0,0,0,0,0,
0,0,0,0,0,0,0,0,0,0,0,0,0,0,0,0,0,0,0,0,0,0,0,0,0,0,0,0,0,0,0,0,0,0,0,0,0,0,0,0,0,0,0,0,0,0,0,0,0,0,
0,0,0,0,0,0,0,0,0,0,0,0,0,0,0,0,0,0,0,0,0,0,0,0,0,0,0,0,0,0,0,0,0,0,0,0,0,0,0,0,0,0,0,0,0,0,0,0,0,0,
0,0,0,0,0,0,0,0,0,0,0,0,0,0,0,0,0,0,0,0,0,0,0,0,0,0,0,0,0,0,0,0,0,0,0,0,0,0,0,0,0,0,0,0,0,0,0,0,0,0,
0,0,0,0,0,0,0,0,0,0,0,0,0,0,0,0,0,0,0,0,0,0,0,0,0,0,0,0,0,0,0,0,0,0,0,0,0,0,0,0,0,0,0,0,0,0,0,0,0,0,
0,0,0,0,0,0,0,0,0,0,0,0,0,0,0,0,0,0,0,0,0,0,0,0,0,0,0,0,0,0,0,0,0,0,0,0,0,0,0,0,0,0,0,0,0,0,0,0,0,0,
0,0,0,0,0,0,0,0,0,0,0,0,0,0,0,0,0,0,0,0,0,0,0,0,0,0,0,0,0,0,0,0,0,0,0,0,0,0,0,0,0,0,0,0,0,0,0,0,0,0,
0,0,0,0,0,0,0,0,0,0,0,0,0,0,0,0,0,0,0,0,0,0,0,0,0,0,0,0,0,0,0,0,0,0,0,0,0,0,0,0,0,0,0,0,0,0,0,0,0,0,
0,0,0,0,0,0,0,0,0,0,0,0,0,0,0,0,0,0,0,0,0,0,0,0,0,0,0,0,0,0,0,0,0,0,0,0,0,0,0,0,0,0,0,0,0,0,0,0,0,0,
0,0,0,0,0,0,0,0,0,0,0,0,0,0,0,0,0,0,0,0,0,0,0,0,0,0,0,0,0,0,0,0,0,0,0,0,0,0,0,0,0,0,0,0,0,0,0,0,0,0,
0,0,0,0,0,0,0,0,0,0,0,0,0,0,0,0,0,0,0,0,0,0,0,0,0,0,0,0,0,0,0,0,0,0,0,0,0,0,0,0,0,0,0,0,0,0,0,0,0,0,
0,0,0,0,0,0,0,0,0,0,0,0,0,0,0,0,0,0,0,0,0,0,0,0,0,0,0,0,0,0,0,0,0,0,0,0,0,0,0,0,0,0,0,0,0,0,0,0,0,0,
0,0,0,0,0,0,0,0,0,0,0,0,0,0,0,0,0,0,0,0,0,0,0,0,0,0,0,0,0,0,0,0,0,0,0,0,0,0,0,0,0,0,0,0,0,0,0,0,0,0,
0,0,0,0,0,0,0,0,0,0,0,0,0,0,0,0,0,0,0,0,0,0,0,0,0,0,0,0,0,0,0,0,0,0,0,0,0,0,0,0,0,0,0,0,0,0,0,0,0,0,
0,0,0,0,0,0,0,0,0,0,0,0,0,0,0,0,0,0,0,0,0,0,0,0,0,0,0,0,0,0,0,0,0,0,0,0,0,0,0,0,0,0,0,0,0,0,0,0,0,0,
0,0,0,0,0,0,0,0,0,0,0,0,0,0,0,0,0,0,0,0,0,0,0,0,0,0,0,0,0,0,0,0,0,0,0,0,0,0,0,0,0,0,0,0,0,0,0,0,0,0,
0,0,0,0,0,0,0,0,0,0,0,0,0,0,0,0,0,0,0,0,0,0,0,0,0,0,0,0,0,0,0,0,0,0,0,0,0,0,0,0,0,0,0,0,0,0,0,0,0,0,
0,0,0,0,0,0,0,0,0,0,0,0,0,0,0,0,0,0,0,0,0,0,0,0,0,0,0,0,0,0,0,0,0,0,0,0,0,0,0,0,0,0,0,0,0,0,0,0,0,0,
0,0,0,0,0,0,0,0,0,0,0,0,0,0,0,0,0,0,0,0,0,0,0,0,0,0,0,0,0,0,0,0,0,0,0,0,0,0,0,0,0,0,0,0,0,0,0,0,0,0,
0,0,0,0,0,0,0,0,0,0,0,0,0,0,0,0,0,0,0,0,0,0,0,0,0,0,0,0,0,0,0,0,0,0,0,0,0,0,0,0,0,0,0,0,0,0,0,0,0,0,
0,0,0,0,0,0,0,0,0,0,0,0,0,0,0,0,0,0,0,0,0,0,0,0,0,0,0,0,0,0,0,0,0,0,0,0,0,0,0,0,0,0,0,0,0,0,0,0,0,0,
0,0,0,0,0,0,0,0,0,0,0,0,0,0,0,0,0,0,0,0,0,0,0,0,0,0,0,0,0,0,0,0,0,0,0,0,0,0,0,0,0,0,0,0,0,0,0,0,0,0,
0,0,0,0,0,0,0,0,0,0,0,0,0,0,0,0,0,0,0,0,0,0,0,0,0,0,0,0,0,0,0,0,0,0,0,0,0,0,0,0,0,0,0,0,0,0,0,0,0,0,
0,0,0,0,0,0,0,0,0,0,0,0,0,0,0,0,0,0,0,0,0,0,0,0,0,0,0,0,0,0,0,0,0,0,0,0,0,0,0,0,0,0,0,0,0,0,0,0,0,0,
0,0,0,0,0,0,0,0,0,0,0,0,0,0,0,0,0,0,0,0,0,0,0,0,0,0,0,0,0,0,0,0,0,0,0,0,0,0,0,0,0,0,0,0,0,0,0,0,0,0,
0,0,0,0,0,0,0,0,0,0,0,0,0,0,0,0,0,0,0,0,0,0,0,0,0,0,0,0,0,0,0,0,0,0,0,0,0,0,0,0,0,0,0,0,0,0,0,0,0,0,
0,0,0,0,0,0,0,0,0,0,0,0,0,0,0,0,0,0,0,0,0,0,0,0,0,0,0,0,0,0,0,0,0,0,0,0,0,0,0,0,0,0,0,0,0,0,0,0,0,0,
0,0,0,0,0,0,0,0,0,0,0,0,0,0,0,0,0,0,0,0,0,0,0,0,0,0,0,0,0,0,0,0,0,0,0,0,0,0,0,0,0,0,0,0,0,0,0,0,0,0,
0,0,0,0,0,0,0,0,0,0,0,0,0,0,0,0,0,0,0,0,0,0,0,0,0,0,0,0,0,0,0,0,0,0,0,0,0,0,0,0,0,0,0,0,0,0,0,0,0,0,
0,0,0,0,0,0,0,0,0,0,0,0,0,0,0,0,0,0,0,0,0,0,0,0,0,0,0,0,0,0,0,0,0,0,0,0,0,0,0,0,0,0,0,0,0,0,0,0,0,0,
0,0,0,0,0,0,0,0,0,0,0,0,0,0,0,0,0,0,0,0,0,0,0,0,0,0,0,0,0,0,0,0,0,0,0,0,0,0,0,0,0,0,0,0,0,0,0,0,0,0,
0,0,0,0,0,0,0,0,0,0,0,0,0,0,0,0,0,0,0,0,0,0,0,0,0,0,0,0,0,0,0,0,0,0,0,0,0,0,0,0,0,0,0,0,0,0,0,0,0,0,
0,0,0,0,0,0,0,0,0,0,0,0,0,0,0,0,0,0,0,0,0,0,0,0,0,0,0,0,0,0,0,0,0,0,0,0,0,0,0,0,0,0,0,0,0,0,0,0,0,0,
0,0,0,0,0,0,0,0,0,0,0,0,0,0,0,0,0,0,0,0,0,0,0,0,0,0,0,0,0,0,0,0,0,0,0,0,0,0,0,0,0,0,0,0,0,0,0,0,0,0,
0,0,0,0,0,0,0,0,0,0,0,0,0,0,0,0,0,0,0,0,0,0,0,0,0,0,0,0,0,0,0,0,0,0,0,0,0,0,0,0,0,0,0,0,0,0,0,0,0,0
</data>
 </layer>
 <objectgroup id="5" name="eventi">
  <object id="2" name="trainer" type="trainer" x="1178" y="223" width="32" height="32">
   <properties>
    <property name="direzione" value="sud"/>
    <property name="id" value="tunnel-2f-1"/>
    <property name="sprite" value="HIKER"/>
    <property name="type" value="trainer"/>
    <property name="vista" type="int" value="4"/>
   </properties>
  </object>
  <object id="3" name="trainer" type="trainer" x="805" y="348" width="32" height="32">
   <properties>
    <property name="direzione" value="est"/>
    <property name="id" value="tunnel-2f-2"/>
    <property name="sprite" value="BLACKBELT"/>
    <property name="type" value="trainer"/>
    <property name="vista" type="int" value="4"/>
   </properties>
  </object>
  <object id="4" name="trainer" type="trainer" x="1314" y="1270" width="32" height="32">
   <properties>
    <property name="direzione" value="sud"/>
    <property name="id" value="tunnel-2f-3"/>
    <property name="sprite" value="HIKER"/>
    <property name="type" value="trainer"/>
    <property name="vista" type="int" value="4"/>
   </properties>
  </object>
  <object id="5" name="trainer" type="trainer" x="1007" y="1254" width="32" height="32">
   <properties>
    <property name="direzione" value="sud"/>
    <property name="id" value="tunnel-2f-4"/>
    <property name="sprite" value="HIKER"/>
    <property name="type" value="trainer"/>
    <property name="vista" type="int" value="4"/>
   </properties>
  </object>
  <object id="6" name="trainer" type="trainer" x="978" y="1005" width="32" height="32">
   <properties>
    <property name="direzione" value="sud"/>
    <property name="id" value="tunnel-2f-5"/>
    <property name="sprite" value="HIKER"/>
    <property name="type" value="trainer"/>
    <property name="vista" type="int" value="4"/>
   </properties>
  </object>
  <object id="7" name="trainer" type="trainer" x="698" y="911" width="32" height="32">
   <properties>
    <property name="direzione" value="sud"/>
    <property name="id" value="tunnel-2f-6"/>
    <property name="sprite" value="HIKER"/>
    <property name="type" value="trainer"/>
    <property name="vista" type="int" value="4"/>
   </properties>
  </object>
  <object id="8" name="trainer" type="trainer" x="442" y="979" width="32" height="32">
   <properties>
    <property name="direzione" value="sud"/>
    <property name="id" value="tunnel-2f-7"/>
    <property name="sprite" value="HIKER"/>
    <property name="type" value="trainer"/>
    <property name="vista" type="int" value="4"/>
   </properties>
  </object>
  <object id="9" name="trainer" type="trainer" x="664" y="1204" width="32" height="32">
   <properties>
    <property name="direzione" value="sud"/>
    <property name="id" value="tunnel-2f-8"/>
    <property name="sprite" value="HIKER"/>
    <property name="type" value="trainer"/>
    <property name="vista" type="int" value="4"/>
   </properties>
  </object>
  <object id="10" name="trainer" type="trainer" x="223" y="1193" width="32" height="32">
   <properties>
    <property name="direzione" value="sud"/>
    <property name="id" value="tunnel-2f-9"/>
    <property name="sprite" value="HIKER"/>
    <property name="type" value="trainer"/>
    <property name="vista" type="int" value="4"/>
   </properties>
  </object>
  <object id="11" name="oggetto" type="oggetto" x="480" y="1120" width="32" height="32">
   <properties>
    <property name="contenuto" value="mt_scavare"/>
    <property name="type" value="oggetto"/>
   </properties>
  </object>
  <object id="12" name="oggetto" type="oggetto" x="1120" y="1280" width="32" height="32">
   <properties>
    <property name="contenuto" value="superpozione"/>
    <property name="type" value="oggetto"/>
   </properties>
  </object>
  <object id="13" name="scala_2f_a_1f" type="warp" x="1286.5" y="259.5" width="18" height="18">
   <properties>
    <property name="destinazione" value="tunnel_roccioso_1f"/>
    <property name="spawn_id" value="da_tunnel_roccioso_1f_a"/>
    <property name="type" value="warp"/>
   </properties>
  </object>
  <object id="14" name="spawn" type="spawn" x="1285.5" y="291.5" width="17.8333" height="15.8333">
   <properties>
    <property name="id" value="da_tunnel_roccioso_1f_a"/>
    <property name="type" value="spawn"/>
   </properties>
  </object>
  <object id="17" name="scala_2f_a_1f" type="warp" x="230.75" y="628.75" width="18" height="18">
   <properties>
    <property name="destinazione" value="tunnel_roccioso_1f"/>
    <property name="spawn_id" value="da_tunnel_roccioso_1f_b"/>
    <property name="type" value="warp"/>
   </properties>
  </object>
  <object id="18" name="spawn" type="spawn" x="231.083" y="580.75" width="20.5" height="22.5">
   <properties>
    <property name="id" value="da_tunnel_roccioso_1f_b"/>
    <property name="type" value="spawn"/>
   </properties>
  </object>
  <object id="20" name="oggetto" type="oggetto" x="930.667" y="350" width="32" height="32">
   <properties>
    <property name="contenuto" value="mt_tomba_di_roccia"/>
    <property name="type" value="oggetto"/>
   </properties>
  </object>
 </objectgroup>
 <objectgroup id="6" name="collisioni">
  <object id="21" x="24" y="8" width="152" height="1253.33"/>
  <object id="22" x="22.6667" y="1254.67" width="502.667" height="352"/>
  <object id="23" x="529.333" y="1516" width="1065.33" height="76"/>
  <object id="24" x="938.667" y="1356" width="633.333" height="193.333"/>
  <object id="25" x="857.333" y="1453.33" width="44" height="52"/>
  <object id="26" x="845.333" y="842.667" width="2.66667" height="672"/>
  <object id="27" x="552" y="845.333" width="68" height="72"/>
  <object id="28" x="302.667" y="969.333" width="76" height="70.6667"/>
  <object id="29" x="618.667" y="1294.67"/>
  <object id="30" x="756" y="1197.33"/>
  <object id="31" x="686.667" y="1420"/>
  <object id="32" x="402.667" y="1137.33"/>
  <object id="33" x="237.333" y="1133.33"/>
  <object id="34" x="938.667" y="782.667" width="2.66667" height="72"/>
  <object id="35" x="906.667" y="842.667" width="21.3333" height="4"/>
  <object id="36" x="400" y="773.333" width="536" height="2.66667"/>
  <object id="38" x="370.667" y="340" width="29.3333" height="416"/>
  <object id="39" x="265.333" y="244" width="14.6667" height="504"/>
  <object id="40" x="237.333" y="688" width="2.66667" height="58.6667"/>
  <object id="41" x="197.333" y="168" width="12" height="573.333"/>
  <object id="42" x="182.667" y="17.3333" width="1409.33" height="160"/>
  <object id="43" x="1380" y="141.333" width="209.333" height="1162.67"/>
  <object id="44" x="1438.67" y="1304" width="122.667" height="113.333"/>
  <object id="45" x="1161.33" y="1132" width="64" height="70.6667"/>
  <object id="46" x="906.667" y="968" width="13.3333" height="526.667"/>
  <object id="47" x="1293.33" y="396" width="2.66667" height="550.667"/>
  <object id="48" x="1358.67" y="332" width="20" height="616"/>
  <object id="49" x="1228" y="354.667" width="6.66667" height="52"/>
  <object id="50" x="1042.67" y="234.667" width="96" height="317.333"/>
  <object id="51" x="524" y="488" width="616" height="77.3333"/>
  <object id="52" x="968" y="654.667" width="78.6667" height="78.6667"/>
  <object id="53" x="390" y="329" width="396" height="43"/>
  <object id="54" x="297" y="226" width="664" height="15"/>
  <object id="55" x="964" y="243" width="18" height="186"/>
  <object id="56" x="290" y="243" width="653" height="9"/>
  <object id="57" x="939" y="255" width="9" height="71"/>
  <object id="58" x="872" y="335" width="55" height="2"/>
  <object id="59" x="799" y="423" width="154" height="5"/>
  <object id="60" x="777" y="373" width="13" height="58"/>
  <object id="61" x="1171.67" y="203.667"/>
  <object id="62" x="1264" y="205"/>
  <object id="63" x="1293.67" y="205.667"/>
  <object id="64" x="1324" y="206.333"/>
  <object id="65" x="1332.67" y="240"/>
  <object id="66" x="1327" y="267" width="0.333333"/>
  <object id="67" x="1266" y="273.667"/>
  <object id="68" x="1233.67" y="243"/>
  <object id="69" x="1247.67" y="321.333" width="105.667" height="3"/>
  <object id="70" x="1231.67" y="329.333" width="1" height="18"/>
 </objectgroup>
</map>
