<?xml version="1.0" encoding="UTF-8"?>
<map version="1.10" tiledversion="1.12.2" orientation="orthogonal" renderorder="right-down" width="50" height="50" tilewidth="32" tileheight="32" infinite="0" nextlayerid="7" nextobjectid="55">
 <editorsettings>
  <export target="Tunnel_roccioso_3f.tmj" format="json"/>
 </editorsettings>
 <tileset firstgid="1" source="../Caves.tsj"/>
 <tileset firstgid="1593" source="../Sea.tsj"/>
 <tileset firstgid="1691" source="../Waterfall.tsj"/>
 <tileset firstgid="1698" source="../Waterfall bottom.tsj"/>
 <tileset firstgid="1702" source="../Waterfall crest.tsj"/>
 <tileset firstgid="1706" source="../../outside.tsx"/>
 <tileset firstgid="5722" source="../../Emerald_Outside.tsx"/>
 <tileset firstgid="10970" source="../outside.tsx"/>
 <layer id="1" name="ground" width="50" height="50">
  <data encoding="csv">
1167,1178,1178,1178,1178,1178,1178,1178,1178,1178,1178,1178,1178,1178,1178,1178,1178,1178,1178,1178,1178,1178,1178,1178,1178,1178,1178,1178,1178,1178,1178,1178,1178,1178,1178,1178,1178,1178,1178,1178,1178,1178,1178,1178,1178,1178,1178,1178,1178,1168,
1171,1167,1178,1178,1178,1178,1178,1178,1178,1178,1178,1178,1178,1178,1178,1178,1178,1178,1178,1178,1178,1178,1178,1178,1178,1178,1178,1178,1178,1178,1178,1178,1178,1178,1178,1178,1178,1178,1178,1178,1178,1178,1178,1178,1178,1178,1178,1178,1168,1169,
1171,1171,1167,1178,1178,1178,1178,1178,1178,1178,1178,1178,1178,1178,1178,1178,1178,1178,1178,1178,1178,1178,1178,1178,1178,1178,1178,1178,1178,1178,1178,1178,1178,1178,1178,1178,1178,1178,1178,1178,1178,1178,1178,1178,1178,1178,1178,1168,1169,1169,
1171,1171,1171,1167,1178,1178,1178,1178,1178,1178,1178,1178,1178,1178,1178,1178,1178,1178,1178,1178,1178,1178,1178,1178,1178,1178,1178,1178,1178,1178,1178,1178,1178,1178,1178,1178,1178,1178,1178,1178,1178,1178,1178,1178,1178,1178,1168,1169,1169,1169,
1171,1171,1171,1171,1243,1243,1243,1243,1243,1243,1243,1243,1243,1243,1243,1243,1243,1243,1243,1243,1243,1243,1243,1243,1243,1243,1243,1243,1243,1243,1243,1243,1243,1243,1243,1243,1243,1243,1243,1243,1243,1243,1243,1243,1243,1243,1169,1169,1169,1169,
1171,1171,1171,1171,1243,1243,1243,1243,1243,1243,1243,1243,1243,1243,1243,1243,1243,1243,1243,1243,1243,1243,1243,1243,1243,1243,1243,1243,1243,1243,1243,1243,1243,1243,1243,1243,1243,1243,1243,1243,1243,1243,1243,1243,1243,1243,1169,1169,1169,1169,
1171,1171,1171,1171,1243,1243,1243,1243,1243,1243,1243,1243,1243,1243,1243,1243,1243,1243,1243,1243,1243,1243,1243,1243,1243,1243,1243,1243,1243,1243,1243,1243,1243,1243,1243,1243,1243,1243,1243,1243,1243,1243,1243,1243,1243,1243,1169,1169,1169,1169,
1171,1171,1171,1171,1243,1243,1243,1243,1243,1243,1243,1243,1243,1243,1243,1243,1243,1243,1243,1243,1243,1243,1243,1243,1243,1243,1243,1243,1243,1243,1243,1243,1243,1243,1243,1243,1243,1243,1243,1243,1243,1243,1243,1243,1243,1243,1169,1169,1169,1169,
1171,1171,1171,1171,1243,1243,1243,1243,1243,1243,1243,1243,1243,1243,1243,1243,1243,1243,1243,1243,1243,1243,1243,1243,1243,1243,1243,1243,1243,1243,1243,1243,1243,1243,1243,1243,1243,1243,1243,1243,1243,1243,1243,1243,1243,1243,1169,1169,1169,1169,
1171,1171,1171,1171,1243,1243,1243,1243,1243,1169,1170,1171,1169,1170,1171,1243,1243,1243,1243,1243,1169,1170,1171,1243,1243,1243,1243,1243,1243,1243,1243,1243,1243,1243,1243,1243,1243,1243,1243,1243,1243,1243,1243,1243,1243,1243,1169,1169,1169,1169,
1171,1171,1171,1171,1243,1243,1243,1243,1243,1169,1170,1171,1169,1170,1171,1243,1243,1243,1243,1243,1169,1170,1171,1243,1243,1243,1243,1243,1169,1170,1171,1243,1243,1243,1243,1243,1243,1243,1243,1243,1243,1243,1243,1243,1243,1243,1169,1169,1169,1169,
1171,1171,1171,1171,1243,1243,1243,1243,1243,1169,1170,1171,1169,1170,1171,1243,1243,1243,1243,1243,1169,1170,1171,1243,1243,1243,1243,1243,1169,1170,1171,1243,1243,1243,1243,1243,1243,1243,1243,1169,1170,1171,1243,1243,1243,1243,1169,1169,1169,1169,
1171,1171,1171,1171,1243,1243,1243,1243,1243,1169,1170,1171,1169,1170,1171,1243,1243,1243,1243,1243,1169,1170,1171,1243,1243,1243,1243,1243,1169,1170,1171,1243,1243,1243,1243,1243,1243,1243,1243,1169,1170,1171,1243,1243,1243,1243,1169,1169,1169,1169,
1171,1171,1171,1171,1243,1243,1243,1243,1243,1169,1170,1171,1169,1170,1171,1243,1243,1243,1243,1243,1169,1170,1171,1243,1243,1243,1243,1243,1169,1170,1171,1243,1243,1243,1243,1243,1243,1243,1243,1169,1170,1171,1243,1243,1243,1243,1169,1169,1169,1169,
1171,1171,1171,1171,1243,1243,1243,1243,1243,1169,1170,1171,1169,1170,1171,1243,1243,1243,1243,1243,1169,1170,1171,1243,1243,1243,1243,1243,1169,1170,1171,1243,1243,1243,1243,1243,1243,1243,1243,1169,1170,1171,1243,1243,1243,1243,1169,1169,1169,1169,
1171,1171,1171,1171,1243,1243,1243,1243,1243,1169,1170,1171,1169,1170,1171,1243,1243,1243,1243,1243,1169,1170,1171,1243,1243,1243,1243,1243,1169,1170,1171,1243,1243,1243,1243,1243,1243,1243,1243,1169,1170,1171,1243,1243,1243,1243,1169,1169,1169,1169,
1171,1171,1171,1171,1243,1243,1243,1243,1243,1177,1178,1179,1177,1178,1179,1243,1243,1243,1243,1243,1169,1170,1171,1243,1243,1243,1243,1243,1169,1170,1171,1243,1243,1243,1243,1243,1243,1243,1243,1169,1170,1171,1243,1243,1243,1243,1169,1169,1169,1169,
1171,1171,1171,1171,1243,1243,1243,1243,1243,1243,1243,1243,1243,1243,1243,1243,1243,1243,1243,1243,1169,1170,1171,1243,1243,1243,1243,1243,1169,1170,1171,1243,1243,1243,1243,1243,1243,1243,1243,1169,1170,1171,1243,1243,1243,1243,1169,1169,1169,1169,
1171,1171,1171,1171,1243,1243,1243,1243,1243,1243,1243,1243,1243,1243,1243,1243,1243,1243,1243,1243,1169,1170,1171,1243,1243,1243,1243,1243,1169,1170,1171,1243,1243,1243,1243,1243,1243,1243,1243,1169,1170,1171,1243,1243,1243,1243,1169,1169,1169,1169,
1171,1171,1171,1171,1243,1243,1243,1243,1243,1243,1243,1243,1243,1243,1243,1243,1243,1243,1243,1243,1169,1170,1171,1243,1243,1243,1243,1243,1169,1170,1171,1243,1243,1243,1243,1243,1243,1243,1243,1169,1170,1171,1243,1243,1243,1243,1169,1169,1169,1169,
1171,1171,1171,1171,1243,1243,1243,1243,1243,1169,1170,1171,1169,1170,1171,1243,1243,1243,1243,1243,1169,1170,1171,1243,1243,1243,1243,1243,1169,1170,1171,1243,1243,1243,1243,1243,1243,1243,1243,1169,1170,1171,1243,1243,1243,1243,1169,1169,1169,1169,
1171,1171,1171,1171,1243,1243,1243,1243,1243,1169,1170,1171,1169,1170,1171,1243,1243,1243,1243,1243,1169,1170,1171,1243,1243,1243,1243,1243,1169,1170,1171,1243,1243,1243,1243,1243,1243,1243,1243,1169,1170,1171,1243,1243,1243,1243,1169,1169,1169,1169,
1171,1171,1171,1171,1243,1243,1243,1243,1243,1169,1170,1171,1169,1170,1171,1243,1243,1243,1243,1243,1169,1170,1171,1243,1243,1243,1243,1243,1169,1170,1171,1243,1243,1243,1243,1243,1243,1243,1243,1169,1170,1171,1243,1243,1243,1243,1169,1169,1169,1169,
1171,1171,1171,1171,1243,1243,1243,1243,1243,1169,1170,1171,1169,1170,1171,1243,1243,1243,1243,1243,1169,1170,1171,1243,1243,1243,1243,1243,1169,1170,1171,1243,1243,1243,1243,1243,1243,1243,1243,1169,1170,1171,1243,1243,1243,1243,1169,1169,1169,1169,
1171,1171,1171,1171,1243,1243,1243,1243,1243,1169,1170,1171,1169,1170,1171,1243,1243,1243,1243,1243,1169,1170,1171,1243,1243,1243,1243,1243,1169,1170,1171,1243,1243,1243,1243,1243,1243,1243,1243,1169,1170,1171,1243,1243,1243,1243,1169,1169,1169,1169,
1171,1171,1171,1171,1243,1243,1243,1243,1243,1169,1170,1171,1169,1170,1171,1243,1243,1243,1243,1243,1169,1170,1171,1243,1243,1243,1243,1243,1169,1170,1171,1243,1243,1243,1243,1243,1243,1243,1243,1169,1170,1171,1243,1243,1243,1243,1169,1169,1169,1169,
1171,1171,1171,1171,1243,1243,1243,1243,1243,1169,1170,1171,1169,1170,1171,1243,1243,1243,1243,1243,1169,1170,1171,1243,1243,1243,1243,1243,1169,1170,1171,1243,1243,1243,1243,1243,1243,1243,1243,1169,1170,1171,1243,1243,1243,1243,1169,1169,1169,1169,
1171,1171,1171,1171,1243,1243,1243,1243,1243,1169,1170,1171,1169,1170,1171,1243,1243,1243,1243,1243,1169,1170,1171,1243,1243,1243,1243,1243,1169,1170,1171,1243,1243,1243,1243,1243,1243,1243,1243,1169,1170,1171,1243,1243,1243,1243,1169,1169,1169,1169,
1171,1171,1171,1171,1243,1243,1243,1243,1243,1169,1170,1171,1169,1170,1171,1243,1243,1243,1243,1243,1169,1170,1171,1243,1243,1243,1243,1243,1169,1170,1171,1243,1243,1243,1243,1243,1243,1243,1243,1169,1170,1171,1243,1243,1243,1243,1169,1169,1169,1169,
1171,1171,1171,1171,1243,1243,1243,1243,1243,1177,1178,1179,1177,1178,1179,1243,1243,1243,1243,1243,1169,1170,1171,1243,1243,1243,1243,1243,1169,1170,1171,1243,1243,1243,1243,1243,1243,1243,1243,1169,1170,1171,1243,1243,1243,1243,1169,1169,1169,1169,
1171,1171,1171,1171,1243,1243,1243,1243,1243,1243,1243,1243,1243,1243,1243,1243,1243,1243,1243,1243,1169,1170,1171,1243,1243,1243,1243,1243,1169,1170,1171,1243,1243,1243,1243,1243,1243,1243,1243,1169,1170,1171,1243,1243,1243,1243,1169,1169,1169,1169,
1171,1171,1171,1171,1243,1243,1243,1243,1243,1243,1243,1243,1243,1243,1243,1243,1243,1243,1243,1243,1169,1170,1171,1243,1243,1243,1243,1243,1169,1170,1171,1243,1243,1243,1243,1243,1243,1243,1243,1169,1170,1171,1243,1243,1243,1243,1169,1169,1169,1169,
1171,1171,1171,1171,1243,1243,1243,1243,1243,1243,1243,1243,1243,1243,1243,1243,1243,1243,1243,1243,1169,1170,1171,1243,1243,1243,1243,1243,1169,1170,1171,1243,1243,1243,1243,1243,1243,1243,1243,1169,1170,1171,1243,1243,1243,1243,1169,1169,1169,1169,
1171,1171,1171,1171,1243,1243,1243,1243,1243,1243,1243,1243,1243,1243,1243,1243,1243,1243,1243,1243,1169,1170,1171,1243,1243,1243,1243,1243,1169,1170,1171,1243,1243,1243,1243,1243,1243,1243,1243,1169,1170,1171,1243,1243,1243,1243,1169,1169,1169,1169,
1171,1171,1171,1171,1243,1243,1243,1243,1243,1169,1170,1171,1169,1170,1171,1243,1243,1243,1243,1243,1169,1170,1171,1243,1243,1243,1243,1243,1169,1170,1171,1243,1243,1243,1243,1243,1243,1243,1243,1169,1170,1171,1243,1243,1243,1243,1169,1169,1169,1169,
1171,1171,1171,1171,1243,1243,1243,1243,1243,1169,1170,1171,1169,1170,1171,1243,1243,1243,1243,1243,1169,1170,1171,1243,1243,1243,1243,1243,1169,1170,1171,1243,1243,1243,1243,1243,1243,1243,1243,1169,1170,1171,1243,1243,1243,1243,1169,1169,1169,1169,
1171,1171,1171,1171,1243,1243,1243,1243,1243,1169,1170,1171,1169,1170,1171,1243,1243,1243,1243,1243,1169,1170,1171,1243,1243,1243,1243,1243,1169,1170,1171,1243,1243,1243,1243,1243,1243,1243,1243,1169,1170,1171,1243,1243,1243,1243,1169,1169,1169,1169,
1171,1171,1171,1171,1243,1243,1243,1243,1243,1169,1170,1171,1169,1170,1171,1243,1243,1243,1243,1243,1169,1170,1171,1243,1243,1243,1243,1243,1169,1170,1171,1243,1243,1243,1243,1243,1243,1243,1243,1169,1170,1171,1243,1243,1243,1243,1169,1169,1169,1169,
1171,1171,1171,1171,1243,1243,1243,1243,1243,1169,1170,1171,1169,1170,1171,1243,1243,1243,1243,1243,1169,1170,1171,1243,1243,1243,1243,1243,1169,1170,1171,1243,1243,1243,1243,1243,1243,1243,1243,1169,1170,1171,1243,1243,1243,1243,1169,1169,1169,1169,
1171,1171,1171,1171,1243,1243,1243,1243,1243,1169,1170,1171,1169,1170,1171,1243,1243,1243,1243,1243,1169,1170,1171,1243,1243,1243,1243,1243,1169,1170,1171,1243,1243,1243,1243,1243,1243,1243,1243,1169,1170,1171,1243,1243,1243,1243,1169,1169,1169,1169,
1171,1171,1171,1171,1243,1243,1243,1243,1243,1169,1170,1171,1169,1170,1171,1243,1243,1243,1243,1243,1169,1170,1171,1243,1243,1243,1243,1243,1169,1170,1171,1243,1243,1243,1243,1243,1243,1243,1243,1169,1170,1171,1243,1243,1243,1243,1169,1169,1169,1169,
1171,1171,1171,1171,1243,1243,1243,1243,1243,1169,1170,1171,1169,1170,1171,1243,1243,1243,1243,1243,1177,1178,1179,1243,1243,1243,1243,1243,1169,1170,1171,1243,1243,1243,1243,1243,1243,1243,1243,1169,1170,1171,1243,1243,1243,1243,1169,1169,1169,1169,
1171,1171,1171,1171,1243,1243,1243,1243,1243,1177,1178,1179,1177,1178,1179,1243,1243,1243,1243,1243,1243,1243,1243,1243,1243,1243,1243,1243,1177,1178,1179,1243,1243,1243,1243,1243,1243,1243,1243,1169,1170,1171,1243,1243,1243,1243,1169,1169,1169,1169,
1171,1171,1171,1171,1243,1243,1243,1243,1243,1243,1243,1243,1243,1243,1243,1243,1243,1243,1243,1243,1243,1243,1243,1243,1243,1243,1243,1243,1243,1243,1243,1243,1243,1243,1243,1243,1243,1243,1243,1169,1170,1171,1243,1243,1243,1243,1169,1169,1169,1169,
1171,1171,1171,1171,1243,1243,1243,1243,1243,1243,1243,1243,1243,1243,1243,1243,1243,1243,1243,1243,1243,1243,1243,1243,1243,1243,1243,1243,1243,1243,1243,1243,1243,1243,1243,1243,1243,1243,1243,1177,1178,1179,1243,1243,1243,1243,1169,1169,1169,1169,
1171,1171,1171,1171,1243,1243,1243,1243,1243,1243,1243,1243,1243,1243,1243,1243,1243,1243,1243,1243,1243,1243,1243,1243,1243,1243,1243,1243,1243,1243,1243,1243,1243,1243,1243,1243,1243,1243,1243,1243,1243,1243,1243,1243,1243,1243,1169,1169,1169,1169,
1171,1171,1171,1162,1162,1162,1162,1162,1162,1162,1162,1162,1162,1162,1162,1162,1162,1162,1162,1162,1162,1162,1162,1162,1162,1162,1162,1162,1162,1162,1162,1162,1162,1162,1162,1162,1162,1162,1162,1162,1162,1162,1162,1162,1162,1162,1162,1169,1169,1169,
1171,1171,1162,1162,1162,1162,1162,1162,1162,1162,1162,1162,1162,1162,1162,1162,1162,1162,1162,1162,1162,1162,1162,1162,1162,1162,1162,1162,1162,1162,1162,1162,1162,1162,1162,1162,1162,1162,1162,1162,1162,1162,1162,1162,1162,1162,1162,1162,1169,1169,
1171,1162,1162,1162,1162,1162,1162,1162,1162,1162,1162,1162,1162,1162,1162,1162,1162,1162,1162,1162,1162,1162,1162,1162,1162,1162,1162,1162,1162,1162,1162,1162,1162,1162,1162,1162,1162,1162,1162,1162,1162,1162,1162,1162,1162,1162,1162,1162,1162,1169,
1162,1162,1162,1162,1162,1162,1162,1162,1162,1162,1162,1162,1162,1162,1162,1162,1162,1162,1162,1162,1162,1162,1162,1162,1162,1162,1162,1162,1162,1162,1162,1162,1162,1162,1162,1162,1162,1162,1162,1162,1162,1162,1162,1162,1162,1162,1162,1162,1162,1162
</data>
 </layer>
 <layer id="2" name="deco_sotto" width="50" height="50">
  <data encoding="csv">
0,0,0,0,0,0,0,0,0,0,0,0,0,0,0,0,0,0,0,0,0,0,0,0,0,0,0,0,0,0,0,0,0,0,0,0,0,0,0,0,0,0,0,0,0,0,0,0,0,0,
0,0,0,0,0,0,0,0,0,0,0,0,0,0,0,0,0,0,0,0,0,0,0,0,0,0,0,0,0,0,0,0,0,0,0,0,0,0,0,0,0,0,0,0,0,0,0,0,0,0,
0,0,0,0,0,0,0,0,0,0,0,0,0,0,0,0,0,0,0,0,0,0,0,0,0,0,0,0,0,0,0,0,0,0,0,0,0,0,0,0,0,0,0,0,0,0,0,0,0,0,
0,0,0,0,0,0,0,0,0,0,0,1183,1184,0,0,0,0,0,0,0,0,0,0,0,0,0,0,0,0,0,0,0,0,1183,1184,0,0,0,0,0,1183,1184,0,0,0,0,0,0,0,0,
0,0,0,0,0,1197,0,0,1214,0,0,1191,1192,0,0,1214,1214,0,0,0,0,0,0,1214,0,1214,0,0,0,1214,0,0,0,1191,1192,0,0,0,0,0,1191,1192,0,0,0,0,0,0,0,0,
0,0,0,0,0,1205,0,0,1214,1214,0,0,0,0,1214,0,0,1214,1214,1214,0,0,1214,0,0,0,1214,0,1214,0,0,0,0,0,0,0,0,0,0,0,0,0,0,0,0,0,0,0,0,0,
0,0,0,0,0,0,0,1214,0,0,1214,1214,1214,1214,0,0,0,0,0,0,1214,1214,0,0,0,0,0,1214,0,0,0,0,0,0,0,0,0,1215,0,0,0,0,0,0,0,0,0,0,0,0,
0,0,0,0,0,0,1214,0,0,0,0,0,0,0,0,0,0,0,0,0,0,0,0,0,0,0,0,0,0,0,0,0,0,0,1215,0,0,1223,0,0,0,0,0,0,1214,0,0,0,0,0,
0,0,0,0,0,0,1214,0,0,1161,1162,1163,1161,1162,1163,0,0,0,1214,1214,1161,1162,1163,0,0,0,0,0,1214,0,0,0,0,0,1223,0,0,0,0,0,0,0,0,0,1214,0,0,0,0,0,
0,0,0,0,0,0,1214,0,0,0,0,0,0,0,0,0,0,1214,1214,0,0,0,0,0,0,0,1214,1214,1161,1162,1163,0,0,0,0,0,0,0,0,0,0,0,0,0,1214,0,0,0,0,0,
0,0,0,0,0,0,1214,0,0,0,0,0,0,0,0,0,1214,1214,0,0,0,0,0,1214,0,1214,1214,0,0,0,0,0,0,0,0,0,0,0,0,1161,1162,1163,0,0,1214,0,0,0,0,0,
0,0,0,0,0,0,1214,0,0,0,0,0,0,0,0,1214,1214,0,0,0,0,0,0,0,0,0,0,0,0,0,0,0,0,0,0,0,0,0,0,0,0,0,0,0,1214,0,0,0,0,0,
0,0,0,0,0,0,1214,0,0,0,0,0,0,0,0,0,0,0,0,0,0,0,0,0,0,0,0,0,0,0,0,0,0,0,0,0,0,1215,0,0,0,0,0,0,1214,1214,0,0,0,0,
0,0,0,0,0,0,1214,0,0,0,0,0,0,0,0,0,0,0,0,0,0,0,0,0,0,0,0,0,0,0,0,0,0,0,0,0,0,1223,0,0,0,0,0,0,0,1214,0,0,0,0,
0,0,0,0,0,0,1214,0,0,0,0,0,0,0,0,0,0,0,0,0,0,0,0,0,0,0,0,0,0,0,0,1161,1162,1163,0,0,0,0,0,0,0,0,0,0,0,1214,0,0,0,0,
0,0,0,0,0,0,1214,0,0,0,0,0,0,0,0,0,0,0,0,0,0,0,0,0,0,0,0,0,0,0,0,1169,1170,1171,0,0,0,0,0,0,0,0,0,0,0,1214,0,0,0,0,
0,0,0,0,0,0,1214,0,0,0,0,0,0,0,0,0,0,0,0,0,0,0,0,0,0,0,0,0,0,0,0,1177,1178,1179,0,0,0,0,0,0,0,0,0,0,0,1214,0,0,0,0,
0,0,0,0,0,0,1214,1214,0,0,0,0,0,0,0,0,0,0,0,0,0,0,0,0,0,0,0,0,0,0,0,0,0,0,0,0,0,0,0,0,0,0,0,0,1214,1214,0,0,0,0,
0,0,0,0,0,0,1214,1214,1214,0,0,0,0,0,0,0,0,0,0,0,0,0,0,0,0,0,0,0,0,0,0,0,0,0,0,0,0,0,0,0,0,0,0,0,1214,0,0,0,0,0,
0,0,0,0,0,0,0,1214,1214,1161,1162,1163,1161,1162,1163,0,0,0,0,0,0,0,0,0,0,0,0,0,0,0,0,0,0,0,0,1161,1162,1162,1163,0,0,0,0,0,1214,0,0,0,0,0,
0,0,0,0,0,0,1214,0,0,0,0,0,0,0,0,0,0,1214,0,0,0,0,0,0,0,0,0,0,0,0,0,0,0,0,0,1169,1170,1170,1171,0,0,0,0,0,1214,0,0,0,0,0,
0,0,0,0,0,0,1214,0,0,0,0,0,0,0,0,0,0,1214,0,0,0,0,0,0,0,0,0,0,0,0,0,0,0,0,0,1177,1183,1184,1179,0,0,0,0,0,1214,0,0,0,0,0,
0,0,0,0,0,0,1214,0,0,0,0,0,0,0,0,0,0,1214,0,0,0,0,0,0,0,0,0,0,0,0,0,0,0,0,0,0,1191,1192,0,0,0,0,0,0,1214,0,0,0,0,0,
0,0,0,0,0,0,1214,0,0,0,0,0,0,0,0,0,0,1214,0,0,0,0,0,0,0,0,0,0,0,0,0,0,0,0,0,0,0,0,0,0,0,0,0,1214,1214,0,0,0,0,0,
0,0,0,0,0,1214,0,0,0,0,0,0,0,0,0,0,0,1214,0,0,0,0,0,0,0,0,0,0,0,0,0,0,0,0,0,0,0,0,0,0,0,0,0,1214,0,0,0,0,0,0,
0,0,0,0,0,1214,0,0,0,0,0,0,0,0,0,0,0,1214,0,0,0,0,0,0,0,0,0,0,0,0,0,0,0,0,0,0,0,0,0,0,0,0,0,1214,0,0,0,0,0,0,
0,0,0,0,0,1214,1214,0,0,0,0,0,0,0,0,0,0,1214,0,0,0,0,0,0,0,0,0,0,0,0,0,0,0,0,0,0,0,0,0,0,0,0,0,1214,0,0,0,0,0,0,
0,0,0,0,0,0,1214,0,0,0,0,0,0,0,0,0,0,1214,0,0,0,0,0,0,0,0,0,0,0,0,0,1161,1162,1163,0,0,0,0,0,0,0,0,0,1214,0,0,0,0,0,0,
0,0,0,0,0,0,1214,0,0,0,0,0,0,0,0,0,0,1214,0,0,0,0,0,0,0,0,0,0,0,0,0,1169,1170,1171,0,0,0,0,0,0,0,0,0,1214,0,0,0,0,0,0,
0,0,0,0,0,0,1214,0,0,0,0,0,0,0,0,0,1214,1214,0,0,0,0,0,0,0,0,0,0,0,0,0,1177,1178,1179,0,0,0,0,0,0,0,0,0,1214,0,0,0,0,0,0,
0,0,0,0,0,0,1214,1214,0,0,0,0,0,0,0,0,1214,0,0,0,0,0,0,0,0,0,0,0,0,0,0,0,0,0,0,0,0,0,0,0,0,0,0,1214,0,0,0,0,0,0,
0,0,0,0,0,0,0,1214,1214,1214,1214,1214,1214,1214,1214,1214,1214,0,0,0,0,0,0,0,0,0,0,0,0,0,0,0,0,0,0,0,0,0,0,0,0,0,0,1214,0,0,0,0,0,0,
0,0,0,0,0,0,1214,1214,0,0,0,0,0,0,0,0,0,0,0,0,0,0,0,0,0,0,0,0,0,0,0,0,0,0,0,0,0,0,0,0,0,0,0,1214,0,0,0,0,0,0,
0,0,0,0,0,1214,0,1214,0,1161,1162,1163,1161,1162,1163,0,0,0,0,0,0,0,0,0,0,0,0,0,0,0,0,0,0,0,0,0,0,0,0,0,0,0,0,1214,0,0,0,0,0,0,
0,0,0,0,0,1214,0,1214,0,0,0,0,0,0,0,0,0,1215,0,0,0,0,0,0,0,0,0,0,0,0,0,0,0,0,0,1161,1162,1162,1163,0,0,0,0,1214,0,0,0,0,0,0,
0,0,0,0,0,1214,0,1214,0,0,0,0,0,0,0,0,0,1223,0,0,0,0,0,0,0,0,0,0,0,0,0,0,0,0,0,1169,1170,1170,1171,0,0,0,0,0,1214,0,0,0,0,0,
0,0,0,0,0,1214,0,1214,0,0,0,0,0,0,0,0,0,0,0,0,0,0,0,0,0,0,0,0,0,0,0,0,0,0,0,1177,1183,1184,1179,0,0,0,0,0,0,0,0,0,0,0,
0,0,0,0,0,1214,0,1214,0,0,0,0,0,0,0,0,0,0,0,0,0,0,0,0,0,1215,0,0,0,0,0,0,0,0,0,0,1191,1192,0,0,0,0,0,1215,0,0,0,0,0,0,
0,0,0,0,0,1214,0,1214,0,0,0,0,0,0,0,0,0,0,0,0,0,0,0,0,0,1223,0,0,0,0,0,0,0,0,0,0,0,0,0,0,0,0,0,1223,0,0,0,0,0,0,
0,0,0,0,0,1214,0,1214,0,0,0,0,0,0,0,0,0,0,0,0,0,0,0,0,0,0,0,0,0,0,0,0,0,0,1215,0,0,0,0,0,0,0,0,0,0,0,0,0,0,0,
0,0,0,0,0,1214,0,1214,0,0,0,0,0,0,0,0,0,0,0,0,0,0,0,0,0,0,0,0,0,0,0,0,0,0,1223,0,0,0,0,0,0,0,0,0,0,1215,0,0,0,0,
0,0,0,0,0,1214,0,1214,1197,0,0,0,0,0,0,0,0,0,0,1214,0,0,0,0,0,0,0,0,0,0,0,0,0,0,0,0,0,0,0,0,0,0,0,0,0,1223,0,0,0,0,
0,0,0,0,0,1214,0,1214,1205,0,0,0,0,0,0,1214,1214,1214,0,1214,0,0,1214,0,0,0,0,0,0,0,0,0,0,1214,1214,1214,0,0,0,0,0,0,1197,0,0,0,0,0,0,0,
0,0,0,0,0,1214,0,1214,1214,0,0,0,0,0,0,0,0,0,0,0,0,1214,0,0,0,0,0,0,0,0,0,0,0,1214,0,0,1214,1214,0,0,0,0,1205,0,1215,0,0,0,0,0,
0,0,0,0,0,0,0,0,1214,0,1214,1214,1214,1214,1214,1214,1214,1214,0,1214,1214,0,0,0,0,0,1215,0,0,0,0,0,0,1214,0,0,0,0,1214,0,0,0,0,0,1223,0,0,0,0,0,
0,0,0,0,0,0,0,0,0,0,0,0,0,0,0,0,0,0,1214,0,0,0,1214,0,0,0,1223,0,0,0,0,0,0,1214,0,0,0,0,0,0,0,0,0,0,0,0,0,0,0,0,
0,0,0,0,0,0,0,0,0,0,0,0,0,0,0,0,0,0,0,0,0,0,0,0,0,0,0,0,0,0,0,0,0,0,0,0,0,0,0,0,0,0,0,0,0,0,0,0,0,0,
0,0,0,0,0,0,0,0,0,0,0,0,0,0,0,0,0,0,0,0,0,0,0,0,0,0,0,0,0,0,0,0,0,0,0,0,0,0,0,0,0,0,0,0,0,0,0,0,0,0,
0,0,0,0,0,0,0,0,0,0,0,0,0,0,0,0,0,0,0,0,0,0,0,0,0,0,0,0,0,0,0,0,0,0,0,0,0,0,0,0,0,0,0,0,0,0,0,0,0,0,
0,0,0,0,0,0,0,0,0,0,0,0,0,0,0,0,0,0,0,0,0,0,0,0,0,0,0,0,0,0,0,0,0,0,0,0,0,0,0,0,0,0,0,0,0,0,0,0,0,0
</data>
 </layer>
 <layer id="3" name="edifici" width="50" height="50">
  <data encoding="csv">
0,0,0,0,0,0,0,0,0,0,0,0,0,0,0,0,0,0,0,0,0,0,0,0,0,0,0,0,0,0,0,0,0,0,0,0,0,0,0,0,0,0,0,0,0,0,0,0,0,0,
0,0,0,0,0,0,0,0,0,0,0,0,0,0,0,0,0,0,0,0,0,0,0,0,0,0,0,0,0,0,0,0,0,0,0,0,0,0,0,0,0,0,0,0,0,0,0,0,0,0,
0,0,0,0,0,0,0,0,0,0,0,0,0,0,0,0,0,0,0,0,0,0,0,0,0,0,0,0,0,0,0,0,0,0,0,0,0,0,0,0,0,0,0,0,0,0,0,0,0,0,
0,0,0,0,0,0,0,0,0,0,0,0,0,0,0,0,0,0,0,0,0,0,0,0,0,0,0,0,0,0,0,0,0,0,0,0,0,0,0,0,0,0,0,0,0,0,0,0,0,0,
0,0,0,0,0,0,0,0,0,0,0,0,0,0,0,0,0,0,0,0,0,0,0,0,0,0,0,0,0,0,0,0,0,0,0,0,0,0,0,0,0,0,0,0,0,0,0,0,0,0,
0,0,0,0,0,0,0,0,0,0,0,0,0,0,0,0,0,0,0,0,0,0,0,0,0,0,0,0,0,0,0,0,0,0,0,0,0,0,0,0,0,0,0,0,0,0,0,0,0,0,
0,0,0,0,0,0,0,0,0,0,0,0,0,0,0,0,0,0,0,0,0,0,0,0,0,0,0,0,0,0,0,0,0,0,0,0,0,0,0,0,0,0,0,0,0,0,0,0,0,0,
0,0,0,0,0,0,0,0,0,0,0,0,0,0,0,0,0,0,0,0,0,0,0,0,0,0,0,0,0,0,0,0,0,0,0,0,0,0,0,0,0,0,0,0,0,0,0,0,0,0,
0,0,0,0,0,0,0,0,0,0,0,0,0,0,0,0,0,0,0,0,0,0,0,0,0,0,0,0,0,0,0,0,0,0,0,0,0,0,0,0,0,0,0,0,0,0,0,0,0,0,
0,0,0,0,0,0,0,0,0,0,0,0,0,0,0,0,0,0,0,0,0,0,0,0,0,0,0,0,0,0,0,0,0,0,0,0,0,0,0,0,0,0,0,0,0,0,0,0,0,0,
0,0,0,0,0,0,0,0,0,0,0,0,0,0,0,11918,0,0,0,0,0,0,0,0,0,0,0,0,0,0,0,0,0,0,0,0,0,0,0,0,0,0,0,0,0,0,0,0,0,0,
0,0,0,0,0,0,0,0,0,0,0,0,0,0,0,0,0,0,0,0,0,0,0,0,0,0,0,0,0,0,0,0,0,0,0,0,0,0,0,0,0,0,0,0,0,0,0,0,0,0,
0,0,0,0,0,0,0,0,0,0,0,0,0,0,0,0,0,0,0,0,0,0,0,0,0,0,0,0,0,0,0,0,0,0,0,0,0,0,0,0,0,0,0,0,0,0,0,0,0,0,
0,0,0,0,0,0,0,0,0,0,0,0,0,0,0,0,0,0,0,0,0,0,0,0,0,0,0,0,0,0,0,0,0,0,0,0,0,0,0,0,0,0,0,0,0,0,0,0,0,0,
0,0,0,0,0,0,0,0,0,0,0,0,0,0,0,0,0,0,0,0,0,0,0,0,0,0,0,0,0,0,0,0,0,0,0,0,0,0,0,0,0,0,0,0,0,0,0,0,0,0,
0,0,0,0,0,0,0,0,0,0,0,0,0,0,0,0,0,0,0,0,0,0,0,0,0,0,0,0,0,0,0,0,0,0,0,0,0,0,0,0,0,0,0,0,0,0,0,0,0,0,
0,0,0,0,0,0,0,0,0,0,0,0,0,0,0,0,0,0,0,0,0,0,0,0,0,0,0,0,0,0,0,0,0,0,0,0,0,0,0,0,0,0,0,0,0,0,0,0,0,0,
0,0,0,0,0,0,0,0,0,0,0,0,0,0,0,0,0,0,0,0,0,0,0,0,0,0,0,0,0,0,0,0,0,0,0,0,0,0,0,0,0,0,0,0,0,0,0,0,0,0,
0,0,0,0,0,0,0,0,0,0,0,0,0,0,0,0,0,0,0,0,0,0,0,0,0,0,0,0,0,0,0,0,0,0,0,0,0,0,0,0,0,0,0,0,0,0,0,0,0,0,
0,0,0,0,0,0,0,0,0,0,0,0,0,0,0,0,0,0,0,0,0,0,0,0,0,0,0,0,0,0,0,0,0,0,0,0,0,0,0,0,0,0,0,0,0,0,0,0,0,0,
0,0,0,0,0,0,0,0,0,0,0,0,0,0,0,0,0,0,0,0,0,0,0,0,0,0,0,0,0,0,0,0,0,0,0,0,0,0,0,0,0,0,0,0,0,0,0,0,0,0,
0,0,0,0,0,0,0,0,0,0,0,0,0,0,0,0,0,0,0,0,0,0,0,0,0,0,0,0,0,0,0,0,0,0,0,0,0,0,0,0,0,0,0,0,0,0,0,0,0,0,
0,0,0,0,0,0,0,0,0,0,0,0,0,0,0,0,0,0,0,0,0,0,0,0,0,0,0,0,0,0,0,0,0,0,0,0,0,0,0,0,0,0,0,0,0,0,0,0,0,0,
0,0,0,0,0,0,0,0,0,0,0,0,0,0,0,0,0,0,0,0,0,0,0,0,0,0,0,0,0,0,0,0,0,0,0,0,0,0,0,0,0,0,0,0,0,0,0,0,0,0,
0,0,0,0,0,0,0,0,0,0,0,0,0,0,0,0,0,0,0,0,0,0,0,0,0,0,0,0,0,0,0,0,0,0,0,0,0,0,0,0,0,0,0,0,0,0,0,0,0,0,
0,0,0,0,0,0,0,0,0,0,0,0,0,0,0,0,0,0,0,0,0,0,0,0,0,0,0,0,0,0,0,0,0,0,0,0,0,0,0,0,0,0,0,0,0,0,0,0,0,0,
0,0,0,0,0,0,0,0,0,0,0,0,0,0,0,0,0,0,0,0,0,0,0,0,0,0,0,0,0,0,0,0,0,0,0,0,0,0,0,0,0,0,0,0,0,0,0,0,0,0,
0,0,0,0,0,0,0,0,0,0,0,0,0,0,0,0,0,0,0,0,0,0,0,0,0,0,0,0,0,0,0,0,0,0,0,0,0,0,0,0,0,0,0,0,0,0,0,0,0,0,
0,0,0,0,0,0,0,0,0,0,0,0,0,0,0,0,0,0,0,0,0,0,0,0,0,0,0,0,0,0,0,0,0,0,0,0,0,0,0,0,0,0,0,0,0,0,0,0,0,0,
0,0,0,0,0,0,0,0,0,0,0,0,0,0,0,0,0,0,0,0,0,0,0,0,0,0,0,0,0,0,0,0,0,0,0,0,0,0,0,0,0,0,0,0,0,0,0,0,0,0,
0,0,0,0,0,0,0,0,0,0,0,0,0,0,0,0,0,0,0,0,0,0,0,0,0,0,0,0,0,0,0,0,0,0,0,0,0,0,0,0,0,0,0,0,0,0,0,0,0,0,
0,0,0,0,0,0,0,0,0,0,0,0,0,0,0,0,0,0,0,0,0,0,0,0,0,0,0,0,0,0,0,0,0,0,0,0,0,0,0,0,0,0,0,0,0,0,0,0,0,0,
0,0,0,0,0,0,0,0,0,0,0,0,0,0,0,0,0,0,0,0,0,0,0,0,0,0,0,0,0,0,0,0,0,0,0,0,0,0,0,0,0,0,0,0,0,0,0,0,0,0,
0,0,0,0,0,0,0,0,0,0,0,0,0,0,0,0,0,0,0,0,0,0,0,0,0,0,0,0,0,0,0,0,0,0,0,0,0,0,0,0,0,0,0,0,0,0,0,0,0,0,
0,0,0,0,0,0,0,0,0,0,0,0,0,0,0,0,0,0,0,0,0,0,0,0,0,0,0,0,0,0,0,0,0,0,0,0,0,0,0,0,0,0,0,0,0,0,0,0,0,0,
0,0,0,0,0,0,0,0,0,0,0,0,0,0,0,0,0,0,0,0,0,0,0,0,0,0,0,0,0,0,0,0,0,0,0,0,0,0,0,0,0,0,0,0,0,0,0,0,0,0,
0,0,0,0,0,0,0,0,0,0,0,0,0,0,0,0,0,0,0,0,0,0,0,0,0,0,0,0,0,0,0,0,0,0,0,0,0,0,0,0,0,0,0,0,0,0,0,0,0,0,
0,0,0,0,0,0,0,0,0,0,0,0,0,0,0,0,0,0,0,0,0,0,0,0,0,0,0,0,0,0,0,0,0,0,0,0,0,0,0,0,0,0,0,0,0,0,0,0,0,0,
0,0,0,0,0,0,0,0,0,0,0,0,0,0,0,0,0,0,0,0,0,0,0,0,0,0,0,0,0,0,0,0,0,0,0,0,0,0,0,0,0,0,0,0,0,0,0,0,0,0,
0,0,0,0,0,0,0,0,0,0,0,0,0,0,0,0,0,0,0,0,0,0,0,0,0,0,0,0,0,0,0,0,0,0,0,0,0,0,0,0,0,0,0,0,0,0,0,0,0,0,
0,0,0,0,0,0,0,0,0,0,0,0,0,0,0,0,0,0,0,0,0,0,0,0,0,0,0,0,0,0,0,0,0,0,0,0,0,0,0,0,0,0,0,0,0,0,0,0,0,0,
0,0,0,0,0,0,0,0,0,0,0,0,0,0,0,0,0,0,0,0,0,0,0,0,0,0,0,0,0,0,0,0,0,0,0,0,0,0,0,0,0,0,0,0,0,0,0,0,0,0,
0,0,0,0,0,0,0,0,0,0,0,0,0,0,0,0,0,0,0,0,0,0,0,0,0,0,0,0,0,0,0,0,0,0,0,0,0,11918,0,0,0,0,0,0,0,0,0,0,0,0,
0,0,0,0,0,0,0,0,0,0,0,0,0,0,0,0,0,0,0,0,0,0,0,0,0,0,0,0,0,0,0,0,0,0,0,0,0,0,0,0,0,0,0,0,0,0,0,0,0,0,
0,0,0,0,0,0,0,0,0,0,0,0,0,0,0,0,0,0,0,0,0,0,0,0,0,0,0,0,0,0,0,0,0,0,0,0,0,0,0,0,0,0,0,0,0,0,0,0,0,0,
0,0,0,0,0,0,0,0,0,0,0,0,0,0,0,0,0,0,0,0,0,0,0,0,0,0,0,0,0,0,0,0,0,0,0,0,0,0,0,0,0,0,0,0,0,0,0,0,0,0,
0,0,0,0,0,0,0,0,0,0,0,0,0,0,0,0,0,0,0,0,0,0,0,0,0,0,0,0,0,0,0,0,0,0,0,0,0,0,0,0,0,0,0,0,0,0,0,0,0,0,
0,0,0,0,0,0,0,0,0,0,0,0,0,0,0,0,0,0,0,0,0,0,0,0,0,0,0,0,0,0,0,0,0,0,0,0,0,0,0,0,0,0,0,0,0,0,0,0,0,0,
0,0,0,0,0,0,0,0,0,0,0,0,0,0,0,0,0,0,0,0,0,0,0,0,0,0,0,0,0,0,0,0,0,0,0,0,0,0,0,0,0,0,0,0,0,0,0,0,0,0,
0,0,0,0,0,0,0,0,0,0,0,0,0,0,0,0,0,0,0,0,0,0,0,0,0,0,0,0,0,0,0,0,0,0,0,0,0,0,0,0,0,0,0,0,0,0,0,0,0,0
</data>
 </layer>
 <layer id="4" name="sopra_testa" width="50" height="50">
  <data encoding="csv">
0,0,0,0,0,0,0,0,0,0,0,0,0,0,0,0,0,0,0,0,0,0,0,0,0,0,0,0,0,0,0,0,0,0,0,0,0,0,0,0,0,0,0,0,0,0,0,0,0,0,
0,0,0,0,0,0,0,0,0,0,0,0,0,0,0,0,0,0,0,0,0,0,0,0,0,0,0,0,0,0,0,0,0,0,0,0,0,0,0,0,0,0,0,0,0,0,0,0,0,0,
0,0,0,0,0,0,0,0,0,0,0,0,0,0,0,0,0,0,0,0,0,0,0,0,0,0,0,0,0,0,0,0,0,0,0,0,0,0,0,0,0,0,0,0,0,0,0,0,0,0,
0,0,0,0,0,0,0,0,0,0,0,0,0,0,0,0,0,0,0,0,0,0,0,0,0,0,0,0,0,0,0,0,0,0,0,0,0,0,0,0,0,0,0,0,0,0,0,0,0,0,
0,0,0,0,0,0,0,0,0,0,0,0,0,0,0,0,0,0,0,0,0,0,0,0,0,0,0,0,0,0,0,0,0,0,0,0,0,0,0,0,0,0,0,0,0,0,0,0,0,0,
0,0,0,0,0,0,0,0,0,0,0,0,0,0,0,0,0,0,0,0,0,0,0,0,0,0,0,0,0,0,0,0,0,0,0,0,0,0,0,0,0,0,0,0,0,0,0,0,0,0,
0,0,0,0,0,0,0,0,0,0,0,0,0,0,0,0,0,0,0,0,0,0,0,0,0,0,0,0,0,0,0,0,0,0,0,0,0,0,0,0,0,0,0,0,0,0,0,0,0,0,
0,0,0,0,0,0,0,0,0,0,0,0,0,0,0,0,0,0,0,0,0,0,0,0,0,0,0,0,0,0,0,0,0,0,0,0,0,0,0,0,0,0,0,0,0,0,0,0,0,0,
0,0,0,0,0,0,0,0,0,0,0,0,0,0,0,0,0,0,0,0,0,0,0,0,0,0,0,0,0,0,0,0,0,0,0,0,0,0,0,0,0,0,0,0,0,0,0,0,0,0,
0,0,0,0,0,0,0,0,0,0,0,0,0,0,0,0,0,0,0,0,0,0,0,0,0,0,0,0,0,0,0,0,0,0,0,0,0,0,0,0,0,0,0,0,0,0,0,0,0,0,
0,0,0,0,0,0,0,0,0,0,0,0,0,0,0,0,0,0,0,0,0,0,0,0,0,0,0,0,0,0,0,0,0,0,0,0,0,0,0,0,0,0,0,0,0,0,0,0,0,0,
0,0,0,0,0,0,0,0,0,0,0,0,0,0,0,0,0,0,0,0,0,0,0,0,0,0,0,0,0,0,0,0,0,0,0,0,0,0,0,0,0,0,0,0,0,0,0,0,0,0,
0,0,0,0,0,0,0,0,0,0,0,0,0,0,0,0,0,0,0,0,0,0,0,0,0,0,0,0,0,0,0,0,0,0,0,0,0,0,0,0,0,0,0,0,0,0,0,0,0,0,
0,0,0,0,0,0,0,0,0,0,0,0,0,0,0,0,0,0,0,0,0,0,0,0,0,0,0,0,0,0,0,0,0,0,0,0,0,0,0,0,0,0,0,0,0,0,0,0,0,0,
0,0,0,0,0,0,0,0,0,0,0,0,0,0,0,0,0,0,0,0,0,0,0,0,0,0,0,0,0,0,0,0,0,0,0,0,0,0,0,0,0,0,0,0,0,0,0,0,0,0,
0,0,0,0,0,0,0,0,0,0,0,0,0,0,0,0,0,0,0,0,0,0,0,0,0,0,0,0,0,0,0,0,0,0,0,0,0,0,0,0,0,0,0,0,0,0,0,0,0,0,
0,0,0,0,0,0,0,0,0,0,0,0,0,0,0,0,0,0,0,0,0,0,0,0,0,0,0,0,0,0,0,0,0,0,0,0,0,0,0,0,0,0,0,0,0,0,0,0,0,0,
0,0,0,0,0,0,0,0,0,0,0,0,0,0,0,0,0,0,0,0,0,0,0,0,0,0,0,0,0,0,0,0,0,0,0,0,0,0,0,0,0,0,0,0,0,0,0,0,0,0,
0,0,0,0,0,0,0,0,0,0,0,0,0,0,0,0,0,0,0,0,0,0,0,0,0,0,0,0,0,0,0,0,0,0,0,0,0,0,0,0,0,0,0,0,0,0,0,0,0,0,
0,0,0,0,0,0,0,0,0,0,0,0,0,0,0,0,0,0,0,0,0,0,0,0,0,0,0,0,0,0,0,0,0,0,0,0,0,0,0,0,0,0,0,0,0,0,0,0,0,0,
0,0,0,0,0,0,0,0,0,0,0,0,0,0,0,0,0,0,0,0,0,0,0,0,0,0,0,0,0,0,0,0,0,0,0,0,0,0,0,0,0,0,0,0,0,0,0,0,0,0,
0,0,0,0,0,0,0,0,0,0,0,0,0,0,0,0,0,0,0,0,0,0,0,0,0,0,0,0,0,0,0,0,0,0,0,0,0,0,0,0,0,0,0,0,0,0,0,0,0,0,
0,0,0,0,0,0,0,0,0,0,0,0,0,0,0,0,0,0,0,0,0,0,0,0,0,0,0,0,0,0,0,0,0,0,0,0,0,0,0,0,0,0,0,0,0,0,0,0,0,0,
0,0,0,0,0,0,0,0,0,0,0,0,0,0,0,0,0,0,0,0,0,0,0,0,0,0,0,0,0,0,0,0,0,0,0,0,0,0,0,0,0,0,0,0,0,0,0,0,0,0,
0,0,0,0,0,0,0,0,0,0,0,0,0,0,0,0,0,0,0,0,0,0,0,0,0,0,0,0,0,0,0,0,0,0,0,0,0,0,0,0,0,0,0,0,0,0,0,0,0,0,
0,0,0,0,0,0,0,0,0,0,0,0,0,0,0,0,0,0,0,0,0,0,0,0,0,0,0,0,0,0,0,0,0,0,0,0,0,0,0,0,0,0,0,0,0,0,0,0,0,0,
0,0,0,0,0,0,0,0,0,0,0,0,0,0,0,0,0,0,0,0,0,0,0,0,0,0,0,0,0,0,0,0,0,0,0,0,0,0,0,0,0,0,0,0,0,0,0,0,0,0,
0,0,0,0,0,0,0,0,0,0,0,0,0,0,0,0,0,0,0,0,0,0,0,0,0,0,0,0,0,0,0,0,0,0,0,0,0,0,0,0,0,0,0,0,0,0,0,0,0,0,
0,0,0,0,0,0,0,0,0,0,0,0,0,0,0,0,0,0,0,0,0,0,0,0,0,0,0,0,0,0,0,0,0,0,0,0,0,0,0,0,0,0,0,0,0,0,0,0,0,0,
0,0,0,0,0,0,0,0,0,0,0,0,0,0,0,0,0,0,0,0,0,0,0,0,0,0,0,0,0,0,0,0,0,0,0,0,0,0,0,0,0,0,0,0,0,0,0,0,0,0,
0,0,0,0,0,0,0,0,0,0,0,0,0,0,0,0,0,0,0,0,0,0,0,0,0,0,0,0,0,0,0,0,0,0,0,0,0,0,0,0,0,0,0,0,0,0,0,0,0,0,
0,0,0,0,0,0,0,0,0,0,0,0,0,0,0,0,0,0,0,0,0,0,0,0,0,0,0,0,0,0,0,0,0,0,0,0,0,0,0,0,0,0,0,0,0,0,0,0,0,0,
0,0,0,0,0,0,0,0,0,0,0,0,0,0,0,0,0,0,0,0,0,0,0,0,0,0,0,0,0,0,0,0,0,0,0,0,0,0,0,0,0,0,0,0,0,0,0,0,0,0,
0,0,0,0,0,0,0,0,0,0,0,0,0,0,0,0,0,0,0,0,0,0,0,0,0,0,0,0,0,0,0,0,0,0,0,0,0,0,0,0,0,0,0,0,0,0,0,0,0,0,
0,0,0,0,0,0,0,0,0,0,0,0,0,0,0,0,0,0,0,0,0,0,0,0,0,0,0,0,0,0,0,0,0,0,0,0,0,0,0,0,0,0,0,0,0,0,0,0,0,0,
0,0,0,0,0,0,0,0,0,0,0,0,0,0,0,0,0,0,0,0,0,0,0,0,0,0,0,0,0,0,0,0,0,0,0,0,0,0,0,0,0,0,0,0,0,0,0,0,0,0,
0,0,0,0,0,0,0,0,0,0,0,0,0,0,0,0,0,0,0,0,0,0,0,0,0,0,0,0,0,0,0,0,0,0,0,0,0,0,0,0,0,0,0,0,0,0,0,0,0,0,
0,0,0,0,0,0,0,0,0,0,0,0,0,0,0,0,0,0,0,0,0,0,0,0,0,0,0,0,0,0,0,0,0,0,0,0,0,0,0,0,0,0,0,0,0,0,0,0,0,0,
0,0,0,0,0,0,0,0,0,0,0,0,0,0,0,0,0,0,0,0,0,0,0,0,0,0,0,0,0,0,0,0,0,0,0,0,0,0,0,0,0,0,0,0,0,0,0,0,0,0,
0,0,0,0,0,0,0,0,0,0,0,0,0,0,0,0,0,0,0,0,0,0,0,0,0,0,0,0,0,0,0,0,0,0,0,0,0,0,0,0,0,0,0,0,0,0,0,0,0,0,
0,0,0,0,0,0,0,0,0,0,0,0,0,0,0,0,0,0,0,0,0,0,0,0,0,0,0,0,0,0,0,0,0,0,0,0,0,0,0,0,0,0,0,0,0,0,0,0,0,0,
0,0,0,0,0,0,0,0,0,0,0,0,0,0,0,0,0,0,0,0,0,0,0,0,0,0,0,0,0,0,0,0,0,0,0,0,0,0,0,0,0,0,0,0,0,0,0,0,0,0,
0,0,0,0,0,0,0,0,0,0,0,0,0,0,0,0,0,0,0,0,0,0,0,0,0,0,0,0,0,0,0,0,0,0,0,0,0,0,0,0,0,0,0,0,0,0,0,0,0,0,
0,0,0,0,0,0,0,0,0,0,0,0,0,0,0,0,0,0,0,0,0,0,0,0,0,0,0,0,0,0,0,0,0,0,0,0,0,0,0,0,0,0,0,0,0,0,0,0,0,0,
0,0,0,0,0,0,0,0,0,0,0,0,0,0,0,0,0,0,0,0,0,0,0,0,0,0,0,0,0,0,0,0,0,0,0,0,0,0,0,0,0,0,0,0,0,0,0,0,0,0,
0,0,0,0,0,0,0,0,0,0,0,0,0,0,0,0,0,0,0,0,0,0,0,0,0,0,0,0,0,0,0,0,0,0,0,0,0,0,0,0,0,0,0,0,0,0,0,0,0,0,
0,0,0,0,0,0,0,0,0,0,0,0,0,0,0,0,0,0,0,0,0,0,0,0,0,0,0,0,0,0,0,0,0,0,0,0,0,0,0,0,0,0,0,0,0,0,0,0,0,0,
0,0,0,0,0,0,0,0,0,0,0,0,0,0,0,0,0,0,0,0,0,0,0,0,0,0,0,0,0,0,0,0,0,0,0,0,0,0,0,0,0,0,0,0,0,0,0,0,0,0,
0,0,0,0,0,0,0,0,0,0,0,0,0,0,0,0,0,0,0,0,0,0,0,0,0,0,0,0,0,0,0,0,0,0,0,0,0,0,0,0,0,0,0,0,0,0,0,0,0,0,
0,0,0,0,0,0,0,0,0,0,0,0,0,0,0,0,0,0,0,0,0,0,0,0,0,0,0,0,0,0,0,0,0,0,0,0,0,0,0,0,0,0,0,0,0,0,0,0,0,0
</data>
 </layer>
 <objectgroup id="6" name="collisioni">
  <object id="31" x="16" y="5" width="105" height="1558"/>
  <object id="32" x="41" y="1475" width="1521" height="129"/>
  <object id="33" x="1493" y="9" width="99" height="1583"/>
  <object id="34" x="1262" y="336" width="65" height="1095"/>
  <object id="35" x="1135" y="616" width="99" height="81"/>
  <object id="36" x="1006" y="454" width="66" height="73"/>
  <object id="37" x="917" y="298" width="66" height="1063"/>
  <object id="38" x="654" y="264" width="70" height="1070"/>
  <object id="39" x="302" y="1066" width="170" height="295"/>
  <object id="40" x="302" y="623" width="167" height="325"/>
  <object id="41" x="303" y="264" width="163" height="257"/>
  <object id="42" x="107" y="10" width="1446" height="109"/>
  <object id="43" x="1095" y="256" width="9" height="21"/>
  <object id="44" x="1194" y="233" width="7" height="14"/>
  <object id="45" x="1193" y="417" width="9" height="18"/>
  <object id="46" x="1103" y="1298"/>
  <object id="47" x="817" y="1227"/>
  <object id="48" x="558" y="1133"/>
  <object id="49" x="849" y="1453"/>
  <object id="50" x="1423" y="1417" height="2"/>
  <object id="51" x="1456" y="1323" width="1"/>
  <object id="52" x="1386" y="1225"/>
  <object id="53" x="1128" y="1096" width="102" height="83"/>
  <object id="54" x="1003" y="871" width="68" height="70"/>
 </objectgroup>
 <objectgroup id="5" name="eventi">
  <object id="1" name="trainer" type="trainer" x="578" y="330" width="32" height="32">
   <properties>
    <property name="direzione" value="sud"/>
    <property name="id" value="tunnel-3f-1"/>
    <property name="sprite" value="HIKER"/>
    <property name="type" value="trainer"/>
    <property name="vista" type="int" value="4"/>
   </properties>
  </object>
  <object id="2" name="trainer" type="trainer" x="1213" y="709" width="32" height="32">
   <properties>
    <property name="direzione" value="ovest"/>
    <property name="id" value="tunnel-3f-2"/>
    <property name="sprite" value="CAMPER"/>
    <property name="type" value="trainer"/>
    <property name="vista" type="int" value="4"/>
   </properties>
  </object>
  <object id="3" name="trainer" type="trainer" x="812" y="720" width="32" height="32">
   <properties>
    <property name="direzione" value="ovest"/>
    <property name="id" value="tunnel-3f-9"/>
    <property name="sprite" value="HIKER"/>
    <property name="type" value="trainer"/>
    <property name="vista" type="int" value="5"/>
   </properties>
  </object>
  <object id="4" name="trainer" type="trainer" x="938" y="161" width="32" height="32">
   <properties>
    <property name="direzione" value="est"/>
    <property name="id" value="tunnel-3f-3"/>
    <property name="sprite" value="CAMPER"/>
    <property name="type" value="trainer"/>
    <property name="vista" type="int" value="4"/>
   </properties>
  </object>
  <object id="5" name="trainer" type="trainer" x="710" y="1377" width="32" height="32">
   <properties>
    <property name="direzione" value="est"/>
    <property name="id" value="tunnel-3f-4"/>
    <property name="sprite" value="CAMPER"/>
    <property name="type" value="trainer"/>
    <property name="vista" type="int" value="4"/>
   </properties>
  </object>
  <object id="6" name="trainer" type="trainer" x="291" y="581" width="32" height="32">
   <properties>
    <property name="direzione" value="est"/>
    <property name="id" value="tunnel-3f-5"/>
    <property name="sprite" value="CAMPER"/>
    <property name="type" value="trainer"/>
    <property name="vista" type="int" value="4"/>
   </properties>
  </object>
  <object id="7" name="trainer" type="trainer" x="999" y="546" width="32" height="32">
   <properties>
    <property name="direzione" value="est"/>
    <property name="id" value="tunnel-3f-6"/>
    <property name="sprite" value="CAMPER"/>
    <property name="type" value="trainer"/>
    <property name="vista" type="int" value="4"/>
   </properties>
  </object>
  <object id="8" name="trainer" type="trainer" x="999" y="967" width="32" height="32">
   <properties>
    <property name="direzione" value="est"/>
    <property name="id" value="tunnel-3f-7"/>
    <property name="sprite" value="CAMPER"/>
    <property name="type" value="trainer"/>
    <property name="vista" type="int" value="4"/>
   </properties>
  </object>
  <object id="9" name="trainer" type="trainer" x="191" y="607" width="32" height="32">
   <properties>
    <property name="direzione" value="ovest"/>
    <property name="id" value="tunnel-3f-8"/>
    <property name="sprite" value="CAMPER"/>
    <property name="type" value="trainer"/>
    <property name="vista" type="int" value="4"/>
   </properties>
  </object>
  <object id="10" name="trainer" type="trainer" x="255" y="646" width="32" height="32">
   <properties>
    <property name="direzione" value="sud"/>
    <property name="id" value="tunnel-3f-10"/>
    <property name="sprite" value="BLACKBELT"/>
    <property name="type" value="trainer"/>
    <property name="vista" type="int" value="5"/>
   </properties>
  </object>
  <object id="11" name="oggetto" type="oggetto" x="480" y="320" width="32" height="32">
   <properties>
    <property name="contenuto" value="revitalizzante"/>
    <property name="type" value="oggetto"/>
   </properties>
  </object>
  <object id="12" name="oggetto" type="oggetto" x="1185" y="1342" width="32" height="32">
   <properties>
    <property name="contenuto" value="ultraball"/>
    <property name="type" value="oggetto"/>
   </properties>
  </object>
  <object id="13" name="scala_3f_a_1f" type="warp" x="1353.33" y="1386" width="16.3333" height="12.3333">
   <properties>
    <property name="destinazione" value="tunnel_roccioso_1f"/>
    <property name="spawn_id" value="da_tunnel_roccioso_3f_c"/>
    <property name="type" value="warp"/>
   </properties>
  </object>
  <object id="14" name="spawn" type="spawn" x="1381.33" y="1383.75" width="15" height="19">
   <properties>
    <property name="id" value="da_tunnel_roccioso_1f_c"/>
    <property name="type" value="spawn"/>
   </properties>
  </object>
  <object id="17" name="scala_3f_a_1f" type="warp" x="263.833" y="1356.75" width="16.3333" height="12.3333">
   <properties>
    <property name="destinazione" value="tunnel_roccioso_1f"/>
    <property name="spawn_id" value="da_tunnel_roccioso_3f_d"/>
    <property name="type" value="warp"/>
   </properties>
  </object>
  <object id="18" name="spawn" type="spawn" x="267.167" y="1303.83" width="15" height="19">
   <properties>
    <property name="id" value="da_tunnel_roccioso_1f_d"/>
    <property name="type" value="spawn"/>
   </properties>
  </object>
  <object id="19" name="scala_3f_a_1f" type="warp" x="168.166" y="173.627" width="16.3333" height="12.3333">
   <properties>
    <property name="destinazione" value="tunnel_roccioso_1f"/>
    <property name="spawn_id" value="da_tunnel_roccioso_3f_e"/>
    <property name="type" value="warp"/>
   </properties>
  </object>
  <object id="20" name="spawn" type="spawn" x="165.5" y="199.373" width="15" height="19">
   <properties>
    <property name="id" value="da_tunnel_roccioso_1f_e"/>
    <property name="type" value="spawn"/>
   </properties>
  </object>
 </objectgroup>
</map>
