<?xml version="1.0" encoding="UTF-8"?>
<map version="1.10" tiledversion="1.12.2" orientation="orthogonal" renderorder="right-down" width="50" height="50" tilewidth="32" tileheight="32" infinite="0" nextlayerid="7" nextobjectid="176">
 <editorsettings>
  <export target="Tunnel_roccioso_1f.tmj" format="json"/>
 </editorsettings>
 <tileset firstgid="1" source="../Caves.tsj"/>
 <tileset firstgid="1593" source="../Sea.tsj"/>
 <tileset firstgid="1691" source="../Waterfall.tsj"/>
 <tileset firstgid="1698" source="../Waterfall bottom.tsj"/>
 <tileset firstgid="1702" source="../Waterfall crest.tsj"/>
 <tileset firstgid="1706" source="../../outside.tsx"/>
 <tileset firstgid="5722" source="../../Emerald_Outside.tsx"/>
 <tileset firstgid="10970" source="../outside.tsx"/>
 <layer id="1" name="ground" width="50" height="50">
  <data encoding="csv">
1243,1243,1243,1243,1243,1243,1243,1243,1243,1243,1243,1243,1243,1243,1243,1243,1641,1645,1645,1645,1645,1645,1645,1645,1645,1649,1243,1243,1243,1243,1243,1243,1243,1243,1243,1243,1243,1243,1243,1243,1243,1243,1243,1243,1243,1243,1243,1243,1243,1243,
1243,1243,1243,1243,1243,1243,1243,1243,1243,1243,1243,1243,1243,1243,1243,1243,1641,1645,1645,1645,1645,1645,1645,1645,1645,1649,1243,1243,1243,1243,1243,1243,1243,1243,1243,1243,1243,1243,1243,1243,1243,1243,1243,1243,1243,1243,1243,1243,1243,1243,
1243,1243,1243,1243,1243,1243,1243,1243,1243,1243,1243,1243,1243,1243,1243,1243,1641,1645,1645,1645,1645,1645,1645,1645,1645,1649,1243,1243,1243,1243,1243,1243,1243,1243,1243,1243,1243,1243,1243,1243,1243,1243,1243,1243,1243,1243,1243,1243,1243,1243,
1243,1243,1243,1243,1243,1243,1243,1243,1243,1243,1243,1243,1243,1243,1243,1243,1641,1645,1645,1645,1645,1645,1645,1645,1645,1649,1243,1243,1243,1243,1243,1243,1243,1243,1243,1243,1243,1243,1243,1243,1243,1243,1243,1243,1243,1243,1243,1243,1243,1243,
1243,1243,1243,1243,1243,1243,1243,1243,1243,1243,1243,1243,1243,1243,1243,1243,1243,1243,1644,1645,1646,709,709,709,709,709,1243,1243,1243,1243,1243,1243,1243,1243,1243,1243,1243,1243,1243,1243,1243,1243,1243,1243,1243,1243,1243,1243,1243,1243,
1243,1243,1243,1243,1243,1243,1243,1243,1243,1243,1243,1243,1243,1243,1243,1243,1243,1243,1644,1645,1646,1243,1243,1243,1243,1243,1243,1243,1243,1243,1243,1243,1243,1243,1243,1243,1243,1243,1243,1243,1243,1243,1243,1243,1243,1243,1243,1243,1243,1243,
1243,1243,1243,1243,1243,1243,1243,1243,1243,1243,1243,1243,1243,1243,1243,1243,1243,1243,1644,1645,1646,1243,1243,1243,1243,1243,1243,1243,1243,1243,1243,1243,1243,1243,1243,1243,1243,1243,1243,1243,1243,1243,1243,1243,1243,1243,1243,1243,1243,1243,
1243,1243,1243,1243,1243,1243,1243,1243,1243,1243,1243,1243,1243,1243,1243,1243,1243,1243,1644,1645,1646,1243,1243,1243,1243,1243,1243,1243,1243,1243,1243,1243,1243,1243,1243,1243,1243,1243,1243,1243,1243,1243,1243,1243,1243,1243,1243,1243,1243,1243,
1243,1243,1243,1243,1243,1243,1243,1243,1243,1243,1243,1243,1243,1243,1243,1243,1243,1243,1644,1645,1646,1243,1243,1243,1243,1243,1243,1243,1243,1243,1243,1243,1243,1243,1243,1243,1243,1243,1243,1243,1243,1243,1243,1243,1243,1243,1243,1243,1243,1243,
1243,1243,1243,1243,1243,1243,1243,1243,1243,1243,1243,1243,1243,1243,1243,1243,1243,1243,1644,1645,1646,1243,1243,1243,1243,1243,1243,1243,1243,1243,1243,1243,1243,1243,1243,1243,1243,1243,1243,1243,1243,1243,1243,1243,1243,1243,1243,1243,1243,1243,
1243,1243,1243,1243,1243,1243,1243,1243,1243,1243,1243,1243,1243,1243,1243,1243,1243,1243,1644,1645,1646,1243,1243,1243,1243,1243,1243,1243,1243,1243,1243,1243,1243,1243,1243,1243,1243,1243,1243,1243,1243,1243,1243,1243,1243,1243,1243,1243,1243,1243,
1243,1243,1243,1243,1243,1243,1243,1243,1243,1243,1243,1243,1243,1243,1243,1243,1243,1243,1644,1645,1646,1243,1243,1243,1243,1243,1243,1243,1243,1243,1243,1243,1243,1243,1243,1243,1243,1243,1243,1243,1243,1243,1243,1243,1243,1243,1243,1243,1243,1243,
1243,1243,1243,1243,1243,1243,1243,1243,1243,1243,1243,1243,1243,1243,1243,1243,1243,1243,1644,1645,1646,1243,1243,1243,1243,1243,1243,1243,1243,1243,1243,1243,1243,1243,1243,1243,1243,1243,1243,1243,1243,1243,1243,1243,1243,1243,1243,1243,1243,1243,
1243,1243,1243,1243,1243,1243,1243,1243,1243,1243,1243,1243,1243,1243,1243,1243,1243,1243,1644,1645,1646,1243,1243,1243,1243,1243,1243,1243,1243,1243,1243,1243,1243,1243,1243,1243,1243,1243,1243,1243,1243,1243,1243,1243,1243,1243,1243,1243,1243,1243,
1243,1243,1243,1243,1243,1243,1243,1243,1243,1243,1243,1243,1243,1243,1243,1243,1243,1243,1644,1645,1646,1243,1243,1243,1243,1243,1243,1243,1243,1243,1243,1243,1243,1243,1243,1243,1243,1243,1243,1243,1243,1243,1243,1243,1243,1243,1243,1243,1243,1243,
1243,1243,1243,1243,1243,1243,1243,1243,1243,1243,1243,1243,1243,1243,1243,1243,1243,1243,1644,1645,1646,1243,1243,1243,1243,1243,1243,1243,1243,1243,1243,1243,1243,1243,1243,1243,1243,1243,1243,1243,1243,1243,1243,1243,1243,1243,1243,1243,1243,1243,
1243,1243,1243,1243,1243,1243,1243,1243,1243,1243,1243,1243,1243,1243,1243,1243,1243,1243,1644,1645,1646,1243,1243,1243,1243,1243,1243,1243,1243,1243,1243,1243,1243,1243,1243,1243,1243,1243,1243,1243,1243,1243,1243,1243,1243,1243,1243,1243,1243,1243,
1243,1243,1243,1243,1243,1243,1243,1243,1243,1243,1243,1243,1243,1243,1243,1243,1243,1243,1644,1645,1646,1243,1243,1243,1243,1243,1243,1243,1243,1243,1243,1243,1243,1243,1243,1243,1243,1243,1243,1243,1243,1243,1243,1243,1243,1243,1243,1243,1243,1243,
1243,1243,1243,1243,1243,1243,1243,1243,1243,1243,1243,1243,1243,1243,1243,1243,1243,1243,1702,1702,1702,1243,1243,1243,1243,1243,1243,1243,1243,1243,1243,1243,1243,1243,1243,1243,1243,1243,1243,1243,1243,1243,1243,1243,1243,1243,1243,1243,1243,1243,
1243,1243,1243,1243,1243,1243,1243,1243,1243,1243,1243,1243,1243,1243,1243,1243,1243,1243,1691,1691,1691,1243,1243,1243,1243,1243,1243,1243,1243,1243,1243,1243,1243,1243,1243,1243,1243,1243,1243,1243,1243,1243,1243,1243,1243,1243,1243,1243,1243,1243,
1243,1243,1243,1243,1243,1243,1243,1243,1243,1243,1243,1243,1243,1243,1243,1243,1243,1243,1691,1691,1691,1243,1243,1243,1243,1243,1243,1243,1243,1243,1243,1243,1243,1243,1243,1243,1243,1243,1243,1243,1243,1243,1243,1243,1243,1243,1243,1243,1243,1243,
1243,1243,1243,1243,1243,1243,1243,1243,1243,1243,1243,1243,1243,1243,1243,1243,1243,1243,1691,1691,1691,1243,1243,1243,1243,1243,1243,1243,1243,1243,1243,1243,1243,1243,1243,1243,1243,1243,1243,1243,1243,1243,1243,1243,1243,1243,1243,1243,1243,1243,
1243,1243,1243,1243,1243,1243,1243,1243,1243,1243,1243,1243,1243,1243,1243,1243,1243,1243,1698,1698,1698,1243,1243,1243,1243,1243,1243,1243,1243,1243,1243,1243,1243,1243,1243,1243,1243,1243,1243,1243,1243,1243,1243,1243,1243,1243,1243,1243,1243,1243,
1243,1243,1243,1243,1243,1243,1243,1243,1243,1243,1243,1243,1243,1243,1243,1243,1243,1243,1641,1642,1642,1621,1621,1621,1621,1621,1621,1621,1621,1625,1243,1243,1243,1243,1243,1243,1243,1243,1170,1243,1170,1243,1243,1243,1243,1243,1243,1243,1243,1243,
1243,1243,1243,1243,1243,1243,1243,1243,1243,1243,1243,1243,1243,1243,1243,1243,1243,1243,1641,1642,1642,1642,1642,1642,1642,1642,1642,1642,1645,1646,1243,1243,1243,1243,1243,1243,1243,1243,1243,0,1243,1243,1243,1243,1243,1243,1243,1243,1243,1243,
1243,1243,1243,1243,1243,1243,1243,1243,1243,1243,1243,1243,1243,1243,1243,1243,1243,1243,1243,1243,1243,1243,1243,1243,1243,1243,1243,1644,1645,1646,1243,1243,1243,1243,1243,1243,1243,1243,1243,0,1243,1243,1243,1243,1243,1243,1243,1243,1243,1243,
1243,1243,1243,1243,1243,1243,1243,1243,1243,1243,1243,1243,1243,1243,1243,1243,1243,1243,1243,1243,1243,1243,1243,1243,1243,1243,1243,1644,1645,1646,1243,1243,1243,1243,1243,1243,1243,1243,1243,1243,1243,1243,1243,1243,1243,1243,1243,1243,1243,1243,
1243,1243,1243,1243,1243,1243,1243,1243,1243,1243,1243,1243,1243,1243,1243,1243,1243,1243,1243,1243,1243,1243,1243,1243,1243,1243,1243,1644,1645,1646,1243,1243,1243,1243,1243,1243,1243,1243,1243,1243,1243,1243,1243,1243,1243,1243,1243,1243,1243,1243,
1243,1243,1243,1243,1243,1243,1243,1243,1243,1243,1243,1243,1243,1243,1243,1243,1243,1243,1243,1243,1243,1243,1243,1243,1243,1243,1243,1644,1645,1646,1243,1243,1243,1243,1243,713,1243,1243,1243,1243,1243,1243,1243,1243,1243,1243,1243,1243,1243,1243,
1243,1243,1243,1243,1243,1243,1243,1243,1243,1243,1243,1243,1243,1243,1243,1243,1243,1243,1243,1243,1243,1243,1243,1243,1243,1243,1243,1644,1645,1646,1243,1243,1243,1243,1243,1243,1243,1243,1243,1243,1243,1243,1243,1243,1243,1243,1243,1243,1243,1243,
1243,1243,1243,1243,1243,1243,1243,1243,1243,1243,1243,1243,1243,1243,1243,1243,1243,1243,1243,1243,1243,1243,1243,1243,1243,1243,1243,0,1645,1646,1243,1243,1243,1243,1243,1243,1243,1243,1243,1243,1243,1243,1243,1243,1243,1243,1243,1243,1243,1243,
1243,1243,1243,1243,1243,1243,1243,1243,1243,1243,1243,1243,1243,1243,1243,1243,1243,1243,1243,1243,1243,1243,1243,1243,1243,1243,1243,1644,1645,1646,1243,1243,1243,1243,1243,1243,1243,1243,1243,1243,1243,1243,1243,1243,1243,1243,1243,1243,1243,1243,
1243,1243,1243,1243,1243,1243,1243,1243,1243,1243,1243,1243,1243,1243,1243,1243,1243,1243,1243,1243,1243,1243,1243,1243,1243,1243,1243,1644,1645,1646,1243,1243,1243,1243,1243,1243,1243,1243,1243,1243,1243,1243,1243,1243,1243,1243,1243,1243,1243,1243,
1243,1243,1243,1243,1243,1243,1243,1243,1243,1243,1243,1243,1243,1243,1243,1243,1243,1243,1243,1243,1243,1243,1243,1243,1243,1243,1243,1644,1645,1646,1243,1243,1243,1243,1243,1243,1243,1243,1243,1243,1243,1243,1243,1243,1243,1243,1243,1243,1243,1243,
1243,1243,1243,1243,1243,1243,1243,1243,1243,1243,1243,1243,1243,1243,1243,1243,1243,1243,1243,1243,1243,1243,1243,1243,1243,1243,1243,1644,1645,1646,1243,1243,1243,1243,1243,1243,1243,1243,1243,1243,1243,1243,1243,1243,1243,1243,1243,1243,1243,1243,
1243,1243,1243,1243,1243,1243,1243,1243,1243,1243,1243,1243,1243,1243,1243,1243,1243,1243,1243,1243,1243,1243,1243,1243,1243,1243,1243,1641,1642,1643,1243,1243,1243,1243,1243,1243,1243,1243,1243,1243,1243,1243,1243,1243,1243,1243,1243,1243,1243,1243,
1243,1243,1243,1243,1243,1243,1243,1243,1243,1243,1243,1243,1243,1243,1243,1243,1243,1243,1243,1617,1618,1618,1618,1618,1618,1618,1618,1642,1642,1643,1243,1243,1243,1243,1243,1243,1243,1243,1243,1243,1243,1243,1243,1243,1243,1243,1243,1243,1243,1243,
1243,1243,1243,1243,1243,1243,1243,1243,1243,1243,1243,1243,1243,1243,1243,1243,1243,1243,1243,1641,1642,1642,1642,1642,1642,1642,1642,1642,1642,1643,1243,1243,1243,1243,1243,1243,1243,1243,1243,1243,1243,1243,1243,1243,1243,1243,1243,1243,1243,1243,
1243,1243,1243,1243,1243,1243,1243,1243,1243,1243,1243,1243,1243,1243,1243,1243,1243,1243,1243,1641,1642,1642,1642,1642,1642,1642,1643,1243,1243,1243,1243,1243,1243,1243,1243,1243,1243,1243,1243,1243,1243,1243,1243,1243,1243,1243,1243,1243,1243,1243,
1243,1243,1243,1243,1243,1243,1243,1243,1243,1243,1243,1243,1243,1243,1243,1243,1243,1243,1243,1644,1645,1646,1243,1243,1243,1243,1243,1243,1243,1243,1243,1243,1243,1243,1243,1243,1243,1243,1243,1243,1243,1243,1243,1243,1243,1243,1243,1243,1243,1243,
1243,1243,1243,1243,1243,1243,1243,1243,1243,1243,1243,1243,1243,1243,1243,1243,1243,1243,1243,1644,1645,1646,1243,1243,1243,1243,1243,1243,1243,1243,1243,1243,1243,1198,1243,1243,1243,1243,1243,1243,1243,1243,1243,1243,1243,1243,1243,1243,1243,1243,
1243,1243,660,1243,1243,1243,1243,1243,1243,1243,1243,1243,1243,1243,1243,1243,1243,1243,1243,1644,1645,1646,1243,1243,1243,1243,1243,1243,1243,1243,1243,1243,1243,1243,1243,1243,1243,1243,1243,1243,1243,1243,1243,1243,1243,1243,1243,1243,1243,1243,
1243,1243,1243,1243,1243,1243,1243,1243,1243,1243,1243,1243,1243,1243,1243,1243,1243,1243,1243,1644,1645,1646,1243,1243,1243,1243,1243,1243,1243,1243,1243,1243,1243,1243,1243,1243,1243,1243,1243,1243,1243,1243,1243,1243,1243,1243,1243,1243,1243,1243,
1243,1243,1243,1243,1243,662,1243,1243,1243,1243,1243,1243,1243,1243,1243,1243,1243,1243,1617,1642,1643,1243,1243,1243,1243,1243,1243,1243,1243,1243,1243,1243,1243,1243,1243,1243,1243,1243,1243,1243,1243,1243,1243,1243,1243,1243,1243,1243,1243,1243,
1243,1243,1243,1243,1243,1243,1243,1243,1243,1243,1243,1243,1243,1243,1243,1243,1243,1243,1644,1645,1646,1243,1243,1243,1243,1243,1243,1243,1243,1243,1243,1243,1243,1243,1243,1243,1243,1243,1243,1243,1243,1243,1243,1243,1243,1243,1243,1243,1243,1243,
1243,1243,1243,1243,1243,1243,1243,1243,1243,1243,1243,1243,1243,1243,1243,1243,1243,1243,1644,1645,1646,1243,1243,1243,1243,1243,1243,1243,1243,1243,1243,1243,1243,1243,1243,1243,1243,1243,1243,1243,1243,1243,1243,1243,1243,1243,1243,1243,1243,1243,
1243,1243,1243,1243,1243,1243,1243,1243,1243,1243,1243,1243,1243,1243,1243,1243,1243,1243,1644,1645,1646,1243,1243,1243,1243,1243,1243,1243,1243,1243,1243,1243,1243,1243,1243,1243,1243,1243,1243,1243,1243,1243,1243,1243,1243,1243,1243,1243,1243,1243,
1243,1243,1243,1243,1243,1243,1243,1243,1243,1243,1243,1243,1243,1243,1243,1243,1243,1243,1644,1645,1646,1243,1243,1243,1243,1243,1243,1243,1243,1243,1243,1243,1243,1243,1243,1243,1243,1243,1243,1243,1243,1243,1243,1243,1243,1243,1243,1243,1243,1243,
1243,1243,1243,1243,1243,1243,1243,1243,1243,1243,1243,1243,1243,1243,1243,1243,1243,1243,1644,1645,1646,1243,1243,1243,1243,1243,1243,1243,1243,1243,1243,1243,1243,1243,1243,1243,1243,1243,1243,1243,1243,1243,1243,1243,1243,1243,1243,1243,1243,1243,
1243,1243,1243,1243,1243,1243,1243,1243,1243,1243,1243,1243,1243,1243,1243,1243,1243,1243,1644,1645,1646,1243,1243,1243,1243,1243,1243,1243,1243,1243,1243,1243,1243,1243,1243,1243,1243,1243,1243,1243,1243,1243,1243,1243,1243,1243,1243,1243,1243,1243
</data>
 </layer>
 <layer id="2" name="deco_sotto" width="50" height="50">
  <data encoding="csv">
0,0,0,0,0,0,0,0,0,0,0,0,0,0,0,0,0,0,0,0,0,0,0,0,0,0,713,0,715,0,0,0,0,0,0,705,706,707,0,0,0,0,0,0,0,0,0,0,0,0,
0,0,0,0,0,0,0,0,0,0,0,0,0,0,0,0,0,0,0,0,0,0,0,0,0,0,713,0,715,0,0,705,706,707,0,713,714,715,0,0,0,662,0,0,0,0,0,0,0,0,
0,0,0,0,0,0,0,0,0,0,0,0,0,0,0,0,0,0,0,0,0,0,0,0,0,0,713,0,715,0,0,713,714,715,0,721,722,723,0,0,0,0,0,0,0,0,0,0,0,0,
0,0,0,0,0,0,0,0,0,0,0,0,0,0,0,0,0,0,0,0,0,0,0,0,0,0,713,0,715,0,0,721,722,723,0,0,0,0,0,0,0,0,705,706,707,0,705,706,707,0,
0,0,0,0,0,0,0,0,0,0,0,0,0,0,0,0,0,715,2852,2853,0,705,709,709,709,0,706,707,715,0,0,705,706,707,0,705,706,707,0,0,0,0,713,714,715,0,713,714,715,0,
0,0,0,0,0,0,0,0,0,0,0,0,0,0,0,0,0,715,0,2852,2853,716,0,705,706,706,707,715,715,0,0,713,714,715,0,713,714,715,0,0,0,0,721,722,723,0,721,722,723,0,
0,0,0,0,0,0,0,661,0,0,0,0,0,0,0,0,0,715,2852,2853,0,716,0,713,714,714,715,715,715,0,0,721,722,723,0,721,722,723,0,0,0,0,0,705,706,707,0,0,0,0,
0,0,0,0,0,0,0,669,0,0,0,0,0,0,0,0,0,715,0,0,0,716,0,721,712,706,715,715,715,0,0,705,706,707,0,0,0,0,0,0,0,0,0,713,714,715,0,0,0,0,
0,0,0,0,0,0,0,0,0,0,0,0,0,0,711,668,722,723,0,0,0,716,0,0,713,714,715,715,715,0,0,713,714,715,0,0,0,0,0,0,0,0,0,721,722,723,0,0,0,0,
0,0,0,0,0,0,0,0,0,705,706,707,0,0,715,0,0,728,0,0,0,716,0,0,713,714,715,715,715,0,0,721,722,723,0,0,0,0,0,0,0,0,0,0,0,0,0,0,0,0,
0,0,0,0,705,706,706,706,706,706,714,715,0,0,715,0,0,1243,0,0,0,716,0,0,713,714,715,715,715,706,706,706,706,706,706,706,706,706,706,706,706,706,706,706,709,660,709,709,709,707,
0,0,0,0,713,714,714,714,714,714,714,715,0,0,706,706,706,707,0,0,0,716,0,0,713,714,715,715,706,706,706,706,706,706,706,706,706,706,706,706,706,706,706,706,707,0,0,0,0,715,
0,0,0,0,721,722,722,722,722,712,714,715,0,0,0,0,0,715,0,0,0,716,0,0,713,714,715,706,706,706,706,706,706,706,706,706,706,706,706,706,706,706,706,707,715,0,0,0,0,715,
0,0,0,0,0,0,0,0,0,713,714,715,0,0,0,0,0,715,0,0,0,716,0,0,713,714,706,706,706,706,706,706,706,706,706,706,706,706,706,706,706,707,0,715,715,0,0,0,0,715,
0,0,0,0,0,0,0,728,0,721,668,723,0,0,0,0,0,715,0,0,0,716,0,0,721,668,722,722,722,722,722,722,722,722,722,722,722,712,714,714,714,715,0,715,715,0,0,0,0,715,
0,0,0,0,0,0,0,0,0,0,0,0,0,0,0,0,0,715,0,0,0,716,0,0,0,0,0,0,0,0,0,0,0,0,0,0,0,713,714,714,714,715,0,715,715,711,668,722,722,723,
0,0,0,0,0,0,0,0,0,0,0,0,0,0,0,0,0,715,0,0,0,716,0,0,0,0,0,0,0,0,0,0,0,0,0,0,1214,713,714,714,714,715,0,715,715,715,0,0,711,722,
0,0,0,0,0,0,0,0,0,0,711,722,722,722,722,722,722,723,0,0,0,724,725,725,725,725,725,725,725,725,725,725,725,725,725,712,0,721,722,668,722,723,0,715,715,715,0,0,715,711,
0,0,0,0,0,0,0,0,0,0,715,711,725,725,725,725,725,725,0,0,0,725,725,725,725,725,725,725,725,725,725,725,725,725,712,713,0,0,0,0,0,0,0,715,715,715,0,0,715,715,
0,0,0,0,0,0,0,0,0,0,715,715,711,725,725,725,725,725,0,0,0,725,725,725,725,725,725,725,725,725,725,725,725,712,713,713,0,0,0,0,0,0,0,715,715,715,0,0,715,715,
722,722,722,1196,722,722,722,722,722,722,723,715,715,711,725,725,725,725,0,0,0,725,725,725,725,725,725,725,725,725,725,725,712,713,713,713,0,0,0,0,0,0,0,715,715,715,0,0,715,715,
722,722,722,1196,722,722,722,722,722,722,722,723,715,715,711,725,725,725,0,0,0,725,725,725,725,725,725,725,725,725,725,712,713,713,713,713,0,0,0,0,0,0,0,715,715,715,0,0,715,715,
722,722,722,719,717,717,717,717,717,717,717,662,723,715,715,711,725,725,0,0,0,725,725,725,725,725,725,725,725,725,712,713,713,713,713,713,0,1161,1162,1162,1162,1163,0,715,715,715,0,0,715,715,
722,722,722,1196,722,722,722,722,722,722,722,722,722,723,715,715,0,0,0,0,0,0,0,0,0,0,0,0,0,0,713,713,713,713,713,713,0,1169,1161,1162,1163,1171,0,715,715,715,0,0,715,715,
722,722,722,1196,722,722,722,722,722,722,722,722,722,722,723,715,0,0,0,0,0,0,0,0,0,0,0,0,1645,0,713,713,713,713,713,713,0,1169,1177,1181,1179,1171,0,715,715,715,0,0,715,715,
722,722,722,1196,722,722,722,722,722,722,722,722,722,722,722,723,0,0,11827,11827,11827,11827,11827,11827,1641,1645,1645,1645,0,0,713,713,713,713,713,713,0,1177,1188,1189,1190,1179,0,715,715,715,0,0,715,715,
0,0,0,0,1214,0,0,0,705,706,706,706,706,706,706,706,706,706,707,0,0,0,0,0,1641,1645,1645,1645,0,0,713,713,713,713,713,713,0,0,0,0,0,0,0,715,715,715,0,0,715,715,
1214,0,0,1214,1214,1214,0,0,713,705,706,706,706,706,706,706,706,707,715,0,0,0,0,0,1641,1645,1645,1645,0,0,713,713,713,713,713,713,0,0,0,0,0,0,0,715,715,715,0,0,715,715,
0,1214,0,0,1214,1214,1214,0,713,713,705,706,706,706,706,706,707,715,715,0,728,0,0,0,1641,1645,1645,1645,0,0,713,713,713,713,713,713,0,0,0,0,0,0,0,715,715,715,0,0,715,715,
0,1214,1214,0,1214,0,1214,0,713,713,713,0,0,0,0,0,715,715,715,0,0,0,0,0,1641,1645,1234,1235,1236,0,713,713,713,713,713,713,0,0,0,0,0,0,0,715,715,715,0,0,715,715,
0,1214,0,0,1214,0,1214,0,713,713,713,0,0,0,0,0,715,715,715,0,0,0,0,0,1641,1645,1242,1198,1244,0,713,713,713,713,713,713,0,0,0,0,0,0,0,715,715,715,0,0,715,715,
0,1214,0,1214,1214,0,1214,0,713,713,713,1214,0,0,1214,0,715,715,715,0,728,0,0,0,1641,1645,1250,1251,1252,0,713,713,713,713,713,721,722,722,722,722,722,722,722,723,715,715,0,0,715,715,
0,1214,0,0,1214,0,0,0,713,713,713,0,0,0,0,0,715,715,715,0,728,0,0,0,1641,1645,1645,1645,0,0,713,713,713,713,721,722,722,722,722,722,722,722,722,722,723,715,0,0,715,715,
0,1214,1214,0,0,1214,0,0,713,713,713,0,0,0,0,0,715,715,715,0,0,0,0,0,1641,1645,1645,1645,0,0,713,713,713,724,725,725,722,722,722,722,722,722,722,722,722,723,722,668,723,715,
0,0,0,1214,0,1214,0,0,713,713,713,0,0,1214,0,0,715,715,715,0,0,0,0,0,1641,1645,1645,1645,0,0,713,713,721,722,722,722,722,722,722,722,722,722,722,722,722,725,722,668,722,723,
0,1214,0,0,0,1214,0,0,713,713,713,0,728,0,0,0,715,715,715,0,0,0,0,0,1641,1645,1645,1645,0,0,713,713,0,0,0,0,0,0,0,0,0,0,0,0,0,0,0,0,0,0,
0,1214,1214,1214,1214,1214,0,0,713,713,713,0,0,0,0,0,715,715,715,0,0,0,0,0,1645,1645,1645,1645,0,0,713,721,722,668,722,722,722,722,722,722,722,722,722,722,722,722,712,0,0,0,
0,0,0,0,0,0,0,1214,713,713,713,0,0,0,0,0,715,715,715,0,0,0,0,0,0,0,0,0,0,0,713,0,0,0,0,0,0,0,0,0,0,0,0,0,0,0,713,0,0,0,
0,1214,0,1214,0,0,0,0,713,713,713,0,0,0,0,0,715,715,715,0,0,0,0,0,0,0,0,11827,11827,11827,713,1214,1214,0,0,0,0,0,0,0,0,0,0,0,0,0,713,0,0,0,
0,1214,0,1214,0,0,1214,0,713,713,713,0,0,0,1214,0,715,715,715,0,0,0,11827,11827,11827,11827,11827,705,660,707,713,0,0,1214,0,0,0,0,0,0,0,0,0,0,0,0,713,0,0,0,
706,706,660,706,706,706,706,706,706,713,713,0,0,0,0,0,715,715,715,0,0,0,0,0,0,0,0,713,1243,1243,1243,0,0,0,1214,0,0,0,0,0,0,0,0,0,0,0,713,0,728,0,
705,706,660,706,706,706,706,706,706,706,713,0,0,0,0,0,715,715,715,0,0,0,0,0,0,0,0,721,722,722,722,0,0,0,0,1214,0,0,0,0,0,0,0,0,0,0,713,0,0,0,
713,0,0,705,706,706,706,706,706,706,706,0,0,1214,0,0,715,715,715,0,0,0,0,0,0,0,0,0,0,0,713,0,0,0,0,1214,0,0,0,0,0,0,0,0,0,0,713,0,0,0,
713,0,0,713,0,0,0,0,0,0,0,0,0,0,0,0,715,715,0,0,0,2601,0,0,0,0,0,0,0,0,721,722,722,722,722,722,722,722,722,722,722,722,722,722,712,0,713,0,0,0,
713,0,0,713,0,0,0,0,0,0,0,0,0,0,0,0,715,715,0,0,0,0,0,0,0,0,0,0,0,0,0,0,0,0,0,0,0,0,0,0,0,0,0,0,713,0,713,0,0,0,
713,0,0,721,722,722,722,722,668,722,722,722,722,722,722,722,723,715,0,0,0,705,706,706,660,706,1164,1165,1166,706,706,706,706,706,706,706,706,706,706,706,706,706,706,706,706,0,713,0,1214,0,
713,0,0,0,0,0,0,0,0,0,0,0,0,0,0,0,0,715,2852,2853,0,713,0,0,0,0,0,0,0,0,0,0,0,0,0,0,0,0,0,0,0,0,0,0,0,0,713,1214,0,1214,
713,0,0,0,0,0,0,0,0,0,0,0,0,0,0,0,0,715,0,2852,2853,713,705,706,706,706,706,706,706,706,706,706,706,706,706,706,706,706,706,706,706,706,706,706,706,706,714,714,714,714,
713,0,0,0,0,0,0,0,0,0,0,0,0,0,0,0,0,715,2852,2853,0,713,713,714,714,714,714,714,714,714,714,714,714,714,714,714,714,714,714,714,714,714,714,714,714,714,714,714,714,714,
721,722,722,722,722,722,722,722,722,722,722,722,722,722,722,722,722,723,0,0,0,713,713,714,714,714,714,714,714,714,714,714,714,714,714,714,714,714,714,714,714,714,714,714,714,714,714,714,714,714
</data>
 </layer>
 <layer id="3" name="edifici" width="50" height="50">
  <data encoding="csv">
711,725,725,725,725,725,725,725,725,725,725,725,726,718,718,718,0,0,0,0,0,0,0,0,0,0,0,0,0,0,0,0,0,0,0,0,0,0,0,0,11913,11913,11913,0,0,0,0,0,0,0,
715,711,725,725,725,725,725,725,725,725,725,725,725,726,718,718,0,0,0,0,0,0,0,0,0,0,0,0,0,0,0,0,0,0,0,0,0,0,0,0,0,0,11913,0,0,0,0,0,0,0,
715,715,711,725,725,725,725,725,725,725,725,725,725,725,726,718,0,0,0,0,0,0,0,0,0,0,0,0,0,0,0,0,0,0,0,0,0,0,0,0,0,0,11913,0,0,0,0,0,0,0,
715,715,715,711,725,725,725,725,725,725,725,725,725,725,725,726,0,0,0,0,0,0,0,0,0,0,0,0,0,0,0,0,0,0,0,0,0,0,0,0,0,0,0,0,0,0,0,0,0,0,
715,715,715,715,0,0,0,0,0,0,0,0,0,0,0,0,706,707,0,0,0,0,0,0,0,0,0,0,0,0,0,0,0,0,0,0,0,0,0,0,0,0,0,0,0,0,0,0,0,0,
715,715,715,715,0,0,0,0,0,0,0,0,0,0,0,0,0,0,0,0,0,0,0,0,0,0,0,0,0,0,0,0,0,0,0,0,0,0,0,0,0,0,0,0,0,0,0,0,0,0,
715,715,715,715,0,0,0,0,0,0,0,0,0,0,0,0,0,7868,7866,7866,7866,7868,0,0,0,0,0,0,0,0,0,0,0,0,0,0,0,0,0,0,0,0,0,0,0,0,0,0,0,0,
715,715,715,715,0,0,0,0,0,1214,1214,1214,1214,1214,0,0,0,7876,7874,7874,7874,7876,0,0,0,0,0,0,0,0,0,0,0,0,0,0,0,0,0,0,0,0,0,0,0,0,0,0,0,0,
715,715,715,715,0,0,1214,1214,1214,0,0,0,0,0,0,0,0,0,0,0,0,0,0,0,0,0,0,0,0,0,0,0,0,0,0,0,0,0,0,0,0,0,0,0,0,0,0,0,0,0,
715,715,715,715,1214,1214,0,0,0,0,0,0,0,0,0,0,0,0,0,0,0,0,0,0,0,0,0,0,0,0,0,0,0,0,0,0,0,0,0,0,0,0,0,0,0,0,0,0,0,0,
715,715,715,715,0,0,0,0,0,0,0,0,0,0,0,0,0,0,0,0,0,0,0,0,0,0,0,0,0,0,0,0,0,0,0,0,0,0,0,0,0,0,0,0,0,0,0,0,0,0,
715,715,715,715,0,0,0,0,0,0,0,0,0,0,0,0,0,0,0,0,0,0,0,0,0,0,0,0,0,0,0,0,0,0,0,0,0,0,0,0,0,0,0,0,0,0,0,0,0,0,
715,715,715,715,0,0,0,0,0,0,0,0,0,0,0,0,0,0,0,0,0,0,0,0,0,0,0,0,0,0,0,0,0,0,0,0,0,0,0,0,0,0,0,0,0,0,0,0,0,0,
715,715,715,715,0,0,0,0,0,0,0,0,0,0,0,0,0,0,0,0,0,0,0,0,0,0,0,0,0,0,0,0,0,0,0,0,0,0,0,0,0,0,0,0,0,0,0,0,0,0,
723,715,715,715,0,0,0,0,0,0,0,0,0,0,0,0,0,0,0,0,0,0,0,0,0,0,0,0,0,0,0,0,0,0,0,0,0,0,0,0,0,0,0,0,0,0,0,0,0,0,
722,723,715,715,0,0,0,0,0,0,0,0,0,0,0,0,0,0,0,0,0,0,0,0,0,0,0,0,0,0,0,0,0,0,0,0,0,0,0,0,0,0,0,0,0,0,0,0,0,0,
722,722,723,715,0,0,0,0,0,0,0,0,0,0,0,0,0,0,0,0,0,0,0,0,0,0,0,0,0,0,0,0,0,0,0,0,0,0,0,0,0,0,0,0,0,0,0,0,0,0,
722,722,722,723,0,0,0,0,0,0,0,0,0,0,0,0,0,0,0,0,0,0,0,0,0,0,0,0,0,0,0,0,0,0,0,0,0,0,0,0,0,0,0,0,0,0,0,0,0,0,
0,1214,1214,0,0,0,0,0,0,0,0,0,0,0,0,0,0,0,0,0,0,0,0,0,0,0,0,0,0,0,0,0,0,0,0,0,0,0,0,0,0,0,0,0,0,0,0,0,0,0,
1214,0,0,0,0,0,0,0,0,0,0,0,0,0,0,0,0,0,0,0,0,0,0,0,0,0,0,0,0,0,0,0,0,0,0,0,0,0,0,0,0,0,0,0,0,0,0,0,0,0,
0,0,0,0,0,0,0,0,0,0,0,0,0,0,0,0,0,0,0,0,0,0,0,0,0,0,0,0,0,0,0,0,0,0,0,0,0,0,0,0,0,0,0,0,0,0,0,0,0,0,
0,0,0,0,0,0,0,0,0,0,0,0,0,0,0,0,0,0,0,0,0,0,0,0,0,0,0,0,0,0,0,0,0,0,0,0,0,0,0,0,0,0,0,0,0,0,0,0,0,0,
0,0,0,0,0,0,0,0,0,0,0,0,0,0,0,0,0,0,0,0,0,0,0,0,0,0,0,0,0,0,0,0,0,0,0,0,0,0,0,0,0,0,0,0,0,0,0,0,0,0,
0,0,0,0,0,0,0,0,0,0,0,0,0,0,0,0,0,0,0,0,0,0,0,0,0,0,0,0,0,0,0,0,0,0,0,0,0,0,0,0,0,0,0,0,0,0,0,0,0,0,
0,0,0,0,0,0,0,0,0,0,0,0,0,0,0,0,0,0,0,0,0,0,0,0,0,0,0,0,0,0,0,0,0,0,0,0,0,0,0,0,0,0,0,0,0,0,0,0,0,0,
0,0,0,0,0,0,0,0,0,0,0,0,0,0,0,0,0,0,0,0,0,0,0,0,0,0,0,0,0,0,0,0,0,0,0,0,0,0,0,0,0,0,0,0,0,0,0,0,0,0,
0,0,0,0,0,0,0,0,0,0,0,0,0,0,0,0,0,0,0,0,0,0,0,0,0,0,0,0,0,0,0,0,0,0,0,0,0,0,0,0,0,0,0,0,0,0,0,0,0,0,
0,0,0,0,0,0,0,0,0,0,0,0,0,0,0,0,0,0,0,0,0,0,0,0,0,0,0,0,0,0,0,0,0,0,0,0,0,0,0,0,0,0,0,0,0,0,0,0,0,0,
0,0,0,0,0,0,0,0,0,0,0,0,0,0,0,0,0,0,0,0,0,0,0,0,0,0,0,0,0,0,0,0,0,0,0,0,0,0,0,0,0,0,0,0,0,0,0,0,0,0,
0,0,0,0,0,0,0,0,0,0,0,0,0,0,0,0,0,0,0,0,0,0,0,0,0,0,0,0,0,0,0,0,0,0,0,0,0,0,0,0,0,0,0,0,0,0,0,0,0,0,
0,0,0,0,0,0,0,0,0,0,0,0,0,0,0,0,0,0,0,0,0,0,0,0,0,0,0,0,0,0,0,0,0,0,0,0,0,0,0,0,0,0,0,0,0,0,0,0,0,0,
0,0,0,0,0,0,0,0,0,0,0,0,0,0,0,0,0,0,0,0,0,0,0,0,0,0,0,0,0,0,0,0,0,0,0,0,0,0,0,0,0,0,0,0,0,0,0,0,0,0,
0,0,0,0,0,0,0,0,0,0,0,0,0,0,0,0,0,0,0,0,0,0,0,0,0,0,0,0,0,0,0,0,0,0,0,0,0,0,0,0,0,0,0,0,0,0,0,0,0,0,
0,0,0,0,0,0,0,0,0,0,0,0,0,0,0,0,0,0,0,0,0,0,0,0,0,0,0,0,0,0,0,0,0,0,0,0,0,0,0,0,0,0,0,0,0,0,0,0,0,0,
0,0,0,0,0,0,0,0,0,0,0,0,0,0,0,0,0,0,0,0,0,0,0,0,0,0,0,0,0,0,0,0,0,0,0,0,0,0,0,0,0,0,0,0,0,0,0,0,0,0,
0,0,0,0,0,0,0,0,0,0,0,0,0,0,0,0,0,0,0,0,0,0,0,0,0,0,0,0,0,0,0,0,0,0,0,0,0,0,0,0,0,0,0,0,0,0,0,0,0,0,
0,0,0,0,0,0,0,0,0,0,0,0,0,0,0,0,0,0,0,0,0,0,0,0,0,0,0,0,0,0,0,0,0,0,0,0,0,0,0,0,0,0,0,0,0,0,0,0,0,0,
0,0,0,0,0,0,0,0,0,0,0,0,0,0,0,0,0,0,0,0,0,0,0,0,0,0,0,0,0,0,0,0,0,0,0,0,0,0,0,0,0,0,0,0,0,0,0,0,0,0,
0,0,0,0,0,0,0,0,0,0,0,0,0,0,0,0,0,0,0,0,0,0,0,0,0,0,0,0,0,0,0,0,0,0,0,0,0,0,0,0,0,0,0,0,0,0,0,0,0,0,
0,0,0,0,0,0,0,0,0,0,0,0,0,0,0,0,0,0,0,0,0,0,0,0,0,0,0,0,0,0,0,0,0,0,0,0,0,0,0,0,0,0,0,0,0,0,0,0,0,0,
0,0,0,0,0,0,0,0,0,0,0,0,0,0,0,0,0,0,0,0,0,0,0,0,0,0,0,0,0,0,0,0,0,0,0,0,0,0,0,0,0,0,0,0,0,0,0,0,0,0,
0,0,0,0,0,0,0,0,0,0,0,0,0,0,0,0,0,0,0,0,0,0,0,0,0,0,0,0,0,0,0,0,0,0,0,0,0,0,0,0,0,0,0,0,0,0,0,0,0,0,
0,0,0,0,0,0,0,0,0,0,0,0,0,0,0,0,0,0,0,0,0,0,0,0,0,0,0,0,0,0,0,0,0,0,0,0,0,0,0,0,0,0,0,0,0,0,0,0,0,0,
0,0,0,0,0,0,0,0,0,0,0,0,0,0,0,0,0,0,0,0,0,11827,0,0,0,0,0,0,0,0,0,0,0,0,0,0,0,0,0,0,0,0,0,0,0,0,0,0,0,0,
0,0,0,0,0,0,0,0,0,0,0,0,0,0,0,0,0,0,0,0,0,0,0,0,0,0,0,0,0,0,0,0,0,0,0,0,0,0,0,0,0,0,0,0,0,0,0,0,0,0,
0,0,0,0,0,0,0,0,0,0,0,0,0,0,0,0,0,0,0,0,0,0,0,0,0,0,0,0,0,0,0,0,0,0,0,0,0,0,0,0,0,0,0,0,0,0,0,0,0,0,
0,0,0,0,0,0,0,0,0,0,0,0,0,0,0,0,0,0,0,0,0,0,0,0,0,0,0,0,0,0,0,0,0,0,0,0,0,0,0,0,0,0,0,0,0,0,0,0,0,0,
0,0,0,0,0,0,0,0,0,0,0,0,0,0,0,0,0,0,0,0,0,0,0,0,0,0,0,0,0,0,0,0,0,0,0,0,0,0,0,0,0,0,0,0,0,0,0,0,0,0,
0,0,0,0,0,0,0,0,0,0,0,0,0,0,0,0,0,0,0,0,0,0,0,0,0,0,0,0,0,0,0,0,0,0,0,0,0,0,0,0,0,0,0,0,0,0,0,0,0,0,
0,0,0,0,0,0,0,0,0,0,0,0,0,0,0,0,0,0,0,0,0,0,0,0,0,0,0,0,0,0,0,0,0,0,0,0,0,0,0,0,0,0,0,0,0,0,0,0,0,0
</data>
 </layer>
 <layer id="4" name="sopra_testa" width="50" height="50">
  <data encoding="csv">
0,0,0,0,0,0,0,0,0,0,0,0,0,0,0,0,0,0,0,0,0,0,0,0,0,0,0,0,0,0,0,0,0,0,0,0,0,0,0,0,0,0,0,0,0,0,0,0,0,0,
0,0,0,0,0,0,0,0,0,0,0,0,0,0,0,0,0,0,0,0,0,0,0,0,0,0,0,0,0,0,0,0,0,0,0,0,0,0,0,0,0,0,0,0,0,0,0,0,0,0,
0,0,0,0,0,0,0,0,0,0,0,0,0,0,0,0,0,0,0,0,0,0,0,0,0,0,0,0,0,0,0,0,0,0,0,0,0,0,0,0,0,0,0,0,0,0,0,0,0,0,
0,0,0,0,0,0,0,0,0,0,0,0,0,0,0,0,0,0,0,0,0,0,0,0,0,0,0,0,0,0,0,0,0,0,0,0,0,0,0,0,0,0,0,0,0,0,0,0,0,0,
0,0,0,0,0,0,0,0,0,0,0,0,0,0,0,0,0,0,0,0,0,0,0,0,0,0,0,0,0,0,0,0,0,0,0,0,0,0,0,0,0,0,0,0,0,0,0,0,0,0,
0,0,0,0,0,0,0,0,0,0,0,0,0,0,0,0,0,0,0,0,0,0,0,0,0,0,0,0,0,0,0,0,0,0,0,0,0,0,0,0,0,0,0,0,0,0,0,0,0,0,
0,0,0,0,0,0,0,0,0,0,0,0,0,0,0,0,0,0,0,0,0,0,0,0,0,0,0,0,0,0,0,0,0,0,0,0,0,0,0,0,0,0,0,0,0,0,0,0,0,0,
0,0,0,0,0,0,0,0,0,0,0,0,0,0,0,0,0,0,0,0,0,0,0,0,0,0,0,0,0,0,0,0,0,0,0,0,0,0,0,0,0,0,0,0,0,0,0,0,0,0,
0,0,0,0,0,0,0,0,0,0,0,0,0,0,0,0,0,0,0,0,0,0,0,0,0,0,0,0,0,0,0,0,0,0,0,0,0,0,0,0,0,0,0,0,0,0,0,0,0,0,
0,0,0,0,0,0,0,0,0,0,0,0,0,0,0,0,0,0,0,0,0,0,0,0,0,0,0,0,0,0,0,0,0,0,0,0,0,0,0,0,0,0,0,0,0,0,0,0,0,0,
0,0,0,0,0,0,0,0,0,0,0,0,0,0,0,0,0,0,0,0,0,0,0,0,0,0,0,0,0,0,0,0,0,0,0,0,0,0,0,0,0,0,0,0,0,0,0,0,0,0,
0,0,0,0,0,0,0,0,0,0,0,0,0,0,0,0,0,0,0,0,0,0,0,0,0,0,0,0,0,0,0,0,0,0,0,0,0,0,0,0,0,0,0,0,0,0,0,0,0,0,
0,0,0,0,0,0,0,0,0,0,0,0,0,0,0,0,0,0,0,0,0,0,0,0,0,0,0,0,0,0,0,0,0,0,0,0,0,0,0,0,0,0,0,0,0,0,0,0,0,0,
0,0,0,0,0,0,0,0,0,0,0,0,0,0,0,0,0,0,0,0,0,0,0,0,0,0,0,0,0,0,0,0,0,0,0,0,0,0,0,0,0,0,0,0,0,0,0,0,0,0,
0,0,0,0,0,0,0,0,0,0,0,0,0,0,0,0,0,0,0,0,0,0,0,0,0,0,0,0,0,0,0,0,0,0,0,0,0,0,0,0,0,0,0,0,0,0,0,0,0,0,
0,0,0,0,0,0,0,0,0,0,0,0,0,0,0,0,0,0,0,0,0,0,0,0,0,0,0,0,0,0,0,0,0,0,0,0,0,0,0,0,0,0,0,0,0,0,0,0,0,0,
0,0,0,0,0,0,0,0,0,0,0,0,0,0,0,0,0,0,0,0,0,0,0,0,0,0,0,0,0,0,0,0,0,0,0,0,0,0,0,0,0,0,0,0,0,0,0,0,0,0,
0,0,0,0,0,0,0,0,0,0,0,0,0,0,0,0,0,0,0,0,0,0,0,0,0,0,0,0,0,0,0,0,0,0,0,0,0,0,0,0,0,0,0,0,0,0,0,0,0,0,
0,0,0,0,0,0,0,0,0,0,0,0,0,0,0,0,0,0,0,0,0,0,0,0,0,0,0,0,0,0,0,0,0,0,0,0,0,0,0,0,0,0,0,0,0,0,0,0,0,0,
0,0,0,0,0,0,0,0,0,0,0,0,0,0,0,0,0,0,0,0,0,0,0,0,0,0,0,0,0,0,0,0,0,0,0,0,0,0,0,0,0,0,0,0,0,0,0,0,0,0,
0,0,0,0,0,0,0,0,0,0,0,0,0,0,0,0,0,0,0,0,0,0,0,0,0,0,0,0,0,0,0,0,0,0,0,0,0,0,0,0,0,0,0,0,0,0,0,0,0,0,
0,0,0,0,0,0,0,0,0,0,0,0,0,0,0,0,0,0,0,0,0,0,0,0,0,0,0,0,0,0,0,0,0,0,0,0,0,0,0,0,0,0,0,0,0,0,0,0,0,0,
0,0,0,0,0,0,0,0,0,0,0,0,0,0,0,0,0,0,0,0,0,0,0,0,0,0,0,0,0,0,0,0,0,0,0,0,0,0,0,0,0,0,0,0,0,0,0,0,0,0,
0,0,0,0,0,0,0,0,0,0,0,0,0,0,0,0,0,0,0,0,0,0,0,0,0,0,0,0,0,0,0,0,0,0,0,0,0,0,0,0,0,0,0,0,0,0,0,0,0,0,
0,0,0,0,0,0,0,0,0,0,0,0,0,0,0,0,0,0,0,0,0,0,0,0,0,0,0,0,0,0,0,0,0,0,0,0,0,0,0,0,0,0,0,0,0,0,0,0,0,0,
0,0,0,0,0,0,0,0,0,0,0,0,0,0,0,0,0,0,0,0,0,0,0,0,0,0,0,0,0,0,0,0,0,0,0,0,0,0,0,0,0,0,0,0,0,0,0,0,0,0,
0,0,0,0,0,0,0,0,0,0,0,0,0,0,0,0,0,0,0,0,0,0,0,0,0,0,0,0,0,0,0,0,0,0,0,0,0,0,0,0,0,0,0,0,0,0,0,0,0,0,
0,0,0,0,0,0,0,0,0,0,0,0,0,0,0,0,0,0,0,0,0,0,0,0,0,0,0,0,0,0,0,0,0,0,0,0,0,0,0,0,0,0,0,0,0,0,0,0,0,0,
0,0,0,0,0,0,0,0,0,0,0,0,0,0,0,0,0,0,0,0,0,0,0,0,0,0,0,0,0,0,0,0,0,0,0,0,0,0,0,0,0,0,0,0,0,0,0,0,0,0,
0,0,0,0,0,0,0,0,0,0,0,0,0,0,0,0,0,0,0,0,0,0,0,0,0,0,0,0,0,0,0,0,0,0,0,0,0,0,0,0,0,0,0,0,0,0,0,0,0,0,
0,0,0,0,0,0,0,0,0,0,0,0,0,0,0,0,0,0,0,0,0,0,0,0,0,0,0,0,0,0,0,0,0,0,0,0,0,0,0,0,0,0,0,0,0,0,0,0,0,0,
0,0,0,0,0,0,0,0,0,0,0,0,0,0,0,0,0,0,0,0,0,0,0,0,0,0,0,0,0,0,0,0,0,0,0,0,0,0,0,0,0,0,0,0,0,0,0,0,0,0,
0,0,0,0,0,0,0,0,0,0,0,0,0,0,0,0,0,0,0,0,0,0,0,0,0,0,0,0,0,0,0,0,0,0,0,0,0,0,0,0,0,0,0,0,0,0,0,0,0,0,
0,0,0,0,0,0,0,0,0,0,0,0,0,0,0,0,0,0,0,0,0,0,0,0,0,0,0,0,0,0,0,0,0,0,0,0,0,0,0,0,0,0,0,0,0,0,0,0,0,0,
0,0,0,0,0,0,0,0,0,0,0,0,0,0,0,0,0,0,0,0,0,0,0,0,0,0,0,0,0,0,0,0,0,0,0,0,0,0,0,0,0,0,0,0,0,0,0,0,0,0,
0,0,0,0,0,0,0,0,0,0,0,0,0,0,0,0,0,0,0,0,0,0,0,0,0,0,0,0,0,0,0,0,0,0,0,0,0,0,0,0,0,0,0,0,0,0,0,0,0,0,
0,0,0,0,0,0,0,0,0,0,0,0,0,0,0,0,0,0,0,0,0,0,0,0,0,0,0,0,0,0,0,0,0,0,0,0,0,0,0,0,0,0,0,0,0,0,0,0,0,0,
0,0,0,0,0,0,0,0,0,0,0,0,0,0,0,0,0,0,0,0,0,0,0,0,0,0,0,0,0,0,0,0,0,0,0,0,0,0,0,0,0,0,0,0,0,0,0,0,0,0,
0,0,0,0,0,0,0,0,0,0,0,0,0,0,0,0,0,0,0,0,0,0,0,0,0,0,0,0,0,0,0,0,0,0,0,0,0,0,0,0,0,0,0,0,0,0,0,0,0,0,
0,0,0,0,0,0,0,0,0,0,0,0,0,0,0,0,0,0,0,0,0,0,0,0,0,0,0,0,0,0,0,0,0,0,0,0,0,0,0,0,0,0,0,0,0,0,0,0,0,0,
0,0,0,0,0,0,0,0,0,0,0,0,0,0,0,0,0,0,0,0,0,0,0,0,0,0,0,0,0,0,0,0,0,0,0,0,0,0,0,0,0,0,0,0,0,0,0,0,0,0,
0,0,0,0,0,0,0,0,0,0,0,0,0,0,0,0,0,0,0,0,0,0,0,0,0,0,0,0,0,0,0,0,0,0,0,0,0,0,0,0,0,0,0,0,0,0,0,0,0,0,
0,0,0,0,0,0,0,0,0,0,0,0,0,0,0,0,0,0,0,0,0,0,0,0,0,0,0,0,0,0,0,0,0,0,0,0,0,0,0,0,0,0,0,0,0,0,0,0,0,0,
0,0,0,0,0,0,0,0,0,0,0,0,0,0,0,0,0,0,0,0,0,0,0,0,0,0,0,0,0,0,0,0,0,0,0,0,0,0,0,0,0,0,0,0,0,0,0,0,0,0,
0,0,0,0,0,0,0,0,0,0,0,0,0,0,0,0,0,0,0,0,0,0,0,0,0,0,0,0,0,0,0,0,0,0,0,0,0,0,0,0,0,0,0,0,0,0,0,0,0,0,
0,0,0,0,0,0,0,0,0,0,0,0,0,0,0,0,0,0,0,0,0,0,0,0,0,0,0,0,0,0,0,0,0,0,0,0,0,0,0,0,0,0,0,0,0,0,0,0,0,0,
0,0,0,0,0,0,0,0,0,0,0,0,0,0,0,0,0,0,0,0,0,0,0,0,0,0,0,0,0,0,0,0,0,0,0,0,0,0,0,0,0,0,0,0,0,0,0,0,0,0,
0,0,0,0,0,0,0,0,0,0,0,0,0,0,0,0,0,0,0,0,0,0,0,0,0,0,0,0,0,0,0,0,0,0,0,0,0,0,0,0,0,0,0,0,0,0,0,0,0,0,
0,0,0,0,0,0,0,0,0,0,0,0,0,0,0,0,0,0,0,0,0,0,0,0,0,0,0,0,0,0,0,0,0,0,0,0,0,0,0,0,0,0,0,0,0,0,0,0,0,0,
0,0,0,0,0,0,0,0,0,0,0,0,0,0,0,0,0,0,0,0,0,0,0,0,0,0,0,0,0,0,0,0,0,0,0,0,0,0,0,0,0,0,0,0,0,0,0,0,0,0
</data>
 </layer>
 <objectgroup id="6" name="collisioni">
  <object id="30" x="1" y="9" width="119" height="556"/>
  <object id="31" x="41" y="568" width="47" height="31"/>
  <object id="32" x="14" y="618" width="7" height="14"/>
  <object id="33" x="8" y="640" width="77" height="185"/>
  <object id="34" x="140" y="842" width="7" height="201"/>
  <object id="35" x="106" y="867" width="74" height="24"/>
  <object id="36" x="14" y="874" width="9" height="15"/>
  <object id="37" x="43" y="908" width="11" height="163"/>
  <object id="38" x="70" y="937" width="12" height="9"/>
  <object id="39" x="203" y="906" width="1" height="99"/>
  <object id="40" x="171" y="904" width="10" height="7"/>
  <object id="41" x="72" y="1068" width="12" height="7"/>
  <object id="42" x="111" y="994" width="13" height="14"/>
  <object id="43" x="113" y="1098"/>
  <object id="44" x="176" y="1065" width="2" height="107"/>
  <object id="45" x="42" y="1132" width="10" height="38"/>
  <object id="46" x="54" y="1165" width="98" height="8"/>
  <object id="47" x="239" y="1199"/>
  <object id="48" x="207" y="1262"/>
  <object id="49" x="114" y="1224" width="1" height="42"/>
  <object id="50" x="48" y="1222" width="1" height="44"/>
  <object id="51" x="8" y="1285" width="49" height="48"/>
  <object id="52" x="5" y="1333" width="11" height="283"/>
  <object id="53" x="10" y="1578" width="571" height="26"/>
  <object id="54" x="599" y="1483" width="55" height="97"/>
  <object id="55" x="524" y="905" width="61" height="466"/>
  <object id="56" x="528" y="1360" width="12" height="74"/>
  <object id="57" x="560" y="1357" width="1" height="226"/>
  <object id="58" x="105" y="1452" width="142" height="13"/>
  <object id="59" x="104" y="1365" width="18" height="81"/>
  <object id="60" x="305" y="1454" width="233" height="12"/>
  <object id="61" x="430" y="1356"/>
  <object id="62" x="457" y="1267"/>
  <object id="63" x="431" y="1101"/>
  <object id="64" x="464" y="1008"/>
  <object id="65" x="366" y="1007"/>
  <object id="66" x="272" y="855" width="65" height="488"/>
  <object id="67" x="102" y="1293" width="222" height="44"/>
  <object id="68" x="139" y="744" width="346" height="80"/>
  <object id="69" x="421" y="626" width="78" height="171"/>
  <object id="70" x="414" y="565" width="148" height="157"/>
  <object id="71" x="343" y="564" width="70" height="117"/>
  <object id="72" x="144" y="648" width="206" height="38"/>
  <object id="73" x="150" y="390" width="149" height="17"/>
  <object id="74" x="299" y="398" width="4" height="62"/>
  <object id="75" x="371" y="310" width="8" height="153"/>
  <object id="76" x="310" y="285" width="47" height="8"/>
  <object id="77" x="296" y="305" width="9" height="21"/>
  <object id="78" x="132" y="321" width="165" height="1"/>
  <object id="79" x="131" y="296" width="40" height="6"/>
  <object id="80" x="203" y="274" width="90" height="2"/>
  <object id="83" x="299" y="239" width="136" height="3"/>
  <object id="84" x="134" y="9" width="367" height="96"/>
  <object id="85" x="517" y="17" width="310" height="97"/>
  <object id="86" x="588" y="110" width="61" height="72"/>
  <object id="87" x="558" y="124" width="10" height="57"/>
  <object id="88" x="520" y="116" width="27" height="15"/>
  <object id="89" x="680" y="120" width="7" height="58"/>
  <object id="90" x="684" y="125" width="230" height="34"/>
  <object id="91" x="830" y="9" width="88" height="130"/>
  <object id="93" x="1001" y="45" width="70" height="248"/>
  <object id="94" x="1137" y="138" width="65" height="69"/>
  <object id="95" x="1132" y="9" width="79" height="77"/>
  <object id="96" x="1360" y="108" width="68" height="63"/>
  <object id="97" x="1496" y="112" width="51" height="73"/>
  <object id="98" x="1395" y="185" width="68" height="90"/>
  <object id="99" x="1289" y="5" width="78.5" height="15.5"/>
  <object id="100" x="1361.5" y="7" width="11" height="91.5"/>
  <object id="101" x="941.333" y="326" width="486" height="12.6667"/>
  <object id="102" x="1484" y="325.333" width="118.667" height="24"/>
  <object id="103" x="879" y="157" width="36" height="228"/>
  <object id="104" x="843" y="169" width="26" height="255"/>
  <object id="105" x="866" y="333" width="547" height="78"/>
  <object id="106" x="1384" y="398" width="47" height="643"/>
  <object id="107" x="1451" y="489.75" width="9" height="584.25"/>
  <object id="108" x="1087" y="1010" width="369" height="81"/>
  <object id="109" x="972" y="563" width="162" height="547"/>
  <object id="110" x="1168" y="525"/>
  <object id="111" x="685" y="552" width="368" height="169"/>
  <object id="112" x="685" y="258" width="1" height="348"/>
  <object id="113" x="557" y="373" width="1" height="191"/>
  <object id="114" x="455" y="270" width="6" height="87"/>
  <object id="115" x="523" y="263" width="42" height="11"/>
  <object id="116" x="470" y="353" width="75" height="18"/>
  <object id="117" x="689" y="1390"/>
  <object id="118" x="686" y="1460" width="1" height="113"/>
  <object id="119" x="718" y="1518" width="3" height="66"/>
  <object id="120" x="729" y="1520" width="849" height="69"/>
  <object id="121" x="1549" y="1448" height="1"/>
  <object id="122" x="1521" y="1485"/>
  <object id="123" x="1576" y="1489"/>
  <object id="124" x="1484" y="1171" width="13" height="328"/>
  <object id="125" x="902.25" y="1448" width="527.75" height="9"/>
  <object id="126" x="804.5" y="1442.75" width="55.75" height="15"/>
  <object id="127" x="709" y="1444.75" width="53.25" height="8.25"/>
  <object id="128" x="985" y="1386" width="420" height="2"/>
  <object id="129" x="1425" y="1395" width="3" height="56"/>
  <object id="130" x="973" y="1326" width="10" height="69"/>
  <object id="131" x="880" y="1274" width="5" height="51"/>
  <object id="132" x="885" y="1325" width="86" height="9"/>
  <object id="133" x="936" y="1263" width="35" height="8"/>
  <object id="134" x="968" y="738" width="18" height="522"/>
  <object id="135" x="997" y="1121" width="13" height="49"/>
  <object id="136" x="1017" y="1163" width="24" height="11"/>
  <object id="137" x="1004" y="1228" width="39" height="7"/>
  <object id="138" x="1071" y="1261"/>
  <object id="139" x="1102.33" y="1290.33"/>
  <object id="140" x="1136.33" y="1323"/>
  <object id="141" x="1137" y="1359"/>
  <object id="142" x="1102.67" y="1169" width="255" height="1.33333"/>
  <object id="143" x="1362.67" y="1167.33" width="123.333" height="4"/>
  <object id="144" x="1144" y="1101.33" width="350.667" height="6"/>
  <object id="145" x="1484.67" y="1067.33" width="4.66667" height="33.3333"/>
  <object id="146" x="1552" y="1060.67" width="23.3333" height="50"/>
  <object id="147" x="1551" y="526" width="32" height="551"/>
  <object id="148" x="1511.25" y="489.25" width="81" height="11.25"/>
  <object id="149" x="1582" y="328" width="3" height="150"/>
  <object id="150" x="846" y="463" width="349" height="4"/>
  <object id="151" x="780" y="235" width="11" height="230"/>
  <object id="152" x="749" y="196" width="4" height="45"/>
  <object id="153" x="753" y="241" width="18" height="5"/>
  <object id="154" x="1197" y="469" width="5" height="92"/>
  <object id="155" x="1201" y="561" width="39" height="6"/>
  <object id="156" x="1285" y="557" width="37" height="3"/>
  <object id="157" x="1326" y="441" width="1" height="120"/>
  <object id="158" x="1202" y="717" width="119" height="39"/>
  <object id="159" x="1191.5" y="752" width="48" height="68.5"/>
  <object id="160" x="1288.5" y="754" width="47" height="67"/>
  <object id="161" x="1236" y="763.5" width="57" height="24"/>
  <object id="162" x="304" y="849.333" width="268" height="8"/>
  <object id="163" x="324" y="869.333" width="236" height="18.6667"/>
  <object id="164" x="338.667" y="909.333" width="201.333" height="5.33333"/>
 </objectgroup>
 <objectgroup id="5" name="eventi">
  <object id="1" name="warp_via_dei_laghi" x="874.75" y="1449.75" width="14.25" height="9.25">
   <properties>
    <property name="destinazione" value="via_dei_laghi"/>
    <property name="spawn_id" value="da_tunnel roccioso"/>
    <property name="type" value="warp"/>
   </properties>
  </object>
  <object id="2" name="spawn" type="spawn" x="869" y="1422.5" width="24.75" height="19.25">
   <properties>
    <property name="id" value="da_via dei laghi"/>
    <property name="type" value="spawn"/>
   </properties>
  </object>
  <object id="3" name="trainer" type="trainer" x="382" y="956" width="32" height="32">
   <properties>
    <property name="direzione" value="sud"/>
    <property name="id" value="tunnel-1f-1"/>
    <property name="sprite" value="HIKER"/>
    <property name="type" value="trainer"/>
    <property name="vista" type="int" value="4"/>
   </properties>
  </object>
  <object id="4" name="trainer" type="trainer" x="709" y="476" width="32" height="32">
   <properties>
    <property name="direzione" value="est"/>
    <property name="id" value="tunnel-1f-2"/>
    <property name="sprite" value="CAMPER"/>
    <property name="type" value="trainer"/>
    <property name="vista" type="int" value="4"/>
   </properties>
  </object>
  <object id="5" name="trainer" type="trainer" x="1164" y="100" width="32" height="32">
   <properties>
    <property name="direzione" value="est"/>
    <property name="id" value="tunnel-1f-3"/>
    <property name="sprite" value="CAMPER"/>
    <property name="type" value="trainer"/>
    <property name="vista" type="int" value="4"/>
   </properties>
  </object>
  <object id="6" name="trainer" type="trainer" x="33" y="1536" width="32" height="32">
   <properties>
    <property name="direzione" value="est"/>
    <property name="id" value="tunnel-1f-4"/>
    <property name="sprite" value="CAMPER"/>
    <property name="type" value="trainer"/>
    <property name="vista" type="int" value="4"/>
   </properties>
  </object>
  <object id="7" name="trainer" type="trainer" x="1125" y="1252" width="32" height="32">
   <properties>
    <property name="direzione" value="est"/>
    <property name="id" value="tunnel-1f-5"/>
    <property name="sprite" value="CAMPER"/>
    <property name="type" value="trainer"/>
    <property name="vista" type="int" value="4"/>
   </properties>
  </object>
  <object id="8" name="trainer" type="trainer" x="607" y="934" width="32" height="32">
   <properties>
    <property name="direzione" value="est"/>
    <property name="id" value="tunnel-1f-6"/>
    <property name="sprite" value="CAMPER"/>
    <property name="type" value="trainer"/>
    <property name="vista" type="int" value="4"/>
   </properties>
  </object>
  <object id="9" name="trainer" type="trainer" x="613" y="1109" width="32" height="32">
   <properties>
    <property name="direzione" value="est"/>
    <property name="id" value="tunnel-1f-7"/>
    <property name="sprite" value="CAMPER"/>
    <property name="type" value="trainer"/>
    <property name="vista" type="int" value="4"/>
   </properties>
  </object>
  <object id="10" name="trainer" type="trainer" x="709" y="198" width="32" height="32">
   <properties>
    <property name="direzione" value="ovest"/>
    <property name="id" value="tunnel-1f-8"/>
    <property name="sprite" value="CAMPER"/>
    <property name="type" value="trainer"/>
    <property name="vista" type="int" value="4"/>
   </properties>
  </object>
  <object id="11" name="trainer" type="trainer" x="159" y="353" width="32" height="32">
   <properties>
    <property name="direzione" value="est"/>
    <property name="id" value="tunnel-1f-9"/>
    <property name="sprite" value="CAMPER"/>
    <property name="type" value="trainer"/>
    <property name="vista" type="int" value="5"/>
   </properties>
  </object>
  <object id="12" name="trainer" type="trainer" x="384" y="285" width="32" height="32">
   <properties>
    <property name="direzione" value="sud"/>
    <property name="id" value="tunnel-1f-10"/>
    <property name="sprite" value="CAMPER"/>
    <property name="type" value="trainer"/>
    <property name="vista" type="int" value="4"/>
   </properties>
  </object>
  <object id="13" name="scala_1f_a_2f" type="warp" x="1318" y="40" width="26" height="21">
   <properties>
    <property name="destinazione" value="tunnel_roccioso_2f"/>
    <property name="spawn_id" value="da_tunnel_roccioso_1f_a"/>
    <property name="type" value="warp"/>
   </properties>
  </object>
  <object id="14" name="spawn" type="spawn" x="1315.5" y="68" width="21" height="26">
   <properties>
    <property name="id" value="da_tunnel_roccioso_1f_a"/>
    <property name="type" value="spawn"/>
   </properties>
  </object>
  <object id="15" name="scala_1f_a_2f" type="warp" x="164.583" y="1382.33" width="21" height="16.6667">
   <properties>
    <property name="destinazione" value="tunnel_roccioso_2f"/>
    <property name="spawn_id" value="da_tunnel_roccioso_1f_b"/>
    <property name="type" value="warp"/>
   </properties>
  </object>
  <object id="16" name="spawn" type="spawn" x="167.083" y="1417.33" width="17" height="20">
   <properties>
    <property name="id" value="da_tunnel_roccioso_1f_b"/>
    <property name="type" value="spawn"/>
   </properties>
  </object>
  <object id="17" name="scala_1f_a_3f" type="warp" x="362.5" y="717.75" width="16.3333" height="12.3333">
   <properties>
    <property name="destinazione" value="tunnel_roccioso_3f"/>
    <property name="spawn_id" value="da_tunnel_roccioso_1f_c"/>
    <property name="type" value="warp"/>
   </properties>
  </object>
  <object id="18" name="spawn" type="spawn" x="323.5" y="713.5" width="15" height="19">
   <properties>
    <property name="id" value="da_tunnel_roccioso_3f_c"/>
    <property name="type" value="spawn"/>
   </properties>
  </object>
  <object id="19" name="scala_3f_a_1f" type="warp" x="1058.5" y="1290.75" width="16.3333" height="12.3333">
   <properties>
    <property name="destinazione" value="tunnel_roccioso_3f"/>
    <property name="spawn_id" value="da_tunnel_roccioso_1f_d"/>
    <property name="type" value="warp"/>
   </properties>
  </object>
  <object id="20" name="spawn" type="spawn" x="1039.5" y="1288.5" width="15" height="19">
   <properties>
    <property name="id" value="da_tunnel_roccioso_3f_d"/>
    <property name="type" value="spawn"/>
   </properties>
  </object>
  <object id="21" name="scala_1f_a_3f" type="warp" x="231.333" y="235.75" width="16.3333" height="12.3333">
   <properties>
    <property name="destinazione" value="tunnel_roccioso_3f"/>
    <property name="spawn_id" value="da_tunnel_roccioso_1f_e"/>
    <property name="type" value="warp"/>
   </properties>
  </object>
  <object id="22" name="spawn" type="spawn" x="206.333" y="231.5" width="15" height="19">
   <properties>
    <property name="id" value="da_tunnel_roccioso_3f_e"/>
    <property name="type" value="spawn"/>
   </properties>
  </object>
  <object id="23" name="scala_1f_a_3f" type="warp" x="872.333" y="970.75" width="16.3333" height="12.3333">
   <properties>
    <property name="destinazione" value="tunnel_roccioso_4f"/>
    <property name="spawn_id" value="da_tunnel_roccioso_1f_f"/>
    <property name="type" value="warp"/>
   </properties>
  </object>
  <object id="24" name="spawn" type="spawn" x="845.333" y="968.5" width="15" height="19">
   <properties>
    <property name="id" value="da_tunnel_roccioso_4f"/>
    <property name="type" value="spawn"/>
   </properties>
  </object>
  <object id="25" name="warp_monteporzio" x="1253.38" y="801.25" width="20.625" height="15.125">
   <properties>
    <property name="destinazione" value="monteporzio"/>
    <property name="spawn_id" value="da_tunnel roccioso"/>
    <property name="type" value="warp"/>
   </properties>
  </object>
  <object id="26" name="spawn" type="spawn" x="1252.63" y="833.625" width="19.25" height="12.25">
   <properties>
    <property name="id" value="da_monteporzio"/>
    <property name="type" value="spawn"/>
   </properties>
  </object>
  <object id="165" name="acqua_tunnel_roccioso_1f_surf" type="trigger_surf" x="581.333" y="740.667" width="364" height="50">
   <properties>
    <property name="id" value="acqua_tunnel_roccioso_1f_surf"/>
    <property name="type" value="trigger_surf"/>
   </properties>
  </object>
  <object id="166" name="cascata_tunnel_roccioso_1f" type="trigger_cascata" x="582.667" y="583.333" width="85.3333" height="147.667">
   <properties>
    <property name="blocco_id" value="cascata_tunnel_roccioso_1f"/>
    <property name="type" value="trigger_cascata"/>
   </properties>
  </object>
  <object id="167" name="acqua_tunnel_roccioso_1f_surf" type="trigger_surf" x="782.333" y="799" width="40" height="435.667">
   <properties>
    <property name="id" value="acqua_tunnel_roccioso_1f_surf"/>
    <property name="type" value="trigger_surf"/>
   </properties>
  </object>
  <object id="168" name="acqua_tunnel_roccioso_1f_surf" type="trigger_surf" x="926.333" y="772.5" width="24" height="435.667">
   <properties>
    <property name="id" value="acqua_tunnel_roccioso_1f_surf"/>
    <property name="type" value="trigger_surf"/>
   </properties>
  </object>
  <object id="169" name="acqua_tunnel_roccioso_1f_surf" type="trigger_surf" x="826.333" y="794.5" width="103" height="127.667">
   <properties>
    <property name="id" value="acqua_tunnel_roccioso_1f_surf"/>
    <property name="type" value="trigger_surf"/>
   </properties>
  </object>
  <object id="170" name="acqua_tunnel_roccioso_1f_surf" type="trigger_surf" x="820.167" y="1034.17" width="103" height="173.667">
   <properties>
    <property name="id" value="acqua_tunnel_roccioso_1f_surf"/>
    <property name="type" value="trigger_surf"/>
   </properties>
  </object>
  <object id="171" name="acqua_tunnel_roccioso_1f_surf" type="trigger_surf" x="613.833" y="1168.17" width="74.6667" height="173.667">
   <properties>
    <property name="id" value="acqua_tunnel_roccioso_1f_surf"/>
    <property name="type" value="trigger_surf"/>
   </properties>
  </object>
  <object id="172" name="acqua_tunnel_roccioso_1f_surf" type="trigger_surf" x="699.333" y="1164.5" width="74.6667" height="76.667">
   <properties>
    <property name="id" value="acqua_tunnel_roccioso_1f_surf"/>
    <property name="type" value="trigger_surf"/>
   </properties>
  </object>
  <object id="173" name="acqua_tunnel_roccioso_1f_surf" type="trigger_surf" x="587" y="1392.33" width="74.6667" height="84.667">
   <properties>
    <property name="id" value="acqua_tunnel_roccioso_1f_surf"/>
    <property name="type" value="trigger_surf"/>
   </properties>
  </object>
  <object id="174" name="acqua_tunnel_roccioso_1f_surf" type="trigger_surf" x="615.667" y="1287.33" width="74.6667" height="84.667">
   <properties>
    <property name="id" value="acqua_tunnel_roccioso_1f_surf"/>
    <property name="type" value="trigger_surf"/>
   </properties>
  </object>
  <object id="175" name="acqua_tunnel_roccioso_1f_surf" type="trigger_surf" x="585.333" y="266.333" width="74.6667" height="304.334">
   <properties>
    <property name="id" value="acqua_tunnel_roccioso_1f_surf"/>
    <property name="type" value="trigger_surf"/>
   </properties>
  </object>
 </objectgroup>
</map>
