<?xml version="1.0" encoding="UTF-8"?>
<map version="1.10" tiledversion="1.12.2" orientation="orthogonal" renderorder="right-down" width="35" height="35" tilewidth="32" tileheight="32" infinite="0" nextlayerid="7" nextobjectid="51">
 <editorsettings>
  <export target="Tunnel_roccioso_4f.tmj" format="json"/>
 </editorsettings>
 <tileset firstgid="1" source="../Caves.tsj"/>
 <tileset firstgid="1593" source="../Sea.tsj"/>
 <tileset firstgid="1691" source="../Waterfall.tsj"/>
 <tileset firstgid="1698" source="../Waterfall bottom.tsj"/>
 <tileset firstgid="1702" source="../Waterfall crest.tsj"/>
 <tileset firstgid="1706" source="../../outside.tsx"/>
 <tileset firstgid="5722" source="../../Emerald_Outside.tsx"/>
 <tileset firstgid="10970" source="../outside.tsx"/>
 <layer id="1" name="ground" width="35" height="35">
  <data encoding="csv">
1167,1178,1178,1178,1178,1178,1178,1178,1178,1178,1178,1178,1178,1178,1178,1178,1178,1178,1178,1178,1178,1178,1178,1178,1178,1178,1178,1178,1178,1178,1178,1178,1178,1178,1168,
1171,1167,1178,1178,1178,1178,1178,1178,1178,1178,1178,1178,1178,1178,1178,1178,1178,1178,1178,1178,1178,1178,1178,1178,1178,1178,1178,1178,1178,1178,1178,1178,1178,1168,1169,
1171,1171,1167,1178,1178,1178,1178,1178,1178,1178,1178,1178,1178,1178,1178,1178,1178,1178,1178,1178,1178,1178,1178,1178,1178,1178,1178,1178,1178,1178,1178,1178,1168,1169,1169,
1171,1171,1171,1167,1178,1178,1178,1178,1178,1178,1178,1178,1178,1178,1178,1178,1178,1178,1178,1178,1178,1178,1178,1178,1178,1178,1178,1178,1178,1178,1178,1168,1169,1169,1169,
1171,1171,1171,1171,1167,1178,1178,1178,1178,1178,1178,1178,1178,1178,1178,1178,1178,1178,1178,1178,1178,1178,1178,1178,1178,1178,1178,1178,1178,1178,1168,1169,1169,1169,1169,
1171,1171,1171,1171,1171,1167,1178,1178,1178,1178,1178,1178,1178,1178,1178,1178,1178,1178,1178,1178,1178,1178,1178,1178,1178,1178,1178,1178,1178,1168,1169,1169,1169,1169,1169,
1171,1171,1171,1171,1171,1171,1167,1178,1178,1178,1178,1178,1178,1178,1178,1178,1178,1178,1178,1178,1178,1178,1178,1178,1178,1178,1178,1178,1168,1169,1169,1169,1169,1169,1169,
1171,1171,1171,1171,1171,1171,1171,1243,1243,1243,1243,1243,1243,1243,1243,1243,1243,1243,1243,1243,1243,1243,1243,1243,1243,1243,1243,1243,1169,1169,1169,1169,1169,1169,1169,
1171,1171,1171,1171,1171,1171,1171,1243,1243,1243,1243,1243,1243,1243,1243,1243,1243,1243,1243,1243,1243,1243,1243,1243,1243,1243,1243,1243,1169,1169,1169,1169,1169,1169,1169,
1171,1171,1171,1171,1171,1171,1171,1243,1243,1243,1243,1243,1243,1243,1243,1243,1243,1243,1243,1243,1243,1243,1243,1243,1243,1243,1243,1243,1169,1169,1169,1169,1169,1169,1169,
1171,1171,1171,1171,1171,1171,1171,1243,1243,1243,1243,1243,1243,1243,1243,1243,1243,1243,1243,1243,1243,1243,1243,1243,1243,1243,1243,1243,1169,1169,1169,1169,1169,1169,1169,
1171,1171,1171,1171,1171,1171,1171,1243,1243,1243,1243,1243,1243,1243,1243,1243,1243,1243,1243,1243,1243,1243,1243,1243,1243,1243,1243,1243,1169,1169,1169,1169,1169,1169,1169,
1171,1171,1171,1171,1171,1171,1171,1243,1243,1243,1243,1243,1243,1243,1243,1243,1243,1243,1243,1243,1243,1243,1243,1243,1243,1243,1243,1243,1169,1169,1169,1169,1169,1169,1169,
1171,1171,1171,1171,1171,1171,1171,1243,1243,1243,1243,1243,1243,1243,1243,1243,1243,1243,1243,1243,1243,1243,1243,1243,1243,1243,1243,1243,1169,1169,1169,1169,1169,1169,1169,
1171,1171,1171,1171,1171,1171,1171,1243,1243,1243,1243,1243,1243,1243,1243,1243,1243,1243,1243,1243,1243,1243,1243,1243,1243,1243,1243,1243,1169,1169,1169,1169,1169,1169,1169,
1171,1171,1171,1171,1171,1171,1171,1243,1243,1243,1243,1243,1243,1243,1243,1243,1243,1243,1243,1243,1243,1243,1243,1243,1243,1243,1243,1243,1169,1169,1169,1169,1169,1169,1169,
1171,1171,1171,1171,1171,1171,1171,1243,1243,1243,1243,1243,1243,1243,1243,1243,1243,1243,1243,1243,1243,1243,1243,1243,1243,1243,1243,1243,1169,1169,1169,1169,1169,1169,1169,
1171,1171,1171,1171,1171,1171,1171,1243,1243,1243,1243,1243,1243,1243,1243,1243,1243,1243,1243,1243,1243,1243,1243,1243,1243,1243,1243,1243,1169,1169,1169,1169,1169,1169,1169,
1171,1171,1171,1171,1171,1171,1171,1243,1243,1243,1243,1243,1243,1243,1243,1243,1243,1243,1243,1243,1243,1243,1243,1243,1243,1243,1243,1243,1169,1169,1169,1169,1169,1169,1169,
1171,1171,1171,1171,1171,1171,1171,1243,1243,1243,1243,1243,1243,1243,1243,1243,1243,1243,1243,1243,1243,1243,1243,1243,1243,1243,1243,1243,1169,1169,1169,1169,1169,1169,1169,
1171,1171,1171,1171,1171,1171,1171,1243,1243,1243,1243,1243,1243,1243,1243,1243,1243,1243,1243,1243,1243,1243,1243,1243,1243,1243,1243,1243,1169,1169,1169,1169,1169,1169,1169,
1171,1171,1171,1171,1171,1171,1171,1243,1243,1243,1243,1243,1243,1243,1243,1243,1243,1243,1243,1243,1243,1243,1243,1243,1243,1243,1243,1243,1169,1169,1169,1169,1169,1169,1169,
1171,1171,1171,1171,1171,1171,1171,1243,1243,1243,1243,1243,1243,1243,1243,1243,1243,1243,1243,1243,1243,1243,1243,1243,1243,1243,1243,1243,1169,1169,1169,1169,1169,1169,1169,
1171,1171,1171,1171,1171,1171,1171,1243,1243,1243,1243,1243,1243,1243,1243,1243,1243,1243,1243,1243,1243,1243,1243,1243,1243,1243,1243,1243,1169,1169,1169,1169,1169,1169,1169,
1171,1171,1171,1171,1171,1171,1171,1243,1243,1243,1243,1243,1243,1243,1243,1243,1243,1243,1243,1243,1243,1243,1243,1243,1243,1243,1243,1243,1169,1169,1169,1169,1169,1169,1169,
1171,1171,1171,1171,1171,1171,1171,1243,1243,1243,1243,1243,1243,1243,1243,1243,1243,1243,1243,1243,1243,1243,1243,1243,1243,1243,1243,1243,1169,1169,1169,1169,1169,1169,1169,
1171,1171,1171,1171,1171,1171,1171,1243,1243,1243,1243,1243,1243,1243,1243,1243,1243,1243,1243,1243,1243,1243,1243,1243,1243,1243,1243,1243,1169,1169,1169,1169,1169,1169,1169,
1171,1171,1171,1171,1171,1171,1171,1243,1243,1243,1243,1243,1243,1243,1243,1243,1243,1243,1243,1243,1243,1243,1243,1243,1243,1243,1243,1243,1169,1169,1169,1169,1169,1169,1169,
1171,1171,1171,1171,1171,1171,1162,1162,1162,1162,1162,1162,1162,1162,1162,1162,1162,1162,1162,1162,1162,1162,1162,1162,1162,1162,1162,1162,1162,1169,1169,1169,1169,1169,1169,
1171,1171,1171,1171,1171,1162,1162,1162,1162,1162,1162,1162,1162,1162,1162,1162,1162,1162,1162,1162,1162,1162,1162,1162,1162,1162,1162,1162,1162,1162,1169,1169,1169,1169,1169,
1171,1171,1171,1171,1162,1162,1162,1162,1162,1162,1162,1162,1162,1162,1162,1162,1162,1162,1162,1162,1162,1162,1162,1162,1162,1162,1162,1162,1162,1162,1162,1169,1169,1169,1169,
1171,1171,1171,1162,1162,1162,1162,1162,1162,1162,1162,1162,1162,1162,1162,1162,1162,1162,1162,1162,1162,1162,1162,1162,1162,1162,1162,1162,1162,1162,1162,1162,1169,1169,1169,
1171,1171,1162,1162,1162,1162,1162,1162,1162,1162,1162,1162,1162,1162,1162,1162,1162,1162,1162,1162,1162,1162,1162,1162,1162,1162,1162,1162,1162,1162,1162,1162,1162,1169,1169,
1171,1162,1162,1162,1162,1162,1162,1162,1162,1162,1162,1162,1162,1162,1162,1162,1162,1162,1162,1162,1162,1162,1162,1162,1162,1162,1162,1162,1162,1162,1162,1162,1162,1162,1169,
1162,1162,1162,1162,1162,1162,1162,1162,1162,1162,1162,1162,1162,1162,1162,1162,1162,1162,1162,1162,1162,1162,1162,1162,1162,1162,1162,1162,1162,1162,1162,1162,1162,1162,1162
</data>
 </layer>
 <layer id="2" name="deco_sotto" width="35" height="35">
  <data encoding="csv">
0,0,0,0,0,0,0,0,0,0,0,0,0,0,0,0,0,0,0,0,0,0,0,0,0,0,0,0,0,0,0,0,0,0,0,
0,0,0,0,0,0,0,0,0,0,0,0,0,0,0,0,0,0,0,0,0,0,0,0,0,0,0,0,0,0,0,0,0,0,0,
0,0,0,0,0,0,0,0,0,0,0,0,0,0,0,0,0,0,0,0,0,0,0,0,0,0,0,0,0,0,0,0,0,0,0,
0,0,0,0,0,0,0,0,0,0,0,0,0,0,0,0,0,0,0,0,0,0,0,0,0,0,0,0,0,0,0,0,0,0,0,
0,0,0,0,0,0,0,0,0,0,0,0,0,0,0,0,0,0,0,0,0,0,0,0,0,0,0,0,0,0,0,0,0,0,0,
0,0,0,0,0,0,0,0,0,0,0,0,0,0,0,0,0,0,0,0,0,0,0,0,0,0,0,0,0,0,0,0,0,0,0,
0,0,0,0,0,0,0,0,0,0,0,0,0,0,0,0,0,0,0,0,0,0,0,0,0,0,0,0,0,0,0,0,0,0,0,
0,0,0,0,0,0,0,0,0,0,0,0,0,0,0,0,0,0,0,0,0,0,0,0,0,0,0,0,0,0,0,0,0,0,0,
0,0,0,0,0,0,0,0,1161,1162,1163,0,0,0,0,0,0,0,0,0,0,0,0,0,0,0,0,0,0,0,0,0,0,0,0,
0,0,0,0,0,0,0,0,1169,1170,1171,0,0,0,0,0,0,0,0,0,0,0,0,0,0,0,0,0,0,0,0,0,0,0,0,
0,0,0,0,0,0,0,0,1177,1178,1179,0,0,0,0,0,0,0,0,0,0,0,0,0,0,0,0,0,0,0,0,0,0,0,0,
0,0,0,0,0,0,0,0,0,0,0,0,0,0,0,0,0,0,0,0,0,0,0,0,0,0,0,0,0,0,0,0,0,0,0,
0,0,0,0,0,0,0,0,0,0,0,0,0,0,0,0,0,0,0,0,0,0,0,0,0,0,0,0,0,0,0,0,0,0,0,
0,0,0,0,0,0,0,0,0,0,0,0,0,0,0,0,0,0,0,0,0,0,0,0,0,0,0,0,0,0,0,0,0,0,0,
0,0,0,0,0,0,0,0,0,0,0,0,0,0,0,0,0,0,0,0,0,0,0,0,0,0,0,0,0,0,0,0,0,0,0,
0,0,0,0,0,0,0,0,0,0,0,0,0,0,0,0,0,0,0,0,0,0,0,0,0,0,0,0,0,0,0,0,0,0,0,
0,0,0,0,0,0,0,0,0,0,0,0,0,0,0,0,0,0,0,0,0,0,0,0,0,0,0,0,0,0,0,0,0,0,0,
0,0,0,0,0,0,0,0,0,0,0,0,0,0,0,0,0,0,0,0,0,0,0,0,0,0,0,0,0,0,0,0,0,0,0,
0,0,0,0,0,0,0,0,0,0,0,0,0,0,0,0,0,0,0,0,0,0,0,0,0,0,0,0,0,0,0,0,0,0,0,
0,0,0,0,0,0,0,0,0,0,0,0,0,0,0,0,0,0,0,0,0,0,0,0,0,0,0,0,0,0,0,0,0,0,0,
0,0,0,0,0,0,0,0,0,0,0,0,0,0,0,0,0,0,0,0,0,0,0,0,0,0,0,0,0,0,0,0,0,0,0,
0,0,0,0,0,0,0,0,0,0,0,0,0,0,0,0,0,0,0,0,0,0,0,0,0,0,0,0,0,0,0,0,0,0,0,
0,0,0,0,0,0,0,0,0,0,0,0,0,0,0,0,0,0,0,0,0,0,0,0,0,0,0,0,0,0,0,0,0,0,0,
0,0,0,0,0,0,0,0,0,0,0,0,0,0,0,0,0,0,0,0,0,0,0,0,0,0,0,0,0,0,0,0,0,0,0,
0,0,0,0,0,0,0,0,0,0,0,0,0,0,0,0,0,0,0,0,0,0,0,0,0,0,0,0,0,0,0,0,0,0,0,
0,0,0,0,0,0,0,0,0,0,0,0,0,0,0,0,0,0,0,0,0,0,0,0,0,0,0,0,0,0,0,0,0,0,0,
0,0,0,0,0,0,0,0,0,0,0,0,0,0,0,0,0,0,0,0,0,0,0,0,0,0,0,0,0,0,0,0,0,0,0,
0,0,0,0,0,0,0,0,0,0,0,0,0,0,0,0,0,0,0,0,0,0,0,0,0,0,0,0,0,0,0,0,0,0,0,
0,0,0,0,0,0,0,0,0,0,0,0,0,0,0,0,0,0,0,0,0,0,0,0,0,0,0,0,0,0,0,0,0,0,0,
0,0,0,0,0,0,0,0,0,0,0,0,0,0,0,0,0,0,0,0,0,0,0,0,0,0,0,0,0,0,0,0,0,0,0,
0,0,0,0,0,0,0,0,0,0,0,0,0,0,0,0,0,0,0,0,0,0,0,0,0,0,0,0,0,0,0,0,0,0,0,
0,0,0,0,0,0,0,0,0,0,0,0,0,0,0,0,0,0,0,0,0,0,0,0,0,0,0,0,0,0,0,0,0,0,0,
0,0,0,0,0,0,0,0,0,0,0,0,0,0,0,0,0,0,0,0,0,0,0,0,0,0,0,0,0,0,0,0,0,0,0,
0,0,0,0,0,0,0,0,0,0,0,0,0,0,0,0,0,0,0,0,0,0,0,0,0,0,0,0,0,0,0,0,0,0,0,
0,0,0,0,0,0,0,0,0,0,0,0,0,0,0,0,0,0,0,0,0,0,0,0,0,0,0,0,0,0,0,0,0,0,0
</data>
 </layer>
 <layer id="3" name="edifici" width="35" height="35">
  <data encoding="csv">
0,0,0,0,0,0,0,0,0,0,0,0,0,0,0,0,0,0,0,0,0,0,0,0,0,0,0,0,0,0,0,0,0,0,0,
0,0,0,0,0,0,0,0,0,0,0,0,0,0,0,0,0,0,0,0,0,0,0,0,0,0,0,0,0,0,0,0,0,0,0,
0,0,0,0,0,0,0,0,0,0,0,0,0,0,0,0,0,0,0,0,0,0,0,0,0,0,0,0,0,0,0,0,0,0,0,
0,0,0,0,0,0,0,0,0,0,0,0,0,0,0,0,0,0,0,0,0,0,0,0,0,0,0,0,0,0,0,0,0,0,0,
0,0,0,0,0,0,0,0,0,0,0,0,0,0,0,0,0,0,0,0,0,0,0,0,0,0,0,0,0,0,0,0,0,0,0,
0,0,0,0,0,0,0,0,0,0,0,0,0,0,0,0,0,0,0,0,0,0,0,0,0,0,0,0,0,0,0,0,0,0,0,
0,0,0,0,0,0,0,0,0,0,0,0,0,0,0,0,0,0,0,0,0,0,0,0,0,0,0,0,0,0,0,0,0,0,0,
0,0,0,0,0,0,0,0,0,1197,0,0,0,0,0,0,0,0,0,0,0,0,0,0,0,0,0,0,0,0,0,0,0,0,0,
0,0,0,0,0,0,0,0,0,1205,0,0,0,0,0,0,0,1214,1214,1214,1214,1214,1214,1214,1214,0,1214,1214,0,0,0,0,0,0,0,
0,0,0,0,0,0,0,0,0,0,0,0,0,1214,1214,1214,1214,1214,0,0,0,0,0,0,1214,1214,1214,1214,0,0,0,0,0,0,0,
0,0,0,0,0,0,0,0,0,1196,0,0,0,0,1214,0,0,0,0,0,0,0,0,0,0,0,1214,0,0,0,0,0,0,0,0,
0,0,0,0,0,0,0,0,1214,0,1214,0,0,0,1214,0,0,0,0,0,0,0,0,0,0,0,1214,0,0,0,0,0,0,0,0,
0,0,0,0,0,0,0,0,1214,0,1214,0,0,0,0,1214,0,0,0,0,0,0,0,0,0,0,1214,0,0,0,0,0,0,0,0,
0,0,0,0,0,0,0,0,1214,0,1214,1214,0,0,0,1214,1214,0,0,0,0,0,0,0,0,0,1214,0,0,0,0,0,0,0,0,
0,0,0,0,0,0,0,0,1214,0,0,1214,0,0,0,0,1214,0,0,0,0,0,0,0,0,0,1214,0,0,0,0,0,0,0,0,
0,0,0,0,0,0,0,0,1214,0,1214,1214,0,0,0,0,1214,0,0,0,0,0,0,0,0,0,1214,0,0,0,0,0,0,0,0,
0,0,0,0,0,0,0,0,1214,0,1214,0,0,0,0,0,1214,1214,1216,0,0,1216,0,0,0,1216,1214,0,0,0,0,0,0,0,0,
0,0,0,0,0,0,0,0,1214,0,1214,0,0,0,0,0,0,1214,2651,1216,0,0,0,0,1216,2651,1214,0,0,0,0,0,0,0,0,
0,0,0,0,0,0,0,0,1214,0,1214,1214,0,0,0,0,0,1214,0,2651,1216,0,1216,1216,2651,0,1214,0,0,0,0,0,0,0,0,
0,0,0,0,0,0,0,0,1214,0,0,1214,1214,0,0,0,0,1214,1216,0,2651,0,0,2651,0,1216,1214,0,0,0,0,0,0,0,0,
0,0,0,0,0,0,0,0,1214,0,0,0,1214,0,0,0,0,1214,0,0,1216,2651,2651,0,0,0,1214,0,0,0,0,0,0,0,0,
0,0,0,0,0,0,0,0,1214,0,0,1214,1214,0,0,0,0,1214,0,0,0,0,0,0,0,0,1214,0,0,0,0,0,0,0,0,
0,0,0,0,0,0,0,0,1214,0,1214,1214,0,0,0,0,1214,1214,0,0,0,0,0,0,0,0,1214,0,0,0,0,0,0,0,0,
0,0,0,0,0,0,0,0,1214,0,1214,1214,0,0,0,1214,1214,0,0,0,0,0,0,0,0,0,1214,0,0,0,0,0,0,0,0,
0,0,0,0,0,0,0,0,1214,0,0,1214,1214,0,1214,1214,0,0,0,0,0,0,0,0,0,0,1214,0,0,0,0,0,0,0,0,
0,0,0,0,0,0,0,0,1214,0,0,0,0,0,0,0,0,0,0,0,0,0,0,0,0,0,1214,0,0,0,0,0,0,0,0,
0,0,0,0,0,0,0,0,1214,1214,0,0,0,0,0,0,0,0,0,1214,1214,1214,1214,1214,1214,1214,1214,0,0,0,0,0,0,0,0,
0,0,0,0,0,0,0,11918,0,1214,1214,1214,1214,1214,1214,1214,1214,1214,1214,0,0,0,0,0,0,0,0,0,0,0,0,0,0,0,0,
0,0,0,0,0,0,0,0,0,0,0,0,0,0,0,0,0,0,0,0,0,0,0,0,0,0,0,0,0,0,0,0,0,0,0,
0,0,0,0,0,0,0,0,0,0,0,0,0,0,0,0,0,0,0,0,0,0,0,0,0,0,0,0,0,0,0,0,0,0,0,
0,0,0,0,0,0,0,0,0,0,0,0,0,0,0,0,0,0,0,0,0,0,0,0,0,0,0,0,0,0,0,0,0,0,0,
0,0,0,0,0,0,0,0,0,0,0,0,0,0,0,0,0,0,0,0,0,0,0,0,0,0,0,0,0,0,0,0,0,0,0,
0,0,0,0,0,0,0,0,0,0,0,0,0,0,0,0,0,0,0,0,0,0,0,0,0,0,0,0,0,0,0,0,0,0,0,
0,0,0,0,0,0,0,0,0,0,0,0,0,0,0,0,0,0,0,0,0,0,0,0,0,0,0,0,0,0,0,0,0,0,0,
0,0,0,0,0,0,0,0,0,0,0,0,0,0,0,0,0,0,0,0,0,0,0,0,0,0,0,0,0,0,0,0,0,0,0
</data>
 </layer>
 <layer id="4" name="sopra_testa" width="35" height="35">
  <data encoding="csv">
0,0,0,0,0,0,0,0,0,0,0,0,0,0,0,0,0,0,0,0,0,0,0,0,0,0,0,0,0,0,0,0,0,0,0,
0,0,0,0,0,0,0,0,0,0,0,0,0,0,0,0,0,0,0,0,0,0,0,0,0,0,0,0,0,0,0,0,0,0,0,
0,0,0,0,0,0,0,0,0,0,0,0,0,0,0,0,0,0,0,0,0,0,0,0,0,0,0,0,0,0,0,0,0,0,0,
0,0,0,0,0,0,0,0,0,0,0,0,0,0,0,0,0,0,0,0,0,0,0,0,0,0,0,0,0,0,0,0,0,0,0,
0,0,0,0,0,0,0,0,0,0,0,0,0,0,0,0,0,0,0,0,0,0,0,0,0,0,0,0,0,0,0,0,0,0,0,
0,0,0,0,0,0,0,0,0,0,0,0,0,0,0,0,0,0,0,0,0,0,0,0,0,0,0,0,0,0,0,0,0,0,0,
0,0,0,0,0,0,0,0,0,0,0,0,0,0,0,0,0,0,0,0,0,0,0,0,0,0,0,0,0,0,0,0,0,0,0,
0,0,0,0,0,0,0,0,0,0,0,0,0,0,0,0,0,0,0,0,0,0,0,0,0,0,0,0,0,0,0,0,0,0,0,
0,0,0,0,0,0,0,0,0,0,0,0,0,0,0,0,0,0,0,0,0,0,0,0,0,0,0,0,0,0,0,0,0,0,0,
0,0,0,0,0,0,0,0,0,0,0,0,0,0,0,0,0,0,0,0,0,0,0,0,0,0,0,0,0,0,0,0,0,0,0,
0,0,0,0,0,0,0,0,0,0,0,0,0,0,0,0,0,0,0,0,0,0,0,0,0,0,0,0,0,0,0,0,0,0,0,
0,0,0,0,0,0,0,0,0,0,0,0,0,0,0,0,0,0,0,0,0,0,0,0,0,0,0,0,0,0,0,0,0,0,0,
0,0,0,0,0,0,0,0,0,0,0,0,0,0,0,0,0,0,0,0,0,0,0,0,0,0,0,0,0,0,0,0,0,0,0,
0,0,0,0,0,0,0,0,0,0,0,0,0,0,0,0,0,0,0,0,0,0,0,0,0,0,0,0,0,0,0,0,0,0,0,
0,0,0,0,0,0,0,0,0,0,0,0,0,0,0,0,0,0,0,0,0,0,0,0,0,0,0,0,0,0,0,0,0,0,0,
0,0,0,0,0,0,0,0,0,0,0,0,0,0,0,0,0,0,0,0,0,0,0,0,0,0,0,0,0,0,0,0,0,0,0,
0,0,0,0,0,0,0,0,0,0,0,0,0,0,0,0,0,0,0,0,0,0,0,0,0,0,0,0,0,0,0,0,0,0,0,
0,0,0,0,0,0,0,0,0,0,0,0,0,0,0,0,0,0,0,0,0,0,0,0,0,0,0,0,0,0,0,0,0,0,0,
0,0,0,0,0,0,0,0,0,0,0,0,0,0,0,0,0,0,0,0,0,0,0,0,0,0,0,0,0,0,0,0,0,0,0,
0,0,0,0,0,0,0,0,0,0,0,0,0,0,0,0,0,0,0,0,0,0,0,0,0,0,0,0,0,0,0,0,0,0,0,
0,0,0,0,0,0,0,0,0,0,0,0,0,0,0,0,0,0,0,0,0,0,0,0,0,0,0,0,0,0,0,0,0,0,0,
0,0,0,0,0,0,0,0,0,0,0,0,0,0,0,0,0,0,0,0,0,0,0,0,0,0,0,0,0,0,0,0,0,0,0,
0,0,0,0,0,0,0,0,0,0,0,0,0,0,0,0,0,0,0,0,0,0,0,0,0,0,0,0,0,0,0,0,0,0,0,
0,0,0,0,0,0,0,0,0,0,0,0,0,0,0,0,0,0,0,0,0,0,0,0,0,0,0,0,0,0,0,0,0,0,0,
0,0,0,0,0,0,0,0,0,0,0,0,0,0,0,0,0,0,0,0,0,0,0,0,0,0,0,0,0,0,0,0,0,0,0,
0,0,0,0,0,0,0,0,0,0,0,0,0,0,0,0,0,0,0,0,0,0,0,0,0,0,0,0,0,0,0,0,0,0,0,
0,0,0,0,0,0,0,0,0,0,0,0,0,0,0,0,0,0,0,0,0,0,0,0,0,0,0,0,0,0,0,0,0,0,0,
0,0,0,0,0,0,0,0,0,0,0,0,0,0,0,0,0,0,0,0,0,0,0,0,0,0,0,0,0,0,0,0,0,0,0,
0,0,0,0,0,0,0,0,0,0,0,0,0,0,0,0,0,0,0,0,0,0,0,0,0,0,0,0,0,0,0,0,0,0,0,
0,0,0,0,0,0,0,0,0,0,0,0,0,0,0,0,0,0,0,0,0,0,0,0,0,0,0,0,0,0,0,0,0,0,0,
0,0,0,0,0,0,0,0,0,0,0,0,0,0,0,0,0,0,0,0,0,0,0,0,0,0,0,0,0,0,0,0,0,0,0,
0,0,0,0,0,0,0,0,0,0,0,0,0,0,0,0,0,0,0,0,0,0,0,0,0,0,0,0,0,0,0,0,0,0,0,
0,0,0,0,0,0,0,0,0,0,0,0,0,0,0,0,0,0,0,0,0,0,0,0,0,0,0,0,0,0,0,0,0,0,0,
0,0,0,0,0,0,0,0,0,0,0,0,0,0,0,0,0,0,0,0,0,0,0,0,0,0,0,0,0,0,0,0,0,0,0,
0,0,0,0,0,0,0,0,0,0,0,0,0,0,0,0,0,0,0,0,0,0,0,0,0,0,0,0,0,0,0,0,0,0,0
</data>
 </layer>
 <objectgroup id="6" name="collisioni">
  <object id="22" x="10.6667" y="10.6667" width="172.667" height="1106"/>
  <object id="23" x="176.667" y="909.333" width="924" height="205.333"/>
  <object id="24" x="916.667" y="6.66667" width="198" height="1096.67"/>
  <object id="25" x="151.333" y="6" width="882" height="201.333"/>
  <object id="26" x="274.667" y="270" width="4" height="70.6667"/>
  <object id="27" x="334" y="274.667" width="2.66667" height="58"/>
  <object id="28" x="269.333" y="236.667" width="74" height="16"/>
  <object id="29" x="583.25" y="616.75" width="16.25" height="17.75"/>
  <object id="30" x="643" y="647.75" width="17.25" height="20.25"/>
  <object id="31" x="808.75" y="615.25" width="18.5" height="17.25"/>
  <object id="32" x="530" y="525.5" width="63.25" height="13.75"/>
  <object id="34" x="651" y="582.25" width="8.75" height="16.5"/>
  <object id="35" x="622" y="551.75" width="15.5" height="19.75"/>
  <object id="36" x="714.75" y="587.25" width="44.5" height="9.5"/>
  <object id="37" x="779" y="555" width="10" height="11"/>
  <object id="38" x="809.75" y="526.5" width="39.75" height="9.25"/>
  <object id="39" x="845" y="521.25" width="5" height="136.75"/>
  <object id="40" x="847.25" y="327.5" width="3" height="238.75"/>
  <object id="41" x="786.25" y="300.75" width="94.25" height="5.25"/>
  <object id="42" x="554" y="261.75" width="230" height="9.5"/>
  <object id="43" x="428.5" y="293" width="132.75" height="11"/>
  <object id="44" x="464.25" y="307.25" width="6.25" height="65.75"/>
  <object id="45" x="491.5" y="389.25" width="10.25" height="59.75"/>
  <object id="46" x="521.75" y="425.75" width="12.5" height="109.75"/>
  <object id="47" x="555.5" y="538" width="9" height="197.25"/>
  <object id="48" x="525.5" y="714.75" width="7.5" height="42"/>
  <object id="49" x="494.5" y="745.25" width="4.25" height="49.75"/>
  <object id="50" x="463.5" y="781.25" width="33.5" height="8"/>
 </objectgroup>
 <objectgroup id="5" name="eventi">
  <object id="1" name="npc_latios_latias_tunnel" type="npc" x="642.5" y="548.25" width="29.25" height="21.5">
   <properties>
    <property name="direzione" value="est"/>
    <property name="id" value="npc_latios_latias_tunnel"/>
    <property name="type" value="npc"/>
   </properties>
  </object>
  <object id="2" name="latios_tunnel4f" type="leggendario_ambientale" x="678" y="318" width="32" height="32">
   <properties>
    <property name="id" value="latios_tunnel4f"/>
    <property name="pokemon_id" value="381"/>
    <property name="type" value="leggendario_ambientale"/>
   </properties>
  </object>
  <object id="3" name="latias_tunnel4f" type="leggendario_ambientale" x="638" y="319" width="32" height="32">
   <properties>
    <property name="id" value="latias_tunnel4f"/>
    <property name="pokemon_id" value="380"/>
    <property name="type" value="leggendario_ambientale"/>
   </properties>
  </object>
  <object id="6" name="trainer" type="trainer" x="383.5" y="293.5" width="32" height="32">
   <properties>
    <property name="direzione" value="sud"/>
    <property name="id" value="tunnel-4f-1"/>
    <property name="sprite" value="BLACKBELT"/>
    <property name="type" value="trainer"/>
    <property name="vista" type="int" value="5"/>
   </properties>
  </object>
  <object id="7" name="trainer" type="trainer" x="773.333" y="803.333" width="32" height="32">
   <properties>
    <property name="direzione" value="ovest"/>
    <property name="id" value="tunnel-4f-2"/>
    <property name="sprite" value="HIKER"/>
    <property name="type" value="trainer"/>
    <property name="vista" type="int" value="5"/>
   </properties>
  </object>
  <object id="8" name="oggetto" type="oggetto" x="223.5" y="860" width="32" height="32">
   <properties>
    <property name="contenuto" value="pepita"/>
    <property name="type" value="oggetto"/>
   </properties>
  </object>
  <object id="10" name="scala_4f_a_3f" type="warp" x="294.606" y="261.879" width="20.9091" height="14.3636">
   <properties>
    <property name="destinazione" value="tunnel_roccioso_1f"/>
    <property name="spawn_id" value="da_tunnel_roccioso_4f"/>
    <property name="type" value="warp"/>
   </properties>
  </object>
  <object id="11" name="spawn" type="spawn" x="295" y="290" width="17.75" height="7.5">
   <properties>
    <property name="id" value="da_tunnel_roccioso_1f_f"/>
    <property name="type" value="spawn"/>
   </properties>
  </object>
  <object id="13" name="masso_tunnel_roccioso_4f_1" type="masso" x="576" y="544">
   <properties>
    <property name="id" value="masso_tunnel_roccioso_4f_1"/>
    <property name="type" value="masso"/>
   </properties>
   <point/>
  </object>
  <object id="14" name="masso_tunnel_roccioso_4f_2" type="masso" x="608" y="576">
   <properties>
    <property name="id" value="masso_tunnel_roccioso_4f_2"/>
    <property name="type" value="masso"/>
   </properties>
   <point/>
  </object>
  <object id="15" name="masso_tunnel_roccioso_4f_3" type="masso" x="640" y="608">
   <properties>
    <property name="id" value="masso_tunnel_roccioso_4f_3"/>
    <property name="type" value="masso"/>
   </properties>
   <point/>
  </object>
  <object id="16" name="masso_tunnel_roccioso_4f_4" type="masso" x="672" y="640">
   <properties>
    <property name="id" value="masso_tunnel_roccioso_4f_4"/>
    <property name="type" value="masso"/>
   </properties>
   <point/>
  </object>
  <object id="17" name="masso_tunnel_roccioso_4f_5" type="masso" x="704" y="640">
   <properties>
    <property name="id" value="masso_tunnel_roccioso_4f_5"/>
    <property name="type" value="masso"/>
   </properties>
   <point/>
  </object>
  <object id="18" name="masso_tunnel_roccioso_4f_6" type="masso" x="736" y="608">
   <properties>
    <property name="id" value="masso_tunnel_roccioso_4f_6"/>
    <property name="type" value="masso"/>
   </properties>
   <point/>
  </object>
  <object id="19" name="masso_tunnel_roccioso_4f_7" type="masso" x="768" y="576">
   <properties>
    <property name="id" value="masso_tunnel_roccioso_4f_7"/>
    <property name="type" value="masso"/>
   </properties>
   <point/>
  </object>
  <object id="20" name="masso_tunnel_roccioso_4f_8" type="masso" x="800" y="544">
   <properties>
    <property name="id" value="masso_tunnel_roccioso_4f_8"/>
    <property name="type" value="masso"/>
   </properties>
   <point/>
  </object>
 </objectgroup>
</map>
