<?xml version="1.0" encoding="UTF-8"?>
<map version="1.10" tiledversion="1.12.2" orientation="orthogonal" renderorder="right-down" width="70" height="48" tilewidth="32" tileheight="32" infinite="0" backgroundcolor="#000000" nextlayerid="22" nextobjectid="124">
 <tileset firstgid="1" source="../../outside.tsx"/>
 <layer id="1" name="ground" width="70" height="48">
  <data encoding="csv">
3,3,3,3,3,3,3,3,3,3,3,3,3,3,3,3,3,3,3,3,3,3,3,3,3,3,3,3,3,3,3,3,3,3,3,3,3,3,3,3,3,3,3,3,3,3,3,3,3,3,3,3,3,3,3,3,3,3,3,3,3,3,3,3,3,3,3,3,3,3,
3,3,3,3,3,3,3,3,3,3,3,3,3,3,3,3,3,3,3,3,3,3,3,3,3,3,3,3,3,3,3,3,3,3,3,3,3,3,3,3,3,3,3,3,3,3,3,3,3,3,3,3,3,3,3,3,3,3,3,3,3,3,3,3,3,3,3,3,3,3,
3,3,3,3,3,3,3,3,3,3,3,3,3,3,3,3,3,3,3,3,3,3,3,3,3,3,3,3,3,3,3,3,3,3,3,3,3,3,3,3,3,3,3,3,3,3,3,3,3,3,3,3,3,3,3,3,3,3,3,3,3,3,3,3,3,3,3,3,3,3,
3,3,3,3,3,3,3,3,3,3,3,3,3,3,3,3,3,3,3,3,3,3,3,3,3,3,3,3,3,3,3,3,3,3,3,3,3,3,3,3,3,3,3,3,3,3,3,3,3,3,3,3,3,3,3,3,3,3,3,3,3,3,3,3,3,3,3,3,3,3,
3,3,3,3,3,3,3,3,3,3,3,3,3,3,3,3,3,3,3,3,3,3,3,3,3,3,3,3,3,3,3,3,3,3,3,3,3,3,3,3,3,3,3,3,3,3,3,3,3,3,3,3,3,3,3,3,3,3,3,3,3,3,3,3,3,3,3,3,3,3,
3,3,3,3,3,3,3,3,3,3,3,3,3,3,3,3,3,3,3,3,3,3,3,3,3,3,3,3,3,3,3,3,3,3,3,3,3,3,3,3,3,3,3,3,3,3,3,3,3,3,3,3,3,3,3,3,3,3,3,3,3,3,3,3,3,3,3,3,3,3,
3,3,3,3,3,3,3,3,3,3,3,3,3,3,3,3,3,3,3,3,3,3,3,3,3,3,3,3,3,3,3,3,3,3,3,3,3,3,3,3,3,3,3,3,3,3,3,3,3,3,3,3,3,3,3,3,3,3,3,3,3,3,3,3,3,3,3,3,3,3,
3,3,3,3,3,3,3,3,3,3,3,3,3,3,3,3,3,3,3,3,3,3,3,3,3,3,3,3,3,3,3,3,3,3,3,3,3,3,3,3,3,3,3,3,3,3,3,3,3,3,3,3,3,3,3,3,3,3,3,3,3,3,3,3,3,3,3,3,3,3,
3,3,3,3,3,3,3,3,7,7,7,7,7,7,7,7,7,7,7,7,7,7,7,7,7,7,7,7,7,7,7,7,7,7,7,7,7,7,7,7,7,7,7,7,7,7,3,3,3,3,3,3,3,3,3,3,3,3,3,3,3,3,3,3,3,3,3,3,3,3,
3,3,3,3,3,3,3,3,4,4,4,4,4,4,4,4,4,4,4,4,4,4,4,4,4,4,4,4,4,4,4,4,4,4,4,4,4,4,4,4,4,4,4,4,4,4,3,3,3,3,3,3,3,3,3,3,3,3,3,3,3,3,3,3,3,3,3,3,3,3,
3,3,3,3,3,3,3,3,4,4,4,4,4,4,4,4,4,4,4,4,4,4,4,4,4,4,4,4,4,4,4,4,4,4,4,4,4,4,4,4,4,4,4,4,4,4,3,3,3,3,3,3,3,3,3,3,3,3,3,3,3,3,3,3,3,3,3,3,3,3,
3,3,3,3,3,3,3,3,4,4,4,4,4,4,4,4,4,4,4,4,4,4,4,4,4,4,4,4,4,4,4,4,4,4,4,4,4,4,4,4,4,4,4,4,4,4,3,3,3,3,3,3,3,3,3,3,3,3,3,3,3,3,3,3,3,3,3,3,3,3,
3,3,3,3,3,3,3,3,4,4,4,4,4,4,4,4,4,4,4,4,4,4,4,4,4,4,4,4,4,4,4,4,4,4,4,4,4,4,4,4,4,4,4,4,4,4,3,3,3,3,3,3,3,3,3,3,3,3,3,3,3,3,3,3,3,3,3,3,3,3,
3,3,3,3,3,3,3,3,4,4,4,4,4,4,4,4,4,4,4,4,4,4,4,4,4,4,4,4,4,4,4,4,4,4,4,4,4,4,4,4,4,4,4,4,4,4,3,3,3,3,3,3,3,3,3,3,3,3,3,3,3,3,3,3,3,3,3,3,3,3,
3,3,3,3,3,3,3,3,4,4,4,4,4,4,4,4,4,4,4,4,4,4,4,4,4,4,4,4,4,4,4,4,4,4,4,4,4,4,4,4,4,4,4,4,4,4,3,3,3,3,3,3,3,3,3,3,3,3,3,3,3,3,3,3,3,3,3,3,3,3,
3,3,3,3,3,3,3,3,4,4,4,4,4,4,4,4,4,4,4,4,4,4,4,4,4,4,4,4,4,4,4,4,4,4,4,4,4,4,4,4,4,4,4,4,4,4,3,3,3,3,3,3,3,3,3,3,3,3,3,3,3,3,3,3,3,3,3,3,3,3,
3,3,3,3,3,3,3,3,4,4,4,4,4,4,4,4,4,4,4,4,4,4,4,4,4,4,4,4,4,4,4,4,4,4,4,4,4,4,4,4,4,4,4,4,4,4,3,3,3,3,3,3,3,3,3,3,3,3,3,3,3,3,3,3,3,3,3,3,3,3,
3,3,3,3,3,3,3,3,4,4,4,4,4,4,4,4,4,4,4,4,4,4,4,4,4,4,4,4,4,4,4,4,4,4,4,4,4,4,4,4,4,4,4,4,4,4,3,3,3,3,3,3,3,3,3,3,3,3,3,3,3,3,3,3,3,3,3,3,3,3,
3,3,3,3,3,3,3,3,4,4,4,4,4,4,4,4,4,107,4,4,4,4,4,4,4,4,4,4,4,4,4,4,4,4,4,4,4,4,4,4,4,4,4,4,4,4,3,3,3,3,3,3,3,3,3,3,3,3,3,3,3,3,3,3,3,3,3,3,3,3,
3,3,3,3,3,3,3,3,4,4,4,4,4,107,107,107,107,107,107,107,107,107,107,4,4,4,4,4,4,4,4,4,4,4,4,4,4,4,4,4,4,4,4,4,4,4,3,3,3,3,3,3,3,3,3,3,3,3,3,3,3,3,3,3,3,3,3,3,3,3,
3,3,3,3,3,3,3,3,4,4,107,107,107,107,107,107,107,107,107,107,107,107,107,4,4,4,4,4,4,4,4,4,4,4,4,4,4,4,4,4,4,4,4,4,4,4,3,3,3,3,3,3,3,3,3,3,3,3,3,3,3,3,3,3,3,3,3,3,3,3,
3,3,3,3,3,3,3,3,4,4,107,107,107,107,107,107,107,107,107,107,107,107,107,4,4,4,4,4,4,4,4,4,4,4,4,4,4,4,4,4,4,4,4,4,4,4,3,3,3,3,3,3,3,3,3,3,3,3,3,3,3,3,3,3,3,3,3,3,3,3,
3,3,3,3,3,3,3,3,4,4,4,4,4,4,4,4,4,4,4,4,107,107,107,4,4,4,4,4,4,4,4,4,4,4,4,4,4,4,4,4,4,4,4,4,4,4,3,3,3,3,3,3,3,3,3,3,3,3,3,3,3,3,3,3,3,3,3,3,3,3,
3,3,3,3,3,3,3,3,4,4,4,4,4,4,4,4,4,4,4,4,107,107,107,4,4,4,4,4,4,4,4,4,4,4,4,4,4,4,4,4,4,4,4,4,4,4,3,3,3,3,3,3,3,3,3,3,3,3,3,3,3,3,3,3,3,3,3,3,3,3,
3,3,3,3,3,3,3,3,4,4,4,4,4,4,4,4,4,4,4,4,107,107,107,4,4,4,4,4,4,4,4,4,4,4,4,4,4,4,4,4,4,4,4,4,4,4,3,3,3,3,3,3,3,3,3,3,3,3,3,3,3,3,3,3,3,3,3,3,3,3,
3,3,3,3,3,3,3,3,4,4,4,4,4,4,4,4,4,4,4,4,107,107,107,4,4,4,4,4,4,4,4,4,4,4,4,4,4,4,4,4,4,4,4,4,4,4,3,3,3,3,3,3,3,3,3,3,3,3,3,3,3,3,3,3,3,3,3,3,3,3,
3,3,3,3,3,3,3,3,107,107,107,107,107,107,107,4,4,4,4,4,107,107,107,4,4,4,4,4,4,4,4,4,4,4,4,4,4,4,4,4,4,4,4,4,4,4,3,3,3,3,3,3,3,3,3,3,3,3,3,3,3,3,3,3,3,3,3,3,3,3,
3,3,3,3,3,3,3,3,107,107,107,107,107,107,107,107,107,107,107,107,107,107,107,4,4,4,4,4,4,4,4,4,4,4,4,4,4,4,4,4,4,4,4,4,4,4,3,3,3,3,3,3,3,3,3,3,3,3,3,3,3,3,3,3,3,3,3,3,3,3,
3,3,3,3,3,3,3,3,107,107,107,107,107,107,107,107,107,107,107,107,107,107,107,4,4,4,4,4,4,4,4,4,4,4,4,4,4,4,4,4,4,4,4,4,4,4,3,3,3,3,3,3,3,3,3,3,3,3,3,3,3,3,3,3,3,3,3,3,3,3,
3,3,3,3,3,3,3,3,107,107,107,4,4,4,4,4,4,4,4,4,4,4,4,4,4,4,4,4,4,4,4,4,4,4,4,4,4,4,4,4,4,4,4,4,4,4,3,3,3,3,3,3,3,3,3,3,3,3,3,3,3,3,3,3,3,3,3,3,3,3,
3,3,3,3,3,3,3,3,107,107,107,4,4,4,4,4,4,4,4,4,4,4,4,4,4,4,4,4,4,4,4,4,4,4,4,4,4,4,4,4,4,4,4,4,4,4,3,3,3,3,3,3,3,3,3,3,3,3,3,3,3,3,3,3,3,3,3,3,3,3,
3,3,3,3,3,3,3,3,107,107,107,4,4,4,4,4,4,4,4,4,4,4,4,4,4,4,4,4,4,4,4,4,4,4,4,4,4,4,4,4,4,4,4,4,4,4,3,3,3,3,3,3,3,3,3,3,3,3,3,3,3,3,3,3,3,3,3,3,3,3,
3,3,3,3,3,3,3,3,107,107,107,4,4,4,4,4,4,4,4,4,4,4,4,4,4,4,4,4,4,4,4,4,4,4,4,4,4,4,4,4,4,4,4,4,4,4,3,3,3,3,3,3,3,3,3,3,3,3,3,3,3,3,3,3,3,3,3,3,3,3,
3,3,3,3,3,3,3,3,107,107,107,4,4,4,4,4,4,4,4,4,4,4,4,4,4,4,4,4,4,4,4,4,4,4,7,7,7,7,7,7,7,7,7,4,4,4,3,3,3,3,3,3,3,3,3,3,3,3,3,3,3,3,3,3,3,3,3,3,3,3,
3,3,3,3,3,3,3,3,107,107,107,4,4,4,4,4,4,4,4,4,4,4,4,4,4,4,4,4,4,4,4,4,4,4,7,7,7,7,7,7,7,7,7,4,4,4,3,3,3,3,3,3,3,3,3,3,3,3,3,3,3,3,3,3,3,3,3,3,3,3,
3,3,3,3,3,3,3,3,107,107,107,4,4,4,4,4,4,4,4,4,4,4,4,4,4,4,4,4,4,4,4,4,4,4,7,7,7,7,7,7,7,7,7,4,4,4,3,3,3,3,3,3,3,3,3,3,3,3,3,3,3,3,3,3,3,3,3,3,3,3,
3,3,3,3,3,3,3,3,107,107,107,4,4,4,4,4,4,4,4,4,4,4,4,4,4,4,4,4,4,4,4,4,4,4,7,7,7,7,7,7,7,7,7,4,4,4,3,3,3,3,3,3,3,3,3,3,3,3,3,3,3,3,3,3,3,3,3,3,3,3,
3,3,3,3,3,3,3,3,107,107,107,4,4,4,4,4,4,4,4,4,4,4,4,4,4,4,4,4,4,4,4,4,4,4,7,7,7,7,7,7,7,7,7,4,4,4,3,3,3,3,3,3,3,3,3,3,3,3,3,3,3,3,3,3,3,3,3,3,3,3,
3,3,3,3,3,3,3,3,107,107,107,4,4,4,4,4,4,4,4,4,4,4,4,4,4,4,4,4,4,4,4,4,4,4,7,7,7,7,7,7,7,7,7,4,4,4,3,3,3,3,3,3,3,3,3,3,3,3,3,3,3,3,3,3,3,3,3,3,3,3,
3,3,3,3,3,3,3,3,107,107,107,4,4,4,4,4,4,4,4,4,4,4,4,4,4,4,4,4,4,4,4,4,4,4,4,4,4,4,4,4,4,4,4,4,4,4,3,3,3,3,3,3,3,3,3,3,3,3,3,3,3,3,3,3,3,3,3,3,3,3,
3,3,3,3,3,3,3,3,3,3,3,3,3,3,3,3,3,3,3,3,3,3,3,3,3,3,3,3,3,3,3,3,3,3,3,3,3,3,3,3,3,3,3,3,3,3,3,3,3,3,3,3,3,3,3,3,3,3,3,3,3,3,3,3,3,3,3,3,3,3,
3,3,3,3,3,3,3,3,3,3,3,3,3,3,3,3,3,3,3,3,3,3,3,3,3,3,3,3,3,3,3,3,3,3,3,3,3,3,3,3,3,3,3,3,3,3,3,3,3,3,3,3,3,3,3,3,3,3,3,3,3,3,3,3,3,3,3,3,3,3,
3,3,3,3,3,3,3,3,3,3,3,3,3,3,3,3,3,3,3,3,3,3,3,3,3,3,3,3,3,3,3,3,3,3,3,3,3,3,3,3,3,3,3,3,3,3,3,3,3,3,3,3,3,3,3,3,3,3,3,3,3,3,3,3,3,3,3,3,3,3,
3,3,3,3,3,3,3,3,3,3,3,3,3,3,3,3,3,3,3,3,3,3,3,3,3,3,3,3,3,3,3,3,3,3,3,3,3,3,3,3,3,3,3,3,3,3,3,3,3,3,3,3,3,3,3,3,3,3,3,3,3,3,3,3,3,3,3,3,3,3,
3,3,3,3,3,3,3,3,3,3,3,3,3,3,3,3,3,3,3,3,3,3,3,3,3,3,3,3,3,3,3,3,3,3,3,3,3,3,3,3,3,3,3,3,3,3,3,3,3,3,3,3,3,3,3,3,3,3,3,3,3,3,3,3,3,3,3,3,3,3,
3,3,3,3,3,3,3,3,3,3,3,3,3,3,3,3,3,3,3,3,3,3,3,3,3,3,3,3,3,3,3,3,3,3,3,3,3,3,3,3,3,3,3,3,3,3,3,3,3,3,3,3,3,3,3,3,3,3,3,3,3,3,3,3,3,3,3,3,3,3,
3,3,3,3,3,3,3,3,3,3,3,3,3,3,3,3,3,3,3,3,3,3,3,3,3,3,3,3,3,3,3,3,3,3,3,3,3,3,3,3,3,3,3,3,3,3,3,3,3,3,3,3,3,3,3,3,3,3,3,3,3,3,3,3,3,3,3,3,3,3,
3,3,3,3,3,3,3,3,3,3,3,3,3,3,3,3,3,3,3,3,3,3,3,3,3,3,3,3,3,3,3,3,3,3,3,3,3,3,3,3,3,3,3,3,3,3,3,3,3,3,3,3,3,3,3,3,3,3,3,3,3,3,3,3,3,3,3,3,3,3
</data>
 </layer>
 <layer id="2" name="deco_sotto" width="70" height="48">
  <data encoding="csv">
0,0,0,0,0,0,0,0,0,0,0,0,0,0,0,0,0,0,0,0,0,0,0,0,0,0,0,0,0,0,0,0,0,0,0,0,0,0,0,0,0,0,0,0,0,0,0,0,0,0,0,0,0,0,0,0,0,0,0,0,107,107,0,0,0,0,0,0,0,0,
0,0,0,0,0,0,0,0,0,0,0,0,0,0,0,0,0,0,0,0,0,0,0,0,0,0,0,0,0,0,0,0,0,0,0,0,0,0,0,0,0,0,0,0,0,0,0,0,0,0,0,0,0,0,0,0,0,0,0,0,107,107,0,0,0,0,0,0,0,0,
0,0,0,0,0,0,0,0,0,0,0,0,0,0,0,0,0,0,0,0,0,0,0,0,0,0,0,0,0,0,0,0,0,0,0,0,0,0,0,0,0,0,0,0,0,0,0,0,0,0,0,0,0,0,0,0,0,0,0,0,107,107,0,0,0,0,0,0,0,0,
0,0,0,0,0,0,0,0,0,0,0,0,0,0,0,0,0,0,0,0,0,0,0,0,0,0,0,0,0,0,0,0,0,0,0,0,0,0,0,0,0,0,0,0,0,0,0,0,0,0,0,0,0,0,0,0,0,0,0,0,107,107,0,0,0,0,0,0,0,0,
0,0,0,0,0,0,0,0,0,0,0,0,0,0,0,0,0,0,0,0,0,0,0,0,0,0,0,0,0,0,0,0,0,0,0,0,0,0,0,0,0,0,0,0,0,0,0,0,0,0,0,0,0,0,0,0,0,0,0,107,107,107,0,0,0,0,0,0,0,0,
0,0,0,0,0,0,0,0,0,0,0,0,0,0,0,0,0,0,0,0,0,0,0,0,0,0,0,0,0,0,0,0,0,0,0,0,0,0,0,0,0,0,0,0,0,0,0,0,0,0,0,0,0,0,0,0,0,0,0,0,107,107,0,0,0,0,0,0,0,0,
0,0,0,0,0,0,0,0,7,7,7,7,7,7,7,7,7,7,7,7,7,7,7,7,7,7,7,7,7,7,7,7,7,7,7,7,7,7,7,7,7,7,7,7,7,7,0,0,0,0,0,0,0,0,0,0,0,0,0,0,107,107,0,0,0,0,0,0,0,0,
0,0,0,0,0,0,0,0,7,7,7,7,7,7,7,7,7,7,7,7,7,7,7,7,7,7,7,7,7,7,7,7,7,7,7,7,7,7,7,7,7,7,7,7,7,7,0,0,0,0,0,0,0,0,0,0,0,0,0,0,107,107,0,0,0,0,0,0,0,0,
0,0,0,0,0,0,0,0,0,0,0,0,0,0,0,0,0,0,0,0,0,0,0,0,0,0,0,0,0,0,0,0,0,0,0,0,0,0,0,0,0,0,0,0,0,0,0,0,0,0,0,0,0,0,0,0,0,0,0,0,107,107,0,0,0,0,0,0,0,0,
0,0,0,0,0,0,0,0,107,107,107,107,107,107,107,107,107,107,107,107,107,107,107,107,107,107,107,107,107,107,107,107,107,107,107,107,107,107,107,107,107,107,107,0,0,0,0,0,0,0,0,0,0,0,0,0,0,0,0,0,107,107,0,0,0,0,0,0,0,0,
0,0,0,0,0,0,0,0,107,107,107,107,107,107,107,107,107,107,107,107,107,107,107,107,107,107,107,107,107,107,107,107,107,107,107,107,107,107,107,107,107,107,107,0,0,0,0,0,0,0,0,0,0,0,0,0,0,0,0,0,107,107,0,0,0,0,0,0,0,0,
0,0,0,0,0,0,0,0,107,107,0,0,824,0,785,786,786,786,949,787,0,0,0,0,824,0,0,0,0,0,0,0,107,0,0,485,0,0,0,0,107,107,107,0,0,0,0,0,0,0,0,0,0,0,0,0,0,0,0,0,107,107,0,0,0,0,0,0,0,0,
0,0,0,0,0,0,0,0,107,107,0,0,0,0,793,797,797,797,797,795,0,0,0,0,0,0,0,0,0,824,0,0,107,0,492,493,494,0,0,824,107,107,107,0,0,0,0,0,0,0,0,0,0,0,0,0,0,0,0,0,107,107,0,0,0,0,0,0,0,0,
0,0,0,0,0,0,0,0,107,107,0,0,0,0,793,797,797,794,797,795,0,0,0,0,0,0,0,0,0,0,0,0,107,0,500,501,502,0,0,0,107,107,107,0,0,0,0,0,0,0,0,0,0,0,0,0,0,0,0,0,107,107,0,0,0,0,0,0,0,0,
0,0,0,0,0,0,0,0,107,107,0,824,0,0,801,802,802,794,802,803,0,0,0,0,0,0,0,0,0,0,0,0,107,0,508,509,510,0,0,0,107,107,107,0,0,0,0,0,0,0,0,0,0,0,0,0,0,0,0,0,107,107,0,0,0,0,0,0,0,0,
0,0,0,0,0,0,0,0,107,107,0,0,0,0,0,0,793,794,795,0,0,0,0,0,0,0,0,0,0,0,0,0,107,0,0,0,0,0,0,0,107,107,107,0,0,0,0,0,0,0,0,0,0,0,0,0,0,0,0,0,107,107,0,0,0,0,0,0,0,0,
0,0,0,0,0,0,0,0,107,107,0,0,0,0,0,0,793,794,795,0,0,0,0,0,0,824,0,0,485,0,0,0,107,0,0,0,0,0,0,0,107,107,107,0,0,0,0,0,0,0,0,0,0,0,0,0,0,0,0,0,107,107,0,0,0,0,0,0,0,0,
0,0,0,0,0,0,0,0,107,107,785,786,787,0,0,0,801,770,803,0,0,0,0,0,0,0,0,492,493,494,0,0,107,0,0,0,0,0,0,0,107,107,107,0,0,0,0,0,0,0,0,0,0,0,0,0,0,0,0,0,107,107,0,0,0,0,0,0,0,0,
0,0,0,0,0,0,0,0,107,107,793,794,795,0,0,0,748,0,749,0,0,0,0,0,0,0,0,500,501,502,0,0,107,0,0,0,0,0,0,0,107,107,107,0,0,0,0,0,0,0,0,0,0,0,0,0,0,0,0,0,107,107,0,0,0,0,0,0,0,0,
0,0,0,0,0,0,0,0,107,107,801,802,803,746,746,746,746,0,746,746,746,746,746,757,0,0,0,508,509,510,0,0,107,0,0,0,0,0,0,0,107,107,107,0,0,0,0,0,0,0,0,0,0,0,0,0,0,0,0,0,107,107,0,0,0,0,0,0,0,0,
0,0,0,0,0,0,0,0,107,107,0,0,0,0,0,0,0,0,0,0,0,0,0,757,0,0,0,0,0,824,0,0,107,0,0,0,0,0,0,0,107,107,107,0,0,0,0,0,0,0,0,0,0,0,0,0,0,0,0,0,107,107,0,0,0,0,0,0,0,0,
0,0,0,0,0,0,0,0,107,107,785,786,787,0,0,0,0,0,0,0,0,0,0,757,0,0,0,0,0,0,0,0,107,0,0,0,824,0,0,0,107,107,107,107,0,0,0,0,0,0,0,0,0,0,0,0,0,0,0,0,107,107,0,0,0,0,0,0,0,0,
0,0,0,0,0,0,0,0,0,0,793,794,795,746,746,746,746,746,746,746,757,0,0,757,0,0,0,0,0,0,0,0,107,0,0,0,0,485,0,0,107,107,107,107,0,0,0,0,0,0,0,0,0,0,0,0,0,0,0,0,107,107,0,0,0,0,0,0,0,0,
0,0,0,0,0,0,0,0,0,0,801,802,803,0,0,0,0,0,0,0,757,0,0,757,0,0,485,0,0,0,0,0,107,0,0,0,492,493,494,0,107,107,107,824,0,0,0,0,0,0,0,0,0,0,0,0,0,0,0,0,107,107,0,0,0,0,0,0,0,0,
0,0,0,0,0,0,0,0,0,0,0,0,0,0,0,0,785,786,787,0,757,0,0,757,0,492,493,494,0,0,0,0,107,0,0,0,500,501,502,0,107,107,107,0,0,0,0,0,0,0,0,0,0,0,0,0,0,0,0,0,107,107,0,0,0,0,0,0,0,0,
0,0,0,0,0,0,0,0,0,0,0,0,0,0,0,0,793,794,795,0,757,0,0,757,0,500,501,502,0,107,107,107,107,0,0,0,508,509,510,0,107,107,107,0,0,0,0,0,0,0,0,0,0,0,0,0,0,0,0,0,107,107,0,0,0,0,0,0,0,0,
0,0,0,0,0,0,0,0,737,955,746,746,746,746,739,0,801,802,803,0,757,0,0,757,0,508,509,510,0,107,107,107,107,107,107,107,0,0,0,0,107,107,107,0,0,0,0,0,0,0,0,0,0,0,0,0,0,0,0,0,107,107,0,0,0,0,0,0,0,0,
0,0,0,0,0,0,0,0,757,0,0,0,0,0,0,746,746,746,746,746,0,0,0,757,0,0,0,0,0,0,0,0,0,0,0,107,0,0,0,0,107,107,107,0,0,0,0,0,0,0,0,0,0,0,0,0,0,0,0,0,107,107,0,0,0,0,0,0,0,0,
0,0,0,0,0,0,0,0,757,0,0,0,0,0,0,0,0,0,0,0,0,0,0,757,0,0,0,0,0,0,0,824,0,0,0,107,0,0,0,0,107,107,107,0,0,0,0,0,0,0,0,0,0,0,0,0,0,0,0,0,107,107,0,0,0,0,0,0,0,0,
0,0,0,0,0,0,0,0,757,0,0,0,0,0,0,0,785,786,787,0,0,746,746,0,0,0,0,0,0,0,0,0,0,0,0,0,0,0,0,0,107,107,107,0,0,0,0,0,0,0,0,0,0,0,0,0,0,0,0,0,107,107,0,0,0,0,0,0,0,0,
0,0,0,0,0,0,0,0,757,0,0,0,0,0,0,0,793,794,795,0,0,0,0,0,0,0,0,0,0,0,107,107,107,107,107,107,107,107,107,107,107,107,107,0,0,0,0,0,0,0,0,0,0,0,0,0,0,0,0,0,107,107,0,0,0,0,0,0,0,0,
0,0,0,0,0,0,0,0,757,0,0,0,0,0,0,0,801,802,803,0,0,0,0,0,0,0,485,0,0,0,107,107,107,107,107,107,107,107,107,107,107,107,107,0,0,0,0,0,0,0,0,0,0,0,0,0,0,0,0,0,107,107,0,0,0,0,0,0,0,0,
0,0,0,0,0,0,0,0,757,0,0,785,786,787,0,0,0,0,0,0,0,0,0,0,0,492,493,494,0,0,107,107,107,107,107,107,107,107,107,107,107,107,107,0,0,0,0,0,0,0,0,0,0,0,0,0,0,0,0,0,107,107,0,0,0,0,0,0,0,0,
0,0,0,0,0,0,0,0,757,0,0,793,794,795,0,0,0,485,0,0,0,824,0,0,0,500,501,502,0,0,107,107,107,0,0,0,0,0,0,0,0,0,0,0,0,0,0,0,0,0,0,0,0,0,107,107,107,107,107,107,107,107,0,0,0,0,0,0,0,0,
0,0,0,0,0,0,0,0,757,0,0,801,802,803,0,0,492,493,494,0,0,0,0,0,0,508,509,510,0,0,107,107,107,0,0,0,0,0,0,0,0,0,0,0,0,0,0,0,0,0,0,0,0,0,107,107,107,107,107,107,107,107,0,0,0,0,0,0,0,0,
0,0,0,0,0,0,0,0,757,0,0,785,786,787,0,0,500,501,502,0,485,0,0,0,0,0,0,0,0,0,107,107,107,0,0,0,0,0,0,0,0,0,0,0,0,0,0,0,0,0,0,0,0,0,107,107,0,0,0,0,0,0,0,0,0,0,0,0,0,0,
0,0,0,0,0,0,0,0,757,0,0,793,794,795,0,0,508,509,510,492,493,494,0,824,0,0,0,824,0,0,107,107,107,0,0,0,0,0,0,0,0,0,0,0,0,0,0,0,0,0,0,0,0,0,107,107,0,0,0,0,0,0,0,0,0,0,0,0,0,0,
0,0,0,0,0,0,0,0,757,0,0,801,802,803,0,824,0,0,0,500,501,502,0,0,0,0,0,0,0,0,107,107,107,0,0,0,0,0,0,0,0,0,0,0,0,0,0,0,0,0,0,0,0,0,107,107,0,0,0,0,0,0,0,0,0,0,0,0,0,0,
0,0,0,0,0,0,0,0,0,0,0,0,0,0,0,0,0,0,0,508,509,510,0,0,0,0,0,0,955,0,107,107,107,0,0,0,0,0,0,0,0,0,0,0,0,0,0,0,0,0,0,0,0,0,107,107,0,0,0,0,0,0,0,0,0,0,0,0,0,0,
0,0,0,0,0,0,0,0,0,0,0,0,0,0,0,0,0,0,0,0,0,0,0,0,0,0,0,0,0,0,107,107,107,107,107,107,107,107,107,107,107,107,107,107,107,107,107,107,107,107,107,107,107,107,107,107,0,0,0,0,0,0,0,0,0,0,0,0,0,0,
0,0,0,0,0,0,0,0,0,0,0,0,0,0,0,0,0,0,0,0,0,0,0,0,0,0,0,0,0,0,107,107,107,107,107,107,107,107,107,107,107,107,107,107,107,107,107,107,107,107,107,107,107,107,107,107,0,0,0,0,0,0,0,0,0,0,0,0,0,0,
0,0,0,0,0,0,0,0,0,0,0,0,0,0,0,0,0,0,0,0,0,0,0,0,0,0,0,0,0,0,0,0,0,0,0,0,0,0,0,0,0,0,0,0,0,0,0,0,0,0,0,0,0,0,0,0,0,0,0,0,0,0,0,0,0,0,0,0,0,0,
0,0,0,0,0,0,0,0,0,0,0,0,0,0,0,0,0,0,0,0,0,0,0,0,0,0,0,0,0,0,0,0,0,0,0,0,0,0,0,0,0,0,0,0,0,0,0,0,0,0,0,0,0,0,0,0,0,0,0,0,0,0,0,0,0,0,0,0,0,0,
0,0,0,0,0,0,0,0,0,0,0,0,0,0,0,0,0,0,0,0,0,0,0,0,0,0,0,0,0,0,0,0,0,0,0,0,0,0,0,0,0,0,0,0,0,0,0,0,0,0,0,0,0,0,0,0,0,0,0,0,0,0,0,0,0,0,0,0,0,0,
0,0,0,0,0,0,0,0,0,0,0,0,0,0,0,0,0,0,0,0,0,0,0,0,0,0,0,0,0,0,0,0,0,0,0,0,0,0,0,0,0,0,0,0,0,0,0,0,0,0,0,0,0,0,0,0,0,0,0,0,0,0,0,0,0,0,0,0,0,0,
0,0,0,0,0,0,0,0,0,0,0,0,0,0,0,0,0,0,0,0,0,0,0,0,0,0,0,0,0,0,0,0,0,0,0,0,0,0,0,0,0,0,0,0,0,0,0,0,0,0,0,0,0,0,0,0,0,0,0,0,0,0,0,0,0,0,0,0,0,0,
0,0,0,0,0,0,0,0,0,0,0,0,0,0,0,0,0,0,0,0,0,0,0,0,0,0,0,0,0,0,0,0,0,0,0,0,0,0,0,0,0,0,0,0,0,0,0,0,0,0,0,0,0,0,0,0,0,0,0,0,0,0,0,0,0,0,0,0,0,0,
0,0,0,0,0,0,0,0,0,0,0,0,0,0,0,0,0,0,0,0,0,0,0,0,0,0,0,0,0,0,0,0,0,0,0,0,0,0,0,0,0,0,0,0,0,0,0,0,0,0,0,0,0,0,0,0,0,0,0,0,0,0,0,0,0,0,0,0,0,0
</data>
 </layer>
 <layer id="3" name="edifici" width="70" height="48">
  <data encoding="csv">
421,422,421,422,421,422,421,422,421,422,421,422,421,422,421,422,421,422,421,422,421,422,421,422,421,422,421,422,421,422,421,422,421,422,421,422,421,422,421,422,421,422,421,422,421,422,421,422,421,422,421,422,421,422,421,422,421,422,0,106,107,108,476,476,421,422,421,422,421,422,
429,430,429,430,429,430,429,430,429,430,429,430,429,430,429,430,429,430,429,430,429,430,429,430,429,430,429,430,429,430,429,430,429,430,429,430,429,430,429,430,429,430,429,430,429,430,429,430,429,430,429,430,429,430,429,430,429,430,0,106,107,108,476,0,429,430,429,430,429,430,
437,438,437,438,437,438,437,438,437,438,437,438,437,438,437,438,437,438,437,438,437,438,437,438,437,438,437,438,437,438,437,438,437,438,437,438,437,438,437,438,437,438,437,438,437,438,437,438,437,438,437,438,437,438,437,438,437,438,0,106,107,108,476,0,437,438,437,438,437,438,
421,422,421,422,421,422,421,422,421,422,421,422,421,422,421,422,421,422,421,422,421,422,421,422,421,422,421,422,421,422,421,422,421,422,421,422,421,422,421,422,421,422,421,422,421,422,421,422,421,422,421,422,421,422,421,422,421,422,0,106,107,108,476,476,421,422,421,422,421,422,
429,430,429,430,429,430,429,430,429,430,429,430,429,430,429,430,429,430,429,430,429,430,429,430,429,430,429,430,429,430,429,430,429,430,429,430,429,430,429,430,429,430,429,430,429,430,429,430,429,430,429,430,429,430,429,430,429,430,476,106,107,108,476,476,429,430,429,430,429,430,
437,438,437,438,437,438,437,438,437,438,437,438,437,438,437,438,437,438,437,438,437,438,437,438,437,438,437,438,437,438,437,438,437,438,437,438,437,438,437,438,437,438,437,438,437,438,437,438,437,438,437,438,437,438,437,438,437,438,476,476,0,0,476,476,437,438,437,438,437,438,
421,422,421,422,421,422,421,422,0,0,0,0,0,0,0,0,0,0,0,0,0,0,0,0,0,0,0,0,0,0,0,0,0,0,0,0,0,0,0,0,0,0,0,0,0,0,421,422,421,422,421,422,421,422,421,422,421,422,421,422,0,0,421,422,421,422,421,422,421,422,
429,430,429,430,429,430,429,430,0,0,0,0,0,0,0,0,0,0,0,0,0,0,0,0,0,0,0,0,0,0,0,0,0,0,0,0,0,0,0,0,0,0,0,0,0,0,429,430,429,430,429,430,429,430,429,430,429,430,429,430,0,0,429,430,429,430,429,430,429,430,
437,438,437,438,437,438,437,438,0,0,0,0,0,0,0,0,0,0,0,0,0,0,0,0,0,0,0,0,0,0,0,0,0,0,0,0,0,0,0,0,0,0,0,0,0,0,437,438,437,438,437,438,437,438,437,438,437,438,437,438,0,0,437,438,437,438,437,438,437,438,
421,422,421,422,421,422,421,422,0,0,0,0,0,0,0,0,0,0,0,0,0,0,0,0,0,0,0,0,0,0,0,0,0,0,0,0,0,0,0,0,0,0,0,0,0,0,421,422,421,422,421,422,421,422,421,422,421,422,421,422,0,0,421,422,421,422,421,422,421,422,
429,430,429,430,429,430,429,430,0,0,0,0,0,0,0,0,0,0,0,0,0,0,0,0,0,0,0,0,0,0,0,0,0,0,0,0,0,0,0,0,0,0,0,0,0,0,429,430,429,430,429,430,429,430,429,430,429,430,429,430,0,0,429,430,429,430,429,430,429,430,
437,438,437,438,437,438,437,438,0,0,0,0,0,0,0,0,0,0,0,0,0,0,0,0,0,0,0,0,0,0,0,0,0,0,0,0,0,0,0,0,0,0,0,441,442,443,437,438,437,438,437,438,437,438,437,438,437,438,437,438,0,0,437,438,437,438,437,438,437,438,
421,422,421,422,421,422,421,422,0,0,0,0,0,0,0,0,0,0,0,0,0,441,442,443,0,0,0,0,0,0,0,0,0,0,0,0,0,0,0,0,0,0,0,449,450,451,421,422,421,422,421,422,421,422,421,422,421,422,421,422,0,0,421,422,421,422,421,422,421,422,
429,430,429,430,429,430,429,430,0,0,0,0,0,0,0,0,0,0,0,0,0,449,450,451,441,442,443,0,0,0,0,0,0,0,0,0,0,0,0,0,0,0,0,457,458,459,429,430,429,430,429,430,429,430,429,430,429,430,429,430,0,0,429,430,429,430,429,430,429,430,
437,438,437,438,437,438,437,438,0,0,0,0,0,0,0,0,810,0,809,0,0,457,458,459,449,450,451,441,442,443,7,7,7,441,442,443,0,0,0,0,0,0,0,0,0,0,437,438,437,438,437,438,437,438,437,438,437,438,437,438,0,0,437,438,437,438,437,438,437,438,
421,422,421,422,421,422,421,422,0,0,0,0,0,0,0,0,0,0,0,0,0,441,442,443,457,458,459,449,450,451,7,7,7,449,450,451,0,0,0,0,0,0,0,0,0,0,421,422,421,422,421,422,421,422,421,422,421,422,421,422,0,0,421,422,421,422,421,422,421,422,
429,430,429,430,429,430,429,430,0,0,0,0,0,0,0,0,0,0,0,0,0,449,450,451,0,0,0,457,458,459,7,7,7,457,458,459,441,442,443,0,0,0,0,0,0,0,429,430,429,430,429,430,429,430,429,430,429,430,429,430,0,0,429,430,429,430,429,430,429,430,
437,438,437,438,437,438,437,438,0,0,0,0,0,0,0,0,0,0,0,0,0,457,458,459,0,0,0,0,0,0,7,7,7,441,442,443,449,450,451,0,0,0,0,441,442,443,437,438,437,438,437,438,437,438,437,438,437,438,437,438,0,0,437,438,437,438,437,438,437,438,
421,422,421,422,421,422,421,422,0,0,0,0,0,0,0,0,0,0,0,0,0,0,0,0,0,0,0,0,0,0,7,7,7,449,450,451,457,458,459,0,0,0,0,449,450,451,421,422,421,422,421,422,421,422,421,422,421,422,421,422,0,0,421,422,421,422,421,422,421,422,
429,430,429,430,429,430,429,430,0,0,0,0,0,0,0,0,0,0,0,0,0,0,0,0,441,442,443,0,0,0,0,0,0,457,458,459,0,0,0,0,0,0,0,457,458,459,429,430,429,430,429,430,429,430,429,430,429,430,429,430,0,0,429,430,429,430,429,430,429,430,
437,438,437,438,437,438,437,438,0,0,0,0,0,0,0,0,0,0,0,0,0,0,0,0,449,450,451,0,0,0,0,0,0,0,0,0,0,0,0,0,0,0,0,0,0,0,437,438,437,438,437,438,437,438,437,438,437,438,437,438,0,0,437,438,437,438,437,438,437,438,
421,422,421,422,421,422,421,422,0,0,0,0,0,0,0,0,0,0,0,0,0,0,0,0,457,458,459,0,441,442,443,0,0,441,442,443,0,0,0,0,0,0,0,0,0,0,421,422,421,422,421,422,421,422,421,422,421,422,421,422,0,0,421,422,421,422,421,422,421,422,
429,430,429,430,429,430,429,430,0,0,0,0,0,0,0,0,0,0,0,0,0,0,0,0,0,0,0,0,449,450,451,0,0,449,450,451,0,0,0,0,0,0,0,0,0,0,429,430,429,430,429,430,429,430,429,430,429,430,429,430,0,0,429,430,429,430,429,430,429,430,
437,438,437,438,437,438,437,438,0,0,0,0,0,441,442,443,0,0,0,0,0,0,0,0,0,0,0,0,457,458,459,0,0,457,458,459,0,0,0,0,0,0,0,0,0,0,437,438,437,438,437,438,437,438,437,438,437,438,437,438,0,0,437,438,437,438,437,438,437,438,
421,422,421,422,421,422,421,422,0,0,0,0,0,449,450,451,0,0,0,0,0,0,0,0,0,0,0,0,7,7,7,7,7,7,0,0,0,0,0,0,0,0,0,441,442,443,421,422,421,422,421,422,421,422,421,422,421,422,421,422,0,0,421,422,421,422,421,422,421,422,
429,430,429,430,429,430,429,430,0,0,0,0,0,457,458,459,0,0,0,0,0,0,0,0,0,0,0,0,7,7,0,0,0,7,7,0,0,0,0,0,0,0,0,449,450,451,429,430,429,430,429,430,429,430,429,430,429,430,429,430,0,0,429,430,429,430,429,430,429,430,
437,438,437,438,437,438,437,438,0,0,0,0,0,0,0,0,0,0,0,0,0,0,0,0,0,0,0,0,7,7,7,7,7,7,7,0,0,0,0,0,0,0,0,457,458,459,437,438,437,438,437,438,437,438,437,438,437,438,437,438,0,0,437,438,437,438,437,438,437,438,
421,422,421,422,421,422,421,422,0,0,0,0,0,0,0,0,0,0,0,0,0,0,0,0,0,0,441,442,443,0,7,7,7,7,7,0,0,0,0,0,0,0,0,0,0,0,421,422,421,422,421,422,421,422,421,422,421,422,421,422,0,0,421,422,421,422,421,422,421,422,
429,430,429,430,429,430,429,430,0,0,0,0,0,0,0,0,0,0,0,0,0,0,0,0,0,0,449,450,451,0,0,0,0,0,0,0,0,0,0,0,0,0,0,0,0,0,429,430,429,430,429,430,429,430,429,430,429,430,429,430,0,0,429,430,429,430,429,430,429,430,
437,438,437,438,437,438,437,438,0,0,756,729,746,746,746,746,746,746,746,746,746,0,0,0,0,0,457,458,459,0,0,0,0,0,0,0,0,0,0,0,0,0,0,0,0,0,437,438,437,438,437,438,437,438,437,438,437,438,437,438,0,0,437,438,437,438,437,438,437,438,
421,422,421,422,421,422,421,422,0,0,756,757,0,0,0,0,0,0,0,0,441,442,443,0,0,0,0,0,0,0,0,0,0,0,0,0,0,0,0,0,0,0,0,0,0,0,421,422,421,422,421,422,421,422,421,422,421,422,421,422,0,0,421,422,421,422,421,422,421,422,
429,430,429,430,429,430,429,430,0,0,756,757,0,0,0,0,0,0,0,0,449,450,451,0,0,0,0,0,0,0,0,0,0,0,0,0,0,0,0,0,0,0,0,0,0,0,429,430,429,430,429,430,429,430,429,430,429,430,429,430,0,0,429,430,429,430,429,430,429,430,
437,438,437,438,437,438,437,438,0,0,756,757,0,0,0,0,0,0,0,0,457,458,459,0,0,0,0,0,0,0,0,0,0,0,0,0,0,0,0,0,0,0,0,0,0,0,437,438,437,438,437,438,437,438,437,438,437,438,437,438,0,0,437,438,437,438,437,438,437,438,
421,422,421,422,421,422,421,422,0,0,756,757,0,0,0,0,0,0,0,0,0,0,0,0,0,0,0,0,0,0,0,0,0,471,0,0,0,0,0,0,0,0,0,0,0,0,421,422,421,422,421,422,421,422,0,0,0,0,0,0,0,0,421,422,421,422,421,422,421,422,
429,430,429,430,429,430,429,430,0,0,756,757,0,0,0,0,0,0,0,0,0,0,0,0,0,0,0,0,0,471,0,0,0,479,0,0,0,0,0,0,0,0,0,0,0,0,429,430,429,430,429,430,429,430,0,0,0,0,0,0,0,0,429,430,429,430,429,430,429,430,
437,438,437,438,437,438,437,438,0,0,756,757,0,0,0,0,0,0,0,0,0,0,0,0,0,0,0,0,0,479,0,0,0,487,0,0,0,0,0,0,0,0,0,0,0,0,437,438,437,438,437,438,437,438,0,0,0,0,0,0,0,0,437,438,437,438,437,438,437,438,
421,422,421,422,421,422,421,422,0,0,756,757,0,0,0,0,0,0,0,0,0,0,0,0,0,0,0,0,0,487,0,0,0,471,0,0,0,0,0,0,0,0,0,0,0,0,421,422,421,422,421,422,421,422,0,0,421,422,421,422,421,422,421,422,421,422,421,422,421,422,
429,430,429,430,429,430,429,430,2899,2900,2901,757,0,0,0,0,0,0,0,0,0,0,0,0,0,0,0,471,0,0,0,0,0,479,0,0,0,0,0,0,0,0,0,0,0,0,429,430,429,430,429,430,429,430,0,0,429,430,429,430,429,430,429,430,429,430,429,430,429,430,
437,438,437,438,437,438,437,438,2914,2915,2915,2918,0,0,0,0,0,0,0,0,0,0,0,0,0,0,0,479,0,0,0,0,0,487,0,0,0,0,0,0,0,0,0,0,0,0,437,438,437,438,437,438,437,438,0,0,437,438,437,438,437,438,437,438,437,438,437,438,437,438,
421,422,421,422,421,422,421,422,2922,2923,2923,2926,0,0,0,0,0,0,0,0,0,0,0,0,0,0,0,487,0,0,0,0,0,0,0,0,0,0,0,0,0,0,0,0,0,0,0,0,0,0,0,0,0,0,0,0,421,422,421,422,421,422,421,422,421,422,421,422,421,422,
429,430,429,430,429,430,429,430,2930,2957,2957,2934,0,0,0,0,0,0,0,0,0,0,0,0,0,0,0,0,0,0,0,0,0,0,0,0,0,0,0,0,0,0,0,0,0,0,0,0,0,0,0,0,0,0,0,0,429,430,429,430,429,430,429,430,429,430,429,430,429,430,
437,438,437,438,437,438,437,438,2938,3002,3002,2942,0,0,0,0,0,0,0,0,0,0,0,0,0,0,0,0,0,0,0,0,0,0,0,0,0,0,0,0,0,0,0,0,0,0,0,0,0,0,0,0,0,0,0,0,437,438,437,438,437,438,437,438,437,438,437,438,437,438,
421,422,421,422,421,422,421,422,421,422,421,422,421,422,421,422,421,422,421,422,421,422,421,422,421,422,421,422,421,422,421,422,421,422,421,422,421,422,421,422,421,422,421,422,421,422,421,422,421,422,421,422,421,422,421,422,421,422,421,422,421,422,421,422,421,422,421,422,421,422,
429,430,429,430,429,430,429,430,429,430,429,430,429,430,429,430,429,430,429,430,429,430,429,430,429,430,429,430,429,430,429,430,429,430,429,430,429,430,429,430,429,430,429,430,429,430,429,430,429,430,429,430,429,430,429,430,429,430,429,430,429,430,429,430,429,430,429,430,429,430,
437,438,437,438,437,438,437,438,437,438,437,438,437,438,437,438,437,438,437,438,437,438,437,438,437,438,437,438,437,438,437,438,437,438,437,438,437,438,437,438,437,438,437,438,437,438,437,438,437,438,437,438,437,438,437,438,437,438,437,438,437,438,437,438,437,438,437,438,437,438,
421,422,421,422,421,422,421,422,421,422,421,422,421,422,421,422,421,422,421,422,421,422,421,422,421,422,421,422,421,422,421,422,421,422,421,422,421,422,421,422,421,422,421,422,421,422,421,422,421,422,421,422,421,422,421,422,421,422,421,422,421,422,421,422,421,422,421,422,421,422,
429,430,429,430,429,430,429,430,429,430,429,430,429,430,429,430,429,430,429,430,429,430,429,430,429,430,429,430,429,430,429,430,429,430,429,430,429,430,429,430,429,430,429,430,429,430,429,430,429,430,429,430,429,430,429,430,429,430,429,430,429,430,429,430,429,430,429,430,429,430,
437,438,437,438,437,438,437,438,437,438,437,438,437,438,437,438,437,438,437,438,437,438,437,438,437,438,437,438,437,438,437,438,437,438,437,438,437,438,437,438,437,438,437,438,437,438,437,438,437,438,437,438,437,438,437,438,437,438,437,438,437,438,437,438,437,438,437,438,437,438
</data>
 </layer>
 <layer id="4" name="sopra_testa" width="70" height="48">
  <data encoding="csv">
0,0,0,0,0,0,0,0,0,0,0,0,0,0,0,0,0,0,0,0,0,0,0,0,0,0,0,0,0,0,0,0,0,0,0,0,0,0,0,0,0,0,0,0,0,0,0,0,0,0,0,0,0,0,0,0,0,0,0,0,0,0,0,0,0,0,0,0,0,0,
0,0,0,0,0,0,0,0,0,0,0,0,0,0,0,0,0,0,0,0,0,0,0,0,0,0,0,0,0,0,0,0,0,0,0,0,0,0,0,0,0,0,0,0,0,0,0,0,0,0,0,0,0,0,0,0,0,0,0,0,0,0,0,0,0,0,0,0,0,0,
0,0,0,0,0,0,0,0,0,0,0,0,0,0,0,0,0,0,0,0,0,0,0,0,0,0,0,0,0,0,0,0,0,0,0,0,0,0,0,0,0,0,0,0,0,0,0,0,0,0,0,0,0,0,0,0,0,0,0,0,0,0,0,0,0,0,0,0,0,0,
0,0,0,0,0,0,0,0,0,0,0,0,0,0,0,0,0,0,0,0,0,0,0,0,0,0,0,0,0,0,0,0,0,0,0,0,0,0,0,0,0,0,0,0,0,0,0,0,0,0,0,0,0,0,0,0,0,0,0,0,0,0,0,0,0,0,0,0,0,0,
0,0,0,0,0,0,0,0,0,0,0,0,0,0,0,0,0,0,0,0,0,0,0,0,0,0,0,0,0,0,0,0,0,0,0,0,0,0,0,0,0,0,0,0,0,0,0,0,0,0,0,0,0,0,0,0,0,0,0,0,0,0,0,0,0,0,0,0,0,0,
0,0,0,0,0,0,0,0,0,0,0,0,0,0,0,0,0,0,0,0,0,0,0,0,0,0,0,0,0,0,0,0,0,0,0,0,0,0,0,0,0,0,0,0,0,0,0,0,0,0,0,0,0,0,0,0,0,0,0,0,0,0,0,0,0,0,0,0,0,0,
0,0,0,0,0,0,0,0,0,0,0,0,0,0,0,0,0,0,0,0,0,0,0,0,0,0,0,0,0,0,0,0,0,0,0,0,0,0,0,0,0,0,0,0,0,0,0,0,0,0,0,0,0,0,0,0,0,0,0,0,0,0,0,0,0,0,0,0,0,0,
0,0,0,0,0,0,0,0,0,0,0,0,0,0,0,0,0,0,0,0,0,0,0,0,0,0,0,0,0,0,0,0,0,0,0,0,0,0,0,0,0,0,0,0,0,0,0,0,0,0,0,0,0,0,0,0,0,0,0,0,0,0,0,0,0,0,0,0,0,0,
0,0,0,0,0,0,0,0,0,0,0,0,0,0,0,0,0,0,0,0,0,0,0,0,0,0,0,0,0,0,0,0,0,0,0,0,0,0,0,0,0,0,0,0,0,0,0,0,0,0,0,0,0,0,0,0,0,0,0,0,0,0,0,0,0,0,0,0,0,0,
0,0,0,0,0,0,0,0,0,0,0,0,0,0,0,0,0,0,0,0,0,0,0,0,0,0,0,0,0,0,0,0,0,0,0,0,0,0,0,0,0,0,0,0,0,0,0,0,0,0,0,0,0,0,0,0,0,0,0,0,0,0,0,0,0,0,0,0,0,0,
0,0,0,0,0,0,0,0,0,0,0,0,0,0,0,0,0,0,0,0,0,0,0,0,0,0,0,0,0,0,0,0,0,0,0,0,0,0,0,0,0,0,0,0,0,0,0,0,0,0,0,0,0,0,0,0,0,0,0,0,0,0,0,0,0,0,0,0,0,0,
0,0,0,0,0,0,0,0,0,0,0,0,0,0,0,0,0,0,0,0,0,0,0,0,0,0,0,0,0,0,0,0,0,0,0,0,0,0,0,0,0,0,0,0,0,0,0,0,0,0,0,0,0,0,0,0,0,0,0,0,0,0,0,0,0,0,0,0,0,0,
0,0,0,0,0,0,0,0,0,0,0,0,0,0,0,0,0,0,0,0,0,0,0,0,0,0,0,0,0,0,0,0,0,0,0,0,0,0,0,0,0,0,0,0,0,0,0,0,0,0,0,0,0,0,0,0,0,0,0,0,0,0,0,0,0,0,0,0,0,0,
0,0,0,0,0,0,0,0,0,0,0,0,0,0,0,0,0,0,0,0,0,0,0,0,0,0,0,0,0,0,0,0,0,0,0,0,0,0,0,0,0,0,0,0,0,0,0,0,0,0,0,0,0,0,0,0,0,0,0,0,0,0,0,0,0,0,0,0,0,0,
0,0,0,0,0,0,0,0,0,0,0,0,0,0,0,0,0,0,0,0,0,0,0,0,0,0,0,0,0,0,0,0,0,0,0,0,0,0,0,0,0,0,0,0,0,0,0,0,0,0,0,0,0,0,0,0,0,0,0,0,0,0,0,0,0,0,0,0,0,0,
0,0,0,0,0,0,0,0,0,0,0,0,0,0,0,0,0,0,0,0,0,0,0,0,0,0,0,0,0,0,0,0,0,0,0,0,0,0,0,0,0,0,0,0,0,0,0,0,0,0,0,0,0,0,0,0,0,0,0,0,0,0,0,0,0,0,0,0,0,0,
0,0,0,0,0,0,0,0,0,0,0,0,0,0,0,0,0,0,0,0,0,0,0,0,0,0,0,0,0,0,0,0,0,0,0,0,0,0,0,0,0,0,0,0,0,0,0,0,0,0,0,0,0,0,0,0,0,0,0,0,0,0,0,0,0,0,0,0,0,0,
0,0,0,0,0,0,0,0,0,0,0,0,0,0,0,0,0,0,0,0,0,0,0,0,0,0,0,0,0,0,0,0,0,0,0,0,0,0,0,0,0,0,0,0,0,0,0,0,0,0,0,0,0,0,0,0,0,0,0,0,0,0,0,0,0,0,0,0,0,0,
0,0,0,0,0,0,0,0,0,0,0,0,0,0,0,0,0,0,0,0,0,0,0,0,0,0,0,0,0,0,0,0,0,0,0,0,0,0,0,0,0,0,0,0,0,0,0,0,0,0,0,0,0,0,0,0,0,0,0,0,0,0,0,0,0,0,0,0,0,0,
0,0,0,0,0,0,0,0,0,0,0,0,0,0,0,0,0,0,0,0,0,0,0,0,0,0,0,0,0,0,0,0,0,0,0,0,0,0,0,0,0,0,0,0,0,0,0,0,0,0,0,0,0,0,0,0,0,0,0,0,0,0,0,0,0,0,0,0,0,0,
0,0,0,0,0,0,0,0,0,0,0,0,0,0,0,0,0,0,0,0,0,0,0,0,0,0,0,0,0,0,0,0,0,0,0,0,0,0,0,0,0,0,0,0,0,0,0,0,0,0,0,0,0,0,0,0,0,0,0,0,0,0,0,0,0,0,0,0,0,0,
0,0,0,0,0,0,0,0,0,0,0,0,0,0,0,0,0,0,0,0,0,0,0,0,0,0,0,0,0,0,0,0,0,0,0,0,0,0,0,0,0,0,0,0,0,0,0,0,0,0,0,0,0,0,0,0,0,0,0,0,0,0,0,0,0,0,0,0,0,0,
0,0,0,0,0,0,0,0,0,0,0,0,0,0,0,0,0,0,0,0,0,0,0,0,0,0,0,0,0,0,0,0,0,0,0,0,0,0,0,0,0,0,0,0,0,0,0,0,0,0,0,0,0,0,0,0,0,0,0,0,0,0,0,0,0,0,0,0,0,0,
0,0,0,0,0,0,0,0,0,0,0,0,0,0,0,0,0,0,0,0,0,0,0,0,0,0,0,0,0,0,0,0,0,0,0,0,0,0,0,0,0,0,0,0,0,0,0,0,0,0,0,0,0,0,0,0,0,0,0,0,0,0,0,0,0,0,0,0,0,0,
0,0,0,0,0,0,0,0,0,0,0,0,0,0,0,0,0,0,0,0,0,0,0,0,0,0,0,0,0,0,0,0,0,0,0,0,0,0,0,0,0,0,0,0,0,0,0,0,0,0,0,0,0,0,0,0,0,0,0,0,0,0,0,0,0,0,0,0,0,0,
0,0,0,0,0,0,0,0,0,0,0,0,0,0,0,0,0,0,0,0,0,0,0,0,0,0,0,0,0,0,0,0,0,0,0,0,0,0,0,0,0,0,0,0,0,0,0,0,0,0,0,0,0,0,0,0,0,0,0,0,0,0,0,0,0,0,0,0,0,0,
0,0,0,0,0,0,0,0,0,0,0,0,0,0,0,0,0,0,0,0,0,0,0,0,0,0,0,0,0,0,0,0,0,0,0,0,0,0,0,0,0,0,0,0,0,0,0,0,0,0,0,0,0,0,0,0,0,0,0,0,0,0,0,0,0,0,0,0,0,0,
0,0,0,0,0,0,0,0,0,0,0,0,0,0,0,0,0,0,0,0,0,0,0,0,0,0,0,0,0,0,0,0,0,0,0,0,0,0,0,0,0,0,0,0,0,0,0,0,0,0,0,0,0,0,0,0,0,0,0,0,0,0,0,0,0,0,0,0,0,0,
0,0,0,0,0,0,0,0,0,0,0,0,0,0,0,0,0,0,0,0,0,0,0,0,0,0,0,0,0,0,0,0,0,0,0,0,0,0,0,0,0,0,0,0,0,0,0,0,0,0,0,0,0,0,0,0,0,0,0,0,0,0,0,0,0,0,0,0,0,0,
0,0,0,0,0,0,0,0,0,0,0,0,0,0,0,0,0,0,0,0,0,0,0,0,0,0,0,0,0,0,0,0,0,0,0,0,0,0,0,0,0,0,0,0,0,0,0,0,0,0,0,0,0,0,0,0,0,0,0,0,0,0,0,0,0,0,0,0,0,0,
0,0,0,0,0,0,0,0,0,0,0,0,0,0,0,0,0,0,0,0,0,0,0,0,0,0,0,0,0,0,0,0,0,0,0,0,0,0,0,0,0,0,0,0,0,0,0,0,0,0,0,0,0,0,0,0,0,0,0,0,0,0,0,0,0,0,0,0,0,0,
0,0,0,0,0,0,0,0,0,0,0,0,0,0,0,0,0,0,0,0,0,0,0,0,0,0,0,0,0,0,0,0,0,0,0,0,0,0,0,0,0,0,0,0,0,0,0,0,0,0,0,0,0,0,0,0,0,0,0,0,0,0,0,0,0,0,0,0,0,0,
0,0,0,0,0,0,0,0,0,0,0,0,0,0,0,0,0,0,0,0,0,0,0,0,0,0,0,0,0,0,0,0,0,0,0,0,0,0,0,0,0,0,0,0,0,0,0,0,0,0,0,0,0,0,0,0,0,0,0,0,0,0,0,0,0,0,0,0,0,0,
0,0,0,0,0,0,0,0,0,0,0,0,0,0,0,0,0,0,0,0,0,0,0,0,0,0,0,0,0,0,0,0,0,0,0,0,0,0,0,0,0,0,0,0,0,0,0,0,0,0,0,0,0,0,0,0,0,0,0,0,0,0,0,0,0,0,0,0,0,0,
0,0,0,0,0,0,0,0,0,0,0,0,0,0,0,0,0,0,0,0,0,0,0,0,0,0,0,0,0,0,0,0,0,0,0,0,0,0,0,0,0,0,0,0,0,0,0,0,0,0,0,0,0,0,0,0,0,0,0,0,0,0,0,0,0,0,0,0,0,0,
0,0,0,0,0,0,0,0,0,0,0,0,0,0,0,0,0,0,0,0,0,0,0,0,0,0,0,0,0,0,0,0,0,0,0,0,0,0,0,0,0,0,0,0,0,0,0,0,0,0,0,0,0,0,0,0,0,0,0,0,0,0,0,0,0,0,0,0,0,0,
0,0,0,0,0,0,0,0,0,0,0,0,0,0,0,0,0,0,0,0,0,0,0,0,0,0,0,0,0,0,0,0,0,0,0,0,0,0,0,0,0,0,0,0,0,0,0,0,0,0,0,0,0,0,0,0,0,0,0,0,0,0,0,0,0,0,0,0,0,0,
0,0,0,0,0,0,0,0,2906,0,0,2910,0,0,0,0,0,0,0,0,0,0,0,0,0,0,0,0,0,0,0,0,0,0,0,0,0,0,0,0,0,0,0,0,0,0,0,0,0,0,0,0,0,0,0,0,0,0,0,0,0,0,0,0,0,0,0,0,0,0,
0,0,0,0,0,0,0,0,0,0,0,0,0,0,0,0,0,0,0,0,0,0,0,0,0,0,0,0,0,0,0,0,0,0,0,0,0,0,0,0,0,0,0,0,0,0,0,0,0,0,0,0,0,0,0,0,0,0,0,0,0,0,0,0,0,0,0,0,0,0,
0,0,0,0,0,0,0,0,0,0,0,0,0,0,0,0,0,0,0,0,0,0,0,0,0,0,0,0,0,0,0,0,0,0,0,0,0,0,0,0,0,0,0,0,0,0,0,0,0,0,0,0,0,0,0,0,0,0,0,0,0,0,0,0,0,0,0,0,0,0,
0,0,0,0,0,0,0,0,0,0,0,0,0,0,0,0,0,0,0,0,0,0,0,0,0,0,0,0,0,0,0,0,0,0,0,0,0,0,0,0,0,0,0,0,0,0,0,0,0,0,0,0,0,0,0,0,0,0,0,0,0,0,0,0,0,0,0,0,0,0,
0,0,0,0,0,0,0,0,0,0,0,0,0,0,0,0,0,0,0,0,0,0,0,0,0,0,0,0,0,0,0,0,0,0,0,0,0,0,0,0,0,0,0,0,0,0,0,0,0,0,0,0,0,0,0,0,0,0,0,0,0,0,0,0,0,0,0,0,0,0,
0,0,0,0,0,0,0,0,0,0,0,0,0,0,0,0,0,0,0,0,0,0,0,0,0,0,0,0,0,0,0,0,0,0,0,0,0,0,0,0,0,0,0,0,0,0,0,0,0,0,0,0,0,0,0,0,0,0,0,0,0,0,0,0,0,0,0,0,0,0,
0,0,0,0,0,0,0,0,0,0,0,0,0,0,0,0,0,0,0,0,0,0,0,0,0,0,0,0,0,0,0,0,0,0,0,0,0,0,0,0,0,0,0,0,0,0,0,0,0,0,0,0,0,0,0,0,0,0,0,0,0,0,0,0,0,0,0,0,0,0,
0,0,0,0,0,0,0,0,0,0,0,0,0,0,0,0,0,0,0,0,0,0,0,0,0,0,0,0,0,0,0,0,0,0,0,0,0,0,0,0,0,0,0,0,0,0,0,0,0,0,0,0,0,0,0,0,0,0,0,0,0,0,0,0,0,0,0,0,0,0,
0,0,0,0,0,0,0,0,0,0,0,0,0,0,0,0,0,0,0,0,0,0,0,0,0,0,0,0,0,0,0,0,0,0,0,0,0,0,0,0,0,0,0,0,0,0,0,0,0,0,0,0,0,0,0,0,0,0,0,0,0,0,0,0,0,0,0,0,0,0,
0,0,0,0,0,0,0,0,0,0,0,0,0,0,0,0,0,0,0,0,0,0,0,0,0,0,0,0,0,0,0,0,0,0,0,0,0,0,0,0,0,0,0,0,0,0,0,0,0,0,0,0,0,0,0,0,0,0,0,0,0,0,0,0,0,0,0,0,0,0,
0,0,0,0,0,0,0,0,0,0,0,0,0,0,0,0,0,0,0,0,0,0,0,0,0,0,0,0,0,0,0,0,0,0,0,0,0,0,0,0,0,0,0,0,0,0,0,0,0,0,0,0,0,0,0,0,0,0,0,0,0,0,0,0,0,0,0,0,0,0
</data>
 </layer>
 <objectgroup id="21" name="collisioni">
  <object id="36" x="329" y="682" width="78" height="78"/>
  <object id="37" x="328" y="552" width="82" height="79"/>
  <object id="38" x="415" y="579" width="120" height="30"/>
  <object id="39" x="585.667" y="574.333" width="162" height="36"/>
  <object id="40" x="588" y="457" width="12" height="115"/>
  <object id="41" x="521" y="458" width="10" height="112"/>
  <object id="42" x="461" y="458" width="54" height="14"/>
  <object id="43" x="454" y="366" width="7" height="95"/>
  <object id="44" x="623" y="368" width="3" height="100"/>
  <object id="45" x="455" y="351" width="173" height="10"/>
  <object id="46" x="392" y="357" width="10" height="10"/>
  <object id="47" x="363" y="455" width="10" height="10"/>
  <object id="48" x="778" y="362" width="10" height="10"/>
  <object id="49" x="938" y="394" width="10" height="10"/>
  <object id="50" x="813" y="522" width="10" height="10"/>
  <object id="51" x="939" y="653" width="10" height="10"/>
  <object id="52" x="1005" y="909" width="10" height="10"/>
  <object id="53" x="688" y="1067" width="10" height="10"/>
  <object id="54" x="491" y="1188" width="10" height="10"/>
  <object id="55" x="748" y="1163" width="10" height="10"/>
  <object id="56" x="878" y="1160" width="10" height="10"/>
  <object id="57" x="1389" y="740" width="10" height="10"/>
  <object id="58" x="1256" y="401" width="10" height="10"/>
  <object id="59" x="1166" y="689" width="10" height="10"/>
  <object id="60" x="688" y="404" width="61" height="68"/>
  <object id="62" x="687" y="499" width="64" height="64"/>
  <object id="63" x="781" y="438" width="64" height="64"/>
  <object id="64" x="881" y="473" width="64" height="64"/>
  <object id="65" x="885" y="555" width="64" height="64"/>
  <object id="66" x="1106" y="389" width="64" height="64"/>
  <object id="67" x="1075" y="478" width="64" height="64"/>
  <object id="68" x="1168" y="537" width="64" height="64"/>
  <object id="69" x="1076" y="563" width="64" height="64"/>
  <object id="70" x="1071" y="690" width="64" height="64"/>
  <object id="71" x="1159" y="750" width="64" height="64"/>
  <object id="72" x="1391" y="788" width="64" height="64"/>
  <object id="73" x="1389" y="563" width="64" height="64"/>
  <object id="74" x="1397" y="362" width="64" height="64"/>
  <object id="75" x="854.333" y="893" width="50.6667" height="54.6667"/>
  <object id="76" x="817" y="1032" width="64" height="64"/>
  <object id="77" x="668.667" y="990.667" width="47.3333" height="57.3333"/>
  <object id="78" x="533" y="1090" width="64" height="64"/>
  <object id="79" x="623" y="1160" width="64" height="64"/>
  <object id="80" x="371" y="1142" width="64" height="64"/>
  <object id="81" x="366" y="1042" width="64" height="64"/>
  <object id="82" x="355" y="936" height="335"/>
  <object id="83" x="363.333" y="934.667" width="376" height="4"/>
  <object id="84" x="743" y="601" height="335"/>
  <object id="85" x="523" y="948" width="64" height="64"/>
  <object id="86" x="521" y="779" width="64" height="64"/>
  <object id="87" x="430" y="757" width="64" height="64"/>
  <object id="88" x="262" y="830" width="220" height="6"/>
  <object id="89" x="476" y="835" width="5" height="22"/>
  <object id="90" x="483.333" y="846.333" width="146" height="14"/>
  <object id="91" x="625" y="727" width="8" height="123"/>
  <object id="92" x="258" y="717" width="367" height="11"/>
  <object id="101" x="355.333" y="934.667" width="14" height="248"/>
  <object id="102" x="744.667" y="606" width="6" height="327"/>
  <object id="103" x="941" y="1125" width="3" height="39"/>
  <object id="104" x="1065" y="1086" width="15" height="54"/>
  <object id="105" x="1067" y="1188" width="9" height="31"/>
  <object id="106" x="869" y="1212" width="13" height="50"/>
  <object id="108" x="814" y="768" width="66" height="76"/>
  <object id="109" x="794" y="626" width="41" height="75"/>
  <object id="110" x="1477" y="9" width="235" height="1218"/>
  <object id="111" x="1729" y="16.6667" width="111.667" height="1008.33"/>
  <object id="112" x="1986" y="9" width="241" height="1502"/>
  <object id="113" x="1805" y="1172" width="180" height="356"/>
  <object id="115" x="13" y="1356" width="1841" height="175"/>
  <object id="116" x="239" y="1206" width="137" height="130"/>
  <object id="117" x="-1" y="12" width="248.667" height="1326"/>
  <object id="118" x="242" y="4" width="1319" height="175"/>
  <object id="123" x="1848.83" y="135.168" width="64.667" height="891.33"/>
 </objectgroup>
 <objectgroup color="#ff0000" id="6" name="eventi">
  <object id="2" name="cartello" type="cartello" x="292.96" y="838.119" width="18" height="14.3333">
   <properties>
    <property name="testo" value="Boschi del Tuscolo — Trekkinghino?"/>
    <property name="type" value="cartello"/>
   </properties>
  </object>
  <object id="3" name="cartello" type="cartello" x="895.96" y="1212.12" width="32" height="32">
   <properties>
    <property name="testo" value="← Tuscolo Alto"/>
    <property name="type" value="cartello"/>
   </properties>
  </object>
  <object id="4" name="trainer" type="trainer" x="478.96" y="385.119" width="32" height="32">
   <properties>
    <property name="direzione" value="est"/>
    <property name="id" value="all-bosco-1"/>
    <property name="sprite" value="BUGCATCHER"/>
    <property name="type" value="trainer"/>
    <property name="vista" type="int" value="7"/>
   </properties>
  </object>
  <object id="5" name="trainer" type="trainer" x="1213.96" y="699.119" width="32" height="32">
   <properties>
    <property name="direzione" value="est"/>
    <property name="id" value="all-bosco-2"/>
    <property name="sprite" value="LASS"/>
    <property name="type" value="trainer"/>
    <property name="vista" type="int" value="6"/>
   </properties>
  </object>
  <object id="6" name="npc" type="npc" x="480.96" y="1062.12" width="32" height="32">
   <properties>
    <property name="direzione" value="sud"/>
    <property name="id" value="tusc_ing_npc1"/>
    <property name="sprite" value="NPC_27"/>
    <property name="type" value="npc"/>
   </properties>
  </object>
  <object id="7" name="npc" type="npc" x="1404.96" y="318.119" width="32" height="32">
   <properties>
    <property name="direzione" value="nord"/>
    <property name="id" value="tusc_ing_npc2"/>
    <property name="movimento" value="random"/>
    <property name="raggio" type="int" value="3"/>
    <property name="sprite" value="NPC_28"/>
    <property name="type" value="npc"/>
   </properties>
  </object>
  <object id="8" name="npc" type="npc" x="860.96" y="705.119" width="32" height="32">
   <properties>
    <property name="direzione" value="est"/>
    <property name="id" value="tusc_ing_npc3"/>
    <property name="sprite" value="NPC_29"/>
    <property name="type" value="npc"/>
   </properties>
  </object>
  <object id="9" name="npc" type="npc" x="1385.96" y="1056.12" width="32" height="32">
   <properties>
    <property name="direzione" value="ovest"/>
    <property name="id" value="tusc_ing_npc4"/>
    <property name="sprite" value="NPC_30"/>
    <property name="type" value="npc"/>
   </properties>
  </object>
  <object id="10" name="tusc_ing_repel" type="oggetto" x="573.96" y="356.119" width="32" height="32">
   <properties>
    <property name="contenuto" value="repellente"/>
    <property name="id" value="tusc_ing_repel"/>
    <property name="quantita" type="int" value="1"/>
    <property name="type" value="oggetto"/>
   </properties>
  </object>
  <object id="11" name="warp" type="warp" x="262.793" y="1179.29" width="32" height="32">
   <properties>
    <property name="destinazione" value="frascati_nord"/>
    <property name="spawn_id" value="da_tuscolo_ingresso"/>
    <property name="type" value="warp"/>
   </properties>
  </object>
  <object id="12" name="warp" type="warp" x="294.793" y="1179.29" width="32" height="32">
   <properties>
    <property name="destinazione" value="frascati_nord"/>
    <property name="spawn_id" value="da_tuscolo_ingresso"/>
    <property name="type" value="warp"/>
   </properties>
  </object>
  <object id="13" name="warp" type="warp" x="326.793" y="1179.29" width="32" height="32">
   <properties>
    <property name="destinazione" value="frascati_nord"/>
    <property name="spawn_id" value="da_tuscolo_ingresso"/>
    <property name="type" value="warp"/>
   </properties>
  </object>
  <object id="21" name="spawn" type="spawn" x="290.126" y="1141.62" width="32" height="32">
   <properties>
    <property name="id" value="da_frascati_nord"/>
    <property name="type" value="spawn"/>
   </properties>
  </object>
  <object id="34" name="trainer" type="trainer" x="897" y="1023" width="32" height="32">
   <properties>
    <property name="direzione" value="est"/>
    <property name="id" value="all-bosco-3"/>
    <property name="sprite" value="LASS"/>
    <property name="type" value="trainer"/>
    <property name="vista" type="int" value="6"/>
   </properties>
  </object>
  <object id="94" name="erba alta percorso 1" x="257.313" y="258.467" width="1212.37" height="30.065">
   <properties>
    <property name="id" value="incontri tuscolo"/>
    <property name="type" value="erba_alta"/>
   </properties>
  </object>
  <object id="95" name="erba alta percorso 1" x="964.815" y="445.967" width="91.37" height="158.065">
   <properties>
    <property name="id" value="incontri tuscolo"/>
    <property name="type" value="erba_alta"/>
   </properties>
  </object>
  <object id="96" name="erba alta percorso 1" x="1091.32" y="1063.97" width="269.37" height="175.065">
   <properties>
    <property name="id" value="incontri tuscolo"/>
    <property name="type" value="erba_alta"/>
   </properties>
  </object>
  <object id="97" name="erba alta percorso 1" x="898.315" y="767.967" width="53.37" height="103.065">
   <properties>
    <property name="id" value="incontri tuscolo"/>
    <property name="type" value="erba_alta"/>
   </properties>
  </object>
  <object id="98" name="erba alta percorso 1" x="959.315" y="838.467" width="146.37" height="56.065">
   <properties>
    <property name="id" value="incontri tuscolo"/>
    <property name="type" value="erba_alta"/>
   </properties>
  </object>
  <object id="99" name="erba alta percorso 1" x="1093.82" y="813.967" width="26.37" height="56.065">
   <properties>
    <property name="id" value="incontri tuscolo"/>
    <property name="type" value="erba_alta"/>
   </properties>
  </object>
  <object id="100" name="erba alta percorso 1" x="940.815" y="772.967" width="146.37" height="22.065">
   <properties>
    <property name="id" value="incontri tuscolo"/>
    <property name="type" value="erba_alta"/>
   </properties>
  </object>
 </objectgroup>
</map>
