<?xml version="1.0" encoding="UTF-8"?>
<map version="1.10" tiledversion="1.12.2" orientation="orthogonal" renderorder="right-down" width="64" height="60" tilewidth="32" tileheight="32" infinite="0" backgroundcolor="#000000" nextlayerid="21" nextobjectid="128">
 <tileset firstgid="1" source="../../outside.tsx"/>
 <tileset firstgid="4017" source="../../Emerald_Outside.tsx"/>
 <layer id="1" name="ground" width="64" height="60">
  <data encoding="csv">
4,4,4,4,4,4,4,4,4,4,4,4,4,4,4,4,4,4,4,4,4,4,4,4,4,4,4,4,4,4,4,4,4,4,4,4,4,4,4,4,4,4,4,4,4,4,4,4,4,4,4,4,4,4,4,4,4,4,4,4,4,4,4,4,
4,4,4,4,4,4,4,4,4,4,4,4,4,4,4,4,4,4,4,4,4,4,4,4,4,4,4,4,4,4,4,4,4,4,4,4,4,4,4,4,4,4,4,4,4,4,4,4,4,4,4,4,4,4,4,4,4,4,4,4,4,4,4,4,
4,4,4,4,4,4,4,4,4,4,4,4,4,4,4,4,4,4,4,4,4,4,4,4,4,4,4,4,4,4,4,4,4,4,4,4,4,4,4,4,4,4,4,4,4,4,4,4,4,4,4,4,4,4,4,4,4,4,4,4,4,4,4,4,
4,4,4,4,4,4,4,4,4,4,4,4,4,4,4,4,4,4,4,4,4,4,4,4,4,4,4,4,4,4,4,4,4,4,4,4,4,4,4,4,4,4,4,4,4,4,4,4,4,4,4,4,4,4,4,4,4,4,4,4,4,4,4,4,
4,4,4,4,4,4,4,4,4,4,4,4,4,4,4,4,4,4,4,4,4,4,4,4,4,4,4,4,4,4,4,4,4,4,4,4,4,4,4,4,4,4,4,4,4,4,4,4,4,4,4,4,4,4,4,4,4,4,4,4,4,4,4,4,
4,4,4,4,4,4,4,4,4,4,4,4,4,4,4,4,4,4,4,4,4,4,4,4,4,4,4,4,4,4,4,4,4,4,4,4,4,4,4,4,4,4,4,4,4,4,4,4,4,4,4,4,4,4,4,4,4,4,4,4,4,4,4,4,
4,4,4,4,4,4,4,4,4,4,4,4,4,4,4,4,4,4,4,4,4,4,4,4,4,4,4,4,4,4,4,4,4,4,4,4,4,4,4,4,4,4,4,4,4,4,4,4,4,4,4,4,4,4,4,4,4,4,4,4,4,4,4,4,
4,4,4,4,4,4,4,4,4,4,4,4,4,4,4,4,4,4,4,4,4,4,4,4,4,4,4,4,4,4,4,4,4,4,4,4,4,4,4,4,4,4,4,4,4,4,4,4,4,4,4,4,4,4,4,4,4,4,4,4,4,4,4,4,
4,4,4,4,4,4,4,4,4,4,4,4,4,4,4,4,4,4,4,4,4,4,4,4,4,4,4,4,4,4,4,4,4,4,4,4,4,4,4,4,4,4,4,4,4,4,4,4,4,4,4,4,4,4,4,4,4,4,4,4,4,4,4,4,
4,4,4,4,4,4,4,4,4,4,4,4,4,4,4,4,4,4,4,4,4,4,4,4,4,4,4,4,4,4,4,4,4,4,4,4,4,4,4,4,4,4,4,4,4,4,4,4,4,4,4,4,4,4,4,4,4,4,4,4,4,4,4,4,
4,4,4,4,4,4,4,4,7,7,7,7,7,7,7,7,7,7,7,7,7,7,7,7,7,7,162,163,163,163,163,164,7,7,7,7,7,7,7,7,7,7,7,7,7,7,7,7,7,7,7,7,4,4,4,4,4,4,4,4,4,4,4,4,
4,4,4,4,4,4,4,4,7,7,7,7,7,7,7,7,7,7,7,7,7,7,7,7,7,7,162,163,163,163,163,164,7,7,7,7,7,7,7,7,7,7,7,7,7,7,7,7,7,7,7,7,4,4,4,4,4,4,4,4,4,4,4,4,
4,4,4,4,4,4,4,4,7,7,7,7,7,7,7,7,7,7,7,7,7,7,7,7,7,7,162,163,163,163,163,164,7,7,7,7,7,7,7,7,7,7,7,7,7,7,7,7,7,7,7,7,4,4,4,4,4,4,4,4,4,4,4,4,
4,4,4,4,4,4,4,4,7,7,7,7,7,7,7,7,7,7,7,7,7,7,7,7,7,7,162,163,163,163,163,164,7,7,7,7,7,7,7,7,7,7,7,7,7,7,7,7,7,7,7,7,4,4,4,4,4,4,4,4,4,4,4,4,
4,4,4,4,4,4,4,4,7,7,7,7,7,7,7,7,7,7,7,7,7,7,7,7,7,7,162,163,163,163,163,164,7,7,7,7,7,7,7,7,7,7,7,7,7,7,7,7,7,7,7,7,4,4,4,4,4,4,4,4,4,4,4,4,
4,4,4,4,4,4,4,4,7,7,7,7,7,7,7,7,7,7,7,7,7,7,7,7,7,7,162,163,163,163,163,164,7,7,7,7,7,7,7,7,7,7,7,7,7,7,7,7,7,7,7,7,4,4,4,4,4,4,4,4,4,4,4,4,
4,4,4,4,4,4,4,4,7,7,7,7,7,7,7,7,7,7,7,7,7,7,7,7,7,7,162,163,163,163,163,164,7,7,7,7,7,7,7,7,7,7,7,7,7,7,7,7,7,7,7,7,4,4,4,4,4,4,4,4,4,4,4,4,
4,4,4,4,4,4,4,4,7,7,7,7,7,7,7,7,7,7,7,7,7,7,7,7,7,7,162,163,163,163,163,164,7,7,7,7,7,7,7,7,7,7,7,7,7,7,7,7,7,7,7,7,4,4,4,4,4,4,4,4,4,4,4,4,
4,4,4,4,4,4,4,4,7,7,7,7,7,7,7,7,7,7,7,107,107,107,107,107,107,107,162,163,163,163,163,164,107,107,107,107,107,107,107,107,107,107,7,7,7,7,7,7,7,7,7,7,4,4,4,4,4,4,4,4,4,4,4,4,
4,4,4,4,4,4,4,4,7,7,7,7,7,7,7,7,7,7,107,107,107,107,107,107,107,107,162,163,163,163,163,164,107,107,107,107,107,107,107,107,107,107,7,7,7,7,7,7,7,7,7,7,4,4,4,4,4,4,4,4,4,4,4,4,
4,4,4,4,4,4,4,4,7,7,7,7,7,7,7,7,7,7,107,107,163,163,163,163,163,163,163,163,163,163,163,163,163,163,163,163,163,163,163,163,163,107,7,7,7,7,7,7,7,7,7,7,4,4,4,4,4,4,4,4,4,4,4,4,
4,4,4,4,4,4,4,4,7,7,7,7,7,7,7,7,7,7,107,107,163,163,163,163,163,163,162,163,163,163,163,164,163,163,163,163,163,163,163,163,163,7,7,7,7,7,7,7,7,7,7,7,4,4,4,4,4,4,4,4,4,4,4,4,
4,4,4,4,4,4,4,4,7,7,7,7,7,7,7,7,7,7,107,107,163,163,163,163,163,163,162,163,163,163,163,164,163,163,163,163,163,163,163,163,163,7,7,7,7,7,7,7,7,7,7,7,4,4,4,4,4,4,4,4,4,4,4,4,
4,4,4,4,4,4,4,4,7,7,7,7,7,7,7,7,7,7,107,107,163,163,163,163,163,163,162,163,163,163,163,164,163,163,163,163,163,163,163,163,163,7,7,7,7,7,7,7,7,7,7,7,4,4,4,4,4,4,4,4,4,4,4,4,
4,4,4,4,4,4,4,4,7,7,7,7,7,7,7,7,7,7,107,107,163,163,163,163,163,163,162,163,163,163,163,164,163,163,163,163,163,163,163,163,163,7,7,7,7,7,7,7,7,7,7,7,4,4,4,4,4,4,4,4,4,4,4,4,
4,4,4,4,4,4,4,4,7,7,7,7,7,7,7,7,7,7,107,107,163,163,163,163,163,163,162,163,163,163,163,164,163,163,163,163,163,163,163,163,163,7,7,7,7,7,7,7,7,7,7,7,4,4,4,4,4,4,4,4,4,4,4,4,
4,4,4,4,4,4,4,4,7,7,7,7,7,7,7,7,7,7,107,107,163,163,163,163,163,163,162,163,163,163,163,164,163,163,163,163,163,163,163,163,163,7,7,7,7,7,7,7,7,7,7,7,4,4,4,4,4,4,4,4,4,4,4,4,
4,4,4,4,4,4,4,4,7,7,7,7,7,7,7,7,7,7,107,107,163,155,155,155,155,155,155,155,155,155,155,155,155,155,155,155,155,155,155,155,163,7,7,7,7,7,7,7,7,7,7,7,4,4,4,4,4,4,4,4,4,4,4,4,
4,4,4,4,4,4,4,4,7,7,7,7,7,7,7,7,7,7,107,107,163,163,163,163,163,163,163,163,163,163,163,163,163,163,163,163,163,163,163,163,163,7,7,7,7,7,7,7,7,7,7,7,4,4,4,4,4,4,4,4,4,4,4,4,
4,4,4,4,4,4,4,4,7,7,7,7,7,7,7,7,7,7,107,107,163,163,163,163,163,163,163,163,163,163,163,163,163,163,163,163,163,163,163,163,163,7,7,7,7,7,7,7,7,7,7,7,4,4,4,4,4,4,4,4,4,4,4,4,
4,4,4,4,4,4,4,4,7,7,7,7,7,7,7,7,7,7,107,107,163,163,163,163,163,163,163,163,163,163,163,163,163,163,163,163,163,163,163,163,163,7,7,7,7,7,7,7,7,7,7,7,4,4,4,4,4,4,4,4,4,4,4,4,
4,4,4,4,4,4,4,4,7,7,7,7,7,7,7,7,7,7,107,107,163,171,171,171,171,171,171,171,171,171,171,171,171,171,171,171,171,171,171,171,163,7,7,7,7,7,7,7,7,7,7,7,4,4,4,4,4,4,4,4,4,4,4,4,
4,4,4,4,4,4,4,4,7,7,7,7,7,7,7,7,7,7,107,107,163,163,163,163,163,163,162,163,163,163,163,164,163,163,163,163,163,163,163,163,163,7,7,7,7,7,7,7,7,7,7,7,4,4,4,4,4,4,4,4,4,4,4,4,
4,4,4,4,4,4,4,4,7,7,7,7,7,7,7,7,7,7,107,107,163,163,163,163,163,163,162,163,163,163,163,164,163,163,163,163,163,163,163,163,163,7,7,7,7,7,7,7,7,7,7,7,4,4,4,4,4,4,4,4,4,4,4,4,
4,4,4,4,4,4,4,4,7,7,7,7,7,7,7,7,7,7,107,107,163,163,163,163,163,163,162,163,163,163,163,164,163,163,163,163,163,163,163,163,163,7,7,7,7,7,7,7,7,7,7,7,4,4,4,4,4,4,4,4,4,4,4,4,
4,4,4,4,4,4,4,4,7,7,7,7,7,7,7,7,7,7,107,107,163,163,163,163,163,163,162,163,163,163,163,164,163,163,163,163,163,163,163,163,163,7,7,7,7,7,7,7,7,7,7,7,4,4,4,4,4,4,4,4,4,4,4,4,
4,4,4,4,4,4,4,4,7,7,7,7,7,7,7,7,7,7,107,107,163,163,163,163,163,163,162,163,163,163,163,164,163,163,163,163,163,163,163,163,163,7,7,7,7,7,7,7,7,7,7,7,4,4,4,4,4,4,4,4,4,4,4,4,
4,4,4,4,4,4,4,4,7,7,7,7,7,7,7,7,7,7,107,107,163,163,163,163,163,163,162,163,163,163,163,164,163,163,163,163,163,163,163,163,163,7,7,7,7,7,7,7,7,7,7,7,4,4,4,4,4,4,4,4,4,4,4,4,
4,4,4,4,4,4,4,4,7,7,7,7,7,7,7,7,7,7,107,107,163,163,163,163,163,163,162,163,163,163,163,164,163,163,163,163,163,163,163,163,163,7,7,7,7,7,7,7,7,7,7,7,4,4,4,4,4,4,4,4,4,4,4,4,
4,4,4,4,4,4,4,4,7,7,7,7,7,7,7,7,7,7,107,107,163,163,163,163,163,163,162,163,163,163,163,164,163,163,163,163,163,163,163,163,163,7,7,7,7,7,7,7,7,7,7,7,4,4,4,4,4,4,4,4,4,4,4,4,
4,4,4,4,4,4,4,4,7,7,7,7,7,7,7,7,7,7,107,107,163,163,163,163,163,163,163,163,163,163,163,163,163,163,163,163,163,163,163,163,163,7,7,7,7,7,7,7,7,7,7,7,4,4,4,4,4,4,4,4,4,4,4,4,
4,4,4,4,4,4,4,4,7,7,7,7,7,7,7,7,7,7,107,107,7,7,7,7,7,7,162,163,163,163,163,164,7,7,7,7,7,7,7,7,7,107,7,7,7,7,7,7,7,7,7,7,4,4,4,4,4,4,4,4,4,4,4,4,
4,4,4,4,4,4,4,4,7,7,7,7,7,7,7,7,7,7,7,7,7,7,7,7,7,7,162,163,163,163,163,164,7,7,7,7,7,7,7,7,7,107,7,7,7,7,7,7,7,7,7,7,4,4,4,4,4,4,4,4,4,4,4,4,
4,4,4,4,4,4,4,4,7,7,7,7,7,7,7,7,7,7,7,7,7,7,7,7,7,7,162,163,163,163,163,164,7,7,7,7,7,7,7,7,7,7,7,7,7,7,7,7,7,7,7,7,4,4,4,4,4,4,4,4,4,4,4,4,
4,4,4,4,4,4,4,4,7,7,7,7,7,7,7,7,7,7,7,7,7,7,7,7,7,7,162,163,163,163,163,164,7,7,7,7,7,7,7,7,7,7,7,7,7,7,7,7,7,7,7,7,4,4,4,4,4,4,4,4,4,4,4,4,
4,4,4,4,4,4,4,4,7,7,7,7,7,7,7,7,7,7,7,7,7,7,7,7,7,7,162,163,163,163,163,164,7,7,7,7,7,7,7,7,7,7,7,7,7,7,7,7,7,7,7,7,4,4,4,4,4,4,4,4,4,4,4,4,
4,4,4,4,4,4,4,4,7,7,7,7,7,7,7,7,7,7,7,7,7,7,7,7,7,7,162,163,163,163,163,164,7,7,7,7,7,7,7,7,7,7,7,7,7,7,7,7,7,7,7,7,4,4,4,4,4,4,4,4,4,4,4,4,
4,4,4,4,4,4,4,4,7,7,7,7,7,7,7,7,7,7,7,7,7,7,7,7,7,7,162,163,163,163,163,164,7,7,7,7,7,7,7,7,7,7,7,7,7,7,7,7,7,7,7,7,4,4,4,4,4,4,4,4,4,4,4,4,
4,4,4,4,4,4,4,4,7,7,7,7,7,7,7,7,7,7,7,7,7,7,7,7,7,7,162,163,163,163,163,164,7,7,7,7,7,7,7,7,7,7,7,7,7,7,7,7,7,7,7,7,4,4,4,4,4,4,4,4,4,4,4,4,
4,4,4,4,4,4,4,4,7,7,7,7,7,7,7,7,7,7,7,7,7,7,7,7,7,7,162,163,163,163,163,164,7,7,7,7,7,7,7,7,7,7,7,7,7,7,7,7,7,7,7,7,4,4,4,4,4,4,4,4,4,4,4,4,
4,4,4,4,4,4,4,4,4,4,4,4,4,4,4,4,4,4,4,4,4,4,4,4,4,4,4,4,4,4,4,4,4,4,4,4,4,4,4,4,4,4,4,4,4,4,4,4,4,4,4,4,4,4,4,4,4,4,4,4,4,4,4,4,
4,4,4,4,4,4,4,4,4,4,4,4,4,4,4,4,4,4,4,4,4,4,4,4,4,4,4,4,4,4,4,4,4,4,4,4,4,4,4,4,4,4,4,4,4,4,4,4,4,4,4,4,4,4,4,4,4,4,4,4,4,4,4,4,
4,4,4,4,4,4,4,4,4,4,4,4,4,4,4,4,4,4,4,4,4,4,4,4,4,4,4,4,4,4,4,4,4,4,4,4,4,4,4,4,4,4,4,4,4,4,4,4,4,4,4,4,4,4,4,4,4,4,4,4,4,4,4,4,
4,4,4,4,4,4,4,4,4,4,4,4,4,4,4,4,4,4,4,4,4,4,4,4,4,4,4,4,4,4,4,4,4,4,4,4,4,4,4,4,4,4,4,4,4,4,4,4,4,4,4,4,4,4,4,4,4,4,4,4,4,4,4,4,
4,4,4,4,4,4,4,4,4,4,4,4,4,4,4,4,4,4,4,4,4,4,4,4,4,4,4,4,4,4,4,4,4,4,4,4,4,4,4,4,4,4,4,4,4,4,4,4,4,4,4,4,4,4,4,4,4,4,4,4,4,4,4,4,
4,4,4,4,4,4,4,4,4,4,4,4,4,4,4,4,4,4,4,4,4,4,4,4,4,4,4,4,4,4,4,4,4,4,4,4,4,4,4,4,4,4,4,4,4,4,4,4,4,4,4,4,4,4,4,4,4,4,4,4,4,4,4,4,
4,4,4,4,4,4,4,4,4,4,4,4,4,4,4,4,4,4,4,4,4,4,4,4,4,4,4,4,4,4,4,4,4,4,4,4,4,4,4,4,4,4,4,4,4,4,4,4,4,4,4,4,4,4,4,4,4,4,4,4,4,4,4,4,
4,4,4,4,4,4,4,4,4,4,4,4,4,4,4,4,4,4,4,4,4,4,4,4,4,4,4,4,4,4,4,4,4,4,4,4,4,4,4,4,4,4,4,4,4,4,4,4,4,4,4,4,4,4,4,4,4,4,4,4,4,4,4,4,
4,4,4,4,4,4,4,4,4,4,4,4,4,4,4,4,4,4,4,4,4,4,4,4,4,4,4,4,4,4,4,4,4,4,4,4,4,4,4,4,4,4,4,4,4,4,4,4,4,4,4,4,4,4,4,4,4,4,4,4,4,4,4,4,
4,4,4,4,4,4,4,4,4,4,4,4,4,4,4,4,4,4,4,4,4,4,4,4,4,4,4,4,4,4,4,4,4,4,4,4,4,4,4,4,4,4,4,4,4,4,4,4,4,4,4,4,4,4,4,4,4,4,4,4,4,4,4,4
</data>
 </layer>
 <layer id="2" name="deco_sotto" width="64" height="60">
  <data encoding="csv">
0,0,0,0,0,0,0,0,0,0,0,0,0,0,0,0,0,0,0,0,0,0,0,0,0,0,0,0,0,0,0,0,0,0,0,0,0,0,0,0,0,0,0,0,0,0,0,0,0,0,0,0,0,0,0,0,0,0,0,0,0,0,0,0,
0,0,0,0,0,0,0,0,0,0,0,0,0,0,0,0,0,0,0,0,0,0,0,0,0,0,0,0,0,0,0,0,0,0,0,0,0,0,0,0,0,0,0,0,0,0,0,0,0,0,0,0,0,0,0,0,0,0,0,0,0,0,0,0,
0,0,0,0,0,0,0,0,0,0,0,0,0,0,0,0,0,0,0,0,0,0,0,0,0,0,0,0,0,0,0,0,0,0,0,0,0,0,0,0,0,0,0,0,0,0,0,0,0,0,0,0,0,0,0,0,0,0,0,0,0,0,0,0,
0,0,0,0,0,0,0,0,0,0,0,0,0,0,0,0,0,0,0,0,0,0,0,0,0,0,0,0,0,0,0,0,0,0,0,0,0,0,0,0,0,0,0,0,0,0,0,0,0,0,0,0,0,0,0,0,0,0,0,0,0,0,0,0,
0,0,0,0,0,0,0,0,0,0,0,0,0,0,0,0,0,0,0,0,0,0,0,0,0,0,0,0,0,0,0,0,0,0,0,0,0,0,0,0,0,0,0,0,0,0,0,0,0,0,0,0,0,0,0,0,0,0,0,0,0,0,0,0,
0,0,0,0,0,0,0,0,0,0,0,0,0,0,0,0,0,0,0,0,0,0,0,0,0,0,0,0,0,0,0,0,0,0,0,0,0,0,0,0,0,0,0,0,0,0,0,0,0,0,0,0,0,0,0,0,0,0,0,0,0,0,0,0,
0,0,0,0,0,0,0,0,0,0,0,0,0,0,0,0,0,0,0,0,0,0,0,0,0,0,0,0,0,0,0,0,0,0,0,0,0,0,0,0,0,0,0,0,0,0,0,0,0,0,0,0,0,0,0,0,0,0,0,0,0,0,0,0,
0,0,0,0,0,0,0,0,0,0,0,0,0,0,0,0,0,0,0,0,0,0,0,0,0,0,0,0,0,0,0,0,0,0,0,0,0,0,0,0,0,0,0,0,0,0,0,0,0,0,0,0,0,0,0,0,0,0,0,0,0,0,0,0,
0,0,0,0,0,0,0,0,0,0,0,0,0,0,0,0,0,0,0,0,0,0,0,0,0,0,0,0,0,0,0,0,0,0,0,0,0,0,0,0,0,0,0,0,0,0,0,0,0,0,0,0,0,0,0,0,0,0,0,0,0,0,0,0,
0,0,0,0,0,0,0,0,0,0,0,0,0,0,0,0,0,0,0,0,0,0,0,0,0,0,0,0,0,0,0,0,0,0,0,0,0,0,0,0,0,0,0,0,0,0,0,0,0,0,0,0,0,0,0,0,0,0,0,0,0,0,0,0,
0,0,0,0,0,0,0,0,0,0,0,0,0,0,0,0,0,0,0,0,0,0,0,0,0,0,0,0,0,0,0,0,0,0,0,0,0,0,0,0,0,0,0,0,0,0,0,0,0,0,0,0,0,0,0,0,0,0,0,0,0,0,0,0,
0,0,0,0,0,0,0,0,0,0,0,0,0,0,0,0,0,0,0,0,0,0,0,0,0,0,0,0,0,0,0,0,0,0,0,0,0,0,0,0,0,0,0,0,0,0,0,0,0,0,0,0,0,0,0,0,0,0,0,0,0,0,0,0,
0,0,0,0,0,0,0,0,0,0,0,0,0,0,0,0,0,0,0,0,0,0,0,0,0,0,0,0,0,0,0,0,0,0,0,0,0,0,0,0,0,0,0,0,0,0,0,0,0,0,0,0,0,0,0,0,0,0,0,0,0,0,0,0,
0,0,0,0,0,0,0,0,0,0,0,0,0,0,0,0,0,0,3,0,0,0,0,0,0,3,0,0,0,0,0,0,0,0,0,0,0,0,0,0,0,0,0,0,0,0,0,0,0,0,0,0,0,0,0,0,0,0,0,0,0,0,0,0,
0,0,0,0,0,0,0,0,0,0,0,0,0,0,0,0,0,0,3,0,0,0,0,0,0,3,0,0,0,0,0,0,0,0,0,0,0,0,0,0,0,0,0,0,0,0,0,0,0,0,3,0,0,0,0,0,0,0,0,0,0,0,0,0,
0,0,0,0,0,0,0,0,0,0,0,0,0,0,0,0,0,0,3,0,0,3,0,0,0,3,0,0,0,0,0,0,0,0,0,0,0,0,0,0,0,0,0,0,3,0,0,0,0,0,0,0,0,0,0,0,0,0,0,0,0,0,0,0,
0,0,0,0,0,0,0,0,0,0,0,0,0,0,0,0,0,0,3,0,0,0,0,0,0,3,0,0,0,0,0,0,0,0,0,0,0,0,0,0,0,0,0,0,0,0,0,0,0,0,0,0,0,0,0,0,0,0,0,0,0,0,0,0,
0,0,0,0,0,0,0,0,0,0,0,0,0,0,0,0,0,0,3,0,0,0,0,0,0,3,0,0,0,0,0,0,0,0,0,0,0,0,0,0,0,0,0,0,0,0,0,0,0,0,0,0,0,0,0,0,0,0,0,0,0,0,0,0,
0,0,0,0,0,0,0,0,0,0,0,0,0,0,0,0,0,0,0,0,0,0,0,0,0,0,770,771,770,771,770,771,0,0,0,0,0,0,0,0,0,0,0,0,0,0,0,0,0,0,0,0,0,0,0,0,0,0,0,0,0,0,0,0,
0,0,0,0,0,0,0,0,0,0,0,0,0,0,3,0,0,0,0,0,0,0,0,0,0,0,770,771,770,771,770,771,0,0,0,0,0,0,0,0,0,0,0,0,0,0,0,0,0,0,0,0,0,0,0,0,0,0,0,0,0,0,0,0,
0,0,0,0,0,0,0,0,0,0,0,0,0,0,0,0,0,0,0,0,0,0,0,0,0,0,0,0,0,0,0,0,0,0,0,0,0,0,0,0,0,0,0,0,0,0,0,0,0,0,0,0,0,0,0,0,0,0,0,0,0,0,0,0,
0,0,0,0,0,0,0,0,0,0,0,0,0,0,0,0,0,0,0,0,0,0,0,0,0,0,0,0,0,0,0,0,0,0,0,0,0,0,0,0,0,0,0,0,0,0,0,0,0,0,0,0,0,0,0,0,0,0,0,0,0,0,0,0,
0,0,0,0,0,0,0,0,0,0,0,0,0,0,0,0,0,0,0,0,0,0,0,0,0,0,0,0,0,0,0,0,0,0,0,0,0,0,0,0,0,0,0,0,0,0,0,0,0,0,0,0,0,0,0,0,0,0,0,0,0,0,0,0,
0,0,0,0,0,0,0,0,0,0,0,0,0,0,0,0,0,0,0,0,0,0,0,0,0,0,0,0,0,0,0,0,0,0,0,0,0,0,0,0,0,0,0,0,0,0,0,0,0,0,0,0,0,0,0,0,0,0,0,0,0,0,0,0,
0,0,0,0,0,0,0,0,0,0,0,0,0,0,0,0,0,0,0,0,0,0,0,0,0,0,0,0,0,0,0,0,0,0,0,0,0,0,0,0,0,0,0,0,0,0,0,0,0,0,0,0,0,0,0,0,0,0,0,0,0,0,0,0,
0,0,0,0,0,0,0,0,0,0,0,0,0,0,0,0,0,0,0,0,0,0,0,0,0,0,0,0,0,0,0,0,0,0,0,0,0,0,0,0,0,0,0,0,0,0,0,0,0,0,0,0,0,0,0,0,0,0,0,0,0,0,0,0,
0,0,0,0,0,0,0,0,0,0,0,0,0,0,0,0,0,0,0,0,0,0,0,0,0,0,0,163,163,163,163,0,0,0,0,0,0,0,0,0,0,0,0,0,0,0,0,0,0,0,0,0,0,0,0,0,0,0,0,0,0,0,0,0,
0,0,0,0,0,0,0,0,0,0,0,0,0,0,0,0,0,0,0,0,0,0,0,0,0,0,175,163,163,163,163,173,0,0,0,0,0,0,0,0,0,4175,0,0,0,0,0,0,0,0,0,0,0,0,0,0,0,0,0,0,0,0,0,0,
0,0,0,0,0,0,0,0,0,0,0,0,0,0,0,0,0,0,0,0,0,0,0,0,0,0,0,0,0,0,0,0,0,0,0,0,0,0,0,0,0,163,163,163,163,163,163,163,163,0,0,0,0,0,0,0,0,0,0,0,0,0,0,0,
0,0,0,0,0,0,0,0,0,0,0,0,0,0,0,0,0,0,0,0,0,0,0,0,0,0,0,0,0,0,0,0,0,0,0,0,0,0,0,0,0,163,163,163,163,163,163,163,163,0,0,0,0,0,0,0,0,0,0,0,0,0,0,0,
0,0,0,0,0,0,0,0,0,0,0,0,0,0,0,0,0,0,0,0,0,0,0,0,0,0,0,0,0,0,0,0,0,0,0,0,0,0,0,0,0,0,0,0,0,0,0,0,0,0,0,0,0,0,0,0,0,0,0,0,0,0,0,0,
0,0,0,0,0,0,0,0,0,0,0,0,0,0,0,0,0,0,0,0,0,0,0,0,0,0,159,163,163,163,163,157,0,0,0,0,0,0,0,0,0,0,0,0,0,0,0,0,0,0,0,0,0,0,0,0,0,0,0,0,0,0,0,0,
0,0,0,0,0,0,0,0,0,0,0,0,0,0,3,3,3,3,0,0,0,0,0,0,0,173,0,163,163,163,0,0,0,0,0,0,0,0,0,0,0,0,0,0,0,0,0,0,0,0,0,0,0,0,0,0,0,0,0,0,0,0,0,0,
0,0,0,0,0,0,0,0,0,0,0,0,0,0,3,3,3,3,0,0,0,0,0,0,0,0,0,0,0,0,0,0,0,0,0,0,0,0,0,0,0,0,0,0,0,0,0,0,0,0,0,0,0,0,0,0,0,0,0,0,0,0,0,0,
0,0,0,0,0,0,0,0,0,0,0,0,0,0,3,3,3,3,0,0,0,0,0,0,0,0,0,0,0,0,0,0,0,0,0,0,0,0,0,0,0,0,0,0,0,0,0,0,0,0,0,0,0,0,0,0,0,0,0,0,0,0,0,0,
0,0,0,0,0,0,0,0,0,0,0,0,0,0,3,3,3,3,0,0,0,0,0,0,0,0,0,0,0,0,0,0,0,0,0,0,0,0,0,0,0,0,0,0,0,0,0,0,0,0,0,0,0,0,0,0,0,0,0,0,0,0,0,0,
0,0,0,0,0,0,0,0,0,0,0,0,0,0,3,3,3,3,0,0,0,0,0,0,0,0,0,0,0,0,0,0,0,0,0,0,0,0,0,0,0,0,0,0,0,0,3,0,0,0,0,0,0,0,0,0,0,0,0,0,0,0,0,0,
0,0,0,0,0,0,0,0,0,0,0,0,949,0,3,3,3,3,0,0,0,0,0,0,0,0,0,0,0,0,0,0,0,0,0,0,0,0,0,0,0,0,0,0,0,0,0,0,0,0,0,0,0,0,0,0,0,0,0,0,0,0,0,0,
0,0,0,0,0,0,0,0,0,0,0,0,0,0,0,0,0,0,0,0,0,0,0,0,0,0,0,0,0,0,0,0,0,0,0,0,0,0,0,0,0,0,0,3,3,3,3,3,3,3,0,0,0,0,0,0,0,0,0,0,0,0,0,0,
0,0,0,0,0,0,0,0,0,0,0,0,0,0,0,0,0,0,0,0,0,0,0,0,0,0,0,0,0,0,0,0,0,0,0,0,0,0,0,0,0,0,0,0,0,0,0,0,0,0,0,0,0,0,0,0,0,0,0,0,0,0,0,0,
0,0,0,0,0,0,0,0,0,0,0,0,0,0,0,0,0,0,0,0,0,0,0,0,0,0,0,0,0,0,0,0,0,0,0,0,0,0,0,0,0,0,0,0,0,0,0,0,0,0,0,0,0,0,0,0,0,0,0,0,0,0,0,0,
0,0,0,0,0,0,0,0,0,0,0,0,0,0,0,0,0,0,0,0,0,0,0,0,0,0,778,779,778,779,778,779,0,0,0,0,0,0,0,0,0,0,0,0,0,0,0,0,0,0,0,0,0,0,0,0,0,0,0,0,0,0,0,0,
0,0,0,0,0,0,0,0,0,0,0,0,0,0,0,0,0,0,3,0,0,0,0,0,0,0,778,779,778,779,778,779,0,0,0,0,0,0,0,0,0,0,0,0,0,0,0,0,0,0,0,0,0,0,0,0,0,0,0,0,0,0,0,0,
0,0,0,0,0,0,0,0,0,0,0,0,0,0,0,0,0,0,3,0,0,0,0,0,0,0,0,0,0,0,0,0,0,0,0,3,0,0,3,0,0,0,0,0,0,0,0,0,0,0,0,0,0,0,0,0,0,0,0,0,0,0,0,0,
0,0,0,0,0,0,0,0,0,0,0,0,0,0,0,0,0,0,3,0,0,3,0,0,0,0,0,0,0,0,0,0,0,0,0,3,0,0,3,0,0,0,0,0,0,0,0,0,0,0,0,0,0,0,0,0,0,0,0,0,0,0,0,0,
0,0,0,0,0,0,0,0,0,0,0,0,0,0,0,0,0,0,3,0,0,0,0,0,0,0,0,0,0,0,0,0,0,0,0,3,0,0,3,0,0,0,0,0,0,0,0,0,0,0,0,0,0,0,0,0,0,0,0,0,0,0,0,0,
0,0,0,0,0,0,0,0,0,0,0,0,0,0,0,0,0,0,3,0,0,0,0,0,0,0,0,0,0,0,0,0,0,0,0,3,0,0,3,0,0,0,0,0,0,0,0,0,0,0,0,0,0,0,0,0,0,0,0,0,0,0,0,0,
0,0,0,0,0,0,0,0,0,0,0,0,0,0,0,0,0,0,3,0,0,0,0,0,0,0,0,0,0,0,0,0,0,0,0,0,0,0,3,0,0,0,0,0,0,0,0,0,0,0,0,0,0,0,0,0,0,0,0,0,0,0,0,0,
0,0,0,0,0,0,0,0,0,0,0,0,0,0,0,0,0,0,0,0,0,0,0,0,0,0,0,0,0,0,0,0,0,0,0,0,0,0,0,0,0,0,0,0,0,0,0,0,0,0,0,0,0,0,0,0,0,0,0,0,0,0,0,0,
0,0,0,0,0,0,0,0,0,0,0,0,0,0,0,0,0,0,0,0,0,0,0,0,0,0,0,0,0,0,0,0,0,0,0,0,0,0,0,0,0,0,0,0,0,0,0,0,0,0,0,0,0,0,0,0,0,0,0,0,0,0,0,0,
0,0,0,0,0,0,0,0,0,0,0,0,0,0,0,0,0,0,0,0,0,0,0,0,0,0,0,0,0,0,0,0,0,0,0,0,0,0,0,0,0,0,0,0,0,0,0,0,0,0,0,0,0,0,0,0,0,0,0,0,0,0,0,0,
0,0,0,0,0,0,0,0,0,0,0,0,0,0,0,0,0,0,0,0,0,0,0,0,0,0,0,0,0,0,0,0,0,0,0,0,0,0,0,0,0,0,0,0,0,0,0,0,0,0,0,0,0,0,0,0,0,0,0,0,0,0,0,0,
0,0,0,0,0,0,0,0,0,0,0,0,0,0,0,0,0,0,0,0,0,0,0,0,0,0,0,0,0,0,0,0,0,0,0,0,0,0,0,0,0,0,0,0,0,0,0,0,0,0,0,0,0,0,0,0,0,0,0,0,0,0,0,0,
0,0,0,0,0,0,0,0,0,0,0,0,0,0,0,0,0,0,0,0,0,0,0,0,0,0,0,0,0,0,0,0,0,0,0,0,0,0,0,0,0,0,0,0,0,0,0,0,0,0,0,0,0,0,0,0,0,0,0,0,0,0,0,0,
0,0,0,0,0,0,0,0,0,0,0,0,0,0,0,0,0,0,0,0,0,0,0,0,0,0,0,0,0,0,0,0,0,0,0,0,0,0,0,0,0,0,0,0,0,0,0,0,0,0,0,0,0,0,0,0,0,0,0,0,0,0,0,0,
0,0,0,0,0,0,0,0,0,0,0,0,0,0,0,0,0,0,0,0,0,0,0,0,0,0,0,0,0,0,0,0,0,0,0,0,0,0,0,0,0,0,0,0,0,0,0,0,0,0,0,0,0,0,0,0,0,0,0,0,0,0,0,0,
0,0,0,0,0,0,0,0,0,0,0,0,0,0,0,0,0,0,0,0,0,0,0,0,0,0,0,0,0,0,0,0,0,0,0,0,0,0,0,0,0,0,0,0,0,0,0,0,0,0,0,0,0,0,0,0,0,0,0,0,0,0,0,0,
0,0,0,0,0,0,0,0,0,0,0,0,0,0,0,0,0,0,0,0,0,0,0,0,0,0,0,0,0,0,0,0,0,0,0,0,0,0,0,0,0,0,0,0,0,0,0,0,0,0,0,0,0,0,0,0,0,0,0,0,0,0,0,0,
0,0,0,0,0,0,0,0,0,0,0,0,0,0,0,0,0,0,0,0,0,0,0,0,0,0,0,0,0,0,0,0,0,0,0,0,0,0,0,0,0,0,0,0,0,0,0,0,0,0,0,0,0,0,0,0,0,0,0,0,0,0,0,0,
0,0,0,0,0,0,0,0,0,0,0,0,0,0,0,0,0,0,0,0,0,0,0,0,0,0,0,0,0,0,0,0,0,0,0,0,0,0,0,0,0,0,0,0,0,0,0,0,0,0,0,0,0,0,0,0,0,0,0,0,0,0,0,0
</data>
 </layer>
 <layer id="3" name="edifici" width="64" height="60">
  <data encoding="csv">
421,422,421,422,421,422,421,422,421,422,421,422,421,422,421,422,421,422,421,422,421,422,421,422,421,422,421,422,421,422,421,422,421,422,421,422,421,422,421,422,421,422,421,422,421,422,421,422,421,422,421,422,421,422,421,422,421,422,421,422,421,422,421,422,
429,430,429,430,429,430,429,430,429,430,429,430,429,430,429,430,429,430,429,430,429,430,429,430,429,430,429,430,429,430,429,430,429,430,429,430,429,430,429,430,429,430,429,430,429,430,429,430,429,430,429,430,429,430,429,430,429,430,429,430,429,430,429,430,
437,438,437,438,437,438,437,438,437,438,437,438,437,438,437,438,437,438,437,438,437,438,437,438,437,438,437,438,437,438,437,438,437,438,437,438,437,438,437,438,437,438,437,438,437,438,437,438,437,438,437,438,437,438,437,438,437,438,437,438,437,438,437,438,
421,422,421,422,421,422,421,422,421,422,421,422,421,422,421,422,421,422,421,422,421,422,421,422,421,422,421,422,421,422,421,422,421,422,421,422,421,422,421,422,421,422,421,422,421,422,421,422,421,422,421,422,421,422,421,422,421,422,421,422,421,422,421,422,
429,430,429,430,429,430,429,430,429,430,429,430,429,430,429,430,429,430,429,430,429,430,429,430,429,430,429,430,429,430,429,430,429,430,429,430,429,430,429,430,429,430,429,430,429,430,429,430,429,430,429,430,429,430,429,430,429,430,429,430,429,430,429,430,
437,438,437,438,437,438,437,438,437,438,437,438,437,438,437,438,437,438,437,438,437,438,437,438,437,438,437,438,437,438,437,438,437,438,437,438,437,438,437,438,437,438,437,438,437,438,437,438,437,438,437,438,437,438,437,438,437,438,437,438,437,438,437,438,
421,422,421,422,421,422,421,422,421,422,421,422,421,422,421,422,421,422,421,422,421,422,421,422,421,422,421,422,421,422,421,422,421,422,421,422,421,422,421,422,421,422,421,422,421,422,421,422,421,422,421,422,421,422,421,422,421,422,421,422,421,422,421,422,
429,430,429,430,429,430,429,430,429,430,429,430,429,430,429,430,429,430,429,430,429,430,429,430,429,430,429,430,429,430,429,430,429,430,429,430,429,430,429,430,429,430,429,430,429,430,429,430,429,430,429,430,429,430,429,430,429,430,429,430,429,430,429,430,
437,438,437,438,437,438,437,438,437,438,437,438,437,438,437,438,437,438,437,438,437,438,437,438,437,438,437,438,437,438,437,438,437,438,437,438,437,438,437,438,437,438,437,438,437,438,437,438,437,438,437,438,437,438,437,438,437,438,437,438,437,438,437,438,
421,422,421,422,421,422,421,422,0,0,0,0,0,0,0,0,0,0,0,0,0,0,0,0,0,0,0,0,0,0,0,0,0,0,0,0,0,0,0,0,0,0,0,0,0,0,0,0,0,0,0,0,421,422,421,422,421,422,421,422,421,422,421,422,
429,430,429,430,429,430,429,430,561,562,563,561,562,563,421,422,421,422,421,422,421,422,421,422,0,6057,6073,6065,6066,6067,6059,6059,421,422,421,422,421,422,421,422,421,422,421,422,421,422,421,422,421,422,421,422,429,430,429,430,429,430,429,430,429,430,429,430,
437,438,437,438,437,438,437,438,569,570,571,569,570,571,429,430,429,430,429,430,429,430,429,430,0,6057,6073,6073,6074,6075,6075,6059,429,430,429,430,429,430,429,430,429,430,429,430,429,430,429,430,429,430,429,430,437,438,437,438,437,438,437,438,437,438,437,438,
421,422,421,422,421,422,421,422,577,578,579,577,578,579,437,438,437,438,437,438,437,438,437,438,0,6065,6081,6081,6082,6083,6083,6067,437,438,437,438,437,438,437,438,437,438,437,438,437,438,437,438,437,438,437,438,421,422,421,422,421,422,421,422,421,422,421,422,
429,430,429,430,429,430,429,430,585,586,587,585,586,587,0,0,0,0,0,0,0,0,0,0,0,0,0,0,0,0,0,0,0,0,0,0,0,0,0,0,0,0,0,0,0,0,0,0,0,0,0,0,429,430,429,430,429,430,429,430,429,430,429,430,
437,438,437,438,437,438,437,438,593,594,595,593,594,595,0,0,0,0,0,0,0,0,0,0,0,0,0,0,0,0,0,0,0,0,0,0,0,0,0,0,0,0,0,0,0,0,0,0,0,0,949,0,437,438,437,438,437,438,437,438,437,438,437,438,
421,422,421,422,421,422,421,422,601,602,603,601,602,603,0,0,0,0,0,0,0,0,0,0,0,0,0,0,0,0,0,0,0,0,0,0,0,0,0,0,0,0,0,0,0,0,561,562,563,561,562,563,421,422,421,422,421,422,421,422,421,422,421,422,
429,430,429,430,429,430,429,430,421,422,0,0,0,0,0,0,0,0,0,0,0,0,0,0,0,0,0,0,0,0,0,0,0,0,0,0,0,0,0,0,0,0,0,0,0,0,569,570,571,569,570,571,429,430,429,430,429,430,429,430,429,430,429,430,
437,438,437,438,437,438,437,438,429,430,0,0,0,0,0,0,0,0,0,0,0,0,0,0,0,0,0,0,0,0,0,0,0,0,0,0,0,0,0,0,0,0,0,0,0,0,577,578,579,577,578,579,437,438,437,438,437,438,437,438,437,438,437,438,
421,422,421,422,421,422,421,422,437,438,0,0,0,0,0,0,0,0,785,786,786,786,786,786,786,786,0,0,0,0,0,0,786,786,786,786,786,786,786,786,786,786,787,0,0,0,585,586,587,585,586,587,421,422,421,422,421,422,421,422,421,422,421,422,
429,430,429,430,429,430,429,430,421,422,0,0,0,0,949,0,0,0,793,788,789,789,789,789,789,789,0,0,0,0,0,0,789,789,789,789,789,789,789,789,789,790,795,0,0,0,593,594,595,593,594,595,429,430,429,430,429,430,429,430,429,430,429,430,
437,438,437,438,437,438,437,438,429,430,0,0,0,0,0,0,0,0,793,796,785,786,787,0,0,0,0,0,0,0,0,0,0,0,0,0,0,0,785,786,787,795,795,0,0,0,601,602,603,601,602,603,437,438,437,438,437,438,437,438,437,438,437,438,
421,422,421,422,421,422,421,422,437,438,0,0,0,0,0,0,0,0,793,796,793,794,795,0,0,0,0,955,0,0,0,0,0,0,0,0,0,0,793,794,795,795,795,0,0,0,0,0,0,0,421,422,421,422,421,422,421,422,421,422,421,422,421,422,
429,430,429,430,429,430,429,430,421,422,0,0,0,0,0,0,0,0,793,796,801,802,803,0,0,0,0,0,0,0,0,0,0,0,0,0,0,0,801,802,803,795,795,0,0,0,0,0,0,0,429,430,429,430,429,430,429,430,429,430,429,430,429,430,
437,438,437,438,437,438,437,438,429,430,561,562,563,561,562,563,0,0,793,796,0,1150,1151,1152,0,0,0,0,0,0,0,0,0,824,0,0,0,0,0,0,0,795,795,0,0,0,0,0,0,0,437,438,437,438,437,438,437,438,437,438,437,438,437,438,
421,422,421,422,421,422,421,422,437,438,569,570,571,569,570,571,0,0,793,796,0,1158,1159,1160,0,0,0,0,0,0,0,0,0,0,0,0,0,0,0,0,0,795,795,0,0,0,0,0,0,0,421,422,421,422,421,422,421,422,421,422,421,422,421,422,
429,430,429,430,429,430,429,430,421,422,577,578,579,577,578,579,0,0,793,796,0,1166,1167,1168,0,0,0,0,0,0,0,0,0,0,0,0,824,0,0,0,0,795,795,0,0,0,0,0,0,0,429,430,429,430,429,430,429,430,429,430,429,430,429,430,
437,438,437,438,437,438,437,438,429,430,585,586,587,585,586,587,0,0,793,796,0,1174,1175,1176,0,0,0,0,0,0,0,0,0,0,0,0,0,0,0,0,0,795,795,0,0,0,0,0,0,0,437,438,437,438,437,438,437,438,437,438,437,438,437,438,
421,422,421,422,421,422,421,422,437,438,593,594,595,593,594,595,0,0,793,796,0,0,824,0,0,0,0,0,837,838,0,0,0,0,0,0,0,0,0,0,0,786,786,786,786,786,786,786,786,787,421,422,421,422,421,422,421,422,421,422,421,422,421,422,
429,430,429,430,429,430,429,430,421,422,601,602,603,601,602,603,0,0,793,796,0,0,0,0,0,0,0,0,845,846,0,0,0,0,0,0,0,0,0,0,0,163,163,163,163,163,163,163,163,795,429,430,429,430,429,430,429,430,429,430,429,430,429,430,
437,438,437,438,437,438,437,438,429,430,0,0,0,0,0,0,0,0,793,796,0,0,0,0,0,0,0,0,853,854,0,0,0,0,0,0,0,0,0,0,0,163,163,163,163,163,163,163,163,795,437,438,437,438,437,438,437,438,437,438,437,438,437,438,
421,422,421,422,421,422,421,422,437,438,0,0,0,0,0,0,0,0,793,796,0,0,0,0,0,0,0,0,861,862,0,0,0,0,0,0,0,0,0,0,0,794,794,794,794,794,794,794,794,795,421,422,421,422,421,422,421,422,421,422,421,422,421,422,
429,430,429,430,429,430,429,430,421,422,0,0,0,0,0,0,0,0,793,796,0,0,0,0,0,0,0,0,0,0,0,0,0,0,1150,1151,1152,0,0,0,0,809,802,802,802,802,802,802,802,803,429,430,429,430,429,430,429,430,429,430,429,430,429,430,
437,438,437,438,437,438,437,438,429,430,0,0,0,0,0,0,0,0,793,796,0,0,0,0,0,0,0,0,0,0,0,0,0,0,1158,1159,1160,0,0,824,0,798,795,0,0,0,0,0,0,0,437,438,437,438,437,438,437,438,437,438,437,438,437,438,
421,422,421,422,421,422,421,422,437,438,0,0,0,0,0,0,0,0,793,796,0,0,0,0,0,0,0,0,0,0,0,0,0,0,1166,1167,1168,0,0,0,0,798,795,0,0,0,0,0,0,0,421,422,421,422,421,422,421,422,421,422,421,422,421,422,
429,430,429,430,429,430,429,430,421,422,0,0,0,0,0,0,0,0,793,796,0,0,0,824,0,0,0,0,0,0,0,0,0,0,1174,1175,1176,0,0,0,0,798,795,0,0,0,0,0,0,0,429,430,429,430,429,430,429,430,429,430,429,430,429,430,
437,438,437,438,437,438,437,438,429,430,0,0,0,0,0,0,0,0,793,796,0,0,0,0,0,0,0,0,0,0,0,0,0,0,0,824,0,0,0,0,0,798,795,0,0,0,0,0,0,0,437,438,437,438,437,438,437,438,437,438,437,438,437,438,
421,422,421,422,421,422,421,422,437,438,0,0,0,0,0,0,0,0,793,796,0,0,0,0,0,0,0,0,0,0,0,0,0,1150,1151,1152,0,0,0,0,0,798,795,0,0,0,949,0,0,0,421,422,421,422,421,422,421,422,421,422,421,422,421,422,
429,430,429,430,429,430,429,430,421,422,0,0,949,0,0,0,0,0,793,796,0,0,0,0,824,0,0,0,0,0,0,0,0,1158,1159,1160,0,0,0,0,0,798,795,0,0,0,0,0,0,0,429,430,429,430,429,430,429,430,429,430,429,430,429,430,
437,438,437,438,437,438,437,438,429,430,0,0,0,0,0,0,0,0,793,796,785,786,787,0,0,0,0,0,0,0,0,0,0,1166,1167,1168,0,0,0,0,0,798,795,0,0,0,0,0,0,0,437,438,437,438,437,438,437,438,437,438,437,438,437,438,
421,422,421,422,421,422,421,422,437,438,0,0,0,0,0,0,0,0,793,796,793,794,795,0,0,0,0,0,0,0,0,0,0,1174,1175,1176,0,0,0,0,0,798,795,0,0,0,0,0,0,0,421,422,421,422,421,422,421,422,421,422,421,422,421,422,
429,430,429,430,429,430,429,430,0,0,0,0,0,0,0,0,0,0,793,796,801,802,803,0,0,0,0,0,0,0,0,0,0,0,824,0,0,0,0,0,0,798,795,0,0,0,0,0,0,0,429,430,429,430,429,430,429,430,429,430,429,430,429,430,
437,438,437,438,437,438,437,438,0,561,562,563,561,562,563,0,0,0,793,804,805,805,805,805,805,805,0,0,0,0,0,0,805,805,805,805,805,805,805,805,805,806,795,0,561,562,563,561,562,563,437,438,437,438,437,438,437,438,437,438,437,438,437,438,
421,422,421,422,421,422,421,422,0,569,570,571,569,570,571,0,0,0,801,802,802,802,802,802,802,802,0,0,0,0,0,0,802,802,802,802,802,802,802,802,802,802,803,0,569,570,571,569,570,571,421,422,421,422,421,422,421,422,421,422,421,422,421,422,
429,430,429,430,429,430,429,430,0,577,578,579,577,578,579,0,0,0,0,0,0,0,0,0,0,0,0,0,0,0,0,955,0,0,0,0,0,0,0,0,0,0,0,0,577,578,579,577,578,579,429,430,429,430,429,430,429,430,429,430,429,430,429,430,
437,438,437,438,437,438,437,438,0,585,586,587,585,586,587,0,0,0,0,0,0,0,0,0,0,0,0,0,0,0,0,0,0,0,0,0,0,0,0,0,0,0,0,0,585,586,587,585,586,587,437,438,437,438,437,438,437,438,437,438,437,438,437,438,
421,422,421,422,421,422,421,422,0,593,594,595,593,594,595,0,0,0,0,0,0,0,0,0,0,0,0,0,0,0,0,0,0,0,0,0,0,0,0,0,0,0,0,0,593,594,595,593,594,595,0,0,421,422,421,422,421,422,421,422,421,422,421,422,
429,430,429,430,429,430,429,430,0,601,602,603,601,602,603,0,0,0,0,0,0,0,0,0,0,0,0,0,0,0,0,0,0,0,0,0,0,0,0,0,0,0,0,0,601,602,603,601,602,603,0,0,429,430,429,430,429,430,429,430,429,430,429,430,
437,438,437,438,437,438,437,438,0,0,0,0,0,0,0,0,0,0,0,0,0,0,0,0,0,0,0,0,0,0,0,0,0,0,0,0,0,0,0,0,0,0,0,0,0,0,0,0,0,0,0,0,437,438,437,438,437,438,437,438,437,438,437,438,
421,422,421,422,421,422,421,422,421,422,421,422,421,422,421,422,421,422,421,422,421,422,421,422,421,422,0,2899,2900,2900,2901,0,421,422,421,422,421,422,421,422,421,422,421,422,421,422,421,422,421,422,421,422,421,422,421,422,421,422,421,422,421,422,421,422,
429,430,429,430,429,430,429,430,429,430,429,430,429,430,429,430,429,430,429,430,429,430,429,430,429,430,816,2914,2915,2916,2918,816,429,430,429,430,429,430,429,430,429,430,429,430,429,430,429,430,429,430,429,430,429,430,429,430,429,430,429,430,429,430,429,430,
437,438,437,438,437,438,437,438,437,438,437,438,437,438,437,438,437,438,437,438,437,438,437,438,437,438,0,2914,2915,2916,2918,0,437,438,437,438,437,438,437,438,437,438,437,438,437,438,437,438,437,438,437,438,437,438,437,438,437,438,437,438,437,438,437,438,
421,422,421,422,421,422,421,422,421,422,421,422,421,422,421,422,421,422,421,422,421,422,421,422,421,422,0,2914,2915,2916,2918,0,421,422,421,422,421,422,421,422,421,422,421,422,421,422,421,422,421,422,421,422,421,422,421,422,421,422,421,422,421,422,421,422,
429,430,429,430,429,430,429,430,429,430,429,430,429,430,429,430,429,430,429,430,429,430,429,430,429,430,0,2914,2915,2916,2918,0,429,430,429,430,429,430,429,430,429,430,429,430,429,430,429,430,429,430,429,430,429,430,429,430,429,430,429,430,429,430,429,430,
437,438,437,438,437,438,437,438,437,438,437,438,437,438,437,438,437,438,437,438,437,438,437,438,437,438,0,2914,2915,2916,2918,0,437,438,437,438,437,438,437,438,437,438,437,438,437,438,437,438,437,438,437,438,437,438,437,438,437,438,437,438,437,438,437,438,
421,422,421,422,421,422,421,422,421,422,421,422,421,422,421,422,421,422,421,422,421,422,421,422,421,422,0,2914,2915,2916,2918,0,421,422,421,422,421,422,421,422,421,422,421,422,421,422,421,422,421,422,421,422,421,422,421,422,421,422,421,422,421,422,421,422,
429,430,429,430,429,430,429,430,429,430,429,430,429,430,429,430,429,430,429,430,429,430,429,430,429,430,0,2914,2915,2916,2918,0,429,430,429,430,429,430,429,430,429,430,429,430,429,430,429,430,429,430,429,430,429,430,429,430,429,430,429,430,429,430,429,430,
437,438,437,438,437,438,437,438,437,438,437,438,437,438,437,438,437,438,437,438,437,438,437,438,437,438,0,2914,2915,2916,2918,0,437,438,437,438,437,438,437,438,437,438,437,438,437,438,437,438,437,438,437,438,437,438,437,438,437,438,437,438,437,438,437,438,
421,422,421,422,421,422,421,422,421,422,421,422,421,422,421,422,421,422,421,422,421,422,421,422,421,422,421,422,421,422,421,422,421,422,421,422,421,422,421,422,421,422,421,422,421,422,421,422,421,422,421,422,421,422,421,422,421,422,421,422,421,422,421,422,
429,430,429,430,429,430,429,430,429,430,429,430,429,430,429,430,429,430,429,430,429,430,429,430,429,430,429,430,429,430,429,430,429,430,429,430,429,430,429,430,429,430,429,430,429,430,429,430,429,430,429,430,429,430,429,430,429,430,429,430,429,430,429,430,
437,438,437,438,437,438,437,438,437,438,437,438,437,438,437,438,437,438,437,438,437,438,437,438,437,438,437,438,437,438,437,438,437,438,437,438,437,438,437,438,437,438,437,438,437,438,437,438,437,438,437,438,437,438,437,438,437,438,437,438,437,438,437,438
</data>
 </layer>
 <layer id="4" name="sopra_testa" width="64" height="60">
  <data encoding="csv">
0,0,0,0,0,0,0,0,0,0,0,0,0,0,0,0,0,0,0,0,0,0,0,0,0,0,0,0,0,0,0,0,0,0,0,0,0,0,0,0,0,0,0,0,0,0,0,0,0,0,0,0,0,0,0,0,0,0,0,0,0,0,0,0,
0,0,0,0,0,0,0,0,0,0,0,0,0,0,0,0,0,0,0,0,0,0,0,0,0,0,0,0,0,0,0,0,0,0,0,0,0,0,0,0,0,0,0,0,0,0,0,0,0,0,0,0,0,0,0,0,0,0,0,0,0,0,0,0,
0,0,0,0,0,0,0,0,0,0,0,0,0,0,0,0,0,0,0,0,0,0,0,0,0,0,0,0,0,0,0,0,0,0,0,0,0,0,0,0,0,0,0,0,0,0,0,0,0,0,0,0,0,0,0,0,0,0,0,0,0,0,0,0,
0,0,0,0,0,0,0,0,0,0,0,0,0,0,0,0,0,0,0,0,0,0,0,0,0,0,0,0,0,0,0,0,0,0,0,0,0,0,0,0,0,0,0,0,0,0,0,0,0,0,0,0,0,0,0,0,0,0,0,0,0,0,0,0,
0,0,0,0,0,0,0,0,0,0,0,0,0,0,0,0,0,0,0,0,0,0,0,0,0,0,0,0,0,0,0,0,0,0,0,0,0,0,0,0,0,0,0,0,0,0,0,0,0,0,0,0,0,0,0,0,0,0,0,0,0,0,0,0,
0,0,0,0,0,0,0,0,0,0,0,0,0,0,0,0,0,0,0,0,0,0,0,0,0,0,0,0,0,0,0,0,0,0,0,0,0,0,0,0,0,0,0,0,0,0,0,0,0,0,0,0,0,0,0,0,0,0,0,0,0,0,0,0,
0,0,0,0,0,0,0,0,0,0,0,0,0,0,0,0,0,0,0,0,0,0,0,0,0,0,0,0,0,0,0,0,0,0,0,0,0,0,0,0,0,0,0,0,0,0,0,0,0,0,0,0,0,0,0,0,0,0,0,0,0,0,0,0,
0,0,0,0,0,0,0,0,0,0,0,0,0,0,0,0,0,0,0,0,0,0,0,0,0,0,0,0,0,0,0,0,0,0,0,0,0,0,0,0,0,0,0,0,0,0,0,0,0,0,0,0,0,0,0,0,0,0,0,0,0,0,0,0,
0,0,0,0,0,0,0,0,0,0,0,0,0,0,0,0,0,0,0,0,0,0,0,0,0,0,0,0,0,0,0,0,0,0,0,0,0,0,0,0,0,0,0,0,0,0,0,0,0,0,0,0,0,0,0,0,0,0,0,0,0,0,0,0,
0,0,0,0,0,0,0,0,0,0,0,0,0,0,0,0,0,0,0,0,0,0,0,0,0,0,0,0,0,0,0,0,0,0,0,0,0,0,0,0,0,0,0,0,0,0,0,0,0,0,0,0,0,0,0,0,0,0,0,0,0,0,0,0,
0,0,0,0,0,0,0,0,0,0,0,0,0,0,0,0,0,0,0,0,0,0,0,0,0,0,0,0,0,0,0,0,0,0,0,0,0,0,0,0,0,0,0,0,0,0,0,0,0,0,0,0,0,0,0,0,0,0,0,0,0,0,0,0,
0,0,0,0,0,0,0,0,0,0,0,0,0,0,0,0,0,0,0,0,0,0,0,0,0,0,0,0,0,0,0,0,0,0,0,0,0,0,0,0,0,0,0,0,0,0,0,0,0,0,0,0,0,0,0,0,0,0,0,0,0,0,0,0,
0,0,0,0,0,0,0,0,0,0,0,0,0,0,0,0,0,0,0,0,0,0,0,0,0,0,0,0,0,0,0,0,0,0,0,0,0,0,0,0,0,0,0,0,0,0,0,0,0,0,0,0,0,0,0,0,0,0,0,0,0,0,0,0,
0,0,0,0,0,0,0,0,0,0,0,0,0,0,0,0,0,0,0,0,0,0,0,0,0,0,0,0,0,0,0,0,0,0,0,0,0,0,0,0,0,0,0,0,0,0,0,0,0,0,0,0,0,0,0,0,0,0,0,0,0,0,0,0,
0,0,0,0,0,0,0,0,0,0,0,0,0,0,0,0,0,0,0,0,0,0,0,0,0,0,0,0,0,0,0,0,0,0,0,0,0,0,0,0,0,0,0,0,0,0,0,0,0,0,0,0,0,0,0,0,0,0,0,0,0,0,0,0,
0,0,0,0,0,0,0,0,0,0,0,0,0,0,0,0,0,0,0,0,0,0,0,0,0,0,0,0,0,0,0,0,0,0,0,0,0,0,0,0,0,0,0,0,0,0,0,0,0,0,0,0,0,0,0,0,0,0,0,0,0,0,0,0,
0,0,0,0,0,0,0,0,0,0,0,0,0,0,0,0,0,0,0,0,0,0,0,0,0,0,0,0,0,0,0,0,0,0,0,0,0,0,0,0,0,0,0,0,0,0,0,0,0,0,0,0,0,0,0,0,0,0,0,0,0,0,0,0,
0,0,0,0,0,0,0,0,0,0,0,0,0,0,0,0,0,0,0,0,0,0,0,0,0,0,0,0,0,0,0,0,0,0,0,0,0,0,0,0,0,0,0,0,0,0,0,0,0,0,0,0,0,0,0,0,0,0,0,0,0,0,0,0,
0,0,0,0,0,0,0,0,0,0,0,0,0,0,0,0,0,0,0,0,0,0,0,0,0,0,0,0,0,0,0,0,0,0,0,0,0,0,0,0,0,0,0,0,0,0,0,0,0,0,0,0,0,0,0,0,0,0,0,0,0,0,0,0,
0,0,0,0,0,0,0,0,0,0,0,0,0,0,0,0,0,0,0,0,0,0,0,0,0,0,0,0,0,0,0,0,0,0,0,0,0,0,0,0,0,0,0,0,0,0,0,0,0,0,0,0,0,0,0,0,0,0,0,0,0,0,0,0,
0,0,0,0,0,0,0,0,0,0,0,0,0,0,0,0,0,0,0,0,0,0,0,0,0,0,0,0,0,0,0,0,0,0,0,0,0,0,0,0,0,0,0,0,0,0,0,0,0,0,0,0,0,0,0,0,0,0,0,0,0,0,0,0,
0,0,0,0,0,0,0,0,0,0,0,0,0,0,0,0,0,0,0,0,0,0,0,0,0,0,0,0,0,0,0,0,0,0,0,0,0,0,0,0,0,0,0,0,0,0,0,0,0,0,0,0,0,0,0,0,0,0,0,0,0,0,0,0,
0,0,0,0,0,0,0,0,0,0,0,0,0,0,0,0,0,0,0,0,0,0,0,0,0,0,0,0,0,0,0,0,0,0,0,0,0,0,0,0,0,0,0,0,0,0,0,0,0,0,0,0,0,0,0,0,0,0,0,0,0,0,0,0,
0,0,0,0,0,0,0,0,0,0,0,0,0,0,0,0,0,0,0,0,0,0,0,0,0,0,0,0,0,0,0,0,0,0,0,0,0,0,0,0,0,0,0,0,0,0,0,0,0,0,0,0,0,0,0,0,0,0,0,0,0,0,0,0,
0,0,0,0,0,0,0,0,0,0,0,0,0,0,0,0,0,0,0,0,0,0,0,0,0,0,0,0,0,0,0,0,0,0,0,0,0,0,0,0,0,0,0,0,0,0,0,0,0,0,0,0,0,0,0,0,0,0,0,0,0,0,0,0,
0,0,0,0,0,0,0,0,0,0,0,0,0,0,0,0,0,0,0,0,0,0,0,0,0,0,0,0,0,0,0,0,0,0,0,0,0,0,0,0,0,0,0,0,0,0,0,0,0,0,0,0,0,0,0,0,0,0,0,0,0,0,0,0,
0,0,0,0,0,0,0,0,0,0,0,0,0,0,0,0,0,0,0,0,0,0,0,0,0,0,0,0,0,0,0,0,0,0,0,0,0,0,0,0,0,0,0,0,0,0,0,0,0,0,0,0,0,0,0,0,0,0,0,0,0,0,0,0,
0,0,0,0,0,0,0,0,0,0,0,0,0,0,0,0,0,0,0,0,0,0,0,0,0,0,0,0,0,0,0,0,0,0,0,0,0,0,0,0,0,0,0,0,0,0,0,0,0,0,0,0,0,0,0,0,0,0,0,0,0,0,0,0,
0,0,0,0,0,0,0,0,0,0,0,0,0,0,0,0,0,0,0,0,0,0,0,0,0,0,0,0,0,0,0,0,0,0,0,0,0,0,0,0,0,0,0,0,0,0,0,0,0,0,0,0,0,0,0,0,0,0,0,0,0,0,0,0,
0,0,0,0,0,0,0,0,0,0,0,0,0,0,0,0,0,0,0,0,0,0,0,0,0,0,0,0,0,0,0,0,0,0,0,0,0,0,0,0,0,0,0,0,0,0,0,0,0,0,0,0,0,0,0,0,0,0,0,0,0,0,0,0,
0,0,0,0,0,0,0,0,0,0,0,0,0,0,0,0,0,0,0,0,0,0,0,0,0,0,0,0,0,0,0,0,0,0,0,0,0,0,0,0,0,0,0,0,0,0,0,0,0,0,0,0,0,0,0,0,0,0,0,0,0,0,0,0,
0,0,0,0,0,0,0,0,0,0,0,0,0,0,0,0,0,0,0,0,0,0,0,0,0,0,0,0,0,0,0,0,0,0,0,0,0,0,0,0,0,0,0,0,0,0,0,0,0,0,0,0,0,0,0,0,0,0,0,0,0,0,0,0,
0,0,0,0,0,0,0,0,0,0,0,0,0,0,0,0,0,0,0,0,0,0,0,0,0,0,0,0,0,0,0,0,0,0,0,0,0,0,0,0,0,0,0,0,0,0,0,0,0,0,0,0,0,0,0,0,0,0,0,0,0,0,0,0,
0,0,0,0,0,0,0,0,0,0,0,0,0,0,0,0,0,0,0,0,0,0,0,0,0,0,0,0,0,0,0,0,0,0,0,0,0,0,0,0,0,0,0,0,0,0,0,0,0,0,0,0,0,0,0,0,0,0,0,0,0,0,0,0,
0,0,0,0,0,0,0,0,0,0,0,0,0,0,0,0,0,0,0,0,0,0,0,0,0,0,0,0,0,0,0,0,0,0,0,0,0,0,0,0,0,0,0,0,0,0,0,0,0,0,0,0,0,0,0,0,0,0,0,0,0,0,0,0,
0,0,0,0,0,0,0,0,0,0,0,0,0,0,0,0,0,0,0,0,0,0,0,0,0,0,0,0,0,0,0,0,0,0,0,0,0,0,0,0,0,0,0,0,0,0,0,0,0,0,0,0,0,0,0,0,0,0,0,0,0,0,0,0,
0,0,0,0,0,0,0,0,0,0,0,0,0,0,0,0,0,0,0,0,0,0,0,0,0,0,0,0,0,0,0,0,0,0,0,0,0,0,0,0,0,0,0,0,0,0,0,0,0,0,0,0,0,0,0,0,0,0,0,0,0,0,0,0,
0,0,0,0,0,0,0,0,0,0,0,0,0,0,0,0,0,0,0,0,0,0,0,0,0,0,0,0,0,0,0,0,0,0,0,0,0,0,0,0,0,0,0,0,0,0,0,0,0,0,0,0,0,0,0,0,0,0,0,0,0,0,0,0,
0,0,0,0,0,0,0,0,0,0,0,0,0,0,0,0,0,0,0,0,0,0,0,0,0,0,0,0,0,0,0,0,0,0,0,0,0,0,0,0,0,0,0,0,0,0,0,0,0,0,0,0,0,0,0,0,0,0,0,0,0,0,0,0,
0,0,0,0,0,0,0,0,0,0,0,0,0,0,0,0,0,0,0,0,0,0,0,0,0,0,0,0,0,0,0,0,0,0,0,0,0,0,0,0,0,0,0,0,0,0,0,0,0,0,0,0,0,0,0,0,0,0,0,0,0,0,0,0,
0,0,0,0,0,0,0,0,0,0,0,0,0,0,0,0,0,0,0,0,0,0,0,0,0,0,0,0,0,0,0,0,0,0,0,0,0,0,0,0,0,0,0,0,0,0,0,0,0,0,0,0,0,0,0,0,0,0,0,0,0,0,0,0,
0,0,0,0,0,0,0,0,0,0,0,0,0,0,0,0,0,0,0,0,0,0,0,0,0,0,0,0,0,0,0,0,0,0,0,0,0,0,0,0,0,0,0,0,0,0,0,0,0,0,0,0,0,0,0,0,0,0,0,0,0,0,0,0,
0,0,0,0,0,0,0,0,0,0,0,0,0,0,0,0,0,0,0,0,0,0,0,0,0,0,0,0,0,0,0,0,0,0,0,0,0,0,0,0,0,0,0,0,0,0,0,0,0,0,0,0,0,0,0,0,0,0,0,0,0,0,0,0,
0,0,0,0,0,0,0,0,0,0,0,0,0,0,0,0,0,0,0,0,0,0,0,0,0,0,0,0,0,0,0,0,0,0,0,0,0,0,0,0,0,0,0,0,0,0,0,0,0,0,0,0,0,0,0,0,0,0,0,0,0,0,0,0,
0,0,0,0,0,0,0,0,0,0,0,0,0,0,0,0,0,0,0,0,0,0,0,0,0,0,0,0,0,0,0,0,0,0,0,0,0,0,0,0,0,0,0,0,0,0,0,0,0,0,0,0,0,0,0,0,0,0,0,0,0,0,0,0,
0,0,0,0,0,0,0,0,0,0,0,0,0,0,0,0,0,0,0,0,0,0,0,0,0,0,0,0,0,0,0,0,0,0,0,0,0,0,0,0,0,0,0,0,0,0,0,0,0,0,0,0,0,0,0,0,0,0,0,0,0,0,0,0,
0,0,0,0,0,0,0,0,0,0,0,0,0,0,0,0,0,0,0,0,0,0,0,0,0,0,0,0,0,0,0,0,0,0,0,0,0,0,0,0,0,0,0,0,0,0,0,0,0,0,0,0,0,0,0,0,0,0,0,0,0,0,0,0,
0,0,0,0,0,0,0,0,0,0,0,0,0,0,0,0,0,0,0,0,0,0,0,0,0,0,0,0,0,0,0,0,0,0,0,0,0,0,0,0,0,0,0,0,0,0,0,0,0,0,0,0,0,0,0,0,0,0,0,0,0,0,0,0,
0,0,0,0,0,0,0,0,0,0,0,0,0,0,0,0,0,0,0,0,0,0,0,0,0,0,0,0,0,0,0,0,0,0,0,0,0,0,0,0,0,0,0,0,0,0,0,0,0,0,0,0,0,0,0,0,0,0,0,0,0,0,0,0,
0,0,0,0,0,0,0,0,0,0,0,0,0,0,0,0,0,0,0,0,0,0,0,0,0,0,0,0,0,0,0,0,0,0,0,0,0,0,0,0,0,0,0,0,0,0,0,0,0,0,0,0,0,0,0,0,0,0,0,0,0,0,0,0,
0,0,0,0,0,0,0,0,0,0,0,0,0,0,0,0,0,0,0,0,0,0,0,0,0,0,0,0,0,0,0,0,0,0,0,0,0,0,0,0,0,0,0,0,0,0,0,0,0,0,0,0,0,0,0,0,0,0,0,0,0,0,0,0,
0,0,0,0,0,0,0,0,0,0,0,0,0,0,0,0,0,0,0,0,0,0,0,0,0,0,0,0,0,0,0,0,0,0,0,0,0,0,0,0,0,0,0,0,0,0,0,0,0,0,0,0,0,0,0,0,0,0,0,0,0,0,0,0,
0,0,0,0,0,0,0,0,0,0,0,0,0,0,0,0,0,0,0,0,0,0,0,0,0,0,0,0,0,0,0,0,0,0,0,0,0,0,0,0,0,0,0,0,0,0,0,0,0,0,0,0,0,0,0,0,0,0,0,0,0,0,0,0,
0,0,0,0,0,0,0,0,0,0,0,0,0,0,0,0,0,0,0,0,0,0,0,0,0,0,0,0,0,0,0,0,0,0,0,0,0,0,0,0,0,0,0,0,0,0,0,0,0,0,0,0,0,0,0,0,0,0,0,0,0,0,0,0,
0,0,0,0,0,0,0,0,0,0,0,0,0,0,0,0,0,0,0,0,0,0,0,0,0,0,0,0,0,0,0,0,0,0,0,0,0,0,0,0,0,0,0,0,0,0,0,0,0,0,0,0,0,0,0,0,0,0,0,0,0,0,0,0,
0,0,0,0,0,0,0,0,0,0,0,0,0,0,0,0,0,0,0,0,0,0,0,0,0,0,0,0,0,0,0,0,0,0,0,0,0,0,0,0,0,0,0,0,0,0,0,0,0,0,0,0,0,0,0,0,0,0,0,0,0,0,0,0,
0,0,0,0,0,0,0,0,0,0,0,0,0,0,0,0,0,0,0,0,0,0,0,0,0,0,0,0,0,0,0,0,0,0,0,0,0,0,0,0,0,0,0,0,0,0,0,0,0,0,0,0,0,0,0,0,0,0,0,0,0,0,0,0,
0,0,0,0,0,0,0,0,0,0,0,0,0,0,0,0,0,0,0,0,0,0,0,0,0,0,0,0,0,0,0,0,0,0,0,0,0,0,0,0,0,0,0,0,0,0,0,0,0,0,0,0,0,0,0,0,0,0,0,0,0,0,0,0,
0,0,0,0,0,0,0,0,0,0,0,0,0,0,0,0,0,0,0,0,0,0,0,0,0,0,0,0,0,0,0,0,0,0,0,0,0,0,0,0,0,0,0,0,0,0,0,0,0,0,0,0,0,0,0,0,0,0,0,0,0,0,0,0,
0,0,0,0,0,0,0,0,0,0,0,0,0,0,0,0,0,0,0,0,0,0,0,0,0,0,0,0,0,0,0,0,0,0,0,0,0,0,0,0,0,0,0,0,0,0,0,0,0,0,0,0,0,0,0,0,0,0,0,0,0,0,0,0
</data>
 </layer>
 <objectgroup id="20" name="collisioni">
  <object id="38" x="262.968" y="323.484" width="47.9026" height="942.374"/>
  <object id="39" x="294.322" y="1326.82" width="178.546" height="166.353"/>
  <object id="40" x="315.66" y="753.3" width="178.546" height="166.353"/>
  <object id="41" x="268.629" y="328.274" width="178.546" height="166.353"/>
  <object id="42" x="1482.74" y="501.594" width="178.546" height="166.353"/>
  <object id="43" x="1417.42" y="1328.13" width="178.546" height="166.353"/>
  <object id="44" x="1611.64" y="718.462" width="80.128" height="870.085"/>
  <object id="45" x="1030.72" y="323.919" width="620.991" height="67.935"/>
  <object id="46" x="271.242" y="322.613" width="554.798" height="67.935"/>
  <object id="47" x="775.525" y="1188.34" width="18.2893" height="18.2905"/>
  <object id="48" x="1096.91" y="1281.1" width="18.2893" height="18.2905"/>
  <object id="49" x="1128.26" y="1124.33" width="18.2893" height="18.2905"/>
  <object id="50" x="1258.03" y="1030.26" width="18.2893" height="18.2905"/>
  <object id="51" x="1160.49" y="806.429" width="18.2893" height="18.2905"/>
  <object id="52" x="1061.2" y="742.849" width="18.2893" height="18.2905"/>
  <object id="53" x="899.201" y="967.555" width="18.2893" height="18.2905"/>
  <object id="54" x="925.33" y="968.426" width="18.2893" height="18.2905"/>
  <object id="55" x="921.846" y="943.169" width="18.2893" height="18.2905"/>
  <object id="56" x="898.33" y="946.652" width="18.2893" height="18.2905"/>
  <object id="57" x="902.685" y="923.137" width="18.2893" height="18.2905"/>
  <object id="58" x="914.007" y="901.363" width="18.2893" height="18.2905"/>
  <object id="59" x="932.297" y="921.395" width="18.2893" height="18.2905"/>
  <object id="60" x="937.523" y="962.33" width="18.2893" height="18.2905"/>
  <object id="61" x="920.104" y="883.073" width="18.2893" height="18.2905"/>
  <object id="62" x="900.072" y="903.976" width="18.2893" height="18.2905"/>
  <object id="63" x="707.591" y="873.492" width="18.2893" height="18.2905"/>
  <object id="64" x="682.333" y="759.397" width="18.2893" height="18.2905"/>
  <object id="65" x="684.946" y="801.203" width="18.2893" height="18.2905"/>
  <object id="66" x="706.72" y="827.331" width="18.2893" height="18.2905"/>
  <object id="67" x="729.365" y="826.461" width="18.2893" height="18.2905"/>
  <object id="68" x="730.236" y="795.106" width="18.2893" height="18.2905"/>
  <object id="69" x="732.849" y="776.816" width="18.2893" height="18.2905"/>
  <object id="70" x="707.591" y="761.139" width="18.2893" height="18.2905"/>
  <object id="71" x="709.333" y="787.268" width="18.2893" height="18.2905"/>
  <object id="72" x="738.945" y="769.848" width="18.2893" height="18.2905"/>
  <object id="73" x="683.204" y="780.3" width="18.2893" height="18.2905"/>
  <object id="74" x="659.688" y="643.56" width="18.2893" height="18.2905"/>
  <object id="75" x="693.656" y="653.14" width="18.2893" height="18.2905"/>
  <object id="76" x="697.139" y="687.108" width="18.2893" height="18.2905"/>
  <object id="77" x="675.366" y="709.752" width="18.2893" height="18.2905"/>
  <object id="78" x="645.753" y="694.946" width="18.2893" height="18.2905"/>
  <object id="79" x="648.366" y="684.495" width="18.2893" height="18.2905"/>
  <object id="80" x="676.236" y="681.011" width="18.2893" height="18.2905"/>
  <object id="81" x="742.429" y="1095.59" width="18.2893" height="18.2905"/>
  <object id="82" x="1235.39" y="647.044" width="57.4823" height="58.3545"/>
  <object id="83" x="648.801" y="1237.55" width="57.4823" height="58.3545"/>
  <object id="84" x="588.705" y="1312.45" width="220.351" height="58.3545"/>
  <object id="85" x="1032.46" y="1316.81" width="312.672" height="58.3545"/>
  <object id="86" x="1318.13" y="1000.65" width="44.4177" height="373.64"/>
  <object id="87" x="1376.48" y="987.587" width="207.286" height="24.3875"/>
  <object id="88" x="1032.89" y="583.899" width="306.575" height="50.5162"/>
  <object id="89" x="591.319" y="585.641" width="224.705" height="50.5162"/>
  <object id="90" x="584.351" y="644.866" width="44.4172" height="706.346"/>
  <object id="91" x="1320.74" y="649.656" width="44.4172" height="202.063"/>
  <object id="104" x="1100.83" y="1018.51" width="67.9345" height="95.8051"/>
  <object id="105" x="1071.21" y="1181.38" width="67.9345" height="95.8051"/>
  <object id="108" x="1010" y="1391"/>
  <object id="109" x="876" y="682" width="14" height="20"/>
  <object id="111" x="841.5" y="1575.5" width="17" height="15.75"/>
  <object id="112" x="1000.75" y="1574" width="80.5" height="24.25"/>
  <object id="113" x="868.5" y="1549.5" width="20" height="169.75"/>
  <object id="114" x="890.5" y="1575" width="94.25" height="65"/>
  <object id="115" x="970" y="1549.25" width="14.25" height="35.5"/>
  <object id="116" x="5" y="1566" width="854" height="80"/>
  <object id="117" x="1037" y="1572" width="1006" height="69"/>
  <object id="118" x="1676" y="22" width="356" height="1589"/>
  <object id="119" x="9" y="36" width="1930" height="233"/>
  <object id="120" x="17" y="278" width="228" height="1298"/>
  <object id="121" x="945" y="324.333" width="68" height="83.6667"/>
  <object id="122" x="833.333" y="325" width="54.3333" height="80.3333"/>
  <object id="123" x="812" y="384.333" width="12" height="19"/>
  <object id="124" x="877" y="327.667" width="98.3333" height="9"/>
  <object id="125" x="937.333" y="333.333" width="1.66667" height="28.3333"/>
  <object id="126" x="1231.5" y="652.5" width="69" height="65.5"/>
  <object id="127" x="653" y="1230" width="76.5" height="57.5"/>
 </objectgroup>
 <objectgroup color="#ff0000" id="6" name="eventi">
  <object id="2" name="trainer" type="trainer" x="669.552" y="478.258" width="32" height="32">
   <properties>
    <property name="direzione" value="est"/>
    <property name="id" value="all-bosco-11"/>
    <property name="sprite" value="ARQUEOLOGA"/>
    <property name="type" value="trainer"/>
    <property name="vista" type="int" value="13"/>
   </properties>
  </object>
  <object id="3" name="trainer" type="trainer" x="729.903" y="934.097" width="32" height="32">
   <properties>
    <property name="direzione" value="est"/>
    <property name="id" value="all-bosco-12"/>
    <property name="sprite" value="YOUNGSTER"/>
    <property name="type" value="trainer"/>
    <property name="vista" type="int" value="4"/>
   </properties>
  </object>
  <object id="4" name="trainer" type="trainer" x="1531.54" y="928.901" width="32" height="32">
   <properties>
    <property name="direzione" value="ovest"/>
    <property name="direzione_ciclo" value="NS"/>
    <property name="id" value="all-bosco-13"/>
    <property name="pattuglia" type="bool" value="true"/>
    <property name="sprite" value="LASS"/>
    <property name="type" value="trainer"/>
    <property name="vista" type="int" value="5"/>
   </properties>
  </object>
  <object id="5" name="trainer" type="trainer" x="1025.52" y="1029.42" width="32" height="32">
   <properties>
    <property name="direzione" value="nord"/>
    <property name="id" value="all-bosco-14"/>
    <property name="sprite" value="BUGCATCHER"/>
    <property name="type" value="trainer"/>
    <property name="vista" type="int" value="4"/>
   </properties>
  </object>
  <object id="6" name="trainer" type="trainer" x="1410.12" y="480.719" width="32" height="32">
   <properties>
    <property name="direzione" value="nord"/>
    <property name="direzione_ciclo" value="NS"/>
    <property name="id" value="all-bosco-15"/>
    <property name="pattuglia" type="bool" value="true"/>
    <property name="sprite" value="ARQUEOLOGA"/>
    <property name="type" value="trainer"/>
    <property name="vista" type="int" value="5"/>
   </properties>
  </object>
  <object id="7" name="trainer" type="trainer" x="670.422" y="1408.65" width="32" height="32">
   <properties>
    <property name="direzione" value="est"/>
    <property name="id" value="all-bosco-16"/>
    <property name="sprite" value="YOUNGSTER"/>
    <property name="type" value="trainer"/>
    <property name="vista" type="int" value="4"/>
   </properties>
  </object>
  <object id="8" name="npc" type="npc" x="767.97" y="703.324" width="32" height="32">
   <properties>
    <property name="direzione" value="nord"/>
    <property name="id" value="tusc_rov_npc1"/>
    <property name="sprite" value="NPC_34"/>
    <property name="type" value="npc"/>
   </properties>
  </object>
  <object id="9" name="npc" type="npc" x="1237.41" y="1228.87" width="32" height="32">
   <properties>
    <property name="direzione" value="sud"/>
    <property name="id" value="tusc_rov_npc2"/>
    <property name="movimento" value="random"/>
    <property name="raggio" type="int" value="3"/>
    <property name="sprite" value="NPC_35"/>
    <property name="type" value="npc"/>
   </properties>
  </object>
  <object id="10" name="npc" type="npc" x="675.74" y="1120.71" width="32" height="32">
   <properties>
    <property name="direzione" value="est"/>
    <property name="id" value="tusc_rov_npc3"/>
    <property name="sprite" value="NPC_36"/>
    <property name="type" value="npc"/>
   </properties>
  </object>
  <object id="11" name="npc" type="npc" x="1250.36" y="740.97" width="32" height="32">
   <properties>
    <property name="direzione" value="ovest"/>
    <property name="id" value="tusc_rov_npc4"/>
    <property name="sprite" value="NPC_37"/>
    <property name="type" value="npc"/>
   </properties>
  </object>
  <object id="12" name="tusc_rov_pietraarc" type="oggetto" x="445.746" y="608.359" width="32" height="32">
   <properties>
    <property name="contenuto" value="pietra_arcobaleno"/>
    <property name="id" value="tusc_rov_pietraarc"/>
    <property name="quantita" type="int" value="1"/>
    <property name="type" value="oggetto"/>
   </properties>
  </object>
  <object id="13" name="tusc_rov_fullrestore" type="oggetto" x="1599.25" y="447.232" width="32" height="32">
   <properties>
    <property name="contenuto" value="superpozione"/>
    <property name="id" value="tusc_rov_fullrestore"/>
    <property name="quantita" type="int" value="2"/>
    <property name="type" value="oggetto"/>
   </properties>
  </object>
  <object id="14" name="tusc_rov_rare" type="oggetto" x="1149.45" y="701.326" width="32" height="32">
   <properties>
    <property name="contenuto" value="rarità_tuscolo"/>
    <property name="id" value="tusc_rov_rare"/>
    <property name="quantita" type="int" value="1"/>
    <property name="type" value="oggetto"/>
   </properties>
  </object>
  <object id="15" name="tusc_rov_ether" type="oggetto" x="384.195" y="1182.35" width="32" height="32">
   <properties>
    <property name="contenuto" value="etere"/>
    <property name="id" value="tusc_rov_ether"/>
    <property name="quantita" type="int" value="1"/>
    <property name="type" value="oggetto"/>
   </properties>
  </object>
  <object id="16" name="tusc_rov_pokeball" type="oggetto" x="1474.84" y="1153.97" width="32" height="32">
   <properties>
    <property name="contenuto" value="pokeball"/>
    <property name="id" value="tusc_rov_pokeball"/>
    <property name="quantita" type="int" value="2"/>
    <property name="type" value="oggetto"/>
   </properties>
  </object>
  <object id="17" name="cartello" type="cartello" x="996" y="1376" width="25" height="21.5">
   <properties>
    <property name="testo" value="Rovine di Tuscolo — Antico insediamento romano"/>
    <property name="type" value="cartello"/>
   </properties>
  </object>
  <object id="19" name="warp" type="warp" x="898" y="356" width="32" height="32">
   <properties>
    <property name="destinazione" value="tuscolo_profondo"/>
    <property name="spawn_id" value="da_tuscolo_rovine_nord"/>
    <property name="type" value="warp"/>
   </properties>
  </object>
  <object id="20" name="warp" type="warp" x="898" y="359" width="32" height="32">
   <properties>
    <property name="destinazione" value="tuscolo_profondo"/>
    <property name="spawn_id" value="da_tuscolo_rovine_nord"/>
    <property name="type" value="warp"/>
   </properties>
  </object>
  <object id="21" name="warp" type="warp" x="898" y="379" width="32" height="32">
   <properties>
    <property name="destinazione" value="tuscolo_profondo"/>
    <property name="spawn_id" value="da_tuscolo_rovine_nord"/>
    <property name="type" value="warp"/>
   </properties>
  </object>
  <object id="22" name="warp" type="warp" x="898" y="370" width="32" height="32">
   <properties>
    <property name="destinazione" value="tuscolo_profondo"/>
    <property name="spawn_id" value="da_tuscolo_rovine_nord"/>
    <property name="type" value="warp"/>
   </properties>
  </object>
  <object id="23" name="warp" type="warp" x="891.75" y="1548.5" width="18.75" height="18.75">
   <properties>
    <property name="destinazione" value="tuscolo_interno"/>
    <property name="spawn_id" value="da_tuscolo_rovine"/>
    <property name="type" value="warp"/>
   </properties>
  </object>
  <object id="24" name="warp" type="warp" x="910.5" y="1548.5" width="18.75" height="18.75">
   <properties>
    <property name="destinazione" value="tuscolo_interno"/>
    <property name="spawn_id" value="da_tuscolo_rovine"/>
    <property name="type" value="warp"/>
   </properties>
  </object>
  <object id="25" name="warp" type="warp" x="929.25" y="1548.5" width="18.75" height="18.75">
   <properties>
    <property name="destinazione" value="tuscolo_interno"/>
    <property name="spawn_id" value="da_tuscolo_rovine"/>
    <property name="type" value="warp"/>
   </properties>
  </object>
  <object id="26" name="warp" type="warp" x="948" y="1548.5" width="18.75" height="18.75">
   <properties>
    <property name="destinazione" value="tuscolo_interno"/>
    <property name="spawn_id" value="da_tuscolo_rovine"/>
    <property name="type" value="warp"/>
   </properties>
  </object>
  <object id="27" name="spawn" type="spawn" x="910.5" y="1515.25" width="16.25" height="19.25">
   <properties>
    <property name="id" value="da_tuscolo_interno_nord"/>
    <property name="type" value="spawn"/>
   </properties>
  </object>
  <object id="28" name="spawn" type="spawn" x="900" y="412" width="32" height="32">
   <properties>
    <property name="id" value="da_tuscolo_profondo"/>
    <property name="type" value="spawn"/>
   </properties>
  </object>
  <object id="92" name="erba alta percorso 1" x="324.749" y="404.812" width="244.852" height="607.269">
   <properties>
    <property name="id" value="incontri tuscolo"/>
    <property name="type" value="erba_alta"/>
   </properties>
  </object>
  <object id="93" name="erba alta percorso 1" x="1379.04" y="363.006" width="277.077" height="494.045">
   <properties>
    <property name="id" value="incontri tuscolo"/>
    <property name="type" value="erba_alta"/>
   </properties>
  </object>
  <object id="94" name="erba alta percorso 1" x="1031.09" y="423.102" width="340.657" height="156.114">
   <properties>
    <property name="id" value="incontri tuscolo"/>
    <property name="type" value="erba_alta"/>
   </properties>
  </object>
  <object id="95" name="erba alta percorso 1" x="615.213" y="418.747" width="178.659" height="156.114">
   <properties>
    <property name="id" value="incontri tuscolo"/>
    <property name="type" value="erba_alta"/>
   </properties>
  </object>
  <object id="96" name="erba alta percorso 1" x="1354.22" y="1018.84" width="277.077" height="184.856">
   <properties>
    <property name="id" value="incontri tuscolo"/>
    <property name="type" value="erba_alta"/>
   </properties>
  </object>
  <object id="97" name="erba alta percorso 1" x="1378.61" y="1255.3" width="277.077" height="265.855">
   <properties>
    <property name="id" value="incontri tuscolo"/>
    <property name="type" value="erba_alta"/>
   </properties>
  </object>
  <object id="98" name="erba alta percorso 1" x="1254.93" y="1383.77" width="111.595" height="140.437">
   <properties>
    <property name="id" value="incontri tuscolo"/>
    <property name="type" value="erba_alta"/>
   </properties>
  </object>
  <object id="99" name="erba alta percorso 1" x="1021.51" y="1380.28" width="84.5954" height="140.437">
   <properties>
    <property name="id" value="incontri tuscolo"/>
    <property name="type" value="erba_alta"/>
   </properties>
  </object>
  <object id="100" name="erba alta percorso 1" x="1160.43" y="1379.41" width="36.6928" height="140.437">
   <properties>
    <property name="id" value="incontri tuscolo"/>
    <property name="type" value="erba_alta"/>
   </properties>
  </object>
  <object id="101" name="erba alta percorso 1" x="614.777" y="1375.93" width="209.142" height="140.437">
   <properties>
    <property name="id" value="incontri tuscolo"/>
    <property name="type" value="erba_alta"/>
   </properties>
  </object>
  <object id="102" name="erba alta percorso 1" x="464.973" y="1229.61" width="106.369" height="284.145">
   <properties>
    <property name="id" value="incontri tuscolo"/>
    <property name="type" value="erba_alta"/>
   </properties>
  </object>
  <object id="103" name="erba alta percorso 1" x="293.395" y="1011.87" width="176.046" height="488.819">
   <properties>
    <property name="id" value="incontri tuscolo"/>
    <property name="type" value="erba_alta"/>
   </properties>
  </object>
  <object id="107" name="cartello" type="cartello" x="864" y="671" width="32" height="32">
   <properties>
    <property name="testo" value="Boschi del Tuscolo — Cuore del bosco - Attenzione ai custodi, rari da incontrare difficili da battere"/>
    <property name="type" value="cartello"/>
   </properties>
  </object>
 </objectgroup>
</map>
