<?xml version="1.0" encoding="UTF-8"?>
<map version="1.10" tiledversion="1.12.2" orientation="orthogonal" renderorder="right-down" width="36" height="30" tilewidth="32" tileheight="32" infinite="0" backgroundcolor="#000000" nextlayerid="21" nextobjectid="80">
 <tileset firstgid="1" source="../../outside.tsx"/>
 <tileset firstgid="4017" source="../../Emerald_Outside.tsx"/>
 <layer id="1" name="ground" width="36" height="30">
  <data encoding="csv">
219,219,219,219,219,219,219,219,219,219,219,219,219,219,219,219,219,219,219,219,219,219,219,219,219,219,219,219,219,219,219,219,219,219,219,219,
219,219,219,219,219,219,219,219,219,219,219,219,219,219,219,219,219,219,219,219,219,219,219,219,219,219,219,219,219,219,219,219,219,219,219,219,
219,219,219,219,219,219,219,219,219,219,219,219,219,219,219,219,219,219,219,219,219,219,219,219,219,219,219,219,219,219,219,219,219,219,219,219,
219,219,219,219,219,219,219,219,219,219,219,219,219,219,219,219,219,219,219,219,219,219,219,219,219,219,219,219,219,219,219,219,219,219,219,219,
219,219,219,219,219,219,219,219,219,219,219,219,219,219,219,219,219,219,219,219,219,219,219,219,219,219,219,219,219,219,219,219,219,219,219,219,
219,219,219,219,219,219,219,219,219,219,219,219,219,219,219,219,219,219,219,219,219,219,219,219,219,219,219,219,219,219,219,219,219,219,219,219,
219,219,219,219,219,219,219,219,219,219,219,219,219,219,219,219,219,219,219,219,219,219,219,219,219,219,219,219,219,219,219,219,219,219,219,219,
219,219,219,219,219,219,219,219,219,219,219,219,219,219,219,219,219,219,219,219,219,219,219,219,219,219,219,219,219,219,219,219,219,219,219,219,
219,219,219,219,219,219,219,219,219,219,219,219,219,219,219,219,219,219,219,219,219,219,219,219,219,219,219,219,219,219,219,219,219,219,219,219,
219,219,219,219,219,219,219,219,219,219,219,219,219,219,219,219,219,219,219,219,219,219,219,219,219,219,219,219,219,219,219,219,219,219,219,219,
219,219,219,219,219,219,219,219,219,219,219,219,219,219,219,219,219,219,219,219,219,219,219,219,219,219,219,219,219,219,219,219,219,219,219,219,
219,219,219,219,219,219,219,219,219,219,219,219,219,219,219,219,219,219,219,219,219,219,219,219,219,219,219,219,219,219,219,219,219,219,219,219,
219,219,219,219,219,219,219,219,219,219,219,219,219,219,219,219,219,219,219,219,219,219,219,219,219,219,219,219,219,219,219,219,219,219,219,219,
219,219,219,219,219,219,219,219,219,219,219,219,219,219,219,219,219,219,219,219,219,219,219,219,219,219,219,219,219,219,219,219,219,219,219,219,
219,219,219,219,219,219,219,219,219,219,219,219,219,219,219,219,219,219,219,219,219,219,219,219,219,219,219,219,219,219,219,219,219,219,219,219,
219,219,219,219,219,219,219,219,219,219,219,219,219,219,219,219,219,219,219,219,219,219,219,219,219,219,219,219,219,219,219,219,219,219,219,219,
219,219,219,219,219,219,219,219,219,219,219,219,219,219,219,219,219,219,219,219,219,219,219,219,219,219,219,219,219,219,219,219,219,219,219,219,
219,219,219,219,219,219,219,219,219,219,219,219,219,219,219,219,219,219,219,219,219,219,219,219,219,219,219,219,219,219,219,219,219,219,219,219,
219,219,219,219,219,219,219,219,219,219,219,219,219,219,219,219,219,219,219,219,219,219,219,219,219,219,219,219,219,219,219,219,219,219,219,219,
219,219,219,219,219,219,219,219,219,219,219,219,219,219,219,219,219,219,219,219,219,219,219,219,219,219,219,219,219,219,219,219,219,219,219,219,
219,219,219,219,219,219,219,219,219,219,219,219,219,219,219,219,219,219,219,219,219,219,219,219,219,219,219,219,219,219,219,219,219,219,219,219,
219,219,219,219,219,219,219,219,219,219,219,219,219,219,219,219,219,219,219,219,219,219,219,219,219,219,219,219,219,219,219,219,219,219,219,219,
219,219,219,219,219,219,219,219,219,219,219,219,219,219,219,219,219,219,219,219,219,219,219,219,219,219,219,219,219,219,219,219,219,219,219,219,
219,219,219,219,219,219,219,219,219,219,219,219,219,219,219,219,219,219,219,219,219,219,219,219,219,219,219,219,219,219,219,219,219,219,219,219,
219,219,219,219,219,219,219,219,219,219,219,219,219,219,219,219,219,219,219,219,219,219,219,219,219,219,219,219,219,219,219,219,219,219,219,219,
219,219,219,219,219,219,219,219,219,219,219,219,219,219,219,219,219,219,219,219,219,219,219,219,219,219,219,219,219,219,219,219,219,219,219,219,
219,219,219,219,219,219,219,219,219,219,219,219,219,219,219,219,219,219,219,219,219,219,219,219,219,219,219,219,219,219,219,219,219,219,219,219,
219,219,219,219,219,219,219,219,219,219,219,219,219,219,219,219,219,219,219,219,219,219,219,219,219,219,219,219,219,219,219,219,219,219,219,219,
219,219,219,219,219,219,219,219,219,219,219,219,219,219,219,219,219,219,219,219,219,219,219,219,219,219,219,219,219,219,219,219,219,219,219,219,
219,219,219,219,219,219,219,219,219,219,219,219,219,219,219,219,219,219,219,219,219,219,219,219,219,219,219,219,219,219,219,219,219,219,219,219
</data>
 </layer>
 <layer id="2" name="deco_sotto" width="36" height="30">
  <data encoding="csv">
5976,5976,5976,5976,5996,5997,5998,5976,5976,5976,5976,5976,5976,5976,5976,5976,5996,5997,5998,5976,5976,5976,5976,5976,5976,5976,5976,5976,5996,5997,5998,5976,5976,5976,5976,5976,
5984,5984,5984,5984,6004,6005,6006,5984,5984,5984,5984,5984,5984,5984,5984,5984,6004,6005,6006,5984,5984,5984,5984,5984,5984,5984,5984,5984,6004,6005,6006,5984,5984,5984,5984,5984,
5944,5989,5989,5989,5989,5989,5989,5989,5989,5989,5989,5989,5989,5989,5989,5989,5989,5989,5989,5989,5989,5989,5989,5989,5989,5989,5989,5989,5989,5989,5989,5989,5989,5989,5989,5944,
5952,5989,5989,5989,5989,5989,5989,5991,5989,5989,5989,5989,5989,5989,5989,5989,5989,5989,5989,5989,5989,5989,5989,5989,5989,5989,5989,5989,5989,5989,5989,5989,5989,5989,5989,5952,
5960,5989,5991,5989,5989,5989,5989,5989,5989,5989,5989,5989,5989,5989,5989,5989,5989,5989,5989,5989,5989,5989,5989,5989,5989,5989,5989,5989,5989,5989,5989,5989,5989,5989,5989,5960,
5968,5989,5989,5989,5989,5989,5989,5989,5989,5989,5989,5989,5989,5989,5989,5989,5989,5989,5989,5989,5989,5989,5989,5989,5989,5989,5989,5989,5989,5989,5989,5989,5989,5989,5989,5968,
5944,5989,5989,5989,5989,5989,5991,5989,5989,5989,5989,5989,5989,5989,5989,5989,5991,5989,5989,5989,5989,5989,5989,5989,5989,5989,5989,5991,5989,5989,5989,5989,5989,5989,5989,5944,
5952,5989,5989,5989,5989,5989,5991,5991,5989,5989,5989,5989,5989,5989,5989,5989,5989,5989,5989,5991,5989,5989,5989,5989,5989,5989,5989,5989,5989,5989,5989,5989,5989,5989,5989,5952,
5960,5989,5989,5989,5989,5989,5989,5989,5989,5989,5989,5989,5989,5989,5989,5989,5989,5989,5989,5989,5989,5989,5989,5989,5989,5989,5989,5989,5989,5989,5989,5989,5989,5989,5989,5960,
5968,5989,5989,5989,5989,5989,5989,5989,5989,5989,5989,5989,5989,5989,5989,5989,5989,5989,5989,5989,5989,5989,5989,5989,5989,5989,5989,5989,5989,5989,5989,5989,5989,949,5989,5968,
5944,5989,5989,5989,5989,5989,5989,5989,5989,5989,5989,5989,5989,5989,5989,5989,5991,5989,5989,5989,5989,5989,5989,5989,5989,5989,5989,5989,5989,5989,5989,5989,5989,5989,5989,5944,
5952,5989,5989,5989,5989,5991,5989,5989,5989,5989,5989,5989,5989,5989,5989,5989,5989,5989,5989,5989,5989,5989,5989,5989,5989,5989,5989,5989,5989,5989,5989,5989,5989,5989,5989,5952,
5960,5989,5989,5989,5989,5989,5989,5989,5989,5989,5989,5989,5989,5989,5989,5989,5989,5989,5989,5989,5989,5989,5989,5989,5989,5989,5989,5991,5989,5989,5989,5989,5989,5989,5989,5960,
5968,5989,5989,5989,5989,5989,5989,5989,5989,5989,5989,5989,5989,5989,5989,5989,5989,5989,5989,5989,5989,5989,5989,5989,5989,5989,5989,5991,5989,5989,5991,5989,5989,5989,5989,5968,
5944,5989,5989,5989,5989,5989,5989,5991,5989,5989,5989,5989,5989,5989,5989,5989,5989,5989,5989,5989,5989,5989,5991,5989,5989,5989,5989,5989,5989,5989,5989,5989,5989,5989,5989,5944,
5952,5989,5989,5989,5991,5989,5989,5989,5989,5989,5989,5989,5989,5989,5989,5989,5989,5989,5989,5989,5989,5989,5989,5989,5989,5989,5989,5989,5989,5989,5989,5989,5989,5989,5989,5952,
5960,5989,5989,5989,5991,5989,5989,5989,5989,5989,5989,5989,5989,5989,5989,5989,5989,5989,5989,5989,5989,5989,5989,5989,5989,5989,5989,5989,5989,5989,5989,5989,5989,5989,5989,5960,
5968,5989,5989,5989,5989,5989,5989,5989,5989,5989,5989,5989,5989,5989,5989,5989,5989,5989,5989,5989,5989,5989,5989,5989,5989,5989,5989,5989,5991,5989,5989,5989,5989,5989,5989,5968,
5944,5989,5989,5989,5989,5989,5989,5989,5989,5989,5989,5989,5989,5989,5989,5989,5989,5989,5989,5989,5989,5989,5989,5989,5989,5989,5989,5991,5991,5989,5991,5989,5989,5989,5989,5944,
5952,5989,5989,5989,5989,5989,5989,5989,5989,5989,5989,5989,5989,5989,5989,5989,5989,5989,5989,5989,5989,5989,5989,5989,5989,5989,5989,5989,5989,5989,5991,5991,5989,5989,5989,5952,
5960,5989,5989,5989,5989,5989,5989,5991,5989,5989,5989,5989,5989,5989,5989,967,5989,5989,967,5989,5989,5989,5989,5989,5989,5989,5989,5989,5989,5989,5989,5991,5989,5989,5989,5960,
5968,5989,5989,5989,5989,5989,5989,5989,5989,5989,5989,5989,5989,5989,5989,975,5989,5989,975,5989,5989,5989,5989,5989,5989,5989,5989,5989,5989,5989,5989,5989,5989,5989,5989,5968,
5944,5989,5989,5989,5989,5989,5989,5989,5989,5989,5991,5989,5989,5989,5989,967,5989,5989,967,5989,5989,5989,5989,5989,5989,5989,5989,5989,5989,5989,5989,5991,5989,5989,5989,5944,
5952,5989,5989,5991,5991,5989,5989,5989,5989,5989,5989,5989,5991,5989,5989,975,5989,5989,975,5989,5989,5989,5989,5989,5989,949,5989,5989,5989,5989,5989,5991,5989,5989,5989,5952,
5960,5989,5989,5989,5991,5989,5989,5989,5989,5989,5989,5989,5989,5991,5989,967,5989,5989,967,5989,5989,5989,5989,5989,5989,5989,5989,5989,5989,5989,5989,5989,5989,5989,5989,5960,
5968,5989,5989,5989,5989,5989,5989,5989,5991,5991,5989,5989,5989,5989,5989,975,5989,5989,975,5989,5989,5989,5989,5989,5989,5989,5989,5989,5989,5989,5989,5989,5989,5989,5989,5968,
5944,5989,5989,5989,5989,5991,5989,5989,5989,5989,5989,5989,5989,5989,5989,967,5989,5989,967,5989,5989,5989,5991,5989,5989,5989,5989,5989,5989,5989,5989,5991,5989,5989,5989,5944,
5952,5989,949,5989,5989,5989,5989,5989,5989,5989,5989,5989,5989,5989,5989,975,5989,5989,975,5989,5989,5989,5989,5989,5989,5989,5989,5989,5989,5989,5989,5989,5989,5989,5989,5952,
5960,5989,5989,5989,5989,5989,5989,5989,5989,5989,5989,5989,5989,5989,5989,967,5989,5989,967,5989,5989,5989,5989,5989,5989,5989,5989,5989,5989,5989,5989,5989,5989,5989,5989,5960,
5968,5960,5960,5952,5952,5960,5952,5960,5952,5960,5960,5952,944,5952,944,975,5989,5989,975,5952,944,5952,944,5960,5960,5952,5960,5960,5952,5960,5960,5952,5960,5960,5960,5968
</data>
 </layer>
 <layer id="3" name="edifici" width="36" height="30">
  <data encoding="csv">
0,0,0,0,0,0,0,0,0,0,0,0,0,0,0,0,0,0,0,0,0,0,0,0,0,0,0,0,0,0,0,0,0,0,0,0,
0,0,0,1153,0,0,0,1153,0,0,0,0,0,0,0,1153,0,0,0,1153,0,0,0,0,0,0,0,1153,0,0,0,1153,0,0,0,0,
0,0,0,1161,0,0,0,1161,0,0,1150,1151,1152,0,0,1161,0,0,0,1161,0,0,0,1150,1151,1152,0,1161,0,0,0,1161,1151,1152,0,0,
0,0,0,1153,0,0,0,0,0,0,1158,1159,1160,0,0,0,0,0,0,0,0,0,0,1158,1159,1160,0,0,0,0,0,1158,1159,1160,0,0,
0,0,0,1161,0,0,0,0,0,0,1166,1167,1168,0,0,0,0,0,0,0,0,0,0,1166,1167,1168,0,0,0,0,0,1166,1167,1168,0,0,
0,0,0,1153,0,0,0,0,0,0,1174,1175,1176,0,0,0,0,0,0,0,0,0,0,1174,1175,1176,0,0,0,0,0,1174,1175,1176,0,0,
0,0,0,1161,0,0,0,0,0,0,0,0,0,0,0,0,0,0,0,0,0,0,0,0,0,0,0,865,866,867,0,0,0,0,0,0,
0,0,0,1153,0,0,0,0,0,0,0,0,0,955,0,0,0,955,0,0,955,0,0,0,0,0,0,873,874,875,0,0,0,0,0,0,
0,0,0,1161,866,867,0,0,0,0,0,0,0,0,0,0,0,0,0,0,0,0,0,0,0,0,0,881,882,883,0,0,0,0,0,0,
0,0,0,873,874,875,0,0,0,0,0,0,0,0,0,0,0,961,962,0,0,0,0,0,0,0,0,0,0,0,0,0,0,0,0,0,
0,0,0,881,882,883,0,0,1150,1151,1152,0,0,0,0,0,0,969,970,0,0,0,0,0,0,1150,1151,1152,0,0,0,0,0,0,0,0,
0,0,0,1153,0,0,0,0,1158,1159,1160,0,0,0,0,0,0,0,0,0,0,0,0,0,0,1158,1159,1160,0,0,0,0,0,0,0,0,
0,0,0,1161,0,0,0,0,1166,1167,1168,0,0,0,0,1153,0,0,0,0,1153,0,0,0,0,1166,1167,1168,0,0,0,0,0,0,0,0,
0,0,0,1153,0,0,0,0,1174,1175,1176,0,0,0,0,1161,0,0,0,0,1161,0,0,0,0,1174,1175,1176,0,0,0,0,0,0,0,0,
0,0,0,1161,0,0,0,0,0,0,0,0,0,0,0,1153,0,0,0,0,1153,0,0,0,0,0,0,0,0,0,0,0,0,0,0,0,
0,0,0,1153,0,0,0,0,0,0,0,0,0,0,0,1161,0,0,0,0,1161,0,0,0,0,0,0,0,0,0,865,866,867,0,0,0,
0,0,0,1161,0,0,0,0,0,0,0,0,0,0,0,0,0,0,0,0,0,0,0,0,0,0,0,0,0,0,873,874,875,0,0,0,
0,0,0,865,866,866,866,866,866,866,866,866,866,866,867,0,0,0,0,0,0,0,0,0,0,0,0,0,0,0,881,882,883,0,0,0,
0,0,0,873,874,874,874,874,874,874,874,874,874,874,875,0,0,0,0,955,0,0,0,865,866,867,0,0,0,0,0,0,0,0,0,0,
0,0,0,873,874,889,882,882,882,882,882,882,882,882,883,0,0,0,0,0,0,0,0,873,874,875,0,0,865,866,867,0,0,0,0,0,
0,0,0,873,874,875,0,0,0,0,0,0,0,0,0,0,0,0,0,0,0,0,0,881,882,883,0,0,873,874,875,0,0,0,0,0,
0,0,0,873,874,875,0,0,0,0,0,0,0,0,0,0,0,0,0,0,0,0,0,0,0,0,0,0,881,882,883,0,0,0,0,0,
0,0,0,873,874,875,0,0,0,0,0,0,0,0,0,0,0,0,0,0,0,0,0,0,0,0,0,0,0,0,0,0,0,0,0,0,
0,0,0,873,874,875,0,0,0,0,0,0,0,0,0,0,0,0,0,0,0,865,866,867,0,0,0,0,0,0,0,0,0,0,0,0,
0,0,0,873,874,875,0,0,0,0,0,0,0,0,0,0,0,0,0,0,0,873,874,875,0,0,0,0,0,0,0,0,0,0,0,0,
0,0,0,873,874,875,0,0,0,0,0,0,0,0,0,0,0,0,0,0,0,881,882,883,0,0,0,0,0,0,0,0,0,0,0,0,
0,865,866,898,874,875,0,0,0,0,0,0,0,0,0,0,0,0,0,0,865,866,867,0,0,0,0,0,0,0,0,0,865,866,867,0,
0,873,898,898,874,875,0,0,0,0,0,0,0,0,0,0,0,0,0,0,873,874,875,0,0,0,0,0,0,0,0,0,873,874,875,0,
0,881,882,882,882,883,0,0,0,0,0,0,0,0,0,0,0,0,0,0,881,882,883,0,0,0,0,0,0,0,0,0,881,882,883,0,
0,0,0,0,0,0,0,0,0,0,0,0,0,0,0,0,0,0,0,0,0,0,0,0,0,0,0,0,0,0,0,0,0,0,0,0
</data>
 </layer>
 <layer id="4" name="sopra_testa" width="36" height="30">
  <data encoding="csv">
0,0,0,0,0,0,0,0,0,0,0,0,0,0,0,0,0,0,0,0,0,0,0,0,0,0,0,0,0,0,0,0,0,0,0,0,
0,0,0,0,0,0,0,0,0,0,0,0,0,0,0,0,0,0,0,0,0,0,0,0,0,0,0,0,0,0,0,0,0,0,0,0,
0,0,0,0,0,0,0,0,0,0,0,0,0,0,0,0,0,0,0,0,0,0,0,0,0,0,0,0,0,0,0,0,0,0,0,0,
0,0,0,0,0,0,0,0,0,0,0,0,0,0,0,0,0,0,0,0,0,0,0,0,0,0,0,0,0,0,0,0,0,0,0,0,
0,0,0,0,0,0,0,0,0,0,0,0,0,0,0,0,0,0,0,0,0,0,0,0,0,0,0,0,0,0,0,0,0,0,0,0,
0,0,0,0,0,0,0,0,0,0,0,0,0,0,0,0,0,0,0,0,0,0,0,0,0,0,0,0,0,0,0,0,0,0,0,0,
0,0,0,0,0,0,0,0,0,0,0,0,0,0,0,0,0,0,0,0,0,0,0,0,0,0,0,0,0,0,0,0,0,0,0,0,
0,0,0,0,0,0,0,0,0,0,0,0,0,0,0,0,0,0,0,0,0,0,0,0,0,0,0,0,0,0,0,0,0,0,0,0,
0,0,0,865,0,0,0,0,0,0,0,0,0,0,0,0,0,0,0,0,0,0,0,0,0,0,0,0,0,0,0,0,0,0,0,0,
0,0,0,0,0,0,0,0,0,0,0,0,0,0,0,0,0,0,0,0,0,0,0,0,0,0,0,0,0,0,0,0,0,0,0,0,
0,0,0,0,0,0,0,0,0,0,0,0,0,0,0,0,0,0,0,0,0,0,0,0,0,0,0,0,0,0,0,0,0,0,0,0,
0,0,0,0,0,0,0,0,0,0,0,0,0,0,0,0,0,0,0,0,0,0,0,0,0,0,0,0,0,0,0,0,0,0,0,0,
0,0,0,0,0,0,0,0,0,0,0,0,0,0,0,0,0,0,0,0,0,0,0,0,0,0,0,0,0,0,0,0,0,0,0,0,
0,0,0,0,0,0,0,0,0,0,0,0,0,0,0,0,0,0,0,0,0,0,0,0,0,0,0,0,0,0,0,0,0,0,0,0,
0,0,0,0,0,0,0,0,0,0,0,0,0,0,0,0,0,0,0,0,0,0,0,0,0,0,0,0,0,0,0,0,0,0,0,0,
0,0,0,0,0,0,0,0,0,0,0,0,0,0,0,0,0,0,0,0,0,0,0,0,0,0,0,0,0,0,0,0,0,0,0,0,
0,0,0,0,0,0,0,0,0,0,0,0,0,0,0,0,0,0,0,0,0,0,0,0,0,0,0,0,0,0,0,0,0,0,0,0,
0,0,0,0,0,0,0,0,0,0,0,0,0,0,4175,0,0,0,0,0,0,0,0,0,0,0,0,0,0,0,0,0,0,0,0,0,
0,0,0,0,0,0,0,0,0,0,0,0,0,0,4183,0,0,0,0,0,0,0,0,0,0,0,0,0,0,0,0,0,0,0,0,0,
0,0,0,0,0,0,0,0,0,0,0,0,0,0,4191,0,0,0,0,0,0,0,0,0,0,0,0,0,0,0,0,0,0,0,0,0,
0,0,0,0,0,0,0,0,0,0,0,0,0,0,0,0,0,0,0,0,0,0,0,0,0,0,0,0,0,0,0,0,0,0,0,0,
0,0,0,0,0,0,0,0,0,0,0,0,0,0,0,0,0,0,0,0,0,0,0,0,0,0,0,0,0,0,0,0,0,0,0,0,
0,0,0,0,0,0,0,0,0,0,0,0,0,0,0,0,0,0,0,0,0,0,0,0,0,0,0,0,0,0,0,0,0,0,0,0,
0,0,0,0,0,0,0,0,0,0,0,0,0,0,0,0,0,0,0,0,0,0,0,0,0,0,0,0,0,0,0,0,0,0,0,0,
0,0,0,0,0,0,0,0,0,0,0,0,0,0,0,0,0,0,0,0,0,0,0,0,0,0,0,0,0,0,0,0,0,0,0,0,
0,0,0,0,0,0,0,0,0,0,0,0,0,0,0,0,0,0,0,0,0,0,0,0,0,0,0,0,0,0,0,0,0,0,0,0,
0,0,0,0,0,0,0,0,0,0,0,0,0,0,0,0,0,0,0,0,0,0,0,0,0,0,0,0,0,0,0,0,0,0,0,0,
0,0,949,0,0,0,0,0,0,0,0,0,0,0,0,0,0,0,0,0,0,0,0,0,0,0,0,0,0,0,0,0,0,0,0,0,
0,0,0,0,0,0,0,0,0,0,0,0,0,0,0,0,0,0,0,0,0,0,0,0,0,0,0,0,0,0,0,0,0,0,0,0,
0,0,0,0,0,0,0,0,0,0,0,0,0,0,0,0,0,0,0,0,0,0,0,0,0,0,0,0,0,0,0,0,0,0,0,0
</data>
 </layer>
 <objectgroup id="20" name="collisioni">
  <object id="42" x="93.9271" y="22.0243" width="23.9676" height="509.798"/>
  <object id="43" x="257.814" y="336.842" width="88.0972" height="102.348"/>
  <object id="44" x="320.648" y="77.7328" width="88.7449" height="111.417"/>
  <object id="48" x="733.927" y="80.9717" width="98.4615" height="110.121"/>
  <object id="49" x="188.502" y="618.623" width="263.644" height="339.433"/>
  <object id="50" x="461.422" y="650.629" width="45.3441" height="301.862"/>
  <object id="51" x="94.5749" y="518.866" width="20.7287" height="304.453"/>
  <object id="52" x="16.8421" y="824.615" width="86.1538" height="7.77328"/>
  <object id="53" x="30.4453" y="842.753" width="16.1943" height="92.6316"/>
  <object id="54" x="36.2753" y="918.543" width="160" height="19.4332"/>
  <object id="55" x="180.729" y="616.68" width="6.47773" height="312.227"/>
  <object id="56" x="584.235" y="642.61" width="19.4197" height="312.874"/>
  <object id="57" x="642.591" y="927.611" width="493.603" height="24.6154"/>
  <object id="58" x="1125.18" y="10.3644" width="16.1943" height="936.68"/>
  <object id="59" x="975.547" y="0.647773" width="169.069" height="58.9474"/>
  <object id="60" x="588.178" y="5.18219" width="323.239" height="45.9919"/>
  <object id="61" x="207.935" y="12.9555" width="322.591" height="42.1053"/>
  <object id="62" x="2.59109" y="7.12551" width="141.862" height="48.583"/>
  <object id="63" x="998.219" y="82.915" width="83.5628" height="106.883"/>
  <object id="64" x="872.607" y="206.999" width="74.9339" height="72.1727"/>
  <object id="65" x="799.352" y="331.66" width="99.1093" height="106.883"/>
  <object id="66" x="745.568" y="588.48" width="71.7517" height="70.8394"/>
  <object id="67" x="685.571" y="750.977" width="70.2294" height="68.4939"/>
  <object id="68" x="656.534" y="846.904" width="72.2105" height="67.7517"/>
  <object id="69" x="1038.49" y="842.885" width="63.6761" height="82.1916"/>
  <object id="70" x="918.675" y="623.592" width="53.6329" height="62.3995"/>
  <object id="71" x="975.547" y="485.83" width="59.1417" height="80.1727"/>
  <object id="72" x="645.83" y="389.96" width="19.4332" height="101.7"/>
  <object id="73" x="484.534" y="389.96" width="21.3765" height="104.291"/>
  <object id="77" x="119.379" y="539.746" width="330.364" height="7.77328"/>
  <object id="78" x="112.065" y="262.996" width="68.0162" height="71.2551"/>
  <object id="79" x="612" y="932.667" width="20" height="16.6667"/>
 </objectgroup>
 <objectgroup color="#ff0000" id="6" name="eventi">
  <object id="2" name="iscrizione_regi" type="trigger_storia" x="546.98" y="303.158" width="56.6154" height="32">
   <properties>
    <property name="condizione" value="post_lega"/>
    <property name="id" value="iscrizione_regi"/>
    <property name="testo" value="HIC SVNT TRIA SIGILLA — SOLVE AENIGMATA ET APERI PORTAS"/>
    <property name="type" value="trigger_storia"/>
   </properties>
  </object>
  <object id="3" name="trainer" type="trainer" x="732.761" y="670.964" width="32" height="32">
   <properties>
    <property name="direzione" value="est"/>
    <property name="id" value="all-bosco-17"/>
    <property name="sprite" value="YOUNGSTER"/>
    <property name="type" value="trainer"/>
    <property name="vista" type="int" value="5"/>
   </properties>
  </object>
  <object id="4" name="trainer" type="trainer" x="647.644" y="510.316" width="32" height="32">
   <properties>
    <property name="direzione" value="ovest"/>
    <property name="direzione_ciclo" value="EO"/>
    <property name="id" value="all-bosco-18"/>
    <property name="pattuglia" type="bool" value="true"/>
    <property name="sprite" value="ARQUEOLOGA"/>
    <property name="type" value="trainer"/>
    <property name="vista" type="int" value="5"/>
   </properties>
  </object>
  <object id="8" name="tusc_prof_tm" type="oggetto" x="1055.74" y="286.704" width="32" height="32">
   <properties>
    <property name="contenuto" value="MN_Taglio_extra"/>
    <property name="id" value="tusc_prof_tm"/>
    <property name="quantita" type="int" value="1"/>
    <property name="type" value="oggetto"/>
   </properties>
  </object>
  <object id="9" name="tusc_prof_max" type="oggetto" x="800" y="736" width="32" height="32">
   <properties>
    <property name="contenuto" value="maxpozione"/>
    <property name="id" value="tusc_prof_max"/>
    <property name="quantita" type="int" value="1"/>
    <property name="type" value="oggetto"/>
   </properties>
  </object>
  <object id="10" name="tusc_prof_nugget" type="oggetto" x="61.4089" y="864.259" width="32" height="32">
   <properties>
    <property name="contenuto" value="pepita"/>
    <property name="id" value="tusc_prof_nugget"/>
    <property name="quantita" type="int" value="1"/>
    <property name="type" value="oggetto"/>
   </properties>
  </object>
  <object id="11" name="cartello" type="cartello" x="421.501" y="229.687" width="18" height="20.6667">
   <properties>
    <property name="testo" value="← Antro del Foro — Terra"/>
    <property name="type" value="cartello"/>
   </properties>
  </object>
  <object id="12" name="cartello" type="cartello" x="551.981" y="230.926" width="22" height="14.6667">
   <properties>
    <property name="testo" value="↑ Antro dell'Anfiteatro — Acqua"/>
    <property name="type" value="cartello"/>
   </properties>
  </object>
  <object id="13" name="cartello" type="cartello" x="649.093" y="232.964" width="18.6667" height="12.6667">
   <properties>
    <property name="testo" value="→ Antro del Teatro — Pugno"/>
    <property name="type" value="cartello"/>
   </properties>
  </object>
  <object id="14" name="cartello" type="cartello" x="608.13" y="570.559" width="32" height="32">
   <properties>
    <property name="testo" value="Sala delle Iscrizioni — Solo i saggi capiscono questa antica lingua"/>
    <property name="type" value="cartello"/>
   </properties>
  </object>
  <object id="25" name="warp" type="warp" x="512" y="928" width="32" height="32">
   <properties>
    <property name="destinazione" value="tuscolo_rovine"/>
    <property name="spawn_id" value="da_tuscolo_profondo"/>
    <property name="type" value="warp"/>
   </properties>
  </object>
  <object id="26" name="warp" type="warp" x="544" y="928" width="32" height="32">
   <properties>
    <property name="destinazione" value="tuscolo_rovine"/>
    <property name="spawn_id" value="da_tuscolo_profondo"/>
    <property name="type" value="warp"/>
   </properties>
  </object>
  <object id="29" name="spawn" type="spawn" x="528.453" y="889.911" width="32" height="32">
   <properties>
    <property name="id" value="da_tuscolo_rovine_nord"/>
    <property name="type" value="spawn"/>
   </properties>
  </object>
  <object id="30" name="spawn" type="spawn" x="160.259" y="64.6478" width="32" height="32">
   <properties>
    <property name="id" value="da_antro_regirock"/>
    <property name="type" value="spawn"/>
   </properties>
  </object>
  <object id="31" name="spawn" type="spawn" x="543.352" y="53.6356" width="32" height="32">
   <properties>
    <property name="id" value="da_antro_regice"/>
    <property name="type" value="spawn"/>
   </properties>
  </object>
  <object id="32" name="spawn" type="spawn" x="927.352" y="58.17" width="32" height="32">
   <properties>
    <property name="id" value="da_antro_registeel"/>
    <property name="type" value="spawn"/>
   </properties>
  </object>
  <object id="74" name="warp regice" type="warp" x="158.251" y="26.753" width="32" height="32">
   <properties>
    <property name="destinazione" value="antro regice"/>
    <property name="messaggio_gate" value="Forse dopo la Lega..."/>
    <property name="richiede" value="legaCompletata e tre pokemon lotta in squadra"/>
    <property name="spawn_id" value="da_tuscolo profondo"/>
    <property name="type" value="warp"/>
   </properties>
  </object>
  <object id="75" name="warp regirock" type="warp" x="543.028" y="15.0931" width="32" height="32">
   <properties>
    <property name="destinazione" value="Antro Regirock"/>
    <property name="messaggio_gate" value="Forse dopo la Lega..."/>
    <property name="richiede" value="legaCompletata e tre pokemon acqua in squadra"/>
    <property name="spawn_id" value="tuscolo profondo"/>
    <property name="type" value="warp"/>
   </properties>
  </object>
  <object id="76" name="warp registeel" type="warp" x="929.101" y="17.0364" width="32" height="32">
   <properties>
    <property name="destinazione" value="antro registeel"/>
    <property name="messaggio_gate" value="Forse dopo la Lega..."/>
    <property name="richiede" value="legaCompletata e tre pokemon terra in squadra"/>
    <property name="spawn_id" value="da_tuscolo profondo"/>
    <property name="type" value="warp"/>
   </properties>
  </object>
 </objectgroup>
</map>
