<?xml version="1.0" encoding="UTF-8"?>
<map version="1.10" tiledversion="1.12.2" orientation="orthogonal" renderorder="right-down" width="58" height="58" tilewidth="32" tileheight="32" infinite="0" backgroundcolor="#000000" nextlayerid="21" nextobjectid="155">
 <tileset firstgid="1" source="../../outside.tsx"/>
 <tileset firstgid="4017" source="../../Emerald_Outside.tsx"/>
 <layer id="1" name="ground" width="58" height="58">
  <data encoding="csv">
5,5,5,5,5,5,5,5,5,5,5,5,5,5,5,5,5,5,5,5,5,5,5,5,5,5,5,5,5,5,5,5,5,5,5,5,5,5,5,5,5,5,5,5,5,5,5,5,5,5,5,5,5,5,5,5,5,5,
5,5,5,5,5,5,5,5,5,5,5,5,5,5,5,5,5,5,5,5,5,5,5,5,5,5,5,5,5,5,5,5,5,5,5,5,5,5,5,5,5,5,5,5,5,5,5,5,5,5,5,5,5,5,5,5,5,5,
5,5,5,5,5,5,5,5,5,5,5,5,5,5,5,5,5,5,5,5,5,5,5,5,5,5,5,5,5,5,5,5,5,5,5,5,5,5,5,5,5,5,5,5,5,5,5,5,5,5,5,5,5,5,5,5,5,5,
5,5,5,5,5,5,5,5,5,5,5,5,5,5,5,5,5,5,5,5,5,5,5,5,5,5,5,5,5,5,5,5,5,5,5,5,5,5,5,5,5,5,5,5,5,5,5,5,5,5,5,5,5,5,5,5,5,5,
5,5,5,5,5,5,5,5,5,5,5,5,5,5,5,5,5,5,5,5,5,5,5,5,5,5,5,5,5,5,5,5,5,5,5,5,5,5,5,5,5,5,5,5,5,5,5,5,5,5,5,5,5,5,5,5,5,5,
5,5,5,5,5,5,5,5,5,5,5,5,5,5,5,5,5,5,5,5,5,5,5,5,5,5,5,5,5,5,5,5,5,5,5,5,5,5,5,5,5,5,5,5,5,5,5,5,5,5,5,5,5,5,5,5,5,5,
5,5,5,5,5,5,5,5,5,5,5,5,5,5,5,5,5,5,5,5,5,5,5,5,5,5,5,5,5,5,5,5,5,5,5,5,5,5,5,5,5,5,5,5,5,5,5,5,5,5,5,5,5,5,5,5,5,5,
5,5,5,5,5,5,5,5,5,5,5,5,5,5,5,5,5,5,5,5,5,5,5,5,5,5,5,5,5,5,5,5,5,5,5,5,5,5,5,5,5,5,5,5,5,5,5,5,5,5,5,5,5,5,5,5,5,5,
5,5,5,5,5,5,5,5,6242,6242,6242,6242,6242,6242,6242,6242,6242,6242,6242,6242,6242,6242,6242,6242,6242,6242,6242,6242,6242,6242,6242,6242,6242,6242,6242,6242,6242,6242,6242,6242,6242,6242,6242,6242,6242,6242,6242,6242,6242,6242,6242,6242,5,5,5,5,5,5,
5,5,5,5,5,5,5,5,6242,6242,6242,6242,6242,6242,6242,6242,6242,6242,6242,6242,6242,6242,6242,6242,6242,6242,6242,6242,6242,6242,6242,6242,6242,6242,6242,6242,6242,6242,6242,6242,6242,6242,6242,6242,6242,6242,6242,6242,6242,6242,6242,6242,5,5,5,5,5,5,
5,5,5,5,5,5,5,5,6242,6242,6242,6242,6242,6242,6242,6242,6242,6242,6242,6242,6242,6242,6242,6242,6242,6242,6242,6242,6242,6242,6242,6242,6242,6242,6242,6242,6242,6242,6242,6242,6242,6242,6242,6242,6242,6242,6242,6242,6242,6242,6242,6242,5,5,5,5,5,5,
5,5,5,5,5,5,5,5,6242,6242,6242,6242,6242,6242,6242,6242,6242,6242,6242,6242,6242,6242,6242,6242,6242,6242,6242,6242,6242,6242,6242,6242,6242,6242,6242,6242,6242,6242,6242,6242,6242,6242,6242,6242,6242,6242,6242,6242,6242,6242,6242,6242,5,5,5,5,5,5,
5,5,5,5,5,5,5,5,6242,6242,6242,6242,6242,6242,6242,6242,6242,6242,6242,6242,6242,6242,6242,6242,6242,6242,6242,6242,6242,6242,6242,6242,6242,6242,6242,6242,6242,6242,6242,6242,6242,6242,6242,6242,6242,6242,6242,6242,6242,6242,6242,6242,5,5,5,5,5,5,
5,5,5,5,5,5,5,5,6242,6242,6242,6242,6242,6242,6242,6242,6242,6242,6242,6242,6242,6242,6242,6242,6242,6242,6242,6242,6242,6242,6242,6242,6242,6242,6242,6242,6242,6242,6242,6242,6242,6242,6242,6242,6242,6242,6242,6242,6242,6242,6242,6242,5,5,5,5,5,5,
5,5,5,5,5,5,5,5,6242,6242,6242,6242,6242,6242,6242,6242,6242,6242,6242,6242,6242,6242,6242,6242,6242,6242,6242,6242,6242,6242,6242,6242,6242,6242,6242,6242,6242,6242,6242,6242,6242,6242,6242,6242,6242,6242,6242,6242,6242,6242,6242,6242,5,5,5,5,5,5,
5,5,5,5,5,5,5,5,6242,6242,6242,6242,6242,6242,6242,6242,6242,6242,6242,6242,6242,6242,6242,6242,6242,6242,6242,6242,6242,6242,6242,6242,6242,6242,6242,6242,6242,6242,6242,6242,6242,6242,6242,6242,6242,6242,6242,6242,6242,6242,6242,6242,5,5,5,5,5,5,
5,5,5,5,5,5,5,5,6242,6242,6242,6242,6242,6242,6242,6242,6242,6242,6242,6242,6242,6242,6242,6242,6242,6242,6242,6242,6242,6242,6242,6242,6242,6242,6242,6242,6242,6242,6242,6242,6242,6242,6242,6242,6242,6242,6242,6242,6242,6242,6242,6242,5,5,5,5,5,5,
5,5,5,5,5,5,5,5,6242,6242,6242,6242,6242,6242,6242,6242,6242,6242,6242,6242,6242,6242,6242,6242,6242,6242,6242,6242,6242,6242,6242,6242,6242,6242,6242,6242,6242,6242,6242,6242,6242,6242,6242,6242,6242,6242,6242,6242,6242,6242,6242,6242,5,5,5,5,5,5,
5,5,5,5,5,5,5,5,6242,6242,6242,6242,6242,6242,6242,6242,6242,6242,6242,6242,6242,6242,6242,6242,6242,6242,6242,6242,6242,6242,6242,6242,6242,6242,6242,6242,6242,6242,6242,6242,6242,6242,6242,6242,6242,6242,6242,6242,6242,6242,6242,6242,5,5,5,5,5,5,
5,5,5,5,5,5,5,5,6242,6242,6242,6242,6242,6242,6242,6242,6242,6242,6242,6242,6242,6242,6242,6242,6242,6242,6242,6242,6242,6242,6242,6242,6242,6242,6242,6242,6242,6242,6242,6242,6242,6242,6242,6242,6242,6242,6242,6242,6242,6242,6242,6242,5,5,5,5,5,5,
5,5,5,5,5,5,5,5,6242,6242,6242,6242,6242,6242,6242,6242,6242,6242,6242,6242,6242,6242,6242,6242,6242,6242,6242,6242,6242,6242,6242,6242,6242,6242,6242,6242,6242,6242,6242,6242,6242,6242,6242,6242,6242,6242,6242,6242,6242,6242,6242,6242,5,5,5,5,5,5,
5,5,5,5,5,5,5,5,6242,6242,6242,6242,6242,6242,6242,6242,6242,6242,6242,6242,6242,6242,6242,6242,6242,6242,6242,6242,6242,6242,6242,6242,6242,6242,6242,6242,6242,6242,6242,6242,6242,6242,6242,6242,6242,6242,6242,6242,6242,6242,6242,6242,5,5,5,5,5,5,
5,5,5,5,5,5,5,5,6242,6242,6242,6242,6242,6242,6242,6242,6242,6242,6242,6242,6242,6242,6242,6242,6242,6242,6242,6242,6242,6242,6242,6242,6242,6242,6242,6242,6242,6242,6242,6242,6242,6242,6242,6242,6242,6242,6242,6242,6242,6242,6242,6242,5,5,5,5,5,5,
5,5,5,5,5,5,5,5,6242,6242,6242,6242,6242,6242,6242,6242,6242,6242,6242,6242,6242,6242,6242,6242,6242,6242,6242,6242,6242,6242,6242,6242,6242,6242,6242,6242,6242,6242,6242,6242,6242,6242,6242,6242,6242,6242,6242,6242,6242,6242,6242,6242,5,5,5,5,5,5,
5,5,5,5,5,5,5,5,6242,6242,6242,6242,6242,6242,6242,6242,6242,6242,6242,6242,6242,6242,6242,6242,6242,6242,6242,6242,6242,6242,6242,6242,6242,6242,6242,6242,6242,6242,6242,6242,6242,6242,6242,6242,6242,6242,6242,6242,6242,6242,6242,6242,5,5,5,5,5,5,
5,5,5,5,5,5,5,5,6242,6242,6242,6242,6242,6242,6242,6242,6242,6242,6242,6242,6242,6242,6242,6242,6242,6242,6242,6242,6242,6242,6242,6242,6242,6242,6242,6242,6242,6242,6242,6242,6242,6242,6242,6242,6242,6242,6242,6242,6242,6242,6242,6242,5,5,5,5,5,5,
5,5,5,5,5,5,5,5,6242,6242,6242,6242,6242,6242,6242,6242,6242,6242,6242,6242,6242,6242,6242,6242,6242,6242,6242,6242,6242,6242,6242,6242,6242,6242,6242,6242,6242,6242,6242,6242,6242,6242,6242,6242,6242,6242,6242,6242,6242,6242,6242,6242,5,5,5,5,5,5,
5,5,5,5,5,5,5,5,6242,6242,6242,6242,6242,6242,6242,6242,6242,6242,6242,6242,6242,6242,6242,6242,6242,6242,6242,6242,6242,6242,6242,6242,6242,6242,6242,6242,6242,6242,6242,6242,6242,6242,6242,6242,6242,6242,6242,6242,6242,6242,6242,6242,5,5,5,5,5,5,
5,5,5,5,5,5,5,5,6242,6242,6242,6242,6242,6242,6242,6242,6242,6242,6242,6242,6242,6242,6242,6242,6242,6242,6242,6242,6242,6242,6242,6242,6242,6242,6242,6242,6242,6242,6242,6242,6242,6242,6242,6242,6242,6242,6242,6242,6242,6242,6242,6242,5,5,5,5,5,5,
5,5,5,5,5,5,5,5,6242,6242,6242,6242,6242,6242,6242,6242,6242,6242,6242,6242,6242,6242,6242,6242,6242,6242,6242,6242,6242,6242,6242,6242,6242,6242,6242,6242,6242,6242,6242,6242,6242,6242,6242,6242,6242,6242,6242,6242,6242,6242,6242,6242,5,5,5,5,5,5,
5,5,5,5,5,5,5,5,6242,6242,6242,6242,6242,6242,6242,6242,6242,6242,6242,6242,6242,6242,6242,6242,6242,6242,6242,6242,6242,6242,6242,6242,6242,6242,6242,6242,6242,6242,6242,6242,6242,6242,6242,6242,6242,6242,6242,6242,6242,6242,6242,6242,5,5,5,5,5,5,
5,5,5,5,5,5,5,5,6242,6242,6242,6242,6242,6242,6242,6242,6242,6242,6242,6242,6242,6242,6242,6242,6242,6242,6242,6242,6242,6242,6242,6242,6242,6242,6242,6242,6242,6242,6242,6242,6242,6242,6242,6242,6242,6242,6242,6242,6242,6242,6242,6242,5,5,5,5,5,5,
5,5,5,5,5,5,5,5,6242,6242,6242,6242,6242,6242,6242,6242,6242,6242,6242,6242,6242,6242,6242,6242,6242,6242,6242,6242,6242,6242,6242,6242,6242,6242,6242,6242,6242,6242,6242,6242,6242,6242,6242,6242,6242,6242,6242,6242,6242,6242,6242,6242,5,5,5,5,5,5,
5,5,5,5,5,5,5,5,6242,6242,6242,6242,6242,6242,6242,6242,6242,6242,6242,6242,6242,6242,6242,6242,6242,6242,6242,6242,6242,6242,6242,6242,6242,6242,6242,6242,6242,6242,6242,6242,6242,6242,6242,6242,6242,6242,6242,6242,6242,6242,6242,6242,5,5,5,5,5,5,
5,5,5,5,5,5,5,5,6242,6242,6242,6242,6242,6242,6242,6242,6242,6242,6242,6242,6242,6242,6242,6242,6242,6242,6242,6242,6242,6242,6242,6242,6242,6242,6242,6242,6242,6242,6242,6242,6242,6242,6242,6242,6242,6242,6242,6242,6242,6242,6242,6242,5,5,5,5,5,5,
5,5,5,5,5,5,5,5,6242,6242,6242,6242,6242,6242,6242,6242,6242,6242,6242,6242,6242,6242,6242,6242,6242,6242,6242,6242,6242,6242,6242,6242,6242,6242,6242,6242,6242,6242,6242,6242,6242,6242,6242,6242,6242,6242,6242,6242,6242,6242,6242,6242,5,5,5,5,5,5,
5,5,5,5,5,5,5,5,6242,6242,6242,6242,6242,6242,6242,6242,6242,6242,6242,6242,6242,6242,6242,6242,6242,6242,6242,7,107,6242,6242,6242,6242,6242,6242,6242,6242,6242,6242,6242,6242,6242,6242,6242,6242,6242,6242,6242,6242,6242,6242,6242,5,5,5,5,5,5,
5,5,5,5,5,5,5,5,6242,6242,6242,6242,6242,6242,6242,6242,6242,6242,6242,6242,6242,6242,6242,6242,6242,6242,6242,7,107,6242,6242,6242,6242,6242,6242,6242,6242,6242,6242,6242,6242,6242,6242,6242,6242,6242,6242,6242,6242,6242,6242,6242,5,5,5,5,5,5,
5,5,5,5,5,5,5,5,6242,6242,6242,6242,6242,6242,6242,6242,6242,6242,6242,6242,6242,6242,6242,6242,6242,6242,6242,7,107,6242,6242,6242,6242,6242,6242,6242,6242,6242,6242,6242,6242,6242,6242,6242,6242,6242,6242,6242,6242,6242,6242,6242,5,5,5,5,5,5,
5,5,5,5,5,5,5,5,6242,6242,6242,6242,6242,6242,6242,6242,6242,6242,6242,6242,6242,6242,6242,6242,6242,6242,6242,7,107,6242,6242,6242,6242,6242,6242,6242,6242,6242,6242,6242,6242,6242,6242,6242,6242,6242,6242,6242,6242,6242,6242,6242,5,5,5,5,5,5,
5,5,5,5,5,5,5,5,6242,6242,6242,6242,6242,6242,6242,6242,6242,6242,6242,6242,6242,6242,6242,6242,6242,6242,6242,107,107,6242,6242,6242,6242,6242,6242,6242,6242,6242,6242,6242,6242,6242,6242,6242,6242,6242,6242,6242,6242,6242,6242,6242,5,5,5,5,5,5,
5,5,5,5,5,5,5,5,6242,6242,6242,6242,6242,6242,6242,6242,6242,6242,6242,6242,6242,6242,6242,6242,6242,6242,6242,107,7,6242,6242,6242,6242,6242,6242,6242,6242,6242,6242,6242,6242,6242,6242,6242,6242,6242,6242,6242,6242,6242,6242,6242,5,5,5,5,5,5,
5,5,5,5,5,5,5,5,6242,6242,6242,6242,6242,6242,6242,6242,6242,6242,6242,6242,6242,6242,6242,6242,6242,6242,6242,107,7,6242,6242,6242,6242,6242,6242,6242,6242,6242,6242,6242,6242,6242,6242,6242,6242,6242,6242,6242,6242,6242,6242,6242,5,5,5,5,5,5,
5,5,5,5,5,5,5,5,6242,6242,6242,6242,6242,6242,6242,6242,6242,6242,6242,6242,6242,6242,6242,6242,6242,6242,6242,107,7,6242,6242,6242,6242,6242,6242,6242,6242,6242,6242,6242,6242,6242,6242,6242,6242,6242,6242,6242,6242,6242,6242,6242,5,5,5,5,5,5,
5,5,5,5,5,5,5,5,6242,6242,6242,6242,6242,6242,6242,6242,6242,6242,6242,6242,6242,6242,6242,6242,6242,6242,6242,7,107,6242,6242,6242,6242,6242,6242,6242,6242,6242,6242,6242,6242,6242,6242,6242,6242,6242,6242,6242,6242,6242,6242,6242,5,5,5,5,5,5,
5,5,5,5,5,5,5,5,6242,6242,6242,6242,6242,6242,6242,6242,6242,6242,6242,6242,6242,6242,6242,6242,6242,6242,6242,7,107,6242,6242,6242,6242,6242,6242,6242,6242,6242,6242,6242,6242,6242,6242,6242,6242,6242,6242,6242,6242,6242,6242,6242,5,5,5,5,5,5,
5,5,5,5,5,5,5,5,6242,6242,6242,6242,6242,6242,6242,6242,6242,6242,6242,6242,6242,6242,6242,6242,6242,6242,6242,7,107,6242,6242,6242,6242,6242,6242,6242,6242,6242,6242,6242,6242,6242,6242,6242,6242,6242,6242,6242,6242,6242,6242,6242,5,5,5,5,5,5,
5,5,5,5,5,5,5,5,6242,6242,6242,6242,6242,6242,6242,6242,6242,6242,6242,6242,6242,6242,6242,6242,6242,6242,6242,7,107,6242,6242,6242,6242,6242,6242,6242,6242,6242,6242,6242,6242,6242,6242,6242,6242,6242,6242,6242,6242,6242,6242,6242,5,5,5,5,5,5,
5,5,5,5,5,5,5,5,6242,6242,6242,6242,6242,6242,6242,6242,6242,6242,6242,6242,6242,6242,6242,6242,6242,6242,6242,107,107,6242,6242,6242,6242,6242,6242,6242,6242,6242,6242,6242,6242,6242,6242,6242,6242,6242,6242,6242,6242,6242,6242,6242,5,5,5,5,5,5,
5,5,5,5,5,5,5,5,6242,6242,6242,6242,6242,6242,6242,6242,6242,6242,6242,6242,6242,6242,6242,6242,6242,6242,6242,107,7,6242,6242,6242,6242,6242,6242,6242,6242,6242,6242,6242,6242,6242,6242,6242,6242,6242,6242,6242,6242,6242,6242,6242,5,5,5,5,5,5,
5,5,5,5,5,5,5,5,6242,6242,6242,6242,6242,6242,6242,6242,6242,6242,6242,6242,6242,6242,6242,6242,6242,6242,6242,107,7,6242,6242,6242,6242,6242,6242,6242,6242,6242,6242,6242,6242,6242,6242,6242,6242,6242,6242,6242,6242,6242,6242,6242,5,5,5,5,5,5,
5,5,5,5,5,5,5,5,6242,6242,6242,6242,6242,6242,6242,6242,6242,6242,6242,6242,6242,6242,6242,6242,6242,6242,6242,107,107,6242,6242,6242,6242,6242,6242,6242,6242,6242,6242,6242,6242,6242,6242,6242,6242,6242,6242,6242,6242,6242,6242,6242,5,5,5,5,5,5,
5,5,5,5,5,5,5,5,5,5,5,5,5,5,5,5,5,5,5,5,5,5,5,5,5,5,5,5,5,5,5,5,5,5,5,5,5,5,5,5,5,5,5,5,5,5,5,5,5,5,5,5,5,5,5,5,5,5,
5,5,5,5,5,5,5,5,5,5,5,5,5,5,5,5,5,5,5,5,5,5,5,5,5,5,5,5,5,5,5,5,5,5,5,5,5,5,5,5,5,5,5,5,5,5,5,5,5,5,5,5,5,5,5,5,5,5,
5,5,5,5,5,5,5,5,5,5,5,5,5,5,5,5,5,5,5,5,5,5,5,5,5,5,5,5,5,5,5,5,5,5,5,5,5,5,5,5,5,5,5,5,5,5,5,5,5,5,5,5,5,5,5,5,5,5,
5,5,5,5,5,5,5,5,5,5,5,5,5,5,5,5,5,5,5,5,5,5,5,5,5,5,5,5,5,5,5,5,5,5,5,5,5,5,5,5,5,5,5,5,5,5,5,5,5,5,5,5,5,5,5,5,5,5,
5,5,5,5,5,5,5,5,5,5,5,5,5,5,5,5,5,5,5,5,5,5,5,5,5,5,5,5,5,5,5,5,5,5,5,5,5,5,5,5,5,5,5,5,5,5,5,5,5,5,5,5,5,5,5,5,5,5,
5,5,5,5,5,5,5,5,5,5,5,5,5,5,5,5,5,5,5,5,5,5,5,5,5,5,5,5,5,5,5,5,5,5,5,5,5,5,5,5,5,5,5,5,5,5,5,5,5,5,5,5,5,5,5,5,5,5
</data>
 </layer>
 <layer id="2" name="deco_sotto" width="58" height="58">
  <data encoding="csv">
0,0,0,0,0,0,0,0,0,0,0,0,0,0,0,0,0,0,0,0,0,0,0,0,0,0,0,0,0,0,0,0,0,0,0,0,0,0,0,0,0,0,0,0,0,0,0,0,0,0,0,0,0,0,0,0,0,0,
0,0,0,0,0,0,0,0,0,0,0,0,0,0,0,0,0,0,0,0,0,0,0,0,0,0,0,0,0,0,0,0,0,0,0,0,0,0,0,0,0,0,0,0,0,0,0,0,0,0,0,0,0,0,0,0,0,0,
0,0,0,0,0,0,0,0,0,0,0,0,0,0,0,0,0,0,0,0,0,0,0,0,0,0,0,0,0,0,0,0,0,0,0,0,0,0,0,0,0,0,0,0,0,0,0,0,0,0,0,0,0,0,0,0,0,0,
0,0,0,0,0,0,0,0,0,0,0,0,0,0,0,0,0,0,0,0,0,0,0,0,0,0,0,0,0,0,0,0,0,0,0,0,0,0,0,0,0,0,0,0,0,0,0,0,0,0,0,0,0,0,0,0,0,0,
0,0,0,0,0,0,0,0,0,0,0,0,0,0,0,0,0,0,0,0,0,0,0,0,0,0,0,0,0,0,0,0,0,0,0,0,0,0,0,0,0,0,0,0,0,0,0,0,0,0,0,0,0,0,0,0,0,0,
0,0,0,0,0,0,0,0,0,0,0,0,0,0,0,0,0,0,0,0,0,0,0,0,0,0,0,0,0,0,0,0,0,0,0,0,0,0,0,0,0,0,0,0,0,0,0,0,0,0,0,0,0,0,0,0,0,0,
0,0,0,0,0,0,0,0,0,0,0,0,0,0,0,0,0,0,0,0,0,0,0,0,0,0,0,0,0,0,0,0,0,0,0,0,0,0,0,0,0,0,0,0,0,0,0,0,0,0,0,0,0,0,0,0,0,0,
0,0,0,0,0,0,0,0,0,0,0,0,0,0,0,0,0,0,0,0,0,0,0,0,0,0,0,0,0,0,0,0,0,0,0,0,0,0,0,0,0,0,0,0,0,0,0,0,0,0,0,0,0,0,0,0,0,0,
0,0,0,0,0,0,0,0,7,7,7,7,7,7,7,7,7,7,7,7,7,7,7,7,7,0,0,0,0,0,0,0,0,0,0,0,0,0,0,0,0,0,0,0,0,0,0,0,0,0,0,0,0,0,0,0,0,0,
0,0,0,0,0,0,0,0,7,7,7,7,7,7,7,7,7,7,7,7,7,7,7,7,7,4047,4048,4047,4048,4047,4048,4047,4048,4047,4048,4047,4048,4047,4048,4047,4048,4047,4048,4047,4048,4047,4048,4047,4048,4047,4048,0,0,0,0,0,0,0,
0,0,0,0,0,0,0,0,7,7,7,7,7,7,7,7,7,7,7,7,7,7,7,7,7,4055,4056,4055,4056,4055,4056,4055,4056,4055,4056,4055,4056,4055,4056,4055,4056,4055,4056,4055,4056,4055,4056,4055,4056,4055,4056,0,0,0,0,0,0,0,
0,0,0,0,0,0,0,0,7,7,7,7,7,7,7,7,7,7,7,7,7,7,7,7,7,4047,4048,101,102,103,101,102,103,101,102,103,101,102,103,101,102,103,101,102,103,101,102,103,101,102,103,101,0,0,0,0,0,0,
0,0,0,0,0,0,0,0,824,824,0,0,0,0,0,107,107,107,0,0,0,0,0,0,0,4055,4056,109,110,111,109,110,111,109,110,111,109,110,111,109,110,111,109,110,111,109,110,111,109,110,111,109,0,0,0,0,0,0,
0,0,0,0,0,0,0,0,824,0,0,107,107,107,107,107,107,107,0,0,0,0,0,0,0,4047,4048,117,118,119,117,118,119,117,118,119,117,118,119,117,118,119,117,118,119,117,118,119,117,118,119,117,0,0,0,0,0,0,
0,0,0,0,0,0,0,0,824,0,0,107,0,0,0,0,0,0,0,0,0,0,0,0,0,4055,4056,101,102,103,4047,4048,4047,4048,4047,4048,4047,4048,4047,4048,4047,4048,4047,4048,4047,4048,4047,4048,4047,4048,4047,4048,0,0,0,0,0,0,
0,0,0,0,0,0,0,0,824,0,0,107,0,0,0,0,0,0,0,0,0,0,0,0,0,4047,4048,109,110,111,4055,4056,4055,4056,4055,4056,4055,4056,4055,4056,4055,4056,4055,4056,4055,4056,4055,4056,4055,4056,4055,4056,0,0,0,0,0,0,
0,0,0,0,0,0,0,0,824,0,0,107,0,0,0,0,0,0,0,0,0,0,0,0,0,4055,4056,117,118,119,4047,4048,0,0,0,0,0,0,0,0,0,0,0,0,0,0,0,0,0,0,0,0,0,0,0,0,0,0,
0,0,0,0,0,0,0,0,7,7,7,107,7,7,7,7,0,0,0,824,0,0,0,0,0,4047,4048,101,102,103,4055,4056,0,0,0,0,0,0,0,0,0,0,0,0,0,0,0,0,0,0,0,0,0,0,0,0,0,0,
0,0,0,0,0,0,0,0,7,7,7,107,7,7,7,7,0,0,0,824,0,0,0,0,0,4055,4056,109,110,111,4047,4048,0,0,0,0,0,0,0,0,0,0,0,0,0,0,0,0,0,0,0,0,0,0,0,0,0,0,
0,0,0,0,0,0,0,0,7,7,7,107,7,7,7,7,0,0,0,824,0,0,0,0,0,4047,4048,117,118,119,4055,4056,0,0,0,0,0,0,0,949,0,0,0,0,0,0,0,0,6261,6262,0,0,0,0,0,0,0,0,
0,0,0,0,0,0,0,0,0,0,0,107,0,0,0,0,7,7,0,824,824,949,0,0,0,4055,4056,101,102,103,4047,4048,0,0,0,6261,6262,0,0,0,0,0,0,0,0,0,0,0,6269,6270,0,0,0,0,0,0,0,0,
0,0,0,0,0,0,0,0,0,0,0,107,0,0,0,0,7,7,0,0,824,824,824,824,824,4047,4048,109,110,111,4055,4056,0,0,0,6269,6270,0,0,0,0,0,0,0,0,0,0,0,0,0,0,0,0,0,0,0,0,0,
0,0,0,0,0,0,0,0,0,0,0,107,107,107,107,107,7,7,107,107,107,107,107,107,0,4055,4056,117,118,119,4047,4048,0,0,0,0,0,0,0,0,0,0,0,0,0,0,0,0,0,0,0,0,0,0,0,0,0,0,
0,0,0,0,0,0,0,0,0,0,0,0,0,0,0,0,7,7,0,0,0,0,0,107,0,4047,4048,101,102,103,4055,4056,0,0,0,0,0,0,0,0,0,0,0,0,0,0,0,0,0,0,0,0,0,0,0,0,0,0,
0,0,0,0,0,0,0,0,0,0,0,0,0,0,0,0,7,7,0,0,0,837,838,107,0,4055,4056,109,110,111,4047,4048,0,837,838,0,0,0,0,0,0,0,0,0,6261,6262,0,0,0,0,0,0,0,0,0,0,0,0,
0,0,0,0,0,0,0,0,0,0,0,0,0,0,0,0,7,7,0,0,0,845,846,107,107,107,107,117,118,119,4055,4056,0,845,846,0,0,0,0,0,0,0,0,0,6269,6270,0,0,0,0,0,0,0,0,0,0,0,0,
0,0,0,0,0,0,0,0,0,0,0,0,0,0,0,0,7,7,0,0,0,853,854,98,99,99,99,107,107,107,99,99,100,853,854,0,0,0,0,0,0,0,0,0,0,0,0,0,0,0,0,0,0,0,0,0,0,0,
0,0,0,0,0,0,0,0,0,0,0,0,0,0,0,0,0,0,0,0,0,861,862,106,4285,4285,4285,4285,4285,4285,4285,4285,108,861,862,0,0,0,0,0,0,0,0,0,0,0,0,0,0,0,0,0,0,0,0,0,0,0,
0,0,0,0,0,0,0,0,0,0,0,0,0,0,0,0,0,0,0,0,0,0,0,106,4285,107,107,107,107,4285,4285,4285,108,8,8,8,8,8,8,8,0,8,8,8,8,8,8,8,8,8,0,0,0,0,0,0,0,0,
0,0,0,0,0,0,0,0,107,107,107,107,107,107,107,949,107,107,107,107,107,955,107,107,4285,4285,107,107,107,107,110,4285,108,16,16,16,16,16,16,16,0,16,16,16,16,16,16,16,16,16,0,0,0,0,0,0,0,0,
0,0,0,0,0,0,0,0,107,107,107,107,107,107,107,107,107,948,107,107,107,107,107,107,4285,4285,107,4285,107,107,4285,4285,108,0,0,0,0,0,0,0,0,0,0,0,0,0,0,0,0,0,0,0,0,0,0,0,0,0,
0,0,0,0,0,0,0,0,107,107,107,107,107,107,107,107,107,107,107,107,107,107,107,107,4285,4285,107,107,107,107,4285,4285,108,0,0,0,0,0,0,0,0,0,0,0,0,0,0,0,0,0,0,0,0,0,0,0,0,0,
0,0,0,0,0,0,0,0,0,0,0,0,0,0,0,0,0,0,0,0,0,476,476,106,4285,4285,107,107,107,4285,32,4285,108,8,8,8,8,8,8,8,8,8,0,8,8,8,8,8,8,8,0,0,0,0,0,0,0,0,
0,0,0,0,0,0,0,0,0,0,4030,4030,4030,4030,4030,4030,4030,4030,4030,4030,0,845,846,106,4285,4285,110,4285,110,4285,4285,4285,108,16,16,16,16,16,16,16,16,16,0,16,16,16,16,16,16,16,0,0,0,0,0,0,0,0,
0,0,0,0,0,0,0,0,0,0,4030,4030,4030,4030,6242,6242,4030,4030,4030,4030,0,853,854,106,4285,4285,4285,4285,4285,4285,4285,4285,108,853,854,0,0,0,0,0,0,8,0,8,7,7,7,7,7,7,0,0,0,0,0,0,0,0,
0,0,0,0,0,0,0,0,0,0,4030,4030,4030,6242,6242,6242,6242,4030,4030,4030,0,861,862,114,115,115,115,115,107,115,115,115,116,861,862,0,0,0,0,0,0,16,0,16,7,7,7,7,7,7,0,0,0,0,0,0,0,0,
0,0,0,0,0,0,0,0,0,0,4030,4030,4030,4030,6242,6242,4030,4030,4030,4030,0,0,476,949,476,476,476,0,0,476,476,476,476,0,0,1197,7,7,7,7,7,8,0,8,7,7,7,7,7,7,0,0,0,0,0,0,0,0,
0,0,0,0,0,0,0,0,0,0,4030,4030,4030,4030,4030,4030,4030,4030,4030,4030,0,0,476,476,0,0,476,0,0,476,0,0,0,0,0,1197,7,7,7,0,0,16,0,16,7,7,7,7,7,7,0,0,0,0,0,0,0,0,
0,0,0,0,0,0,0,0,0,0,4030,4030,4030,4030,137,139,0,0,0,0,0,0,0,0,0,0,488,0,0,488,0,0,0,1198,1199,1200,0,0,0,0,0,0,0,0,0,0,0,0,0,7,0,0,0,0,0,0,0,0,
0,0,0,0,0,0,0,0,0,0,4030,4030,4030,4030,137,139,0,0,0,0,0,0,0,0,0,0,496,0,0,496,0,0,0,1197,0,0,0,0,0,0,0,0,0,0,0,0,0,0,0,7,0,0,0,0,0,0,0,0,
0,0,0,0,0,0,0,0,0,0,4030,4030,4030,4030,137,139,0,0,0,0,0,0,0,0,0,0,504,0,0,504,0,0,0,1197,98,99,99,99,100,0,0,0,0,0,0,0,0,0,0,7,0,0,0,0,0,0,0,0,
0,0,0,0,0,0,0,0,0,0,4030,4030,4030,4030,137,139,0,0,0,0,0,0,0,0,0,0,512,0,0,512,0,0,0,1197,106,107,107,107,108,0,0,0,0,0,0,0,0,0,0,7,0,0,0,0,0,0,0,0,
0,0,0,0,0,0,0,0,0,0,4030,4030,4030,4030,137,139,0,0,0,0,0,0,0,0,0,0,480,0,0,480,0,0,0,1197,106,107,107,107,108,0,0,0,0,0,0,0,0,0,0,7,0,0,0,0,0,0,0,0,
0,0,0,0,0,0,0,0,0,0,4030,4030,4030,4030,137,139,0,0,0,0,0,0,0,0,0,0,488,0,0,488,0,0,0,1197,106,107,107,107,108,0,0,0,0,0,0,0,0,0,0,7,0,0,0,0,0,0,0,0,
0,0,0,0,0,0,0,0,0,0,4030,4030,4030,4030,137,139,0,0,0,0,0,0,0,0,0,0,496,0,0,496,0,0,0,1197,114,115,115,115,116,0,0,0,0,0,0,0,0,0,0,7,0,0,0,0,0,0,0,0,
0,0,0,0,0,0,0,0,0,0,4030,4030,4030,4030,137,139,0,0,0,0,0,0,0,0,0,0,504,0,0,504,0,0,0,1197,0,0,0,0,0,0,0,0,0,0,0,0,0,0,0,7,0,0,0,0,0,0,0,0,
0,0,0,0,0,0,0,0,0,0,4030,4030,4030,4030,137,138,133,132,133,132,133,132,133,132,133,132,512,0,0,512,0,0,0,1198,1199,1200,0,0,0,0,0,0,0,0,0,0,0,0,0,7,0,0,0,0,0,0,0,0,
0,0,0,0,0,0,0,0,0,0,4030,4030,4030,4030,145,140,141,140,141,140,141,140,141,140,141,140,3,0,0,955,0,0,0,0,0,1197,7,7,7,7,7,7,7,7,7,7,7,7,7,7,0,0,0,0,0,0,0,0,
0,0,0,0,0,0,0,0,421,422,4030,4030,4030,4030,0,0,0,0,0,0,0,0,0,0,0,0,106,0,0,488,0,0,0,0,0,1197,0,0,7,7,7,7,7,7,7,7,7,7,7,7,421,422,0,0,0,0,0,0,
0,0,0,0,0,0,0,0,429,430,4030,4030,4030,4030,495,495,495,495,495,495,495,495,495,495,495,495,106,0,0,496,0,0,0,0,0,0,0,0,7,7,7,7,7,7,7,7,7,7,7,7,429,430,0,0,0,0,0,0,
0,0,0,0,0,0,0,0,0,0,0,0,0,0,0,0,0,0,0,0,0,0,0,0,0,0,106,0,0,504,0,0,0,0,0,0,0,0,0,0,0,0,0,0,0,0,0,0,0,0,437,438,0,0,0,0,0,0,
0,0,0,0,0,0,0,0,0,0,0,0,0,0,0,0,0,0,0,0,0,0,0,0,0,0,106,0,0,512,0,0,0,0,0,0,0,0,0,0,0,0,0,0,0,0,0,0,0,0,0,0,0,0,0,0,0,0,
0,0,0,0,0,0,0,0,0,0,0,0,0,0,0,0,0,0,0,0,0,0,0,0,0,0,0,0,0,0,0,0,0,0,0,0,0,0,0,0,0,0,0,0,0,0,0,0,0,0,0,0,0,0,0,0,0,0,
0,0,0,0,0,0,0,0,0,0,0,0,0,0,0,0,0,0,0,0,0,0,0,0,0,0,0,0,0,0,0,0,0,0,0,0,0,0,0,0,0,0,0,0,0,0,0,0,0,0,0,0,0,0,0,0,0,0,
0,0,0,0,0,0,0,0,0,0,0,0,0,0,0,0,0,0,0,0,0,0,0,0,0,0,0,0,0,0,0,0,0,0,0,0,0,0,0,0,0,0,0,0,0,0,0,0,0,0,0,0,0,0,0,0,0,0,
0,0,0,0,0,0,0,0,0,0,0,0,0,0,0,0,0,0,0,0,0,0,0,0,0,0,0,0,0,0,0,0,0,0,0,0,0,0,0,0,0,0,0,0,0,0,0,0,0,0,0,0,0,0,0,0,0,0,
0,0,0,0,0,0,0,0,0,0,0,0,0,0,0,0,0,0,0,0,0,0,0,0,0,0,0,0,0,0,0,0,0,0,0,0,0,0,0,0,0,0,0,0,0,0,0,0,0,0,0,0,0,0,0,0,0,0,
0,0,0,0,0,0,0,0,0,0,0,0,0,0,0,0,0,0,0,0,0,0,0,0,0,0,0,0,0,0,0,0,0,0,0,0,0,0,0,0,0,0,0,0,0,0,0,0,0,0,0,0,0,0,0,0,0,0
</data>
 </layer>
 <layer id="3" name="edifici" width="58" height="58">
  <data encoding="csv">
0,0,0,0,0,0,0,0,0,0,0,0,0,0,0,0,0,0,0,0,0,0,0,0,0,0,0,0,0,0,0,0,0,0,0,0,0,0,0,0,0,0,0,0,0,0,0,0,0,0,0,0,0,0,0,0,0,0,
421,422,421,422,421,422,421,422,421,422,421,422,421,422,421,422,421,422,421,422,421,422,421,422,421,422,421,422,421,422,421,422,421,422,421,422,421,422,421,422,421,422,421,422,421,422,421,422,421,422,421,422,421,422,421,422,421,422,
429,430,429,430,429,430,429,430,429,430,429,430,429,430,429,430,429,430,429,430,429,430,429,430,429,430,429,430,429,430,429,430,429,430,429,430,429,430,429,430,429,430,429,430,429,430,429,430,429,430,429,430,429,430,429,430,429,430,
437,438,437,438,437,438,437,438,437,438,437,438,437,438,437,438,437,438,437,438,437,438,437,438,437,438,437,438,437,438,437,438,437,438,437,438,437,438,437,438,437,438,437,438,437,438,437,438,437,438,437,438,437,438,437,438,437,438,
421,422,421,422,421,422,421,422,421,422,421,422,421,422,421,422,421,422,421,422,421,422,421,422,421,422,421,422,421,422,421,422,421,422,421,422,421,422,421,422,421,422,421,422,421,422,421,422,421,422,421,422,421,422,421,422,421,422,
429,430,429,430,429,430,429,430,429,430,429,430,429,430,429,430,429,430,429,430,429,430,429,430,429,430,429,430,429,430,429,430,429,430,429,430,429,430,429,430,429,430,429,430,429,430,429,430,429,430,429,430,429,430,429,430,429,430,
437,438,437,438,437,438,437,438,437,438,437,438,437,438,437,438,437,438,437,438,437,438,437,438,437,438,437,438,437,438,437,438,437,438,437,438,437,438,437,438,437,438,437,438,437,438,437,438,437,438,437,438,437,438,437,438,437,438,
421,422,421,422,421,422,421,422,0,0,0,0,0,0,0,0,0,0,0,0,0,0,0,0,0,0,0,0,0,0,0,0,0,0,0,0,0,0,0,0,0,0,0,0,0,0,0,0,0,0,0,0,476,0,0,0,0,0,
429,430,429,430,429,430,429,430,0,0,0,0,0,0,0,0,0,0,0,0,0,0,0,0,0,0,0,0,0,0,0,0,0,0,0,0,0,0,0,0,0,0,0,0,0,0,0,0,0,0,476,476,476,476,0,0,0,0,
437,438,437,438,437,438,437,438,0,0,0,0,0,0,0,0,0,107,107,107,107,107,107,0,0,0,0,0,0,0,0,0,0,0,0,0,0,0,0,0,0,0,0,0,0,0,0,0,0,0,0,0,2906,2907,2908,2908,2908,2908,
421,422,421,422,421,422,421,422,0,0,6049,6050,6051,0,0,0,0,107,0,0,0,0,107,0,0,0,0,0,0,0,0,0,0,0,0,0,0,0,0,0,0,0,0,0,0,0,0,0,0,0,0,2913,2914,2915,2978,2978,2978,2978,
429,430,429,430,429,430,429,430,0,0,6057,6058,6059,0,0,0,0,107,0,0,0,0,107,107,0,0,0,0,0,0,0,0,0,0,0,0,0,0,0,0,0,0,0,0,0,0,0,0,0,0,0,2921,2922,2923,2924,2924,2924,2924,
437,438,437,438,437,438,437,438,0,0,6065,6066,6067,0,0,0,0,107,0,0,0,0,107,107,0,0,0,0,0,0,0,0,0,0,0,0,0,0,0,0,0,0,0,0,0,0,0,0,0,0,0,2929,2930,2994,2994,2994,2994,2995,
421,422,421,422,421,422,421,422,0,0,0,107,107,107,107,107,107,107,0,0,0,0,107,107,0,0,0,0,0,0,0,0,0,0,0,0,0,0,0,0,0,0,0,0,0,0,0,0,0,0,0,2937,2938,3002,3002,3002,3002,3003,
429,430,429,430,429,430,429,430,0,0,0,107,0,0,0,0,6049,6050,6051,0,0,0,107,107,0,0,0,0,0,0,0,0,0,0,0,0,0,0,0,0,0,0,0,0,0,0,0,0,0,0,0,0,429,430,429,430,429,430,
437,438,437,438,437,438,437,438,0,0,0,107,0,0,0,0,6057,6058,6059,0,0,0,107,107,0,0,0,0,0,0,0,0,0,0,0,0,0,0,0,0,0,0,0,0,0,0,0,0,0,0,0,0,437,438,437,438,437,438,
421,422,421,422,421,422,421,422,0,0,0,107,0,0,0,0,6065,6066,6067,0,0,0,107,0,0,0,0,0,0,0,0,0,0,0,0,0,0,6220,6180,6181,6182,6183,6184,6220,0,0,0,0,0,0,0,0,421,422,421,422,421,422,
429,430,429,430,429,430,429,430,0,0,0,107,0,0,0,0,0,0,0,0,0,0,107,0,0,0,0,0,0,0,0,0,0,0,0,0,0,6220,6188,6189,6190,6191,6192,6228,0,0,0,0,0,0,0,0,429,430,429,430,429,430,
437,438,437,438,437,438,437,438,0,0,0,107,0,0,0,0,0,0,0,0,0,0,107,0,0,0,0,0,0,0,0,0,0,0,0,0,0,6220,6196,6197,6198,6199,6200,6228,0,0,0,0,0,0,0,0,437,438,437,438,437,438,
421,422,421,422,421,422,421,422,0,0,0,107,0,0,0,0,0,0,0,0,0,0,107,0,0,0,0,0,0,0,0,0,0,0,0,0,0,6220,6204,6205,6206,6207,6208,6228,0,0,0,0,0,0,0,0,421,422,421,422,421,422,
429,430,429,430,429,430,429,430,0,0,0,107,0,0,0,0,0,0,0,0,0,0,107,0,0,0,0,0,0,0,0,0,0,0,0,0,0,6220,6220,6220,6214,6220,6220,6220,0,0,0,0,0,0,0,0,429,430,429,430,429,430,
437,438,437,438,437,438,437,438,0,0,0,107,0,0,0,0,0,0,0,0,0,0,0,0,0,0,0,0,0,0,0,0,0,0,0,0,0,6228,6228,6228,6222,6228,6228,6228,0,0,0,0,0,0,0,0,437,438,437,438,437,438,
421,422,421,422,421,422,421,422,0,0,0,107,0,0,0,0,0,0,0,0,0,0,0,0,0,0,0,0,0,0,0,0,0,0,0,0,0,0,0,0,0,0,0,0,0,0,0,0,0,0,0,0,421,422,421,422,421,422,
429,430,429,430,429,430,429,430,0,6049,6050,6051,0,0,0,0,0,0,0,0,0,0,0,0,0,0,0,0,0,0,0,0,0,0,0,0,0,0,0,0,0,0,0,0,0,0,0,0,0,0,0,0,429,430,429,430,429,430,
437,438,437,438,437,438,437,438,0,6057,6058,6059,0,0,0,0,0,0,0,0,0,837,838,0,0,0,0,955,0,0,0,0,0,837,838,0,0,0,0,0,0,0,0,0,0,0,0,0,0,0,421,422,437,438,437,438,437,438,
0,0,0,0,0,0,476,476,0,6065,6066,6067,0,0,0,0,0,0,0,0,0,845,846,0,0,0,0,0,0,0,0,0,0,845,846,0,0,0,0,0,0,0,0,0,0,0,0,0,0,0,429,430,421,422,421,422,421,422,
0,0,0,0,0,0,476,476,0,0,0,0,0,0,0,0,0,0,0,0,0,853,854,107,107,107,107,0,0,0,0,0,0,853,854,0,0,0,0,0,0,0,0,0,0,0,0,0,0,0,437,438,429,430,429,430,429,430,
2907,2907,2907,2907,2907,2907,2910,476,4031,4031,4031,4031,4031,4031,4031,4031,4031,4031,4031,4031,4031,861,862,0,107,107,107,107,107,107,107,107,0,861,862,0,0,0,0,0,0,0,0,0,0,0,0,0,0,0,421,422,437,438,437,438,437,438,
2915,2915,2915,2915,2915,2915,2918,2919,4039,4039,4039,4039,4039,4039,4039,4039,4031,4039,4039,4039,4039,0,0,0,107,107,1150,1151,1152,107,107,107,0,0,0,0,0,0,0,0,0,0,0,0,0,0,0,0,0,0,429,430,421,422,421,422,421,422,
2923,2923,2923,2923,2923,2923,2926,2927,0,0,0,0,0,0,0,0,4039,0,0,0,0,0,0,0,107,107,1158,1159,1160,107,107,107,0,0,0,0,0,0,0,0,0,0,0,0,0,0,0,0,0,0,437,438,429,430,429,430,429,430,
2994,2994,2994,2994,2994,2994,2934,2935,0,0,0,0,0,0,0,0,4031,0,0,0,0,0,0,0,107,107,1166,1167,1168,107,107,107,0,0,0,0,0,0,0,0,0,0,0,0,0,0,0,0,0,0,421,422,437,438,437,438,437,438,
3002,3002,3002,3002,3002,3002,2942,2943,4031,4031,4031,4031,4031,4031,4031,4031,4039,4031,4031,4031,4031,0,0,0,107,107,1174,1175,1176,107,107,107,0,0,0,0,0,0,0,0,0,0,0,0,0,0,0,0,0,0,429,430,421,422,421,422,421,422,
429,430,429,430,429,430,429,430,4039,4039,4039,4039,4039,4039,4039,4039,4039,4039,4039,4039,4039,837,838,0,107,107,107,816,107,107,107,107,0,837,838,0,0,0,0,0,0,0,0,0,0,0,0,0,0,0,437,438,429,430,429,430,429,430,
437,438,437,438,437,438,437,438,421,422,0,0,0,0,0,0,0,0,0,0,0,845,846,0,107,107,107,107,107,107,107,107,0,845,846,0,0,0,0,0,0,0,0,0,0,0,0,0,0,0,421,422,437,438,437,438,437,438,
421,422,421,422,421,422,421,422,429,430,0,0,0,0,0,0,0,0,0,0,0,853,854,0,107,107,107,107,107,107,107,107,0,853,854,0,0,0,0,0,0,0,0,0,0,0,0,0,0,0,429,430,421,422,421,422,421,422,
429,430,429,430,429,430,429,430,437,438,0,4047,4048,0,0,0,0,4047,4048,0,0,861,862,0,0,0,0,0,0,0,0,0,0,861,862,1198,1199,1200,1198,1199,1200,0,0,0,0,0,0,0,0,0,437,438,429,430,429,430,429,430,
437,438,437,438,437,438,437,438,421,422,0,4055,4056,0,0,0,0,4055,4056,0,0,0,0,0,0,0,0,0,0,0,0,0,0,0,0,0,0,0,0,4047,4048,0,0,0,0,0,0,0,0,0,421,422,437,438,437,438,437,438,
421,422,421,422,421,422,421,422,429,430,0,0,0,0,0,0,0,0,0,0,0,0,0,0,0,0,0,0,0,0,0,0,0,0,0,0,0,0,0,4055,4056,0,0,0,0,0,0,0,0,0,429,430,421,422,421,422,421,422,
429,430,429,430,429,430,429,430,437,438,0,4047,4048,0,0,0,0,0,0,0,0,0,4047,4048,0,0,0,0,0,0,0,0,0,0,0,0,0,0,0,0,0,0,0,0,0,0,0,0,0,0,437,438,429,430,429,430,429,430,
437,438,437,438,437,438,437,438,421,422,0,4055,4056,0,0,0,0,0,4047,4048,0,0,4055,4056,0,0,0,0,0,0,0,5107,5108,0,0,0,0,0,0,0,0,0,0,0,0,4047,4048,0,0,0,421,422,437,438,437,438,437,438,
421,422,421,422,421,422,421,422,429,430,0,0,0,0,0,0,0,0,4055,4056,0,0,0,0,0,0,0,0,0,0,0,5115,5116,0,0,0,0,0,0,0,0,0,0,0,0,4055,4056,0,0,0,429,430,421,422,421,422,421,422,
429,430,429,430,429,430,429,430,437,438,0,0,0,0,0,0,0,0,0,0,0,0,0,0,0,0,0,0,0,0,0,5107,5108,0,0,7033,7034,7035,0,0,0,0,0,0,0,0,0,0,0,0,437,438,429,430,429,430,429,430,
437,438,437,438,437,438,437,438,421,422,0,0,0,0,0,0,0,0,0,0,0,4047,4048,0,0,0,0,0,0,7146,0,5115,5116,0,0,7041,7042,7043,0,0,0,0,0,0,0,0,0,0,0,0,421,422,437,438,437,438,437,438,
421,422,421,422,421,422,421,422,429,430,0,0,0,0,0,0,0,0,0,0,0,4055,4056,0,0,0,0,0,0,0,0,0,0,0,0,7049,7050,7051,0,0,0,0,0,0,0,0,0,0,0,0,429,430,421,422,421,422,421,422,
429,430,429,430,429,430,429,430,437,438,0,0,0,0,0,0,0,0,0,0,0,0,0,0,0,0,0,0,0,0,0,5107,5108,0,0,0,0,0,0,0,0,0,0,0,4047,4048,0,0,0,0,437,438,429,430,429,430,429,430,
437,438,437,438,437,438,437,438,421,422,0,0,4047,4048,0,0,0,0,0,0,0,0,0,0,0,0,0,0,0,0,0,5115,5116,0,0,0,0,0,0,0,0,0,0,0,4055,4056,0,0,0,0,421,422,437,438,437,438,437,438,
421,422,421,422,421,422,421,422,429,430,0,0,4055,4056,0,0,0,0,0,0,0,0,0,0,0,0,0,0,0,0,0,5107,5108,0,0,0,0,0,0,0,0,0,0,0,0,0,0,0,0,0,429,430,421,422,421,422,421,422,
429,430,429,430,429,430,429,430,437,438,0,0,0,0,0,0,0,0,0,0,0,0,0,0,0,0,0,0,0,0,0,5115,5116,0,0,0,0,0,0,0,4047,4048,0,0,0,0,0,0,0,0,437,438,429,430,429,430,429,430,
437,438,437,438,437,438,437,438,421,422,0,0,0,0,421,422,421,422,421,422,421,422,421,422,421,422,0,0,0,0,0,0,0,0,0,1198,1199,1200,0,0,4055,4056,0,0,0,0,0,0,0,0,0,0,437,438,437,438,437,438,
421,422,421,422,421,422,421,422,429,430,0,0,0,0,429,430,429,430,429,430,429,430,429,430,429,430,0,0,0,0,495,495,495,495,495,495,495,1197,495,495,495,495,495,495,495,495,495,495,495,495,495,495,421,422,421,422,421,422,
429,430,429,430,429,430,429,430,437,438,476,476,476,476,437,438,437,438,437,438,437,438,437,438,437,438,0,0,0,0,503,503,503,503,503,503,503,503,503,503,503,503,503,503,503,503,503,503,503,503,503,503,429,430,429,430,429,430,
437,438,437,438,437,438,437,438,0,0,0,0,0,0,0,0,0,0,0,0,0,0,0,0,0,476,0,0,0,0,511,511,511,511,511,511,511,511,511,511,511,511,511,511,511,511,511,511,511,511,511,511,437,438,437,438,437,438,
421,422,421,422,421,422,421,422,421,422,421,422,421,422,421,422,421,422,421,422,421,422,421,422,421,422,106,107,108,0,421,422,421,422,421,422,421,422,421,422,421,422,421,422,421,422,421,422,421,422,421,422,421,422,421,422,421,422,
429,430,429,430,429,430,429,430,429,430,429,430,429,430,429,430,429,430,429,430,429,430,429,430,429,430,106,107,108,0,429,430,429,430,429,430,429,430,429,430,429,430,429,430,429,430,429,430,429,430,429,430,429,430,429,430,429,430,
437,438,437,438,437,438,437,438,437,438,437,438,437,438,437,438,437,438,437,438,437,438,437,438,437,438,106,107,108,0,437,438,437,438,437,438,437,438,437,438,437,438,437,438,437,438,437,438,437,438,437,438,437,438,437,438,437,438,
421,422,421,422,421,422,421,422,421,422,421,422,421,422,421,422,421,422,421,422,421,422,421,422,421,422,106,107,108,0,421,422,421,422,421,422,421,422,421,422,421,422,421,422,421,422,421,422,421,422,421,422,421,422,421,422,421,422,
429,430,429,430,429,430,429,430,429,430,429,430,429,430,429,430,429,430,429,430,429,430,429,430,429,430,106,107,108,0,429,430,429,430,429,430,429,430,429,430,429,430,429,430,429,430,429,430,429,430,429,430,429,430,429,430,429,430,
437,438,437,438,437,438,437,438,437,438,437,438,437,438,437,438,437,438,437,438,437,438,437,438,437,438,106,107,108,0,437,438,437,438,437,438,437,438,437,438,437,438,437,438,437,438,437,438,437,438,437,438,437,438,437,438,437,438
</data>
 </layer>
 <layer id="4" name="sopra_testa" width="58" height="58">
  <data encoding="csv">
0,0,0,0,0,0,0,0,0,0,0,0,0,0,0,0,0,0,0,0,0,0,0,0,0,0,0,0,0,0,0,0,0,0,0,0,0,0,0,0,0,0,0,0,0,0,0,0,0,0,0,0,0,0,0,0,0,0,
0,0,0,0,0,0,0,0,0,0,0,0,0,0,0,0,0,0,0,0,0,0,0,0,0,0,0,0,0,0,0,0,0,0,0,0,0,0,0,0,0,0,0,0,0,0,0,0,0,0,0,0,0,0,0,0,0,0,
0,0,0,0,0,0,0,0,0,0,0,0,0,0,0,0,0,0,0,0,0,0,0,0,0,0,0,0,0,0,0,0,0,0,0,0,0,0,0,0,0,0,0,0,0,0,0,0,0,0,0,0,0,0,0,0,0,0,
0,0,0,0,0,0,0,0,0,0,0,0,0,0,0,0,0,0,0,0,0,0,0,0,0,0,0,0,0,0,0,0,0,0,0,0,0,0,0,0,0,0,0,0,0,0,0,0,0,0,0,0,0,0,0,0,0,0,
0,0,0,0,0,0,0,0,0,0,0,0,0,0,0,0,0,0,0,0,0,0,0,0,0,0,0,0,0,0,0,0,0,0,0,0,0,0,0,0,0,0,0,0,0,0,0,0,0,0,0,0,0,0,0,0,0,0,
0,0,0,0,0,0,0,0,0,0,0,0,0,0,0,0,0,0,0,0,0,0,0,0,0,0,0,0,0,0,0,0,0,0,0,0,0,0,0,0,0,0,0,0,0,0,0,0,0,0,0,0,0,0,0,0,0,0,
0,0,0,0,0,0,0,0,0,0,0,0,0,0,0,0,0,0,0,0,0,0,0,0,0,0,0,0,0,0,0,0,0,0,0,0,0,0,0,0,0,0,0,0,0,0,0,0,0,0,0,0,0,0,0,0,0,0,
0,0,0,0,0,0,0,0,0,0,0,0,0,0,0,0,0,0,0,0,0,0,0,0,0,0,0,0,0,0,0,0,0,0,0,0,0,0,0,0,0,0,0,0,0,0,0,0,0,0,0,0,0,0,0,0,0,0,
0,0,0,0,0,0,0,0,0,0,0,0,0,0,0,0,0,0,0,0,0,0,0,0,0,0,0,0,0,0,0,0,0,0,0,0,0,0,0,0,0,0,0,0,0,0,0,0,0,0,0,0,0,0,0,0,0,0,
0,0,0,0,0,0,0,0,0,0,0,0,0,0,0,0,0,0,0,0,0,0,0,0,0,0,0,0,0,0,0,0,0,0,0,0,0,0,0,0,0,0,0,0,0,0,0,0,0,0,0,0,0,0,0,0,0,0,
0,0,0,0,0,0,0,0,0,0,0,0,0,0,0,0,0,0,0,0,0,0,0,0,0,0,0,0,0,0,0,0,0,0,0,0,0,0,0,0,0,0,0,0,0,0,0,0,0,0,0,0,0,0,0,0,0,0,
0,0,0,0,0,0,0,0,0,0,0,0,0,0,0,0,0,0,0,0,0,0,0,0,0,0,0,0,0,0,0,0,0,0,0,0,0,0,0,0,0,0,0,0,0,0,0,0,0,0,0,0,0,0,0,0,0,0,
0,0,0,0,0,0,0,0,0,0,0,0,0,0,0,0,0,0,0,0,0,0,0,0,0,0,0,0,0,0,0,0,0,0,0,0,0,0,0,0,0,0,0,0,0,0,0,0,0,0,0,0,0,0,0,0,0,0,
0,0,0,0,0,0,0,0,0,0,0,0,0,0,0,0,0,0,0,0,0,0,0,0,0,0,0,0,0,0,0,0,0,0,0,0,0,0,0,0,0,0,0,0,0,0,0,0,0,0,0,0,421,422,421,422,421,422,
0,0,0,0,0,0,0,0,0,0,0,0,0,0,0,0,0,0,0,0,0,0,0,0,0,0,0,0,0,0,0,0,0,0,0,0,0,0,0,0,0,0,0,0,0,0,0,0,0,0,0,0,0,0,0,0,0,0,
0,0,0,0,0,0,0,0,0,0,0,0,0,0,0,0,0,0,0,0,0,0,0,0,0,0,0,0,0,0,0,0,0,0,0,0,0,0,0,0,0,0,0,0,0,0,0,0,0,0,0,0,0,0,0,0,0,0,
0,0,0,0,0,0,0,0,0,0,0,0,0,0,0,0,0,0,0,0,0,0,0,0,0,0,0,0,0,0,0,0,0,0,0,0,0,0,0,0,0,0,0,0,0,0,0,0,0,0,0,0,0,0,0,0,0,0,
0,0,0,0,0,0,0,0,0,0,0,0,0,0,0,0,0,0,0,0,0,0,0,0,0,0,0,0,0,0,0,0,0,0,0,0,0,0,0,0,0,0,0,0,0,0,0,0,0,0,0,0,0,0,0,0,0,0,
0,0,0,0,0,0,0,0,0,0,0,0,0,0,0,0,0,0,0,0,0,0,0,0,0,0,0,0,0,0,0,0,0,0,0,0,0,0,0,0,0,0,0,0,0,0,0,0,0,0,0,0,0,0,0,0,0,0,
0,0,0,0,0,0,0,0,0,0,0,0,0,0,0,0,0,0,0,0,0,0,0,0,0,0,0,0,0,0,0,0,0,0,0,0,0,0,0,949,0,0,0,0,0,0,0,0,0,0,0,0,0,0,0,0,0,0,
0,0,0,0,0,0,0,0,0,0,0,0,0,0,0,0,0,0,0,0,0,0,0,0,0,0,0,0,0,0,0,0,0,0,0,0,0,0,0,0,0,0,0,0,0,0,0,0,0,0,0,0,0,0,0,0,0,0,
0,0,0,0,0,0,0,0,0,0,0,0,0,0,0,0,0,0,0,0,0,0,0,0,0,0,0,0,0,0,0,0,0,0,0,0,0,0,0,0,0,0,0,0,0,0,0,0,0,0,0,0,0,0,0,0,0,0,
0,0,0,0,0,0,0,0,0,0,0,0,0,0,0,0,0,0,0,0,0,0,0,0,0,0,0,0,0,0,0,0,0,0,0,0,0,0,0,0,0,0,0,0,0,0,0,0,0,0,0,0,0,0,0,0,0,0,
0,0,0,0,0,0,0,0,0,0,0,0,0,0,0,0,0,0,0,0,0,0,0,0,0,0,0,0,0,0,0,0,0,0,0,0,0,0,0,0,0,0,0,0,0,0,0,0,0,0,0,0,0,0,0,0,0,0,
0,0,0,0,0,0,0,0,0,0,0,0,0,0,0,0,0,0,0,0,0,0,0,0,0,0,0,0,0,0,0,0,0,0,0,0,0,0,0,0,0,0,0,0,0,0,0,0,0,0,0,0,0,0,0,0,0,0,
0,0,0,0,0,0,0,0,0,0,0,0,0,0,0,0,0,0,0,0,0,0,0,0,0,0,0,0,0,0,0,0,0,0,0,0,0,0,0,0,0,0,0,0,0,0,0,0,0,0,0,0,0,0,0,0,0,0,
0,0,0,0,0,0,0,0,0,0,0,0,0,0,0,0,0,0,0,0,0,0,0,0,0,0,0,0,0,0,0,0,0,0,0,0,0,0,0,0,0,0,0,0,0,0,0,0,0,0,0,0,0,0,0,0,0,0,
0,0,0,0,0,0,0,0,0,0,0,0,0,0,0,0,0,0,0,0,0,0,0,0,0,0,0,0,0,0,0,0,0,0,0,0,0,0,0,0,0,0,0,0,0,0,0,0,0,0,0,0,0,0,0,0,0,0,
0,0,0,0,0,0,0,0,0,0,0,0,0,0,0,0,0,0,0,0,0,0,0,0,0,0,0,0,0,0,0,0,0,0,0,0,0,0,0,0,0,0,0,0,0,0,0,0,0,0,0,0,0,0,0,0,0,0,
0,0,0,0,0,0,0,0,0,0,0,0,0,0,0,0,0,0,0,0,0,0,0,0,0,0,0,0,0,0,0,0,0,0,0,0,0,0,0,0,0,0,0,0,0,0,0,0,0,0,0,0,0,0,0,0,0,0,
0,0,0,0,0,0,0,0,0,0,0,0,0,0,0,0,0,0,0,0,0,0,0,0,0,0,0,0,0,0,0,0,0,0,0,0,0,0,0,0,0,0,0,0,0,0,0,0,0,0,0,0,0,0,0,0,0,0,
421,422,421,422,421,422,421,422,0,0,0,0,0,0,0,0,0,0,0,0,0,0,0,0,0,0,0,0,0,0,0,0,0,0,0,0,0,0,0,0,0,0,0,0,0,0,0,0,0,0,0,0,0,0,0,0,0,0,
0,0,0,0,0,0,0,0,0,0,0,0,0,0,0,0,0,0,0,0,0,0,0,0,0,0,0,0,0,0,0,0,0,0,0,0,0,0,0,0,0,0,0,0,0,0,0,0,0,0,0,0,0,0,0,0,0,0,
0,0,0,0,0,0,0,0,0,0,0,0,0,0,0,0,0,0,0,0,0,0,0,0,0,0,0,0,0,0,0,0,0,0,0,0,0,0,0,0,0,0,0,0,0,0,0,0,0,0,0,0,0,0,0,0,0,0,
0,0,0,0,0,0,0,0,0,0,0,0,0,0,0,0,0,0,0,0,0,0,0,0,0,0,0,0,0,0,0,0,0,0,0,0,0,0,0,0,0,0,0,0,0,0,0,0,0,0,0,0,0,0,0,0,0,0,
0,0,0,0,0,0,0,0,0,0,0,0,0,0,0,0,0,0,0,0,0,0,0,0,0,0,0,0,0,0,0,0,0,0,0,0,0,0,0,0,0,0,0,0,0,0,0,0,0,0,0,0,0,0,0,0,0,0,
0,0,0,0,0,0,0,0,0,0,0,0,0,0,0,0,0,0,0,0,0,0,0,0,0,0,0,0,0,0,0,0,0,0,0,0,0,0,0,0,0,0,0,0,0,0,0,0,0,0,0,0,0,0,0,0,0,0,
0,0,0,0,0,0,0,0,0,0,0,0,0,0,0,0,0,0,0,0,0,0,0,0,0,0,0,0,0,0,0,0,0,0,0,0,0,0,0,0,0,0,0,0,0,0,0,0,0,0,0,0,0,0,0,0,0,0,
0,0,0,0,0,0,0,0,0,0,0,0,0,0,0,0,0,0,0,0,0,0,0,0,0,0,0,0,0,0,0,0,0,0,0,0,0,0,0,0,0,0,0,0,0,0,0,0,0,0,0,0,0,0,0,0,0,0,
0,0,0,0,0,0,0,0,0,0,0,0,0,0,0,0,0,0,0,0,0,0,0,0,0,0,0,0,0,0,0,0,0,0,0,0,0,0,0,0,0,0,0,0,0,0,0,0,0,0,0,0,0,0,0,0,0,0,
0,0,0,0,0,0,0,0,0,0,0,0,0,0,0,0,0,0,0,0,0,0,0,0,0,0,0,0,0,0,0,0,0,0,0,0,0,0,0,0,0,0,0,0,0,0,0,0,0,0,0,0,0,0,0,0,0,0,
0,0,0,0,0,0,0,0,0,0,0,0,0,0,0,0,0,0,0,0,0,0,0,0,0,0,0,0,0,0,0,0,0,0,0,0,0,0,0,0,0,0,0,0,0,0,0,0,0,0,0,0,0,0,0,0,0,0,
0,0,0,0,0,0,0,0,0,0,0,0,0,0,0,0,0,0,0,0,0,0,0,0,0,0,0,0,0,0,0,0,0,0,0,0,0,0,0,0,0,0,0,0,0,0,0,0,0,0,0,0,0,0,0,0,0,0,
0,0,0,0,0,0,0,0,0,0,0,0,0,0,0,0,0,0,0,0,0,0,0,0,0,0,0,0,0,0,0,0,0,0,0,0,0,0,0,0,0,0,0,0,0,0,0,0,0,0,0,0,0,0,0,0,0,0,
0,0,0,0,0,0,0,0,0,0,0,0,0,0,0,0,0,0,0,0,0,0,0,0,0,0,0,0,0,0,0,0,0,0,0,0,0,0,0,0,0,0,0,0,0,0,0,0,0,0,0,0,0,0,0,0,0,0,
0,0,0,0,0,0,0,0,0,0,0,0,0,0,0,0,0,0,0,0,0,0,0,0,0,0,0,0,0,0,0,0,0,0,0,0,0,0,0,0,0,0,0,0,0,0,0,0,0,0,0,0,0,0,0,0,0,0,
0,0,0,0,0,0,0,0,0,0,0,0,0,0,0,0,0,0,0,0,0,0,0,0,0,0,0,0,0,0,0,0,0,0,0,0,0,0,0,0,0,0,0,0,0,0,0,0,0,0,0,0,0,0,0,0,0,0,
0,0,0,0,0,0,0,0,0,0,0,0,0,0,0,0,0,0,0,0,0,0,0,0,0,0,0,0,0,0,0,0,0,0,0,0,0,0,0,0,0,0,0,0,0,0,0,0,0,0,0,0,0,0,0,0,0,0,
0,0,0,0,0,0,0,0,0,0,0,0,0,0,0,0,0,0,0,0,0,0,0,0,0,0,0,0,0,0,0,0,0,0,0,0,0,0,0,0,0,0,0,0,0,0,0,0,0,0,0,0,0,0,0,0,0,0,
0,0,0,0,0,0,0,0,0,0,0,0,0,0,0,0,0,0,0,0,0,0,0,0,0,0,0,0,0,0,0,0,0,0,0,0,0,0,0,0,0,0,0,0,0,0,0,0,0,0,0,0,0,0,0,0,0,0,
0,0,0,0,0,0,0,0,0,0,0,0,0,0,0,0,0,0,0,0,0,0,0,0,0,0,0,0,0,0,0,0,0,0,0,0,0,0,0,0,0,0,0,0,0,0,0,0,0,0,0,0,0,0,0,0,0,0,
0,0,0,0,0,0,0,0,0,0,0,0,0,0,0,0,0,0,0,0,0,0,0,0,0,0,0,0,0,0,0,0,0,0,0,0,0,0,0,0,0,0,0,0,0,0,0,0,0,0,0,0,0,0,0,0,0,0,
0,0,0,0,0,0,0,0,0,0,0,0,0,0,0,0,0,0,0,0,0,0,0,0,0,0,0,0,0,0,0,0,0,0,0,0,0,0,0,0,0,0,0,0,0,0,0,0,0,0,0,0,0,0,0,0,0,0,
0,0,0,0,0,0,0,0,0,0,0,0,0,0,0,0,0,0,0,0,0,0,0,0,0,0,0,0,0,0,0,0,0,0,0,0,0,0,0,0,0,0,0,0,0,0,0,0,0,0,0,0,0,0,0,0,0,0,
0,0,0,0,0,0,0,0,0,0,0,0,0,0,0,0,0,0,0,0,0,0,0,0,0,0,0,0,0,0,0,0,0,0,0,0,0,0,0,0,0,0,0,0,0,0,0,0,0,0,0,0,0,0,0,0,0,0,
0,0,0,0,0,0,0,0,0,0,0,0,0,0,0,0,0,0,0,0,0,0,0,0,0,0,0,0,0,0,0,0,0,0,0,0,0,0,0,0,0,0,0,0,0,0,0,0,0,0,0,0,0,0,0,0,0,0,
0,0,0,0,0,0,0,0,0,0,0,0,0,0,0,0,0,0,0,0,0,0,0,0,0,0,0,0,0,0,0,0,0,0,0,0,0,0,0,0,0,0,0,0,0,0,0,0,0,0,0,0,0,0,0,0,0,0,
0,0,0,0,0,0,0,0,0,0,0,0,0,0,0,0,0,0,0,0,0,0,0,0,0,0,0,0,0,0,0,0,0,0,0,0,0,0,0,0,0,0,0,0,0,0,0,0,0,0,0,0,0,0,0,0,0,0
</data>
 </layer>
 <objectgroup id="20" name="collisioni">
  <object id="46" x="258.667" y="386.667" width="62.6667" height="18.6667"/>
  <object id="47" x="256" y="388" width="16" height="142.667"/>
  <object id="48" x="294.667" y="740" width="80" height="76"/>
  <object id="49" x="522.667" y="453.333" width="70.6667" height="72"/>
  <object id="50" x="324" y="324" width="86.6667" height="80"/>
  <object id="51" x="612" y="545.333" width="20" height="120"/>
  <object id="52" x="642.667" y="652" width="14.6667" height="8"/>
  <object id="53" x="646.667" y="682.667" width="146.667" height="9.33333"/>
  <object id="54" x="812" y="297.333" width="37.3333" height="482.667"/>
  <object id="55" x="864" y="306.667" width="801.333" height="22.6667"/>
  <object id="56" x="978.667" y="464" width="676" height="30.6667"/>
  <object id="57" x="978.667" y="512" width="30.6667" height="298.667"/>
  <object id="58" x="1074.67" y="800" width="28" height="76"/>
  <object id="59" x="688" y="810.667" width="21.3333" height="70.6667"/>
  <object id="60" x="257.333" y="868" width="408" height="41.3333"/>
  <object id="62" x="258.667" y="1037.33" width="402.667" height="14.6667"/>
  <object id="63" x="524" y="996" width="6.66667" height="29.3333"/>
  <object id="64" x="519.333" y="904" width="19.3333" height="49"/>
  <object id="65" x="262.667" y="1081.33" width="34.6667" height="509.333"/>
  <object id="66" x="276.667" y="1602" width="551.333" height="16"/>
  <object id="67" x="938.667" y="1636" width="693.333" height="12"/>
  <object id="68" x="1604" y="805.333" width="52" height="821.333"/>
  <object id="69" x="1328" y="912" width="266.667" height="32"/>
  <object id="70" x="1064" y="917.333" width="198.667" height="16"/>
  <object id="71" x="1057.33" y="1044" width="266.667" height="17.3333"/>
  <object id="72" x="1378.67" y="1044" width="206.667" height="14.6667"/>
  <object id="73" x="1324" y="1042.67" width="6.66667" height="149.333"/>
  <object id="74" x="1390.67" y="1042.67" width="2.66667" height="148"/>
  <object id="75" x="1269.33" y="1177.33" width="25.3333" height="20"/>
  <object id="76" x="1452" y="1270.67" width="32" height="21.3333"/>
  <object id="77" x="1414.67" y="1430.67" width="46.6667" height="30.6667"/>
  <object id="78" x="1293.33" y="1528" width="32" height="20"/>
  <object id="79" x="1154.67" y="1336" width="17.3333" height="56"/>
  <object id="80" x="1070.67" y="1224" width="66.6667" height="12"/>
  <object id="81" x="1125.33" y="1124" width="6.66667" height="93.3333"/>
  <object id="82" x="1134.67" y="1128" width="57.3333" height="6.66667"/>
  <object id="83" x="1229.33" y="1130.67" width="60" height="4"/>
  <object id="84" x="1066.67" y="1249.33" width="4" height="238.667"/>
  <object id="85" x="1070.67" y="1486.67" width="60" height="2.66667"/>
  <object id="86" x="1130.67" y="1490.67" width="1.33333" height="57.3333"/>
  <object id="87" x="1133.33" y="1550.67" width="62.6667" height="1.33333"/>
  <object id="88" x="1196" y="1550.67" width="1.33333" height="41.3333"/>
  <object id="89" x="936" y="1153.33" width="10.6667" height="325.333"/>
  <object id="90" x="938.667" y="1548" width="4" height="78.6667"/>
  <object id="92" x="840" y="1376" width="4" height="94.6667"/>
  <object id="93" x="840" y="1160" width="6.66667" height="168"/>
  <object id="94" x="784" y="1157.33" width="54.6667" height="8"/>
  <object id="95" x="713.333" y="1188" width="41.3333" height="9.33333"/>
  <object id="96" x="710.667" y="1032" width="10.6667" height="166.667"/>
  <object id="97" x="682.667" y="1033.33" width="5.33333" height="96"/>
  <object id="98" x="562.667" y="1132" width="18.6667" height="36"/>
  <object id="99" x="360" y="1137.33" width="34.6667" height="37.3333"/>
  <object id="100" x="364" y="1234.67" width="30.6667" height="28"/>
  <object id="101" x="397.333" y="1453.33" width="28" height="45.3333"/>
  <object id="102" x="582.667" y="1266.67" width="32" height="28"/>
  <object id="103" x="690.667" y="1362.67" width="21.3333" height="29.3333"/>
  <object id="104" x="717.333" y="1230.67" width="28" height="29.3333"/>
  <object id="105" x="956" y="1161.33" width="86.6667" height="14.6667"/>
  <object id="106" x="1197.33" y="518.667" width="29.3333" height="156"/>
  <object id="107" x="1356" y="526.667" width="32" height="154.667"/>
  <object id="108" x="1332" y="650.667" width="4" height="29.3333"/>
  <object id="109" x="1253.33" y="658.667" height="33.3333"/>
  <object id="110" x="1220" y="529.333" width="170.667" height="64"/>
  <object id="111" x="679.333" y="930" width="18.6667" height="17.3333"/>
  <object id="112" x="937.333" y="1510.67" width="14.6667" height="10.6667"/>
  <object id="113" x="1069.33" y="1078.67" width="32" height="57.3333"/>
  <object id="114" x="462.667" y="1553.33" width="360" height="44.6667"/>
  <object id="133" x="876.667" y="782"/>
  <object id="135" x="944.667" y="1514" height="0.666667"/>
  <object id="144" x="271.667" y="1640.67" width="551.333" height="16"/>
  <object id="145" x="800.667" y="1663.33" width="16" height="182.667"/>
  <object id="146" x="962" y="1668.67" width="25.3333" height="182.667"/>
  <object id="147" x="206.667" y="9.33333" width="36" height="818.667"/>
  <object id="148" x="260" y="10.6667" width="1601.33" height="197.333"/>
  <object id="149" x="1677.33" y="220" width="172.667" height="1616.67"/>
  <object id="150" x="1610" y="262" width="62.5" height="17"/>
  <object id="151" x="171.333" y="864" width="10.6667" height="216.667"/>
  <object id="152" x="210.667" y="840" width="30" height="32.6667"/>
  <object id="153" x="834" y="918" width="81" height="94"/>
  <object id="154" x="871" y="1021" width="19" height="30"/>
 </objectgroup>
 <objectgroup color="#ff0000" id="6" name="eventi">
  <object id="3" name="tusc_int_ether" type="oggetto" x="478.321" y="930.222" width="32" height="32">
   <properties>
    <property name="contenuto" value="etere"/>
    <property name="id" value="tusc_int_ether"/>
    <property name="quantita" type="int" value="1"/>
    <property name="type" value="oggetto"/>
   </properties>
  </object>
  <object id="4" name="tusc_int_antidoto" type="oggetto" x="667.654" y="642.555" width="32" height="32">
   <properties>
    <property name="contenuto" value="antidoto"/>
    <property name="id" value="tusc_int_antidoto"/>
    <property name="quantita" type="int" value="2"/>
    <property name="type" value="oggetto"/>
   </properties>
  </object>
  <object id="5" name="tusc_int_pokeball" type="oggetto" x="463.988" y="1088.56" width="32" height="32">
   <properties>
    <property name="contenuto" value="pokeball"/>
    <property name="id" value="tusc_int_pokeball"/>
    <property name="quantita" type="int" value="3"/>
    <property name="type" value="oggetto"/>
   </properties>
  </object>
  <object id="6" name="tusc_int_repel" type="oggetto" x="1245.99" y="606.555" width="32" height="32">
   <properties>
    <property name="contenuto" value="superrepellente"/>
    <property name="id" value="tusc_int_repel"/>
    <property name="quantita" type="int" value="1"/>
    <property name="type" value="oggetto"/>
   </properties>
  </object>
  <object id="7" name="tusc_int_pozione" type="oggetto" x="731.654" y="1150.22" width="32" height="32">
   <properties>
    <property name="contenuto" value="superpozione"/>
    <property name="id" value="tusc_int_pozione"/>
    <property name="quantita" type="int" value="1"/>
    <property name="type" value="oggetto"/>
   </properties>
  </object>
  <object id="8" name="trainer" type="trainer" x="1155.32" y="1245.89" width="32" height="32">
   <properties>
    <property name="dialogo" value="&quot;sono arrivato prima io, i Barbecue sono miei&quot;"/>
    <property name="direzione" value="sud"/>
    <property name="id" value="all-bosco-19"/>
    <property name="sprite" value="BUGCATCHER"/>
    <property name="type" value="trainer"/>
    <property name="vista" type="int" value="5"/>
   </properties>
  </object>
  <object id="9" name="trainer" type="trainer" x="1378.99" y="989.889" width="32" height="32">
   <properties>
    <property name="direzione" value="nord"/>
    <property name="direzione_ciclo" value="NS"/>
    <property name="id" value="all-bosco-4"/>
    <property name="pattuglia" type="bool" value="true"/>
    <property name="sprite" value="YOUNGSTER"/>
    <property name="type" value="trainer"/>
    <property name="vista" type="int" value="3"/>
   </properties>
  </object>
  <object id="10" name="trainer" type="trainer" x="306.321" y="452.889" width="32" height="32">
   <properties>
    <property name="direzione" value="est"/>
    <property name="id" value="all-bosco-5"/>
    <property name="sprite" value="LASS"/>
    <property name="type" value="trainer"/>
    <property name="vista" type="int" value="5"/>
   </properties>
  </object>
  <object id="11" name="trainer" type="trainer" x="667.321" y="541.222" width="32" height="32">
   <properties>
    <property name="direzione" value="nord"/>
    <property name="id" value="all-bosco-6"/>
    <property name="sprite" value="BUGCATCHER"/>
    <property name="type" value="trainer"/>
    <property name="vista" type="int" value="4"/>
   </properties>
  </object>
  <object id="12" name="trainer" type="trainer" x="511.988" y="1120.56" width="32" height="32">
   <properties>
    <property name="direzione" value="ovest"/>
    <property name="id" value="all-bosco-7"/>
    <property name="sprite" value="BIRDKEEPER"/>
    <property name="type" value="trainer"/>
    <property name="vista" type="int" value="7"/>
   </properties>
  </object>
  <object id="13" name="trainer" type="trainer" x="1336.99" y="459.555" width="32" height="32">
   <properties>
    <property name="direzione" value="sud"/>
    <property name="direzione_ciclo" value="NS"/>
    <property name="id" value="all-bosco-8"/>
    <property name="pattuglia" type="bool" value="true"/>
    <property name="sprite" value="YOUNGSTER"/>
    <property name="type" value="trainer"/>
    <property name="vista" type="int" value="4"/>
   </properties>
  </object>
  <object id="14" name="trainer" type="trainer" x="834.321" y="1343.56" width="32" height="32">
   <properties>
    <property name="direzione" value="est"/>
    <property name="id" value="all-bosco-9"/>
    <property name="sprite" value="LASS"/>
    <property name="type" value="trainer"/>
    <property name="vista" type="int" value="4"/>
   </properties>
  </object>
  <object id="15" name="trainer" type="trainer" x="1156.65" y="1438.56" width="32" height="32">
   <properties>
    <property name="direzione" value="sud"/>
    <property name="direzione_ciclo" value="NS"/>
    <property name="id" value="all-bosco-10"/>
    <property name="pattuglia" type="bool" value="true"/>
    <property name="sprite" value="BUGCATCHER"/>
    <property name="type" value="trainer"/>
    <property name="vista" type="int" value="5"/>
   </properties>
  </object>
  <object id="16" name="TBD" type="Rivale DONNA" x="896.654" y="1025.56" width="32" height="32">
   <properties>
    <property name="direzione" value="NORD"/>
    <property name="id" value="rivale_tuscolo"/>
    <property name="sprite" value="RIVALE_DONNA"/>
    <property name="tappa" type="int" value="2"/>
    <property name="type" value="trainer"/>
    <property name="vista" value="6"/>
   </properties>
  </object>
  <object id="17" name="npc" type="npc" x="1148.99" y="768.889" width="32" height="32">
   <properties>
    <property name="direzione" value="est"/>
    <property name="id" value="tusc_int_npc1"/>
    <property name="sprite" value="NPC_31"/>
    <property name="type" value="npc"/>
   </properties>
  </object>
  <object id="18" name="npc" type="npc" x="1560.65" y="550.555" width="32" height="32">
   <properties>
    <property name="direzione" value="ovest"/>
    <property name="id" value="tusc_int_npc2"/>
    <property name="sprite" value="NPC_32"/>
    <property name="type" value="npc"/>
   </properties>
  </object>
  <object id="19" name="npc" type="npc" x="708.988" y="896.889" width="32" height="32">
   <properties>
    <property name="direzione" value="nord"/>
    <property name="id" value="tusc_int_npc3"/>
    <property name="movimento" value="random"/>
    <property name="raggio" type="int" value="3"/>
    <property name="sprite" value="NPC_33"/>
    <property name="type" value="npc"/>
   </properties>
  </object>
  <object id="20" name="cartello" type="cartello" x="862.988" y="770.889" width="32" height="32">
   <properties>
    <property name="testo" value="Boschi del Tuscolo — Cuore del bosco"/>
    <property name="type" value="cartello"/>
   </properties>
  </object>
  <object id="21" name="cartello" type="cartello" x="672.988" y="930.222" width="27.3333" height="20">
   <properties>
    <property name="testo" value="← Sentiero Ovest (scorciatoia con Taglio)"/>
    <property name="type" value="cartello"/>
   </properties>
  </object>
  <object id="22" name="cartello" type="cartello" x="928.988" y="1503.56" width="32" height="32">
   <properties>
    <property name="testo" value="Tuscolo Interno"/>
    <property name="type" value="cartello"/>
   </properties>
  </object>
  <object id="24" name="warp" type="warp" x="1683.54" y="335.866" width="32" height="32" rotation="88.6784">
   <properties>
    <property name="destinazione" value="tuscolo_rovine"/>
    <property name="spawn_id" value="da_tuscolo_interno_nord"/>
    <property name="type" value="warp"/>
   </properties>
  </object>
  <object id="25" name="warp" type="warp" x="1684.28" y="367.857" width="32" height="32" rotation="88.6784">
   <properties>
    <property name="destinazione" value="tuscolo_rovine"/>
    <property name="spawn_id" value="da_tuscolo_interno_nord"/>
    <property name="type" value="warp"/>
   </properties>
  </object>
  <object id="26" name="warp" type="warp" x="1685.02" y="399.849" width="32" height="32" rotation="88.6784">
   <properties>
    <property name="destinazione" value="tuscolo_rovine"/>
    <property name="spawn_id" value="da_tuscolo_interno_nord"/>
    <property name="type" value="warp"/>
   </properties>
  </object>
  <object id="32" name="warp" type="warp" x="191.321" y="917.555" width="32" height="32">
   <properties>
    <property name="destinazione" value="boschetto_segreto"/>
    <property name="spawn_id" value="da_tuscolo_interno_1"/>
    <property name="type" value="warp"/>
   </properties>
  </object>
  <object id="35" name="spawn" type="spawn" x="1610.32" y="384.555" width="32" height="32">
   <properties>
    <property name="id" value="da_tuscolo_rovine"/>
    <property name="type" value="spawn"/>
   </properties>
  </object>
  <object id="36" name="spawn" type="spawn" x="243.654" y="958.222" width="32" height="32">
   <properties>
    <property name="id" value="da_boschetto_segreto"/>
    <property name="type" value="spawn"/>
   </properties>
  </object>
  <object id="116" name="erba alta percorso 1" x="262.815" y="250.634" width="270.37" height="122.732">
   <properties>
    <property name="id" value="incontri tuscolo"/>
    <property name="type" value="erba_alta"/>
   </properties>
  </object>
  <object id="117" name="erba alta percorso 1" x="1400.82" y="1081.3" width="270.37" height="122.732">
   <properties>
    <property name="id" value="incontri tuscolo"/>
    <property name="type" value="erba_alta"/>
   </properties>
  </object>
  <object id="118" name="erba alta percorso 1" x="1567.48" y="1218.63" width="97.0367" height="381.399">
   <properties>
    <property name="id" value="incontri tuscolo"/>
    <property name="type" value="erba_alta"/>
   </properties>
  </object>
  <object id="119" name="erba alta percorso 1" x="1158.15" y="1507.97" width="461.037" height="89.399">
   <properties>
    <property name="id" value="incontri tuscolo"/>
    <property name="type" value="erba_alta"/>
   </properties>
  </object>
  <object id="120" name="erba alta percorso 1" x="321.481" y="1071.3" width="106.37" height="525.399">
   <properties>
    <property name="id" value="incontri tuscolo"/>
    <property name="type" value="erba_alta"/>
   </properties>
  </object>
  <object id="121" name="erba alta percorso 1" x="521.482" y="1061.3" width="106.37" height="144.066">
   <properties>
    <property name="id" value="incontri tuscolo"/>
    <property name="type" value="erba_alta"/>
   </properties>
  </object>
  <object id="122" name="erba alta percorso 1" x="864.148" y="1170.63" width="30.37" height="88.066">
   <properties>
    <property name="id" value="incontri tuscolo"/>
    <property name="type" value="erba_alta"/>
   </properties>
  </object>
  <object id="123" name="erba alta percorso 1" x="899.482" y="1314.63" width="30.37" height="88.066">
   <properties>
    <property name="id" value="incontri tuscolo"/>
    <property name="type" value="erba_alta"/>
   </properties>
  </object>
  <object id="124" name="erba alta percorso 1" x="866.148" y="1431.97" width="30.37" height="88.066">
   <properties>
    <property name="id" value="incontri tuscolo"/>
    <property name="type" value="erba_alta"/>
   </properties>
  </object>
  <object id="125" name="erba alta percorso 1" x="900.148" y="1572.97" width="30.37" height="52.066">
   <properties>
    <property name="id" value="incontri tuscolo"/>
    <property name="type" value="erba_alta"/>
   </properties>
  </object>
  <object id="126" name="erba alta percorso 1" x="1148.82" y="1151.3" width="91.7033" height="52.066">
   <properties>
    <property name="id" value="incontri tuscolo"/>
    <property name="type" value="erba_alta"/>
   </properties>
  </object>
  <object id="127" name="erba alta percorso 1" x="400.815" y="548.634" width="91.7033" height="73.3993">
   <properties>
    <property name="id" value="incontri tuscolo"/>
    <property name="type" value="erba_alta"/>
   </properties>
  </object>
  <object id="128" name="erba alta percorso 1" x="518.148" y="641.967" width="43.7033" height="204.066">
   <properties>
    <property name="id" value="incontri tuscolo"/>
    <property name="type" value="erba_alta"/>
   </properties>
  </object>
  <object id="129" name="erba alta percorso 1" x="256.815" y="548.634" width="75.7033" height="70.7327">
   <properties>
    <property name="id" value="incontri tuscolo"/>
    <property name="type" value="erba_alta"/>
   </properties>
  </object>
  <object id="130" name="erba alta percorso 1" x="582.148" y="323.3" width="114.37" height="49.3994">
   <properties>
    <property name="id" value="incontri tuscolo"/>
    <property name="type" value="erba_alta"/>
   </properties>
  </object>
  <object id="131" name="erba alta percorso 1" x="745.482" y="265.967" width="41.0367" height="100.066">
   <properties>
    <property name="id" value="incontri tuscolo"/>
    <property name="type" value="erba_alta"/>
   </properties>
  </object>
  <object id="132" name="erba alta percorso 1" x="538.148" y="259.3" width="218.37" height="21.3993">
   <properties>
    <property name="id" value="incontri tuscolo"/>
    <property name="type" value="erba_alta"/>
   </properties>
  </object>
  <object id="140" name="warp" type="warp" x="191.667" y="976.667" width="32" height="32">
   <properties>
    <property name="destinazione" value="boschetto_segreto"/>
    <property name="spawn_id" value="da_tuscolo_interno_1"/>
    <property name="type" value="warp"/>
   </properties>
  </object>
  <object id="143" name="warp" type="warp" x="192.667" y="951.333" width="32" height="32">
   <properties>
    <property name="destinazione" value="boschetto_segreto"/>
    <property name="spawn_id" value="da_tuscolo_interno_1"/>
    <property name="type" value="warp"/>
   </properties>
  </object>
 </objectgroup>
</map>
