<?xml version="1.0" encoding="UTF-8"?>
<map version="1.10" tiledversion="1.12.2" orientation="orthogonal" renderorder="right-down" width="55" height="55" tilewidth="32" tileheight="32" infinite="0" nextlayerid="7" nextobjectid="71">
 <tileset firstgid="1" source="../Caves.tsj"/>
 <tileset firstgid="1593" source="../../Emerald_Outside.tsx"/>
 <tileset firstgid="6841" source="../outside.tsx"/>
 <tileset firstgid="10857" source="../../outside.tsx"/>
 <layer id="1" name="ground" width="55" height="55">
  <data encoding="csv">
130,130,130,130,130,130,130,130,130,130,130,130,130,130,130,130,130,130,130,130,130,130,130,130,130,130,130,130,130,130,130,130,130,130,130,130,130,130,130,130,130,130,130,130,130,130,130,130,130,130,130,130,130,130,130,
130,131,138,138,138,138,138,138,138,138,138,138,138,138,138,138,138,138,138,138,138,138,138,138,138,138,138,138,138,138,138,138,138,128,130,130,130,130,130,130,130,130,130,130,130,130,130,130,130,130,130,130,130,130,130,
130,131,227,227,227,227,227,227,227,227,227,227,227,227,227,158,227,227,227,227,227,227,227,227,227,227,227,227,227,227,227,227,227,129,130,130,130,130,130,130,130,130,130,130,130,130,130,130,130,130,130,130,130,130,130,
130,131,227,227,227,227,227,227,227,227,227,227,227,227,227,227,227,227,227,227,227,227,227,227,227,227,227,227,227,227,227,227,227,129,130,130,130,130,130,130,130,130,130,130,130,130,130,130,130,130,130,130,130,130,130,
130,131,227,227,227,227,227,227,227,227,227,227,227,227,227,227,227,227,227,227,227,227,227,227,227,227,227,227,227,227,227,227,227,129,130,130,130,130,130,130,130,130,130,130,130,130,130,130,130,130,130,130,130,130,130,
130,131,227,227,227,227,227,227,227,227,227,227,227,227,227,227,227,227,227,227,227,227,227,227,227,227,227,227,227,227,227,227,227,129,130,130,130,130,130,130,130,130,130,130,130,130,130,130,130,130,130,130,130,130,130,
130,131,227,227,227,227,227,227,227,227,227,227,227,227,227,227,227,227,227,227,227,227,227,227,227,227,227,227,227,227,227,227,227,129,130,130,130,130,130,130,130,130,130,130,130,130,130,130,130,130,130,130,130,130,130,
130,131,227,227,227,227,227,227,227,227,227,227,227,227,227,227,227,227,227,227,227,227,227,227,227,0,227,227,227,227,227,227,227,129,130,130,130,130,130,130,130,130,130,130,130,130,130,130,130,130,130,130,130,130,130,
130,131,227,130,227,227,227,227,227,227,227,227,227,130,227,227,227,227,227,227,227,227,227,227,227,227,227,227,227,227,227,227,227,129,130,130,130,130,130,130,130,130,130,130,130,130,130,130,130,130,130,130,130,130,130,
130,131,227,227,130,227,227,227,227,227,227,227,130,227,227,227,227,227,227,227,227,227,227,227,227,227,227,227,227,227,227,227,227,129,130,130,130,130,130,130,130,130,0,130,130,130,130,130,130,130,130,130,130,130,130,
130,131,227,227,227,130,0,227,227,227,227,130,227,227,227,227,227,227,227,227,227,227,227,227,227,227,227,227,227,227,227,227,227,129,130,130,130,130,130,130,130,130,130,130,130,130,130,130,130,130,130,130,130,130,130,
130,131,227,227,227,227,227,227,227,227,227,227,227,227,227,227,227,227,227,227,227,227,227,227,227,227,227,227,227,227,227,227,227,129,130,130,130,130,130,130,130,130,130,130,130,130,130,130,130,130,130,130,130,130,130,
130,131,227,227,227,227,227,227,227,227,227,227,227,227,227,227,227,227,227,227,227,227,227,227,227,227,227,227,227,227,227,227,227,137,138,138,138,138,138,138,138,138,138,138,138,138,138,128,130,130,130,130,130,130,130,
130,131,227,227,227,227,227,227,227,227,227,227,227,227,227,227,227,227,227,227,227,227,227,227,227,227,227,227,227,227,227,227,227,227,227,227,227,227,227,227,227,227,227,227,227,227,227,129,130,130,130,130,130,130,130,
130,131,227,227,227,227,227,227,227,227,227,227,227,227,227,227,227,227,227,227,227,227,227,227,227,227,227,227,227,227,227,227,227,227,227,227,227,227,227,227,227,227,227,227,227,227,227,129,130,130,130,130,130,130,130,
130,131,227,227,227,227,227,227,227,227,138,138,227,227,227,227,227,227,227,227,227,227,227,227,227,227,227,227,227,227,227,227,227,227,227,227,227,227,227,227,227,227,227,227,227,227,227,129,130,130,130,130,130,130,130,
130,131,227,227,227,227,227,227,227,227,227,227,227,227,227,227,227,227,227,227,227,227,227,227,227,227,227,227,227,227,227,227,227,227,227,227,227,227,227,227,227,227,227,227,227,227,227,129,130,130,130,130,130,130,130,
130,131,227,227,227,227,227,227,227,227,227,227,227,227,227,227,227,227,227,227,227,227,227,227,227,227,227,227,227,227,227,227,227,227,227,227,227,227,227,227,227,227,227,227,227,227,227,129,130,130,130,130,130,130,130,
130,131,227,227,227,227,227,227,227,227,227,227,227,227,227,227,227,227,227,227,227,227,227,227,227,227,227,227,227,227,227,227,227,227,227,227,227,227,227,227,227,227,227,227,227,227,227,129,130,130,130,130,130,130,130,
130,131,227,227,227,227,227,227,227,227,227,227,227,227,227,227,159,160,227,227,227,227,227,227,227,227,227,227,227,227,227,227,227,227,227,227,227,227,227,227,227,227,227,227,227,227,227,129,130,130,130,130,130,130,130,
130,131,227,227,227,227,227,227,227,227,227,227,227,227,227,227,167,168,227,227,227,130,227,227,227,227,227,227,227,227,227,227,227,130,227,227,227,227,227,227,227,227,227,227,227,227,227,129,130,130,130,130,130,130,130,
130,131,227,227,227,227,227,227,227,227,227,227,227,227,227,227,227,227,227,227,227,227,130,227,227,227,227,227,227,227,227,227,130,227,227,227,227,227,227,227,227,227,227,227,227,227,227,129,130,130,130,130,130,130,130,
130,131,227,227,227,227,227,227,227,227,227,227,227,227,227,227,227,227,227,227,227,227,227,227,227,227,227,227,227,227,227,227,227,227,227,227,227,227,227,227,227,227,227,227,227,227,227,129,130,130,130,130,130,130,130,
130,131,227,227,227,227,227,227,227,227,227,227,227,227,227,227,227,227,227,227,227,227,227,227,227,227,227,227,227,227,227,227,227,227,227,227,227,227,227,227,227,227,227,227,227,227,227,129,130,130,130,130,130,130,130,
130,131,227,227,227,227,227,227,227,227,227,227,227,227,227,227,227,227,227,227,227,227,227,227,227,227,227,227,227,227,227,227,227,227,227,227,227,227,227,227,227,227,227,227,227,227,227,129,130,130,130,130,130,130,130,
130,131,227,227,227,227,227,227,227,227,227,227,227,227,227,227,227,227,227,227,227,227,227,227,227,227,227,227,227,227,227,227,227,227,227,227,227,227,227,227,227,227,227,227,227,227,227,129,130,130,130,130,130,130,130,
130,131,227,227,227,227,227,227,227,227,227,227,227,227,227,227,227,227,227,227,227,227,227,227,227,227,227,227,227,227,227,227,227,227,227,227,227,227,227,227,227,227,227,227,227,227,227,129,130,130,130,130,130,130,130,
130,131,227,227,227,227,227,227,227,227,227,227,227,227,227,227,227,227,227,227,227,227,227,227,227,227,227,227,227,227,227,227,227,227,227,227,227,227,227,227,227,227,227,227,227,227,227,129,130,130,130,130,130,130,130,
130,131,227,227,227,227,227,227,227,227,227,227,227,227,227,227,227,227,227,227,227,227,227,227,227,227,227,227,227,227,227,227,227,227,227,227,227,227,227,227,227,227,227,227,227,227,227,129,130,130,130,130,130,130,130,
130,131,227,227,227,227,227,227,227,227,227,227,227,227,227,227,227,227,227,227,227,227,227,227,227,227,227,227,227,227,227,227,227,227,227,227,227,227,227,227,227,227,227,227,227,227,227,129,130,130,130,130,130,130,130,
130,131,227,227,227,227,227,227,227,227,227,227,227,227,227,227,227,227,227,227,227,227,227,227,227,227,227,227,227,227,227,227,227,227,227,227,227,227,227,227,227,227,227,227,227,227,227,129,130,130,130,130,130,130,130,
130,131,227,227,227,227,227,227,227,227,227,227,227,227,227,227,227,227,227,227,227,227,227,227,227,227,227,227,227,227,227,227,227,227,227,227,227,227,227,227,227,227,227,227,227,227,227,129,130,130,130,130,130,130,130,
130,131,227,227,227,227,227,227,227,227,227,227,227,227,227,227,227,227,227,227,227,227,227,227,227,227,227,227,227,227,227,227,227,227,227,227,227,227,227,227,227,227,227,227,227,227,227,129,130,130,130,130,130,130,130,
130,131,227,227,227,227,227,227,227,227,227,227,227,227,227,227,227,227,227,227,227,227,227,227,227,227,227,227,227,227,227,227,227,227,227,227,227,227,227,227,227,227,227,227,227,227,227,129,130,130,130,130,130,130,130,
130,131,227,227,227,227,227,227,227,227,227,227,227,227,227,227,227,227,227,227,227,227,227,227,227,227,227,227,227,227,227,227,227,227,227,227,227,227,227,227,227,227,227,227,227,227,227,122,130,130,130,130,130,130,130,
130,131,227,227,227,227,227,227,227,227,227,227,227,227,227,227,227,227,227,227,227,227,227,227,227,227,227,227,227,227,227,227,130,130,130,130,130,130,130,130,130,158,130,130,130,130,130,130,130,130,130,130,130,130,130,
130,131,227,227,227,227,227,227,227,227,227,227,227,227,227,227,227,227,227,227,227,227,227,227,227,227,227,227,227,227,227,227,130,130,130,130,130,130,130,130,130,130,130,130,130,130,130,130,130,130,130,130,130,130,130,
130,131,227,227,227,227,227,227,227,227,227,227,227,227,227,227,227,227,227,227,227,227,227,227,227,227,227,227,227,227,227,227,130,130,130,130,130,130,130,130,130,130,130,130,130,130,130,130,130,130,130,130,130,130,130,
130,131,227,227,227,227,227,227,227,227,227,227,227,227,227,227,227,227,227,227,227,227,227,227,227,227,227,227,227,227,227,227,130,130,130,130,130,130,130,130,130,130,130,130,130,130,130,130,130,130,130,130,130,130,130,
130,131,227,227,227,227,227,227,227,227,227,227,227,227,227,227,227,227,227,227,227,227,227,227,227,227,227,227,227,227,227,227,130,130,130,130,130,130,130,130,130,130,130,130,130,130,130,130,130,130,130,130,130,130,130,
130,131,227,227,227,227,227,227,227,227,227,227,227,227,227,227,227,227,227,227,227,227,227,227,227,227,227,227,227,227,227,227,130,130,130,130,130,130,130,130,130,130,130,130,130,130,130,130,130,130,130,130,130,130,130,
130,131,227,227,227,227,227,227,227,227,227,227,227,227,227,227,227,227,227,227,227,227,227,227,227,227,227,227,227,227,227,227,130,130,130,130,130,130,130,130,130,130,130,130,130,130,130,130,130,130,130,130,130,130,130,
130,131,227,227,227,227,227,227,227,227,227,227,227,227,227,227,227,227,227,227,227,227,227,227,227,227,227,227,227,227,227,227,130,130,130,130,130,130,130,130,130,130,130,130,130,130,130,130,130,130,130,130,130,130,130,
130,131,227,227,227,227,227,227,227,227,227,227,227,227,227,227,227,227,227,227,227,227,227,227,227,227,227,227,227,227,227,227,130,130,130,130,130,130,130,130,130,130,130,130,130,130,130,130,130,130,130,130,130,130,130,
130,131,227,227,227,227,227,227,227,227,227,227,227,227,227,227,227,227,227,227,227,227,227,227,227,227,227,227,227,227,227,227,130,130,130,130,130,130,130,130,130,130,130,130,130,130,130,130,130,130,130,130,130,130,130,
130,131,227,227,227,227,227,227,227,227,227,227,227,227,227,227,227,227,227,227,227,227,227,227,227,227,227,227,227,227,227,227,130,130,130,130,130,130,130,130,130,130,130,130,130,130,130,130,130,130,130,130,130,130,130,
130,131,227,227,227,227,227,227,227,227,227,227,227,227,227,227,227,227,227,227,227,227,227,227,227,227,227,227,227,227,227,227,130,130,130,130,130,130,130,130,130,130,130,130,130,130,130,130,130,130,130,130,130,130,130,
130,131,227,227,227,227,227,227,227,227,227,227,227,227,227,227,227,227,227,227,227,227,227,227,227,227,227,227,227,227,227,227,138,138,138,138,138,138,138,138,138,138,138,138,138,138,138,138,138,138,138,138,138,138,138,
130,131,227,227,227,227,227,227,227,227,227,227,227,227,227,227,227,227,227,227,227,227,227,227,227,227,227,227,227,227,227,227,227,227,227,227,227,227,227,227,227,227,227,227,227,227,227,227,227,227,227,227,227,227,227,
130,131,227,227,227,227,227,227,227,227,227,227,227,227,227,227,227,227,227,227,227,227,227,227,227,227,227,227,227,227,227,227,227,227,227,227,227,227,227,227,227,227,227,227,227,227,227,227,227,227,227,227,227,227,227,
130,131,227,227,227,227,227,227,227,227,227,227,227,227,227,227,227,227,227,227,227,227,227,227,227,227,227,227,227,227,227,227,227,227,227,227,227,227,227,227,227,227,227,227,227,227,227,227,227,227,227,227,227,227,227,
130,131,227,227,227,227,227,227,227,227,227,227,227,227,227,227,227,227,227,227,227,227,227,227,227,227,227,227,227,227,227,227,227,227,227,227,227,227,227,227,227,227,227,227,227,227,227,227,227,227,227,227,227,227,227,
130,131,227,227,227,227,227,227,227,227,227,227,227,227,227,227,227,227,227,227,227,227,227,227,227,227,227,227,227,227,227,227,227,227,227,227,227,227,227,227,227,227,227,227,227,227,227,227,227,227,227,227,227,227,227,
130,131,227,227,227,227,227,227,227,227,227,227,227,227,227,227,227,227,227,227,227,227,227,227,227,227,227,227,227,227,227,227,227,227,227,227,227,227,227,227,227,227,227,227,227,227,227,227,227,227,227,227,227,227,227,
130,135,135,135,135,135,135,135,135,135,135,135,135,135,135,135,135,135,135,135,135,135,135,135,135,135,124,125,126,135,135,135,135,135,135,135,135,135,135,135,135,135,135,135,135,135,135,135,135,135,135,135,135,135,135
</data>
 </layer>
 <layer id="2" name="deco_sotto" width="55" height="55">
  <data encoding="csv">
0,0,0,0,0,0,0,0,0,0,0,0,0,0,0,0,0,0,0,0,0,0,0,0,0,0,0,0,0,0,0,0,0,0,0,0,0,0,0,0,0,0,0,0,0,0,0,0,0,0,0,0,0,0,0,
0,0,0,0,0,0,143,144,0,0,0,0,0,0,0,0,0,0,0,0,0,0,0,0,0,0,0,0,0,0,0,0,0,0,174,174,0,0,0,0,0,0,0,0,0,0,0,0,0,0,0,0,0,0,0,
0,0,0,0,0,0,151,152,0,0,0,0,174,174,0,0,0,0,0,0,0,0,0,0,0,174,174,0,0,0,0,0,0,0,0,0,174,0,0,0,0,0,0,0,0,0,0,0,0,0,0,0,0,0,0,
0,0,0,0,7789,0,0,0,0,0,0,0,0,0,0,0,0,0,0,0,0,174,174,174,174,174,0,0,0,0,0,0,0,0,0,0,0,174,0,0,0,0,0,0,0,0,0,0,0,0,0,0,0,0,0,
0,0,0,0,0,0,0,0,0,0,0,0,0,0,0,174,0,0,174,174,174,0,0,0,0,0,0,0,0,0,0,0,0,0,0,0,0,0,174,0,0,0,0,0,0,0,0,0,0,0,0,0,0,0,0,
0,0,0,0,0,0,7789,0,0,0,0,0,0,0,0,174,174,174,174,0,0,0,0,0,0,174,174,174,0,0,0,0,0,0,0,0,0,0,0,174,0,0,0,0,0,0,0,0,0,0,0,0,0,0,0,
0,0,0,0,0,0,0,0,0,0,0,0,0,0,174,174,0,0,0,0,0,0,0,0,174,0,0,174,0,0,0,0,0,0,0,0,0,0,0,0,174,0,0,174,0,0,0,0,0,0,0,0,0,0,0,
0,0,121,122,122,122,122,122,122,122,122,122,122,122,123,0,0,0,0,0,0,0,0,0,0,0,0,174,0,0,0,0,0,0,0,0,0,0,0,0,0,174,0,0,174,0,0,0,0,0,0,0,0,0,0,
0,0,129,121,170,170,170,170,170,170,170,170,170,123,131,0,0,0,0,0,0,0,0,0,0,0,0,174,0,0,0,0,0,0,0,0,0,0,0,0,0,0,0,0,0,174,0,0,0,0,0,0,0,0,0,
0,0,129,129,121,170,170,170,170,170,170,170,123,131,131,0,0,0,0,0,0,0,0,0,0,0,0,174,0,0,0,0,0,0,0,0,0,0,0,0,0,0,0,0,0,0,174,0,0,0,0,0,0,0,0,
0,0,129,129,129,121,0,170,170,170,170,123,131,131,131,0,0,0,0,0,0,0,0,0,0,0,0,174,0,0,0,0,0,0,0,0,0,0,0,0,0,0,0,0,0,0,0,174,0,0,0,0,0,0,0,
0,0,129,129,129,129,178,178,178,178,178,131,131,131,131,0,0,0,0,0,0,0,0,0,0,0,0,0,174,174,0,0,0,0,0,0,0,0,0,0,0,0,0,0,0,0,0,174,121,0,0,0,0,0,0,
0,0,129,129,129,137,156,138,138,138,138,139,131,131,131,0,0,0,0,0,0,0,0,0,0,0,0,0,0,174,0,0,0,0,0,143,144,0,0,0,0,0,0,0,0,0,0,0,0,0,0,0,0,0,0,
0,0,129,129,137,138,156,138,138,138,138,138,139,131,131,0,0,0,0,0,0,0,0,0,0,0,0,0,0,174,174,0,0,0,0,151,152,0,0,0,0,0,0,0,0,0,0,0,0,0,0,0,0,0,0,
0,0,129,137,138,138,156,138,138,138,138,138,138,139,131,0,0,0,0,0,0,0,0,0,0,0,0,0,0,0,174,174,0,0,0,0,0,0,0,0,0,0,0,0,0,0,0,0,0,0,0,0,0,0,0,
0,0,137,138,138,138,156,138,138,138,138,138,138,138,139,0,0,0,0,0,0,0,0,0,0,0,0,0,0,0,0,174,174,0,0,0,0,0,0,0,0,0,0,0,0,0,0,0,0,0,0,0,0,0,0,
0,0,0,0,0,0,0,0,0,0,0,0,0,0,174,0,0,0,0,0,0,0,0,0,0,0,0,0,0,0,0,0,174,174,0,0,0,0,0,0,0,0,0,0,0,0,0,0,0,0,0,0,0,0,0,
0,0,0,0,0,0,0,0,0,0,0,0,174,174,0,0,0,0,0,0,0,0,0,0,0,0,0,0,0,0,0,0,0,174,174,174,0,0,0,0,0,0,0,0,0,0,0,0,0,0,0,0,0,0,0,
0,0,0,0,0,0,0,0,0,0,0,0,174,0,0,0,0,0,0,0,0,0,0,0,0,0,0,0,0,0,0,0,0,0,0,174,174,174,174,174,0,0,0,0,0,0,11805,0,0,0,0,0,0,0,0,
0,0,0,0,0,0,0,0,0,0,0,174,0,0,0,0,0,0,0,0,121,122,122,122,122,122,122,122,122,122,122,122,122,122,123,0,0,0,0,174,174,174,174,174,174,174,0,0,0,0,0,0,0,0,0,
0,0,0,0,0,0,0,0,0,0,174,174,0,0,0,0,0,0,0,0,129,121,122,122,122,122,122,122,122,122,122,122,122,123,131,0,0,0,0,0,0,0,0,0,0,174,174,0,0,0,0,0,0,0,0,
0,0,0,0,0,0,174,174,0,174,174,0,0,0,0,0,0,0,0,0,129,129,121,122,122,122,122,122,122,122,122,122,123,131,131,0,0,0,0,0,0,0,0,0,0,0,0,0,0,0,0,0,0,0,0,
0,0,0,0,0,0,0,174,174,0,0,0,0,0,0,0,0,0,0,0,129,129,129,0,0,0,0,0,0,0,0,0,131,131,131,0,0,0,0,0,0,0,0,0,0,0,0,132,0,0,0,0,0,0,0,
0,0,0,0,0,0,0,0,0,174,174,174,0,0,0,0,0,0,0,0,129,129,129,0,0,158,0,0,0,0,0,0,3738,3738,3738,3738,3738,3738,3738,3738,3738,3738,3738,3738,3738,3738,3738,3738,3738,0,0,0,0,0,0,
0,0,0,0,0,0,0,0,0,0,0,174,174,0,0,0,0,0,0,0,129,129,129,0,0,0,0,0,0,0,0,0,3746,3746,3746,3746,3746,3746,3746,3746,3746,3746,3746,3746,3746,3746,3746,3746,3746,0,0,0,0,0,0,
0,0,0,0,0,0,0,0,0,0,0,0,0,174,0,0,0,0,0,0,129,129,129,0,0,0,0,0,0,7789,0,0,131,131,131,174,174,174,0,0,0,0,0,174,0,0,0,0,0,0,0,0,0,0,0,
0,0,0,0,0,0,0,0,0,0,0,0,0,174,0,0,0,0,0,0,129,129,129,0,0,0,0,0,0,0,0,0,131,131,131,0,0,174,174,174,174,0,174,0,174,0,0,0,0,0,0,0,0,0,0,
0,0,0,0,0,0,0,0,0,0,0,0,0,174,0,0,0,0,0,0,129,129,137,138,138,138,138,138,138,138,138,138,139,131,131,0,0,0,0,0,0,0,0,0,0,0,0,0,0,0,0,0,0,0,0,
0,0,0,0,0,0,0,0,0,0,0,0,174,174,0,0,0,0,0,0,129,137,138,138,138,138,138,138,138,138,138,138,138,139,131,0,0,0,0,0,0,0,174,174,174,174,174,0,0,0,0,0,0,0,0,
0,0,0,0,0,0,0,0,0,0,0,174,174,0,0,0,0,0,0,0,137,138,138,138,138,138,138,138,138,138,138,138,138,138,139,174,174,174,174,174,174,174,0,0,0,7789,0,0,0,0,0,0,0,0,0,
0,0,0,0,0,0,0,0,0,174,174,0,0,0,0,0,0,0,0,0,0,0,0,0,0,0,0,0,0,0,174,174,174,174,174,174,0,0,0,0,0,0,0,0,0,0,0,0,0,0,0,0,0,0,0,
0,0,0,0,0,0,0,0,174,174,0,0,0,0,0,0,0,0,0,0,0,0,0,0,0,0,0,0,174,174,174,0,0,0,0,0,0,0,0,0,0,0,0,0,0,0,0,0,0,0,0,0,0,0,0,
0,0,0,0,0,0,0,0,0,0,0,0,0,0,0,174,0,0,0,0,0,0,0,0,0,0,0,174,174,0,0,0,0,0,0,0,0,0,0,0,0,0,0,0,0,0,0,0,0,0,0,0,0,0,0,
0,0,0,0,0,0,0,0,0,174,0,0,0,0,0,0,0,0,0,0,0,0,0,0,0,0,174,174,0,0,0,0,0,0,0,0,0,0,0,0,0,0,0,0,0,0,0,0,0,0,0,0,0,0,0,
0,0,0,0,0,0,0,0,174,174,0,0,0,0,0,0,0,0,0,0,0,0,0,0,0,0,174,0,0,0,0,121,122,122,122,122,122,122,122,122,122,122,122,122,122,122,122,0,0,0,0,0,0,0,0,
0,0,0,0,0,0,0,0,174,0,0,0,0,0,0,0,0,0,0,0,0,0,0,0,0,174,174,0,0,0,0,129,0,0,0,0,0,0,0,0,0,0,0,0,0,0,0,0,0,0,0,0,0,0,0,
0,0,0,7789,0,0,0,174,174,0,0,0,0,0,0,0,0,0,0,0,0,0,0,0,0,174,0,0,0,0,0,129,0,0,0,0,0,0,0,0,0,0,0,0,0,0,0,0,0,0,0,0,0,0,0,
0,0,0,0,0,0,0,174,0,0,0,0,0,0,0,0,0,174,174,0,0,0,0,0,174,174,0,0,0,0,0,129,0,0,0,0,0,0,0,0,0,0,0,0,0,0,0,0,0,0,0,0,0,0,0,
130,122,122,122,122,122,122,122,122,122,122,123,0,0,0,0,0,0,174,0,174,0,0,0,174,0,0,0,0,0,0,129,0,0,0,0,0,0,0,0,0,0,0,0,0,0,0,0,0,0,0,0,0,0,0,
130,130,130,130,130,130,130,130,130,130,130,131,0,0,0,0,0,0,174,174,174,174,0,0,174,0,0,0,0,0,0,129,0,0,0,0,0,0,0,0,0,0,0,0,0,0,0,0,0,0,0,0,0,0,0,
130,130,130,131,131,131,131,131,131,130,130,131,0,0,0,0,0,0,0,174,0,174,174,174,174,0,0,0,0,0,0,129,0,0,0,0,0,0,0,0,0,0,0,0,0,0,0,0,0,0,0,0,0,0,0,
130,130,130,131,131,131,131,131,130,131,130,131,0,0,0,0,0,0,0,174,0,0,0,0,0,0,0,0,0,0,0,129,0,0,0,0,0,0,0,0,0,0,0,0,0,0,0,0,0,0,0,0,0,0,0,
130,130,130,131,131,131,131,130,131,131,130,131,0,0,0,0,0,0,0,0,174,174,0,0,0,0,0,0,0,0,0,129,0,0,0,0,0,0,0,0,0,0,0,0,0,0,0,0,0,0,0,0,0,0,0,
130,130,130,131,131,131,130,131,131,131,130,131,0,0,0,0,0,0,0,0,0,0,174,0,121,122,123,0,0,0,0,129,0,0,0,0,0,0,0,0,0,0,0,0,0,0,0,0,0,0,0,0,0,0,0,
130,130,130,131,131,130,131,131,131,131,130,131,0,0,0,0,0,0,0,0,0,0,0,0,129,130,131,0,0,0,0,129,0,0,0,0,0,0,0,0,0,0,0,0,0,0,0,0,0,0,0,0,0,0,0,
130,130,130,131,130,131,131,131,131,131,130,131,0,0,0,0,0,0,0,0,0,0,0,0,137,138,139,0,0,0,0,129,0,0,0,0,0,0,0,0,0,0,0,0,0,0,0,0,0,0,0,0,0,0,0,
130,130,130,130,131,131,131,131,131,131,130,131,0,0,0,0,0,0,0,0,0,0,0,0,0,0,0,0,0,0,0,129,0,0,0,0,0,0,0,0,0,0,0,0,0,0,0,0,0,0,0,0,0,0,0,
130,130,130,131,131,131,131,131,131,131,130,131,0,0,0,0,0,0,0,0,0,0,0,0,0,0,0,0,0,0,0,137,0,0,0,0,0,0,0,0,0,143,144,0,0,0,0,0,0,0,0,0,0,0,0,
130,130,130,131,131,131,131,131,131,131,130,131,0,0,0,0,0,0,0,0,0,0,0,0,0,0,0,0,0,0,0,0,0,0,0,0,0,0,0,0,0,151,152,0,0,0,0,0,0,0,0,0,0,0,0,
130,130,130,131,131,131,131,131,131,131,130,131,0,0,121,122,123,0,0,0,0,0,0,0,0,0,0,0,0,0,0,0,0,0,0,0,0,0,0,0,0,0,0,0,0,0,0,0,0,0,0,0,0,0,0,
130,130,130,131,131,131,131,131,131,131,130,131,0,0,129,130,131,0,0,0,0,0,0,0,0,0,0,0,0,0,0,0,0,0,0,0,0,0,0,0,0,0,0,0,0,0,0,0,0,0,0,0,0,0,0,
130,130,130,131,131,131,131,131,131,131,130,131,0,0,137,138,139,0,0,0,0,0,0,0,0,0,0,0,0,0,0,0,0,0,0,0,0,0,0,0,0,0,0,0,0,0,0,0,0,0,0,0,0,0,0,
130,130,130,131,131,131,131,131,131,131,130,131,0,0,0,0,0,0,0,0,0,0,0,0,0,0,0,0,0,0,0,0,0,0,0,0,0,0,0,0,0,0,0,0,0,0,0,0,0,0,0,0,0,0,0,
130,130,130,131,131,131,131,131,131,131,130,131,0,0,0,0,0,0,0,0,0,0,0,0,0,0,0,0,0,0,0,0,0,0,0,0,0,0,0,0,0,0,0,0,0,0,0,0,0,0,0,0,0,0,0,
0,130,130,130,130,130,130,130,130,130,130,0,0,0,0,0,0,0,0,0,0,0,0,0,0,0,0,0,0,0,0,0,0,0,0,0,0,0,0,0,0,0,0,0,0,0,0,0,0,0,0,0,0,0,0
</data>
 </layer>
 <layer id="3" name="edifici" width="55" height="55">
  <data encoding="csv">
0,0,0,0,0,0,0,0,0,0,0,0,0,0,0,0,0,0,0,0,0,0,0,0,0,0,0,0,0,0,0,0,0,0,0,0,0,0,0,0,0,0,0,0,0,0,129,129,129,129,129,0,0,0,0,
0,127,0,0,0,0,143,144,0,0,0,0,175,0,0,0,0,0,0,0,0,0,0,0,0,0,0,0,0,0,143,144,0,0,0,0,0,0,0,0,0,0,0,0,0,0,129,129,129,129,129,0,0,0,0,
0,0,0,0,0,0,151,152,0,0,0,0,183,0,0,0,0,0,0,175,0,0,0,0,0,175,0,0,0,0,151,152,0,0,0,0,0,172,173,0,0,0,0,0,0,0,129,129,129,129,137,138,138,138,138,
0,0,0,159,160,0,0,0,0,0,0,0,0,0,0,175,0,0,0,183,175,0,0,0,0,183,0,0,0,0,0,0,0,0,0,0,0,180,181,0,0,0,0,0,0,0,129,129,129,137,138,138,138,138,138,
0,0,0,167,168,0,0,0,0,0,0,0,0,0,0,183,0,0,0,0,183,0,0,0,0,0,0,0,0,0,0,0,0,0,0,157,0,0,0,0,0,0,0,0,0,0,129,129,137,138,138,138,138,138,138,
0,0,0,0,0,0,0,0,0,0,0,0,0,0,0,0,0,0,0,0,0,0,0,0,0,0,0,0,0,0,0,0,0,0,0,165,0,0,0,0,0,0,0,0,0,0,129,137,138,138,138,138,138,138,138,
0,0,0,0,0,0,0,0,0,0,0,0,0,0,0,0,0,0,0,0,0,0,0,0,0,0,0,0,0,0,0,0,0,0,0,0,0,0,0,0,0,172,173,0,0,0,137,138,138,138,138,138,138,138,138,
0,0,0,0,0,0,0,0,0,0,0,0,0,0,0,0,175,0,0,0,0,0,0,0,0,158,0,0,0,0,0,0,0,0,0,0,0,0,175,0,0,180,181,0,0,0,0,0,121,122,122,122,122,122,122,
0,0,0,0,0,0,0,0,0,0,0,0,0,0,0,0,183,0,0,0,0,0,0,0,0,0,0,0,0,0,0,0,0,0,0,172,173,0,183,0,0,0,0,0,0,0,0,0,129,121,122,122,122,122,122,
0,0,0,0,0,0,0,0,0,0,0,0,0,0,0,0,0,175,0,0,0,0,0,0,0,0,0,0,0,0,0,0,0,0,0,180,181,0,0,0,0,0,158,0,0,0,0,0,129,129,121,122,122,122,122,
0,0,0,0,0,0,158,0,0,0,0,0,0,0,0,0,0,183,0,175,0,0,0,0,0,0,0,0,0,0,0,0,0,0,0,0,0,0,0,0,0,0,0,0,0,0,0,0,129,129,129,121,122,122,122,
0,0,0,0,0,0,0,0,0,0,0,0,0,0,0,0,0,0,0,183,0,0,0,0,0,0,0,0,0,0,0,0,0,0,0,0,0,0,0,0,0,0,0,0,0,0,0,0,129,129,129,129,0,0,0,
0,0,0,0,0,0,0,0,0,0,0,0,0,0,0,0,0,0,0,0,0,0,0,0,0,0,0,0,0,0,0,0,0,0,0,0,0,0,0,0,0,0,0,0,0,0,0,0,129,129,129,129,0,0,0,
0,0,0,0,0,0,0,0,0,0,0,0,0,0,0,0,0,0,0,175,0,0,0,0,0,0,0,0,0,0,0,0,0,0,0,0,0,0,0,0,0,0,0,0,0,0,0,0,129,129,129,129,0,0,0,
0,0,0,0,0,0,0,0,0,0,0,0,0,0,0,0,0,0,0,183,0,0,0,0,0,0,0,0,0,0,0,0,0,0,0,0,0,0,0,0,159,160,0,0,0,0,0,0,129,129,129,129,0,0,0,
0,0,0,143,144,0,0,0,0,0,0,0,0,0,0,0,0,0,0,0,0,0,0,0,0,0,0,0,0,0,0,0,0,0,0,0,0,0,0,0,167,168,0,0,0,0,0,0,129,129,129,129,0,0,0,
0,0,0,151,152,0,0,0,0,0,0,0,175,175,0,0,0,0,0,0,0,0,0,0,0,0,0,0,0,0,0,0,0,0,0,0,0,0,0,0,0,0,0,0,0,0,0,0,129,129,129,129,0,0,0,
0,0,0,0,0,0,0,0,0,0,0,0,183,183,0,0,0,0,0,0,0,0,0,0,0,0,0,0,0,0,0,0,0,0,0,0,0,0,0,0,0,0,0,0,0,0,0,0,129,129,129,129,172,173,0,
0,0,0,0,0,0,0,0,0,0,0,0,0,0,0,0,0,0,0,0,0,0,0,0,0,0,0,0,0,0,0,0,0,0,0,0,0,0,0,0,0,0,0,0,0,0,0,0,129,129,129,129,180,181,0,
0,0,0,0,0,0,0,0,0,0,175,0,0,0,0,0,0,0,0,0,0,0,0,0,0,0,0,0,0,0,0,0,0,0,0,157,0,0,0,0,0,0,0,0,0,0,0,0,129,129,129,129,0,0,0,
0,0,0,0,0,0,175,175,0,0,183,0,0,0,0,0,0,0,0,0,0,0,0,0,0,0,0,0,0,0,0,0,0,0,0,165,0,0,0,0,0,0,0,0,0,0,0,0,129,129,129,129,0,0,0,
0,0,0,0,0,0,183,183,175,0,0,0,0,0,0,0,0,0,0,0,0,0,0,0,0,0,0,0,0,0,0,0,0,0,0,0,0,0,0,0,0,0,0,0,0,0,0,132,129,129,129,129,0,0,0,
0,0,0,0,0,0,0,0,183,0,175,0,0,0,0,0,0,0,0,0,0,0,0,0,0,0,0,0,0,0,0,0,0,0,0,174,174,174,174,174,174,174,174,174,174,174,174,129,129,129,129,129,0,0,0,
0,0,0,0,0,0,0,0,0,0,183,0,0,0,0,0,0,0,0,0,0,0,0,0,0,0,0,0,0,0,0,0,0,0,0,0,0,0,0,0,0,0,0,0,0,0,0,0,0,122,132,129,0,0,0,
0,0,0,0,0,0,0,0,0,0,0,0,0,0,0,0,0,0,0,0,0,0,0,0,0,0,0,0,0,0,0,0,0,0,0,0,0,0,0,0,0,0,0,0,0,0,0,0,0,130,129,129,0,0,0,
0,0,0,0,0,0,0,0,0,0,0,0,0,0,0,0,0,0,0,0,0,0,0,0,0,0,0,0,0,0,0,0,0,0,0,0,175,0,0,0,0,175,0,0,0,175,0,0,129,129,129,129,0,0,0,
0,0,0,0,0,159,160,0,0,0,0,0,0,0,0,0,0,0,0,0,0,0,0,0,0,0,0,0,0,0,0,0,0,0,0,0,183,0,175,0,0,183,0,0,0,183,0,0,129,129,129,129,0,0,0,
0,0,0,0,0,167,168,0,0,0,0,0,0,0,0,0,0,0,0,0,0,0,0,0,0,0,0,0,0,0,0,0,0,0,0,0,0,0,183,0,0,0,0,0,0,175,0,0,129,129,129,129,0,0,0,
0,0,0,0,0,0,0,0,0,0,0,0,0,0,0,0,0,0,0,0,0,0,0,0,0,0,0,0,0,0,0,0,0,0,0,0,0,0,175,0,0,0,0,0,0,183,0,0,129,129,129,129,0,0,0,
0,0,0,0,0,0,0,0,0,0,0,0,0,0,0,0,0,0,0,0,0,0,0,0,143,144,0,0,0,0,0,0,0,0,0,0,0,0,183,0,0,175,0,0,0,0,0,0,129,129,129,129,0,0,0,
0,0,0,0,0,0,0,0,0,175,0,0,0,0,0,0,0,0,0,0,0,0,0,0,151,152,0,0,0,0,0,0,0,0,0,0,0,0,0,0,0,183,0,0,159,160,0,0,129,129,129,129,0,0,0,
0,0,0,0,0,0,0,0,0,183,0,0,0,0,0,0,0,0,0,0,0,0,0,0,0,0,0,0,0,0,0,0,0,0,0,0,0,0,0,0,0,0,0,0,167,168,0,0,129,129,129,129,0,0,0,
0,0,0,0,0,0,0,0,0,0,0,0,0,0,0,0,0,0,0,0,0,0,0,0,0,0,175,175,0,0,0,0,0,0,0,0,0,0,0,0,0,0,0,0,0,0,0,0,129,129,129,129,0,0,0,
0,0,0,0,0,0,0,0,0,0,0,0,0,0,0,0,0,0,0,0,0,0,0,0,0,0,183,183,0,0,0,0,0,0,0,0,0,0,0,0,0,0,0,0,0,0,0,0,129,129,129,129,0,0,0,
0,0,0,0,0,0,0,0,0,0,0,0,0,0,0,0,0,0,0,0,0,0,0,0,0,0,0,0,0,0,0,0,0,145,0,0,0,145,0,0,0,145,0,0,0,121,122,122,122,122,122,122,122,122,122,
0,0,0,0,0,0,0,0,175,0,0,0,0,0,0,0,0,0,0,0,0,0,0,0,0,175,0,0,0,0,0,0,0,0,0,0,175,0,0,0,0,0,0,0,0,129,121,122,122,122,122,122,122,122,122,
0,0,0,0,0,0,0,0,183,0,0,0,0,0,0,0,0,0,175,0,0,0,0,0,0,183,0,0,0,0,0,0,0,172,173,0,183,0,0,0,0,0,0,0,0,129,129,121,122,122,122,122,122,122,122,
0,0,0,0,0,0,0,0,0,0,0,0,0,0,0,0,0,0,183,0,0,0,0,0,0,0,0,0,0,0,0,0,0,180,181,0,0,0,0,0,0,0,0,0,175,129,129,129,121,122,122,122,122,122,122,
0,0,0,0,0,0,0,0,0,0,0,0,0,0,0,0,0,0,0,0,175,0,0,0,175,0,0,0,0,0,0,0,0,0,174,0,0,0,0,0,175,0,0,0,183,129,129,129,129,121,122,122,122,122,122,
0,0,0,0,0,0,0,0,0,0,0,0,0,0,0,0,0,0,0,0,183,0,0,0,183,0,0,0,0,0,0,0,0,0,175,0,0,0,0,153,183,0,0,0,0,129,129,129,129,129,121,122,122,122,122,
122,122,122,122,122,122,122,122,122,123,0,0,0,0,0,0,0,0,0,0,0,0,0,0,0,0,0,0,0,0,0,0,0,0,183,0,0,0,0,0,0,0,0,0,0,129,129,129,129,129,137,138,138,138,138,
122,122,122,122,122,122,122,122,123,0,0,0,0,0,0,0,0,0,0,0,0,0,0,0,0,0,0,0,0,0,0,0,0,0,0,0,175,0,0,0,0,0,0,0,0,129,129,129,129,137,138,138,138,138,138,
122,122,122,122,122,122,122,123,0,0,0,0,0,0,0,0,0,0,0,0,0,0,0,0,0,0,0,0,0,0,0,0,0,0,0,0,183,0,0,0,0,0,0,0,0,129,129,129,137,138,138,138,138,138,138,
122,122,122,122,122,122,123,0,0,0,0,0,0,0,0,0,0,0,0,0,0,0,0,0,0,0,0,0,0,0,0,0,175,0,0,175,0,0,0,175,0,0,0,0,0,129,129,137,138,138,138,138,138,138,138,
122,122,122,122,122,123,0,0,0,0,0,0,0,0,0,0,0,0,0,0,0,0,0,0,0,0,0,0,0,0,0,0,183,0,0,183,0,0,0,183,0,172,173,0,0,129,137,138,138,138,138,138,138,138,138,
122,122,122,122,123,0,0,0,0,0,0,0,0,0,0,0,0,0,0,0,0,0,0,0,0,0,0,0,0,0,0,0,0,0,0,0,0,0,0,0,0,180,181,0,0,137,138,138,138,138,138,138,138,138,138,
122,122,122,123,0,0,0,0,0,0,0,0,0,0,0,0,0,0,0,0,0,0,0,159,160,0,0,0,0,0,0,0,0,0,0,0,0,0,0,0,0,0,0,0,0,0,0,0,0,0,0,0,0,0,0,
0,0,0,0,0,0,0,0,0,0,0,0,0,0,0,0,0,0,0,0,0,0,0,167,168,0,0,0,0,0,0,0,0,0,0,0,0,156,0,0,0,0,0,0,0,0,0,0,0,0,0,0,0,0,0,
0,0,0,0,0,0,0,0,0,0,0,0,0,0,0,0,0,0,0,0,0,0,0,0,0,0,0,0,0,0,0,0,0,0,0,0,0,0,0,0,0,0,0,0,0,0,0,0,0,174,0,0,0,0,0,
0,0,0,0,0,0,0,0,0,0,0,0,0,0,0,0,0,0,0,0,0,0,0,0,0,0,0,0,0,0,0,0,0,0,0,0,0,0,0,0,0,0,0,0,0,0,0,0,0,174,0,0,0,0,0,
0,0,0,0,0,0,0,0,0,0,0,0,0,0,0,0,0,0,0,0,0,0,0,0,0,0,0,0,0,0,0,0,0,0,0,0,0,0,0,0,0,0,0,0,0,0,0,0,0,0,174,0,0,0,0,
0,0,0,0,0,0,0,0,0,0,0,0,0,0,0,0,0,0,0,0,0,0,0,0,0,0,0,0,0,0,0,0,0,0,0,0,0,0,0,0,0,0,0,0,159,160,0,0,0,0,174,0,0,0,0,
0,0,0,0,0,0,0,0,0,0,0,0,0,0,0,0,0,0,0,0,0,0,0,0,0,0,0,0,0,0,0,0,0,0,0,0,0,0,0,0,0,0,0,0,167,168,0,0,0,174,0,0,0,0,0,
0,0,0,0,0,0,0,0,0,0,0,0,0,0,0,0,0,0,0,0,0,0,0,0,0,0,0,0,0,0,0,0,0,0,0,0,0,0,0,0,0,0,0,0,0,0,0,0,174,0,0,0,0,0,0,
0,0,0,0,0,0,0,0,0,0,0,0,0,0,0,0,0,0,0,0,0,0,0,0,0,0,0,0,0,0,0,0,0,0,0,0,0,0,0,0,0,0,0,0,0,0,0,0,0,0,0,0,0,0,0
</data>
 </layer>
 <layer id="4" name="sopra_testa" width="55" height="55">
  <data encoding="csv">
0,0,0,0,0,0,0,0,0,0,0,0,0,0,0,0,0,0,0,0,0,0,0,0,0,0,0,0,0,0,0,0,0,0,0,0,0,0,0,0,0,0,0,0,0,0,0,0,0,0,0,0,0,0,0,
0,0,0,0,0,0,0,0,0,0,0,0,0,0,0,0,0,0,0,0,0,0,0,0,0,0,0,0,0,0,0,0,0,0,0,0,0,0,0,0,0,0,0,0,0,0,0,0,0,0,0,0,0,0,0,
0,0,0,0,0,0,0,0,0,0,0,0,0,0,0,0,0,0,0,0,0,0,0,0,0,0,0,0,0,0,0,0,0,0,0,0,0,0,0,0,0,0,0,0,0,0,0,0,0,0,0,0,0,0,0,
0,0,0,0,0,0,0,0,0,0,0,0,0,0,0,0,0,0,0,0,0,0,0,0,0,0,0,0,0,0,0,0,0,0,0,0,0,0,0,0,0,0,0,0,0,0,0,0,0,0,0,0,0,0,0,
0,0,0,0,0,0,0,0,0,0,0,0,0,0,0,0,0,0,0,0,0,0,0,0,0,0,0,0,0,0,0,0,0,0,0,0,0,0,0,0,0,0,0,0,0,0,0,0,0,0,0,0,0,0,0,
0,0,0,0,0,0,0,0,0,0,0,0,0,0,0,0,0,0,0,0,0,0,0,0,0,0,0,0,0,0,0,0,0,0,0,0,0,0,0,0,0,0,0,0,0,0,0,0,0,0,0,0,0,0,0,
0,0,0,0,0,0,0,0,0,0,0,0,0,0,0,0,0,0,0,0,0,0,0,0,0,0,0,0,0,0,0,0,0,0,0,0,0,0,0,0,0,0,0,0,0,0,0,0,0,0,0,0,0,0,0,
0,0,0,0,0,0,0,0,0,0,0,0,0,0,0,0,0,0,0,0,0,0,0,0,0,0,0,0,0,0,0,0,0,0,0,0,0,0,0,0,0,0,0,0,0,0,0,0,0,0,0,0,0,0,0,
0,0,0,0,0,0,0,0,0,0,0,0,0,0,0,0,0,0,0,0,0,0,0,0,0,0,0,0,0,0,0,0,0,0,0,0,0,0,0,0,0,0,0,0,0,0,0,0,0,0,0,0,0,0,0,
0,0,0,0,0,0,0,0,0,0,0,0,0,0,0,0,0,0,0,0,0,0,0,0,0,0,0,0,0,0,0,0,0,0,0,0,0,0,0,0,0,0,0,0,0,0,0,0,0,0,0,0,0,0,0,
0,0,0,0,0,0,0,0,0,0,0,0,0,0,0,0,0,0,0,0,0,0,0,0,0,0,0,0,0,0,0,0,0,0,0,0,0,0,0,0,0,0,0,0,0,0,0,0,0,0,0,0,0,0,0,
0,0,0,0,0,0,0,0,0,0,0,0,0,0,0,0,0,0,0,0,0,0,0,0,0,0,0,0,0,0,0,0,0,0,0,0,0,0,0,0,0,0,0,0,0,0,0,0,0,0,0,0,0,0,0,
0,0,0,0,0,0,0,0,0,0,0,0,0,0,0,0,0,0,0,0,0,0,0,0,0,0,0,0,0,0,0,0,0,0,0,0,0,0,0,0,0,0,0,0,0,0,0,0,0,0,0,0,0,0,0,
0,0,0,0,0,0,0,0,0,0,0,0,0,0,0,0,0,0,0,0,0,0,0,0,0,0,0,0,0,0,0,0,0,0,0,0,0,0,0,0,0,0,0,0,0,0,0,0,0,0,0,0,0,0,0,
0,0,0,0,0,0,0,0,0,0,0,0,0,0,0,0,0,0,0,0,0,0,0,0,0,0,0,0,0,0,0,0,0,0,0,0,0,0,0,0,0,0,0,0,0,0,0,0,0,0,0,0,0,0,0,
0,0,0,0,0,0,0,0,0,0,0,0,0,0,0,0,0,0,0,0,0,0,0,0,0,0,0,0,0,0,0,0,0,0,0,0,0,0,0,0,0,0,0,0,0,0,0,0,0,0,0,0,0,0,0,
0,0,0,0,0,0,0,0,0,0,0,0,0,0,0,0,0,0,0,0,0,0,0,0,0,0,0,0,0,0,0,0,0,0,0,0,0,0,0,0,0,0,0,0,0,0,0,0,0,0,0,0,0,0,0,
0,0,0,0,0,0,0,0,0,0,0,0,0,0,0,0,0,0,0,0,0,0,0,0,0,0,0,0,0,0,0,0,0,0,0,0,0,0,0,0,0,0,0,0,0,0,0,0,0,0,0,0,0,0,0,
0,0,0,0,0,0,0,0,0,0,0,0,0,0,0,0,0,0,0,0,0,0,0,0,0,0,0,0,0,0,0,0,0,0,0,0,0,0,0,0,0,0,0,0,0,0,0,0,0,0,0,0,0,0,0,
0,0,0,0,0,0,0,0,0,0,0,0,0,0,0,0,0,0,0,0,0,0,0,0,0,0,0,0,0,0,0,0,0,0,0,0,0,0,0,0,0,0,0,0,0,0,0,0,0,0,0,0,0,0,0,
0,0,0,0,0,0,0,0,0,0,0,0,0,0,0,0,0,0,0,0,0,0,0,0,0,0,0,0,0,0,0,0,0,0,0,0,0,0,0,0,0,0,0,0,0,0,0,0,0,0,0,0,0,0,0,
0,0,0,0,0,0,0,0,0,0,0,0,0,0,0,0,0,0,0,0,0,0,0,0,0,0,0,0,0,0,0,0,0,0,0,0,0,0,0,0,0,0,0,0,0,0,0,0,0,0,0,0,0,0,0,
0,0,0,0,0,0,0,0,0,0,0,0,0,0,0,0,0,0,0,0,0,0,0,0,0,0,0,0,0,0,0,0,0,0,0,0,0,0,0,0,0,0,0,0,0,0,0,0,0,0,0,0,0,0,0,
0,0,0,0,0,0,0,0,0,0,0,0,0,0,0,0,0,0,0,0,0,0,0,0,0,0,0,0,0,0,0,0,0,0,0,0,0,0,0,0,0,0,0,0,0,0,0,0,0,0,0,0,0,0,0,
0,0,0,0,0,0,0,0,0,0,0,0,0,0,0,0,0,0,0,0,0,0,0,0,0,0,0,0,0,0,0,0,0,0,0,0,0,0,0,0,0,0,0,0,0,0,0,0,0,0,0,0,0,0,0,
0,0,0,0,0,0,0,0,0,0,0,0,0,0,0,0,0,0,0,0,0,0,0,0,0,0,0,0,0,0,0,0,0,0,0,0,0,0,0,0,0,0,0,0,0,0,0,0,0,0,0,0,0,0,0,
0,0,0,0,0,0,0,0,0,0,0,0,0,0,0,0,0,0,0,0,0,0,0,0,0,0,0,0,0,0,0,0,0,0,0,0,0,0,0,0,0,0,0,0,0,0,0,0,0,0,0,0,0,0,0,
0,0,0,0,0,0,0,0,0,0,0,0,0,0,0,0,0,0,0,0,0,0,0,0,0,0,0,0,0,0,0,0,0,0,0,0,0,0,0,0,0,0,0,0,0,0,0,0,0,0,0,0,0,0,0,
0,0,0,0,0,0,0,0,0,0,0,0,0,0,0,0,0,0,0,0,0,0,0,0,0,0,0,0,0,0,0,0,0,0,0,0,0,0,0,0,0,0,0,0,0,0,0,0,0,0,0,0,0,0,0,
0,0,0,0,0,0,0,0,0,0,0,0,0,0,0,0,0,0,0,0,0,0,0,0,0,0,0,0,0,0,0,0,0,0,0,0,0,0,0,0,0,0,0,0,0,0,0,0,0,0,0,0,0,0,0,
0,0,0,0,0,0,0,0,0,0,0,0,0,0,0,0,0,0,0,0,0,0,0,0,0,0,0,0,0,0,0,0,0,0,0,0,0,0,0,0,0,0,0,0,0,0,0,0,0,0,0,0,0,0,0,
0,0,0,0,0,0,0,0,0,0,0,0,0,0,0,0,0,0,0,0,0,0,0,0,0,0,0,0,0,0,0,0,0,0,0,0,0,0,0,0,0,0,0,0,0,0,0,0,0,0,0,0,0,0,0,
0,0,0,0,0,0,0,0,0,0,0,0,0,0,0,0,0,0,0,0,0,0,0,0,0,0,0,0,0,0,0,0,0,0,0,0,0,0,0,0,0,0,0,0,0,0,0,0,0,0,0,0,0,0,0,
0,0,0,0,0,0,0,0,0,0,0,0,0,0,0,0,0,0,0,0,0,0,0,0,0,0,0,0,0,0,0,0,0,0,0,0,0,0,0,0,0,0,0,0,0,0,0,0,0,0,0,0,0,0,0,
0,0,0,0,0,0,0,0,0,0,0,0,0,0,0,0,0,0,0,0,0,0,0,0,0,0,0,0,0,0,0,0,0,0,0,0,0,0,0,0,0,0,0,0,0,0,0,0,0,0,0,0,0,0,0,
0,0,0,0,0,0,0,0,0,0,0,0,0,0,0,0,0,0,0,0,0,0,0,0,0,0,0,0,0,0,0,0,0,0,0,0,0,0,0,0,0,0,0,0,0,0,0,0,0,0,0,0,0,0,0,
0,0,0,0,0,0,0,0,0,0,0,0,0,0,0,0,0,0,0,0,0,0,0,0,0,0,0,0,0,0,0,0,0,0,0,0,0,0,0,0,0,0,0,0,0,0,0,0,0,0,0,0,0,0,0,
0,0,0,0,0,0,0,0,0,0,0,0,0,0,0,0,0,0,0,0,0,0,0,0,0,0,0,0,0,0,0,0,0,0,0,0,0,0,0,0,0,0,0,0,0,0,0,0,0,0,0,0,0,0,0,
0,0,0,0,0,0,0,0,0,0,0,0,0,0,0,0,0,0,0,0,0,0,0,0,0,0,0,0,0,0,0,0,0,0,0,0,0,0,0,0,0,0,0,0,0,0,0,0,0,0,0,0,0,0,0,
0,0,0,0,0,0,0,0,0,0,0,0,0,0,0,0,0,0,0,0,0,0,0,0,0,0,0,0,0,0,0,0,0,0,0,0,0,0,0,0,0,0,0,0,0,0,0,0,0,0,0,0,0,0,0,
0,0,0,0,0,0,0,0,0,0,0,0,0,0,0,0,0,0,0,0,0,0,0,0,0,0,0,0,0,0,0,0,0,0,0,0,0,0,0,0,0,0,0,0,0,0,0,0,0,0,0,0,0,0,0,
0,0,0,0,0,0,0,0,0,0,0,0,0,0,0,0,0,0,0,0,0,0,0,0,0,0,0,0,0,0,0,0,0,0,0,0,0,0,0,0,0,0,0,0,0,0,0,0,0,0,0,0,0,0,0,
0,0,0,0,0,0,0,0,0,0,0,0,0,0,0,0,0,0,0,0,0,0,0,0,0,0,0,0,0,0,0,0,0,0,0,0,0,0,0,0,0,0,0,0,0,0,0,0,0,0,0,0,0,0,0,
0,0,0,0,0,0,0,0,0,0,0,0,0,0,0,0,0,0,0,0,0,0,0,0,0,0,0,0,0,0,0,0,0,0,0,0,0,0,0,0,0,0,0,0,0,0,0,0,0,0,0,0,0,0,0,
0,0,0,0,0,0,0,0,0,0,0,0,0,0,0,0,0,0,0,0,0,0,0,0,0,0,0,0,0,0,0,0,0,0,0,0,0,0,0,0,0,0,0,0,0,0,0,0,0,0,0,0,0,0,0,
0,0,0,0,0,0,0,0,0,0,0,0,0,0,0,0,0,0,0,0,0,0,0,0,0,0,0,0,0,0,0,0,0,0,0,0,0,0,0,0,0,0,0,0,0,0,0,0,0,0,0,0,0,0,0,
0,0,0,0,0,0,0,0,0,0,0,0,0,0,0,0,0,0,0,0,0,0,0,0,0,0,0,0,0,0,0,0,0,0,0,0,0,0,0,0,0,0,0,0,0,0,0,0,0,0,0,0,0,0,0,
0,0,0,0,0,0,0,0,0,0,0,0,0,0,0,0,0,0,0,0,0,0,0,0,0,0,0,0,0,0,0,0,0,0,0,0,0,0,0,0,0,0,0,0,0,0,0,0,0,0,0,0,0,0,0,
0,0,0,0,0,0,0,0,0,0,0,0,0,0,0,0,0,0,0,0,0,0,0,0,0,0,0,0,0,0,0,0,0,0,0,0,0,0,0,0,0,0,0,0,0,0,0,0,0,0,0,0,0,0,0,
0,0,0,0,0,0,0,0,0,0,0,0,0,0,0,0,0,0,0,0,0,0,0,0,0,0,0,0,0,0,0,0,0,0,0,0,0,0,0,0,0,0,0,0,0,0,0,0,0,0,0,0,0,0,0,
0,0,0,0,0,0,0,0,0,0,0,0,0,0,0,0,0,0,0,0,0,0,0,0,0,0,0,0,0,0,0,0,0,0,0,0,0,0,0,0,0,0,0,0,0,0,0,0,0,0,0,0,0,0,0,
0,0,0,0,0,0,0,0,0,0,0,0,0,0,0,0,0,0,0,0,0,0,0,0,0,0,0,0,0,0,0,0,0,0,0,0,0,0,0,0,0,0,0,0,0,0,0,0,0,0,0,0,0,0,0,
0,0,0,0,0,0,0,0,0,0,0,0,0,0,0,0,0,0,0,0,0,0,0,0,0,0,0,0,0,0,0,0,0,0,0,0,0,0,0,0,0,0,0,0,0,0,0,0,0,0,0,0,0,0,0,
0,0,0,0,0,0,0,0,0,0,0,0,0,0,0,0,0,0,0,0,0,0,0,0,0,0,0,0,0,0,0,0,0,0,0,0,0,0,0,0,0,0,0,0,0,0,0,0,0,0,0,0,0,0,0,
0,0,0,0,0,0,0,0,0,0,0,0,0,0,0,0,0,0,0,0,0,0,0,0,0,0,0,0,0,0,0,0,0,0,0,0,0,0,0,0,0,0,0,0,0,0,0,0,0,0,0,0,0,0,0
</data>
 </layer>
 <objectgroup id="6" name="collisioni">
  <object id="28" x="1.33333" y="-1.33333" width="64" height="1756"/>
  <object id="30" x="70.6667" y="1725.33" width="788.208" height="30.6667"/>
  <object id="31" x="899.75" y="1729.33" width="885.583" height="24"/>
  <object id="32" x="1569.33" y="1521.33" width="25.3333" height="80"/>
  <object id="33" x="1604" y="1590.67" width="40" height="65.3333"/>
  <object id="34" x="1573.33" y="1665.33" width="22.6667" height="29.3333"/>
  <object id="35" x="1548" y="1698.67" width="28" height="28"/>
  <object id="36" x="1006.67" y="1505.33" width="172" height="24"/>
  <object id="37" x="1002.67" y="1109.33" width="9.33333" height="404"/>
  <object id="38" x="1024" y="1093.33" width="744" height="16"/>
  <object id="39" x="1520" y="809.333" width="129.333" height="282.667"/>
  <object id="40" x="1476" y="-2.66667" width="285.333" height="222.667"/>
  <object id="41" x="1557.33" y="208" width="192" height="520"/>
  <object id="42" x="1640" y="721.333" width="117.333" height="376"/>
  <object id="43" x="1612" y="760" width="32" height="69.3333"/>
  <object id="44" x="1536" y="357.333" width="12" height="366.667"/>
  <object id="45" x="1072" y="391.333" width="456.667" height="6.66667"/>
  <object id="46" x="1509.33" y="389.333" width="46" height="272"/>
  <object id="47" x="1514" y="706.667" width="18" height="20.6667"/>
  <object id="48" x="1064.67" y="44" width="23.3333" height="361.333"/>
  <object id="49" x="508.667" y="44" width="570" height="4"/>
  <object id="50" x="56" y="6" width="462" height="42.6667"/>
  <object id="51" x="79.3333" y="233.333" width="380" height="20.6667"/>
  <object id="52" x="114" y="259.333" width="346" height="28.6667"/>
  <object id="53" x="138" y="289.333" width="319.333" height="26"/>
  <object id="54" x="363.333" y="306.667" width="36" height="111.333"/>
  <object id="55" x="230.667" y="391.333" width="236" height="106"/>
  <object id="56" x="416.667" y="258.667" width="53.3333" height="212.667"/>
  <object id="57" x="74.6667" y="250.667" width="109.333" height="254.667"/>
  <object id="58" x="655.333" y="616" width="451.333" height="56"/>
  <object id="59" x="652.667" y="628.667" width="65.3333" height="325.333"/>
  <object id="60" x="723.333" y="877.333" width="392.667" height="75.3333"/>
  <object id="61" x="1037.33" y="804.667" width="69.3333" height="115.333"/>
  <object id="62" x="1027.33" y="641.333" width="80" height="87.3333"/>
  <object id="63" x="58" y="1221.33" width="315.333" height="494.667"/>
  <object id="64" x="456.667" y="1578" width="76.6667" height="78.6667"/>
  <object id="65" x="776.667" y="1385.33" width="77.3333" height="72.6667"/>
  <object id="66" x="1452.67" y="1104" width="304.667" height="353.333"/>
  <object id="67" x="1226" y="1516.67" width="528" height="10"/>
  <object id="68" x="658" y="-464"/>
  <object id="69" name="warp" type="warp" x="870.328" y="1730.22" width="18.6667" height="17.3333">
   <properties>
    <property name="destinazione" value="monteporzio"/>
    <property name="spawn_id" value="da_Via Vittoria"/>
    <property name="type" value="warp"/>
   </properties>
  </object>
  <object id="70" name="spawn" type="spawn" x="869.588" y="1702.53" width="21.3333" height="19">
   <properties>
    <property name="id" value="da monteporzio"/>
    <property name="type" value="spawn"/>
   </properties>
  </object>
 </objectgroup>
 <objectgroup id="5" name="eventi" visible="0">
  <object id="1" name="port per il secondo piano in alto a sinistra" x="211.333" y="343.333">
   <properties>
    <property name="destinazione" value="via_vittoria_2f_1"/>
    <property name="spawn_id" value="spawn_2f_1"/>
    <property name="type" value="warp"/>
   </properties>
   <point/>
  </object>
  <object id="2" name="port per il secondo piano in alto a destra" x="1326" y="1139">
   <properties>
    <property name="destinazione" value="via_vittoria_2f_2"/>
    <property name="spawn_id" value="spawn_2f_2"/>
    <property name="type" value="warp"/>
   </properties>
   <point/>
  </object>
  <object id="3" name="port per il secondo piano secret" x="1134" y="658">
   <properties>
    <property name="destinazione" value="via_vittoria_2f"/>
    <property name="spawn_id" value="spawn_2f_3"/>
    <property name="type" value="warp"/>
   </properties>
   <point/>
  </object>
  <object id="4" name="port per stanza moltres" x="1520" y="688">
   <properties>
    <property name="destinazione" value="via_vittoria_secret"/>
    <property name="spawn_id" value="spawn_secret_3"/>
    <property name="type" value="warp"/>
   </properties>
   <point/>
  </object>
  <object id="7" name="port per il terzo piano in basso a destra" x="816" y="244">
   <properties>
    <property name="destinazione" value="via_vittoria_3f"/>
    <property name="spawn_id" value="spawn_3f_3"/>
    <property name="type" value="warp"/>
   </properties>
   <point/>
  </object>
  <object id="8" name="port per il terzo piano centrale" x="500" y="86">
   <properties>
    <property name="destinazione" value="via_vittoria_3f"/>
    <property name="spawn_id" value="spawn_3f_2"/>
    <property name="type" value="warp"/>
   </properties>
   <point/>
  </object>
  <object id="9" name="spawn" x="236.333" y="346.333">
   <properties>
    <property name="id" value="spawn_1f_1"/>
    <property name="type" value="spawn"/>
   </properties>
   <point/>
  </object>
  <object id="10" name="spawn" x="1300" y="1145.67">
   <properties>
    <property name="id" value="spawn_1f_2"/>
    <property name="type" value="spawn"/>
   </properties>
   <point/>
  </object>
  <object id="11" name="spawn" x="1160" y="659.333">
   <properties>
    <property name="id" value="spawn_1f_3"/>
    <property name="type" value="spawn"/>
   </properties>
   <point/>
  </object>
  <object id="12" name="spawn" x="1492.67" y="691.333">
   <properties>
    <property name="id" value="spawn_1f_4"/>
    <property name="type" value="spawn"/>
   </properties>
   <point/>
  </object>
  <object id="13" name="spawn" x="786.667" y="249.333">
   <properties>
    <property name="id" value="spawn_1f_8"/>
    <property name="type" value="spawn"/>
   </properties>
   <point/>
  </object>
  <object id="14" name="spawn" x="466.25" y="89.9167">
   <properties>
    <property name="id" value="spawn_1f_7"/>
    <property name="type" value="spawn"/>
   </properties>
   <point/>
  </object>
  <object id="15" name="spawn" x="1328.67" y="312">
   <properties>
    <property name="id" value="spawn_1f_10"/>
    <property name="type" value="spawn"/>
   </properties>
   <point/>
  </object>
  <object id="16" name="port per il terzo piano in basso a destra" x="1361.33" y="307.333">
   <properties>
    <property name="destinazione" value="via_vittoria_3f"/>
    <property name="spawn_id" value="spawn_3f_1"/>
    <property name="type" value="warp"/>
   </properties>
   <point/>
  </object>
  <object id="17" name="spawn" x="1101.34" y="190.667">
   <properties>
    <property name="id" value="spawn_1f_11"/>
    <property name="type" value="spawn"/>
   </properties>
   <point/>
  </object>
  <object id="18" name="port per il terzo piano in basso a destra" x="1131.33" y="182">
   <properties>
    <property name="destinazione" value="via_vittoria_4f"/>
    <property name="spawn_id" value="spawn_4f_3"/>
    <property name="type" value="warp"/>
   </properties>
   <point/>
  </object>
  <object id="19" name="spawn" x="814.677" y="790.667">
   <properties>
    <property name="id" value="spawn_1f_12"/>
    <property name="type" value="spawn"/>
   </properties>
   <point/>
  </object>
  <object id="20" name="port per il terzo piano in basso a destra" x="822.667" y="758.667">
   <properties>
    <property name="destinazione" value="via_vittoria_4f"/>
    <property name="spawn_id" value="spawn_4f_4"/>
    <property name="type" value="warp"/>
   </properties>
   <point/>
  </object>
  <object id="21" name="port per il terzo piano in basso a destra" x="1617.33" y="755.333">
   <properties>
    <property name="destinazione" value="via_vittoria_5f"/>
    <property name="spawn_id" value="spawn_5f_1"/>
    <property name="type" value="warp"/>
   </properties>
   <point/>
  </object>
  <object id="22" name="spawn" x="1591.33" y="762">
   <properties>
    <property name="id" value="spawn_1f_13"/>
    <property name="type" value="spawn"/>
   </properties>
   <point/>
  </object>
  <object id="100" name="incontri via vittoria 1f" x="0" y="0" width="1760" height="1760">
   <properties>
    <property name="id" value="incontri via vittoria 1f"/>
    <property name="type" value="erba_alta"/>
   </properties>
  </object>
  <object id="101" name="via_vittoria_1" x="300" y="1400">
   <properties>
    <property name="direzione" value="sud"/>
    <property name="id" value="via_vittoria_1"/>
    <property name="sprite" value="trainer_BLACKBELT"/>
    <property name="type" value="trainer"/>
    <property name="vista" type="int" value="5"/>
   </properties>
   <point/>
  </object>
  <object id="102" name="via_vittoria_2" x="700" y="1500">
   <properties>
    <property name="direzione" value="sud"/>
    <property name="id" value="via_vittoria_2"/>
    <property name="sprite" value="trainer_COOLTRAINER_F"/>
    <property name="type" value="trainer"/>
    <property name="vista" type="int" value="6"/>
   </properties>
   <point/>
  </object>
  <object id="103" name="via_vittoria_3" x="1100" y="1450">
   <properties>
    <property name="direzione" value="sud"/>
    <property name="id" value="via_vittoria_3"/>
    <property name="sprite" value="trainer_POKEMANIAC"/>
    <property name="type" value="trainer"/>
    <property name="vista" type="int" value="5"/>
   </properties>
   <point/>
  </object>
  <object id="104" name="via_vittoria_4" x="1500" y="1350">
   <properties>
    <property name="direzione" value="sud"/>
    <property name="id" value="via_vittoria_4"/>
    <property name="sprite" value="trainer_SWIMMER_M"/>
    <property name="type" value="trainer"/>
    <property name="vista" type="int" value="5"/>
   </properties>
   <point/>
  </object>
 </objectgroup>
</map>
