<?xml version="1.0" encoding="UTF-8"?>
<map version="1.10" tiledversion="1.12.2" orientation="orthogonal" renderorder="right-down" width="45" height="45" tilewidth="32" tileheight="32" infinite="0" nextlayerid="7" nextobjectid="55">
 <editorsettings>
  <export target="via vittoria_4f.tmj" format="json"/>
 </editorsettings>
 <tileset firstgid="1" source="../Caves.tsj"/>
 <tileset firstgid="1593" source="../../Emerald_Outside.tsx"/>
 <tileset firstgid="6841" source="../../outside.tsx"/>
 <layer id="1" name="ground" width="45" height="45">
  <data encoding="csv">
227,227,227,227,227,227,227,227,227,227,227,227,227,227,227,227,227,227,227,227,227,227,227,227,227,227,227,227,227,227,227,227,227,227,227,227,227,227,227,227,227,227,227,227,227,
227,227,227,227,227,227,227,227,227,227,227,227,227,227,227,227,227,227,227,227,227,227,227,227,227,227,227,227,227,227,227,227,227,227,227,227,227,227,227,227,227,227,227,227,227,
227,227,227,227,227,227,227,227,227,227,227,227,227,227,227,227,227,227,227,227,227,227,227,227,227,227,227,227,227,227,227,227,227,227,227,227,227,227,227,227,227,227,227,227,227,
227,227,227,227,227,227,227,227,227,227,227,227,227,227,227,227,227,227,227,227,227,227,227,227,227,227,227,227,227,227,227,227,227,227,227,227,227,227,227,227,227,227,227,227,227,
227,227,227,227,227,227,227,227,227,227,227,227,227,227,227,227,227,227,227,227,227,227,227,227,227,227,227,227,227,227,227,227,227,227,227,227,227,227,227,227,227,227,227,227,227,
227,227,227,227,227,227,227,227,227,227,227,227,227,227,227,227,227,227,227,227,227,227,227,227,227,227,227,227,227,227,227,227,227,227,227,227,227,227,227,227,227,227,227,227,227,
227,227,227,227,227,227,227,227,227,227,227,227,227,227,227,227,227,227,227,227,227,227,227,227,227,227,227,227,227,227,227,227,227,227,227,227,227,227,227,227,227,227,227,227,227,
227,227,227,227,227,227,227,227,227,227,227,227,227,227,227,227,227,227,227,227,227,227,227,227,227,227,227,227,227,227,227,227,227,227,227,227,227,227,227,227,227,227,227,227,227,
227,227,227,227,227,227,227,227,227,227,227,227,227,227,227,227,227,227,227,227,227,227,227,227,227,227,227,227,227,227,227,227,227,227,227,227,227,227,227,227,227,227,227,227,227,
227,227,227,227,227,227,227,227,227,227,227,227,227,227,227,227,227,227,227,227,227,227,227,227,227,227,227,227,227,227,227,227,227,227,227,227,227,227,227,227,227,227,227,227,227,
227,227,227,227,227,227,227,227,227,227,227,227,227,227,227,227,227,227,227,227,227,227,227,227,227,227,227,227,227,227,227,227,227,227,227,227,227,227,227,227,227,227,227,227,227,
227,227,227,227,227,227,227,227,227,227,227,227,227,227,227,227,227,227,227,227,227,227,227,227,227,227,227,227,227,227,227,227,227,227,227,227,227,227,227,227,227,227,227,227,227,
227,227,227,227,227,227,227,227,227,227,227,227,227,227,227,227,227,227,227,227,227,227,227,227,227,227,227,227,227,227,227,227,227,227,227,227,227,227,227,227,227,227,227,227,227,
227,227,227,227,227,227,227,227,227,227,227,227,227,227,227,227,227,227,227,227,227,227,227,227,227,227,227,227,227,227,227,227,227,227,227,227,227,227,227,227,227,227,227,227,227,
227,227,227,227,227,227,227,227,227,227,227,227,227,227,227,227,227,227,227,227,227,227,227,227,227,227,227,227,227,227,227,227,227,227,227,227,227,227,227,227,227,227,227,227,227,
227,227,227,227,227,227,227,227,227,227,227,227,227,227,227,227,227,227,227,227,227,227,227,227,227,227,227,227,227,227,227,227,227,227,227,227,227,227,227,227,227,227,227,227,227,
227,227,227,227,227,227,227,227,227,227,227,227,227,227,227,227,227,227,227,227,227,227,227,227,227,227,227,227,227,227,227,227,227,227,227,227,227,227,227,227,227,227,227,227,227,
227,227,227,227,227,227,227,227,227,227,227,227,227,227,227,227,227,227,227,227,227,227,227,227,227,227,227,227,227,227,227,227,227,227,227,227,227,227,227,227,227,227,227,227,227,
227,227,227,227,227,227,227,227,227,227,227,227,227,227,227,227,227,227,227,227,227,227,227,227,227,227,227,227,227,227,227,227,227,227,227,227,227,227,227,227,227,227,227,227,227,
227,227,227,227,227,227,227,227,227,227,227,227,227,227,227,227,227,227,227,227,227,227,227,227,227,227,227,227,227,227,227,227,227,227,227,227,227,227,227,227,227,227,227,227,227,
227,227,227,227,227,227,227,227,227,227,227,227,227,227,227,227,227,227,227,227,227,227,227,227,227,227,227,227,227,227,227,227,227,227,227,227,227,227,227,227,227,227,227,227,227,
227,227,227,227,227,227,227,227,227,227,227,227,227,227,227,227,227,227,227,227,227,227,227,227,227,227,227,227,227,227,227,227,227,227,227,227,227,227,227,227,227,227,227,227,227,
227,227,227,227,227,227,227,227,227,227,227,227,227,227,227,227,227,227,227,227,227,227,227,227,227,227,227,227,227,227,227,227,227,227,227,227,227,227,227,227,227,227,227,227,227,
227,227,227,227,227,227,227,227,227,227,227,227,227,227,227,227,227,227,227,227,227,227,227,227,227,227,227,227,227,227,227,227,227,227,227,227,227,227,227,227,227,227,227,227,227,
227,227,227,227,227,227,227,227,227,227,227,227,227,227,227,227,227,227,227,227,227,227,227,227,227,227,227,227,227,227,227,227,227,227,227,227,227,227,227,227,227,227,227,227,227,
227,227,227,227,227,227,227,227,227,227,227,227,227,227,227,227,227,227,227,227,227,227,227,227,227,227,227,227,227,227,227,227,227,227,227,227,227,227,227,227,227,227,227,227,227,
227,227,227,227,227,227,227,227,227,227,227,227,227,227,227,227,227,227,227,227,227,227,227,227,227,227,227,227,227,227,227,227,227,227,227,227,227,227,227,227,227,227,227,227,227,
227,227,227,227,227,227,227,227,227,227,227,227,227,227,227,227,227,227,227,227,227,227,227,227,227,227,227,227,227,227,227,227,227,227,227,227,227,227,227,227,227,227,227,227,227,
227,227,227,227,227,227,227,227,227,227,227,227,227,227,227,227,227,227,227,227,227,227,227,227,227,227,227,227,227,227,227,227,227,227,227,227,227,227,227,227,227,227,227,227,227,
227,227,227,227,227,227,227,227,227,227,227,227,227,227,227,227,227,227,227,227,227,227,227,227,227,227,227,227,227,227,227,227,227,227,227,227,227,227,227,227,227,227,227,227,227,
227,227,227,227,227,227,227,227,227,227,227,227,227,227,227,227,227,227,227,227,227,227,227,227,227,227,227,227,227,227,227,227,227,227,227,227,227,227,227,227,227,227,227,227,227,
227,227,227,227,227,227,227,227,227,227,227,227,227,227,227,227,227,227,227,227,227,227,227,227,227,227,227,227,227,227,227,227,227,227,227,227,227,227,227,227,227,227,227,227,227,
227,227,227,227,227,227,227,227,227,227,227,227,227,227,227,227,227,227,227,227,227,227,227,227,227,227,227,227,227,227,227,227,227,227,227,227,227,227,227,227,227,227,227,227,227,
227,227,227,227,227,227,227,227,227,227,227,227,227,227,227,227,227,227,227,227,227,227,227,227,227,227,227,227,227,227,227,227,227,227,227,227,227,227,227,227,227,227,227,227,227,
227,227,227,227,227,227,227,227,227,227,227,227,227,227,227,227,227,227,227,227,227,227,227,227,227,227,227,227,227,227,227,227,227,227,227,227,227,227,227,227,227,227,227,227,227,
227,227,227,227,227,227,227,227,227,227,227,227,227,227,227,227,227,227,227,227,227,227,227,227,227,227,227,227,227,227,227,227,227,227,227,227,227,227,227,227,227,227,227,227,227,
227,227,227,227,227,227,227,227,227,227,227,227,227,227,227,227,227,227,227,227,227,227,227,227,227,227,227,227,227,227,227,227,227,227,227,227,227,227,227,227,227,227,227,227,227,
227,227,227,227,227,227,227,227,227,227,227,227,227,227,227,227,227,227,227,227,227,227,227,227,227,227,227,227,227,227,227,227,227,227,227,227,227,227,227,227,227,227,227,227,227,
227,227,227,227,227,227,227,227,227,227,227,227,227,227,227,227,227,227,227,227,227,227,227,227,227,227,227,227,227,227,227,227,227,227,227,227,227,227,227,227,227,227,227,227,227,
227,227,227,227,227,227,227,227,227,227,227,227,227,227,227,227,227,227,227,227,227,227,227,227,227,227,227,227,227,227,227,227,227,227,227,227,227,227,227,227,227,227,227,227,227,
227,227,227,227,227,227,227,227,227,227,227,227,227,227,227,227,227,227,227,227,227,227,227,227,227,227,227,227,227,227,227,227,227,227,227,227,227,227,227,227,227,227,227,227,227,
227,227,227,227,227,227,227,227,227,227,227,227,227,227,227,227,227,227,227,227,227,227,227,227,227,227,227,227,227,227,227,227,227,227,227,227,227,227,227,227,227,227,227,227,227,
227,227,227,227,227,227,227,227,227,227,227,227,227,227,227,227,227,227,227,227,227,227,227,227,227,227,227,227,227,227,227,227,227,227,227,227,227,227,227,227,227,227,227,227,227,
227,227,227,227,227,227,227,227,227,227,227,227,227,227,227,227,227,227,227,227,227,227,227,227,227,227,227,227,227,227,227,227,227,227,227,227,227,227,227,227,227,227,227,227,227,
227,227,227,227,227,227,227,227,227,227,227,227,227,227,227,227,227,227,227,227,227,227,227,227,227,227,227,227,227,227,227,227,227,227,227,227,227,227,227,227,227,227,227,227,227
</data>
 </layer>
 <layer id="2" name="deco_sotto" width="45" height="45">
  <data encoding="csv">
127,138,138,138,138,138,138,138,138,138,138,138,138,138,138,138,138,138,138,138,138,138,138,138,138,138,138,138,138,138,138,138,138,138,138,138,138,138,138,138,138,138,138,138,128,
131,127,138,138,138,138,138,138,138,138,138,138,138,138,138,138,138,138,138,138,138,138,138,138,138,138,138,138,138,138,138,138,138,138,138,138,138,138,138,138,138,138,138,128,129,
131,131,127,138,138,138,138,138,138,138,138,138,138,138,138,138,138,138,138,138,138,138,138,138,138,138,138,138,138,138,138,138,138,138,138,138,138,138,138,138,138,138,128,129,129,
131,131,131,127,138,138,138,138,138,138,138,138,138,143,144,138,138,138,138,138,138,143,144,138,138,138,138,138,138,138,138,138,138,138,138,138,138,138,143,144,138,128,129,129,129,
131,131,131,131,0,0,0,0,0,0,0,0,0,151,152,0,0,0,0,0,0,151,152,0,0,0,0,131,131,131,81,82,83,129,129,129,0,0,151,152,0,129,129,129,129,
131,131,131,131,0,121,122,122,122,122,122,122,123,0,0,0,0,0,0,0,0,0,0,0,0,0,0,131,131,131,81,82,83,129,129,129,0,0,0,0,0,129,129,129,129,
131,131,131,131,0,0,130,130,130,130,130,130,131,0,0,0,0,0,0,0,0,0,159,160,0,0,0,131,131,131,81,82,83,129,129,129,0,0,0,0,0,129,129,129,129,
131,131,131,131,0,0,130,127,138,138,138,156,139,0,0,0,0,0,0,0,0,0,167,168,0,0,0,131,131,131,81,82,83,129,129,129,0,0,0,0,0,129,129,129,129,
131,131,131,131,0,0,0,0,0,159,160,0,0,0,0,0,0,0,0,0,0,0,0,0,0,0,0,131,131,131,81,82,83,129,129,129,0,0,0,0,0,129,129,129,129,
131,131,131,131,0,0,0,0,0,167,168,0,0,0,0,0,0,0,0,0,0,0,0,0,0,0,0,131,131,131,81,82,83,129,129,129,0,0,0,0,0,129,129,129,129,
131,131,131,131,0,0,0,0,0,0,0,0,0,0,0,0,0,0,0,0,0,0,0,0,0,0,0,131,131,131,81,82,83,129,129,129,0,0,0,0,0,129,129,129,129,
131,131,131,131,0,0,0,0,174,174,174,174,174,174,0,0,0,0,0,0,0,0,0,0,0,0,0,131,131,131,81,82,83,129,129,129,0,0,0,0,0,129,129,129,129,
131,131,131,131,0,0,0,0,0,0,0,0,0,0,174,174,0,0,0,0,0,0,0,0,0,0,0,131,131,131,81,82,83,129,129,129,0,0,0,0,0,129,129,129,129,
131,131,131,131,0,0,0,0,0,0,0,0,0,0,0,0,0,0,0,0,0,0,0,0,0,0,0,131,131,131,81,82,83,129,129,129,0,0,0,0,0,129,129,129,129,
131,131,131,131,0,0,0,0,0,0,0,0,0,0,0,0,0,0,0,73,74,74,74,74,74,74,74,74,74,74,89,82,83,0,0,0,0,0,0,0,0,129,129,129,129,
131,131,131,131,0,0,0,0,0,0,0,0,0,0,0,0,0,0,0,81,82,82,82,82,82,82,82,82,82,82,82,82,82,0,0,0,0,0,0,0,0,129,129,129,129,
131,131,131,131,0,0,0,0,158,174,174,174,174,0,0,0,0,0,0,81,82,83,0,0,0,0,0,0,0,0,0,0,0,0,0,0,0,0,0,0,0,129,129,129,129,
131,131,131,131,0,0,0,0,174,174,0,157,0,174,0,0,0,0,0,81,82,83,0,0,0,0,0,0,0,0,0,0,0,0,0,0,0,0,0,0,0,129,129,129,129,
131,131,131,131,0,0,0,0,0,0,0,165,0,174,0,0,0,0,0,81,82,83,0,0,0,0,0,0,0,0,0,0,0,0,0,0,0,159,160,0,0,129,129,129,129,
131,131,131,131,0,0,0,0,0,0,0,0,0,174,0,0,0,0,0,81,82,83,0,0,0,0,0,0,0,0,0,0,0,0,0,0,0,167,168,0,0,129,129,129,129,
131,131,131,131,0,0,0,0,0,0,0,0,174,174,0,0,0,0,0,81,82,83,0,0,0,0,0,0,0,0,0,0,0,0,0,0,0,0,0,0,0,129,129,129,129,
131,131,131,131,0,0,0,0,0,0,0,174,174,0,0,0,0,0,0,81,82,83,0,0,0,0,0,0,0,0,0,0,0,0,0,0,0,0,0,0,0,129,129,129,129,
131,131,131,131,0,0,0,0,0,0,0,174,0,0,0,0,131,131,131,81,82,83,129,129,129,0,0,0,0,0,0,0,0,0,0,0,0,0,0,0,0,129,129,129,129,
131,131,131,131,0,0,0,0,0,0,0,174,0,0,0,0,131,131,131,81,82,83,129,129,129,0,0,0,0,0,0,0,0,0,0,0,0,0,0,0,0,129,129,129,129,
131,131,131,131,0,0,0,0,0,0,0,174,0,0,0,0,131,131,131,81,82,83,129,129,129,0,0,0,0,0,0,0,0,0,0,0,0,0,0,0,0,129,129,129,129,
131,131,131,131,0,0,0,0,0,0,0,174,0,0,0,0,131,131,131,81,82,83,129,129,129,0,0,0,0,0,0,0,0,0,0,0,0,0,0,0,0,129,129,129,129,
131,131,131,131,0,0,0,0,0,0,0,174,174,0,0,0,131,131,131,81,82,83,129,129,129,0,0,0,0,0,0,0,0,0,0,0,0,0,0,0,0,129,129,129,129,
131,131,131,131,0,0,0,0,0,0,0,0,174,0,0,0,131,131,131,81,82,83,129,129,129,0,0,0,0,0,0,0,0,0,0,0,0,0,0,0,0,129,129,129,129,
131,131,131,131,0,0,0,0,0,0,0,0,174,174,174,0,131,131,131,81,82,83,129,129,129,0,0,0,0,0,0,0,0,0,0,0,0,0,0,0,0,129,129,129,129,
131,131,131,131,0,0,0,0,0,0,0,0,0,0,174,174,131,131,131,81,82,83,129,129,129,0,0,0,0,0,0,0,0,0,0,0,0,0,0,0,0,129,129,129,129,
131,131,131,131,0,0,0,0,0,0,0,0,0,0,0,0,131,131,131,81,82,83,129,129,129,0,0,0,0,0,0,0,0,0,0,0,0,0,0,0,0,129,129,129,129,
131,131,131,131,0,0,0,0,0,0,0,0,0,0,0,0,131,131,131,81,82,83,129,129,129,0,0,0,0,0,0,0,0,0,0,0,0,0,0,0,0,129,129,129,129,
131,131,131,131,0,0,0,0,0,0,0,0,0,0,0,0,131,131,131,81,82,83,129,129,129,0,0,0,0,0,0,0,159,160,0,0,0,0,0,0,0,129,129,129,129,
131,131,131,131,0,0,0,0,0,0,0,0,0,0,0,0,131,131,131,81,82,83,129,129,129,0,0,0,0,0,0,0,167,168,0,0,0,0,0,0,0,129,129,129,129,
131,131,131,131,0,0,0,143,144,0,0,0,0,0,0,0,131,131,131,81,82,83,129,129,129,0,0,0,0,0,0,0,0,0,0,0,0,0,0,0,0,129,129,129,129,
131,131,131,131,0,0,0,151,152,0,0,0,0,0,0,0,131,131,131,81,82,83,129,129,129,0,0,0,0,0,0,0,0,0,0,0,0,227,227,0,0,129,129,129,129,
131,131,131,131,0,0,0,0,0,0,0,0,0,0,0,0,131,131,131,81,82,83,129,129,129,0,0,0,0,0,0,0,0,0,0,0,0,159,160,0,0,129,129,129,129,
131,131,131,131,0,0,0,159,160,0,0,0,0,0,0,0,131,131,131,81,82,83,129,129,129,0,0,0,0,0,0,0,0,0,0,0,0,167,168,0,0,129,129,129,129,
131,131,131,131,0,0,0,167,168,0,0,0,0,0,0,0,131,131,131,81,82,83,129,129,129,0,0,0,0,0,0,0,0,0,0,0,0,0,0,0,0,129,129,129,129,
131,131,131,131,0,0,0,0,0,0,0,0,0,0,0,0,131,131,131,81,82,83,129,129,129,0,0,0,0,0,0,0,0,0,0,0,0,0,0,0,0,129,129,129,129,
131,131,131,131,0,0,0,0,0,0,0,0,0,0,0,0,131,131,131,81,82,83,129,129,129,0,0,0,0,0,0,0,0,0,0,0,0,0,0,0,0,129,129,129,129,
131,131,131,122,122,122,122,122,122,122,122,122,122,122,122,122,122,122,122,122,122,122,122,122,122,122,122,122,122,122,122,122,122,122,122,122,122,122,122,122,122,122,129,129,129,
131,131,122,122,122,122,122,122,122,122,122,122,122,122,122,122,122,122,122,122,122,122,122,122,122,122,122,122,122,122,122,122,122,122,122,122,122,122,122,122,122,122,122,129,129,
131,122,122,122,122,122,122,122,122,122,122,122,122,122,122,122,122,122,122,122,122,122,122,122,122,122,122,122,122,122,122,122,122,122,122,122,122,122,122,122,122,122,122,122,129,
122,122,122,122,122,122,122,122,122,122,122,122,122,122,122,122,122,122,122,122,122,122,122,122,122,122,122,122,122,122,122,122,122,122,122,122,122,122,122,122,122,122,122,122,122
</data>
 </layer>
 <layer id="3" name="edifici" width="45" height="45">
  <data encoding="csv">
0,0,0,0,0,0,0,0,0,0,0,0,0,0,0,0,0,0,0,0,0,0,0,0,0,0,0,0,0,0,0,0,0,0,0,0,0,0,0,0,0,0,0,0,0,
0,0,0,0,0,0,0,0,0,0,0,0,0,0,0,0,0,0,0,0,0,0,0,0,0,0,0,0,0,0,0,0,0,0,0,0,0,0,0,0,0,0,0,0,0,
0,0,0,0,0,0,0,0,0,0,0,0,0,0,0,0,0,0,0,0,0,0,0,0,0,0,0,0,0,0,0,0,0,0,0,0,0,0,0,0,0,0,0,0,0,
0,0,0,0,0,0,0,0,0,0,0,0,0,0,0,0,0,0,0,0,0,0,0,0,0,0,0,0,0,0,0,0,0,0,0,0,0,0,0,0,0,0,0,0,0,
0,0,0,0,0,0,0,0,0,0,0,0,0,0,0,0,0,0,0,0,0,0,0,0,0,0,0,0,0,0,0,0,0,0,0,0,0,0,0,0,0,0,0,0,0,
0,0,0,0,0,0,0,0,0,0,0,0,0,0,0,0,0,0,0,0,0,0,0,0,0,0,0,0,0,0,0,0,0,0,0,0,0,0,0,0,0,0,0,0,0,
0,0,0,0,0,129,130,153,0,153,0,0,0,0,0,0,0,0,0,0,0,0,0,0,0,0,0,0,0,0,0,0,0,0,0,0,0,0,0,0,0,0,0,0,0,
0,0,0,0,0,129,0,0,0,0,0,0,0,0,0,0,0,0,0,0,0,0,0,0,0,0,0,3738,3738,3738,3737,3737,3737,3738,3738,3738,0,0,0,0,0,0,0,0,0,
0,0,0,0,0,129,130,131,0,0,0,0,0,0,0,0,0,0,0,0,0,0,0,0,0,0,0,3746,3746,3746,3745,3745,3745,3746,3746,3746,0,0,0,0,0,0,0,0,0,
0,0,0,0,0,129,153,131,0,0,0,0,0,0,0,0,0,0,0,0,0,0,0,0,0,0,0,0,0,0,0,0,0,0,0,0,0,0,0,0,0,0,0,0,0,
0,0,0,0,0,129,130,131,0,0,0,0,0,0,0,0,0,0,0,0,0,0,0,0,0,0,0,0,0,0,0,0,0,0,0,0,0,0,0,0,0,0,0,0,0,
0,0,0,0,0,129,130,131,0,0,0,0,0,0,0,0,127,138,138,138,138,138,138,138,138,138,138,139,0,0,0,0,0,0,0,0,0,0,0,0,0,0,0,0,0,
0,0,0,0,0,129,130,131,0,0,0,0,0,0,0,0,131,127,138,138,138,138,138,138,138,138,138,138,139,0,0,0,0,0,0,0,0,0,0,0,0,0,0,0,0,
0,0,0,0,0,129,130,131,0,0,0,0,0,0,0,0,131,131,127,138,138,138,138,138,138,138,138,138,138,139,0,0,0,0,0,0,0,0,0,0,0,0,0,0,0,
0,0,0,0,0,129,130,131,0,0,0,0,0,0,0,0,131,131,131,0,0,0,0,0,0,0,0,0,0,0,0,0,0,129,129,129,0,0,0,0,0,0,0,0,0,
0,0,0,0,0,129,130,131,0,0,0,0,0,0,0,0,131,131,131,0,0,0,0,0,0,0,0,0,0,0,0,0,83,129,129,129,0,0,0,0,0,0,0,0,0,
0,0,0,0,0,129,130,131,0,0,0,0,0,0,0,0,131,131,131,0,0,0,121,219,219,219,219,219,219,219,219,219,219,219,129,129,0,0,0,0,0,0,0,0,0,
0,0,0,0,174,129,153,131,0,0,0,0,0,0,0,0,131,131,131,0,0,0,129,121,219,219,219,219,219,219,219,219,219,219,219,129,0,0,0,0,0,0,0,0,0,
0,0,0,0,0,129,130,131,0,0,0,0,0,0,0,0,131,131,131,0,0,0,129,129,121,219,219,219,219,219,219,219,219,219,219,219,0,0,0,0,0,0,0,0,0,
0,0,0,0,0,129,130,131,0,0,0,0,0,0,0,0,131,131,131,0,0,0,129,129,129,0,0,0,0,0,0,0,0,0,0,0,0,0,0,0,0,0,0,0,0,
0,0,0,0,0,129,130,131,0,0,0,0,0,0,0,0,131,131,131,0,0,0,129,129,129,0,0,0,0,0,0,0,0,0,0,0,0,0,0,0,0,0,0,0,0,
0,0,0,0,0,129,130,131,0,0,0,0,0,0,0,0,131,131,131,0,0,0,129,129,129,0,176,0,0,0,0,0,0,0,0,174,0,0,0,0,0,0,0,0,0,
0,0,0,0,0,129,130,131,0,0,0,0,0,0,0,0,131,131,131,0,0,0,0,0,0,0,184,0,0,0,0,0,0,0,0,174,174,0,0,0,0,0,0,0,0,
0,0,0,0,0,129,153,131,0,0,0,0,0,0,0,0,0,0,0,0,0,0,0,0,0,176,0,176,176,0,0,0,0,0,7785,174,174,0,0,0,0,0,0,0,0,
0,0,0,0,0,129,130,131,0,0,0,0,0,0,0,0,0,0,0,0,0,0,0,0,0,184,0,184,184,176,0,0,0,174,7786,0,174,174,0,0,0,0,0,0,0,
0,0,0,0,0,129,130,131,0,0,0,0,0,0,0,0,3738,3738,3738,3737,3737,3737,3738,3738,3738,0,0,0,0,184,176,0,174,0,0,0,0,174,0,0,0,0,0,0,0,
0,0,0,0,0,129,130,131,0,0,0,0,0,0,0,0,3746,3746,3746,3745,3745,3745,3746,3746,3746,0,0,0,0,0,184,176,0,0,0,0,0,174,174,0,0,0,0,0,0,
0,0,0,0,0,129,130,131,0,0,0,0,0,0,0,0,0,0,0,0,0,0,0,0,0,0,0,0,0,0,0,184,0,0,0,0,0,7789,174,0,0,0,0,0,0,
0,0,0,0,0,129,130,131,0,0,0,0,0,0,0,0,0,0,0,0,0,0,0,0,0,0,0,0,0,0,0,174,174,174,0,0,0,174,174,0,0,0,0,0,0,
0,0,0,0,0,129,153,131,0,0,0,0,0,0,0,0,0,0,0,0,0,0,0,0,0,0,0,0,0,0,0,174,0,174,174,174,174,174,0,0,0,0,0,0,0,
0,0,0,0,0,129,130,131,0,0,0,0,0,0,0,0,0,0,0,0,0,0,0,0,0,0,0,0,0,0,0,174,0,0,0,0,0,0,0,0,0,0,0,0,0,
0,0,0,0,0,129,130,131,0,0,0,0,0,0,0,0,0,0,0,0,0,0,0,0,0,0,0,0,0,0,0,174,0,0,0,0,0,0,0,0,0,0,0,0,0,
0,0,0,0,0,129,153,122,122,122,122,122,122,122,123,0,0,0,0,0,0,0,0,0,0,0,0,0,0,0,0,174,0,0,0,0,0,0,0,0,0,0,0,0,0,
0,0,0,0,0,129,130,130,130,153,130,130,153,130,131,0,0,0,0,0,0,0,0,0,0,0,0,0,0,0,0,174,0,0,0,0,0,0,0,0,0,0,0,0,0,
0,0,0,0,0,137,138,138,138,138,138,156,138,138,139,0,0,0,0,0,0,0,0,0,0,0,0,0,0,0,0,174,0,0,0,0,0,0,0,0,0,0,0,0,0,
0,0,0,0,0,0,0,0,0,0,0,0,0,0,0,0,0,0,0,0,0,0,0,0,0,0,0,0,0,0,0,174,174,0,0,0,0,0,0,0,0,0,0,0,0,
0,0,0,0,0,0,0,0,0,0,0,0,0,0,0,0,0,0,0,0,0,0,0,0,0,0,0,0,0,0,0,0,174,174,0,0,0,0,0,0,0,0,0,0,0,
0,0,0,0,0,0,0,0,0,0,0,0,0,0,0,0,0,0,0,0,0,0,0,0,0,0,0,0,0,175,0,0,0,174,0,0,0,0,0,0,0,0,0,0,0,
0,0,0,0,0,0,0,0,0,0,0,0,0,0,0,0,0,0,0,0,0,0,0,0,0,0,0,0,0,183,174,174,174,174,0,0,0,0,0,0,0,0,0,0,0,
0,0,0,0,0,0,0,0,0,0,0,0,0,0,0,0,0,0,0,0,0,0,0,0,0,0,0,0,0,175,0,0,0,0,0,0,0,0,0,0,0,0,0,0,0,
0,0,0,0,0,0,0,0,0,0,0,0,0,0,0,0,0,0,122,122,122,122,122,0,0,0,0,0,0,183,0,0,0,0,0,0,0,0,0,0,0,0,0,0,0,
0,0,0,0,0,0,0,0,0,0,0,0,0,0,0,0,0,122,122,122,122,122,122,122,0,0,0,0,0,0,0,0,0,0,0,0,0,0,0,0,0,0,0,0,0,
0,0,0,0,0,0,0,0,0,0,0,0,0,0,0,0,122,122,122,122,122,122,122,122,122,0,0,0,0,0,0,0,0,0,0,0,0,0,0,0,0,0,0,0,0,
0,0,0,0,0,0,0,0,0,0,0,0,0,0,0,0,0,0,0,0,0,0,0,0,0,0,0,0,0,0,0,0,0,0,0,0,0,0,0,0,0,0,0,0,0,
0,0,0,0,0,0,0,0,0,0,0,0,0,0,0,0,0,0,0,0,0,0,0,0,0,0,0,0,0,0,0,0,0,0,0,0,0,0,0,0,0,0,0,0,0
</data>
 </layer>
 <layer id="4" name="sopra testa" width="45" height="45">
  <data encoding="csv">
0,0,0,0,0,0,0,0,0,0,0,0,0,0,0,0,0,0,0,0,0,0,0,0,0,0,0,0,0,0,0,0,0,0,0,0,0,0,0,0,0,0,0,0,0,
0,0,0,0,0,0,0,0,0,0,0,0,0,0,0,0,0,0,0,0,0,0,0,0,0,0,0,0,0,0,0,0,0,0,0,0,0,0,0,0,0,0,0,0,0,
0,0,0,0,0,0,0,0,0,0,0,0,0,0,0,0,0,0,0,0,0,0,0,0,0,0,0,0,0,0,0,0,0,0,0,0,0,0,0,0,0,0,0,0,0,
0,0,0,0,0,0,0,0,0,0,0,0,0,0,0,0,0,0,0,0,0,0,0,0,0,0,0,0,0,0,0,0,0,0,0,0,0,0,0,0,0,0,0,0,0,
0,0,0,0,0,0,0,0,0,0,0,0,0,0,0,0,0,0,0,0,0,0,0,0,0,0,0,0,0,0,0,0,0,0,0,0,0,0,0,0,0,0,0,0,0,
0,0,0,0,0,0,0,0,0,0,0,0,0,0,0,0,0,0,0,0,0,0,0,0,0,0,0,0,0,0,0,0,0,0,0,0,0,0,0,0,0,0,0,0,0,
0,0,0,0,0,0,0,0,0,0,0,0,0,0,0,0,0,0,0,0,0,0,0,0,0,0,0,0,0,0,0,0,0,0,0,0,0,0,0,0,0,0,0,0,0,
0,0,0,0,0,0,0,0,0,0,0,0,0,0,0,0,0,0,0,0,0,0,0,0,0,0,0,0,0,0,0,0,0,0,0,0,0,0,0,0,0,0,0,0,0,
0,0,0,0,0,0,0,0,0,0,0,0,0,0,0,0,0,0,0,0,0,0,0,0,0,0,0,0,0,0,0,0,0,0,0,0,0,0,0,0,0,0,0,0,0,
0,0,0,0,0,0,0,0,0,0,0,0,0,0,0,0,0,0,0,0,0,0,0,0,0,0,0,0,0,0,0,0,0,0,0,0,0,0,0,0,0,0,0,0,0,
0,0,0,0,0,0,0,0,0,0,0,0,0,0,0,0,0,0,0,0,0,0,0,0,0,0,0,0,0,0,0,0,0,0,0,0,0,0,0,0,0,0,0,0,0,
0,0,0,0,0,0,0,0,0,0,0,0,0,0,0,0,0,0,0,0,0,0,0,0,0,0,0,0,0,0,0,0,0,0,0,0,0,0,0,0,0,0,0,0,0,
0,0,0,0,0,0,0,0,0,0,0,0,0,0,0,0,0,0,0,0,0,0,0,0,0,0,0,0,0,0,0,0,0,0,0,0,0,0,0,0,0,0,0,0,0,
0,0,0,0,0,0,0,0,0,0,0,0,0,0,0,0,0,0,0,0,0,0,0,0,0,0,0,0,0,0,0,0,0,0,0,0,0,0,0,0,0,0,0,0,0,
0,0,0,0,0,0,0,0,0,0,0,0,0,0,0,0,0,0,0,0,0,0,0,0,0,0,0,0,0,0,0,0,0,0,0,0,0,0,0,0,0,0,0,0,0,
0,0,0,0,0,0,0,0,0,0,0,0,0,0,0,0,0,0,0,0,0,0,0,0,0,0,0,0,0,0,0,0,0,0,0,0,0,0,0,0,0,0,0,0,0,
0,0,0,0,0,0,0,0,0,0,0,0,0,0,0,0,0,0,0,0,0,0,0,0,0,0,0,0,0,0,0,0,0,0,0,0,0,0,0,0,0,0,0,0,0,
0,0,0,0,0,0,0,0,0,0,0,0,0,0,0,0,0,0,0,0,0,0,0,0,0,0,0,0,0,0,0,0,0,0,0,0,0,0,0,0,0,0,0,0,0,
0,0,0,0,0,0,0,0,0,0,0,0,0,0,0,0,0,0,0,0,0,0,0,0,0,0,0,0,0,0,0,0,0,0,0,0,0,0,0,0,0,0,0,0,0,
0,0,0,0,0,0,0,0,0,0,0,0,0,0,0,0,0,0,0,0,0,0,0,0,0,0,0,0,0,0,0,0,0,0,0,0,0,0,0,0,0,0,0,0,0,
0,0,0,0,0,0,0,0,0,0,0,0,0,0,0,0,0,0,0,0,0,0,0,0,0,0,0,0,0,0,0,0,0,0,0,0,0,0,0,0,0,0,0,0,0,
0,0,0,0,0,0,0,0,0,0,0,0,0,0,0,0,0,0,0,0,0,0,0,0,0,0,0,0,0,0,0,0,0,0,0,0,0,0,0,0,0,0,0,0,0,
0,0,0,0,0,0,0,0,0,0,0,0,0,0,0,0,0,0,0,0,0,0,0,0,0,0,0,0,0,0,0,0,0,0,0,0,0,0,0,0,0,0,0,0,0,
0,0,0,0,0,0,0,0,0,0,0,0,0,0,0,0,0,0,0,0,0,0,0,0,0,0,0,0,0,0,0,0,0,0,0,0,0,0,0,0,0,0,0,0,0,
0,0,0,0,0,0,0,0,0,0,0,0,0,0,0,0,0,0,0,0,0,0,0,0,0,0,0,0,0,0,0,0,0,0,0,0,0,0,0,0,0,0,0,0,0,
0,0,0,0,0,0,0,0,0,0,0,0,0,0,0,0,0,0,0,0,0,0,0,0,0,0,0,0,0,0,0,0,0,0,0,0,0,0,0,0,0,0,0,0,0,
0,0,0,0,0,0,0,0,0,0,0,0,0,0,0,0,0,0,0,0,0,0,0,0,0,0,0,0,0,0,0,0,0,0,0,0,0,0,0,0,0,0,0,0,0,
0,0,0,0,0,0,0,0,0,0,0,0,0,0,0,0,0,0,0,0,0,0,0,0,0,0,0,0,0,0,0,0,0,0,0,0,0,0,0,0,0,0,0,0,0,
0,0,0,0,0,0,0,0,0,0,0,0,0,0,0,0,0,0,0,0,0,0,0,0,0,0,0,0,0,0,0,0,0,0,0,0,0,0,0,0,0,0,0,0,0,
0,0,0,0,0,0,0,0,0,0,0,0,0,0,0,0,0,0,0,0,0,0,0,0,0,0,0,0,0,0,0,0,0,0,0,0,0,0,0,0,0,0,0,0,0,
0,0,0,0,0,0,0,0,0,0,0,0,0,0,0,0,0,0,0,0,0,0,0,0,0,0,0,0,0,0,0,0,0,0,0,0,0,0,0,0,0,0,0,0,0,
0,0,0,0,0,0,0,0,0,0,0,0,0,0,0,0,0,0,0,0,0,0,0,0,0,0,0,0,0,0,0,0,0,0,0,0,0,0,0,0,0,0,0,0,0,
0,0,0,0,0,0,0,0,0,0,0,0,0,0,0,0,0,0,0,0,0,0,0,0,0,0,0,0,0,0,0,0,0,0,0,0,0,0,0,0,0,0,0,0,0,
0,0,0,0,0,0,0,0,0,0,0,0,0,0,0,0,0,0,0,0,0,0,0,0,0,0,0,0,0,0,0,0,0,0,0,0,0,0,0,0,0,0,0,0,0,
0,0,0,0,0,0,0,0,0,0,0,0,0,0,0,0,0,0,0,0,0,0,0,0,0,0,0,0,0,0,0,0,0,0,0,0,0,0,0,0,0,0,0,0,0,
0,0,0,0,0,0,0,0,0,0,0,0,0,0,0,0,0,0,0,0,0,0,0,0,0,0,0,0,0,0,0,0,0,0,0,0,0,0,0,0,0,0,0,0,0,
0,0,0,0,0,0,0,0,0,0,0,0,0,0,0,0,0,0,0,0,0,0,0,0,0,0,0,0,0,0,0,0,0,0,0,0,0,0,0,0,0,0,0,0,0,
0,0,0,0,0,0,0,0,0,0,0,0,0,0,0,0,0,0,0,0,0,0,0,0,0,0,0,0,0,0,0,0,0,0,0,0,0,0,0,0,0,0,0,0,0,
0,0,0,0,0,0,0,0,0,0,0,0,0,0,0,0,0,0,0,0,0,0,0,0,0,0,0,0,0,0,0,0,0,0,0,0,0,0,0,0,0,0,0,0,0,
0,0,0,0,0,0,0,0,0,0,0,0,0,0,0,0,0,0,0,0,0,0,0,0,0,0,0,0,0,0,0,0,0,0,0,0,0,0,0,0,0,0,0,0,0,
0,0,0,0,0,0,0,0,0,0,0,0,0,0,0,0,0,0,0,0,0,0,0,0,0,0,0,0,0,0,0,0,0,0,0,0,0,0,0,0,0,0,0,0,0,
0,0,0,0,0,0,0,0,0,0,0,0,0,0,0,0,0,0,0,0,0,0,0,0,0,0,0,0,0,0,0,0,0,0,0,0,0,0,0,0,0,0,0,0,0,
0,0,0,0,0,0,0,0,0,0,0,0,0,0,0,0,0,0,0,0,0,0,0,0,0,0,0,0,0,0,0,0,0,0,0,0,0,0,0,0,0,0,0,0,0,
0,0,0,0,0,0,0,0,0,0,0,0,0,0,0,0,0,0,0,0,0,0,0,0,0,0,0,0,0,0,0,0,0,0,0,0,0,0,0,0,0,0,0,0,0,
0,0,0,0,0,0,0,0,0,0,0,0,0,0,0,0,0,0,0,0,0,0,0,0,0,0,0,0,0,0,0,0,0,0,0,0,0,0,0,0,0,0,0,0,0
</data>
 </layer>
 <objectgroup id="6" name="collisioni">
  <object id="5" x="7" y="-2" width="1418" height="117"/>
  <object id="6" x="5" y="7" width="110" height="1426"/>
  <object id="7" x="112" y="1321" width="1316" height="124"/>
  <object id="8" x="1324" y="38" width="103" height="1386"/>
  <object id="9" x="531" y="366" width="615" height="136"/>
  <object id="10" x="523" y="366" width="620" height="212"/>
  <object id="11" x="534" y="548" width="253" height="241"/>
  <object id="12" x="523" y="870" width="264" height="456"/>
  <object id="13" x="875" y="103" width="271" height="108"/>
  <object id="14" x="873" y="292" width="270" height="69"/>
  <object id="15" x="241" y="235" width="99" height="11"/>
  <object id="16" x="166" y="178" width="14" height="931"/>
  <object id="17" x="175" y="1094" width="167" height="11"/>
  <object id="18" x="395" y="1099" width="74" height="7"/>
  <object id="19" x="461" y="1039" width="2" height="60"/>
  <object id="20" x="241" y="1018" width="222" height="9"/>
  <object id="21" x="237" y="243" width="10" height="774"/>
  <object id="22" x="134" y="555" width="14" height="9"/>
  <object id="23" x="272" y="363" width="171" height="17"/>
  <object id="24" x="456" y="399" width="49" height="9"/>
  <object id="25" x="190.667" y="163.333" width="198" height="7.33333"/>
  <object id="26" x="388.667" y="170.667" width="12" height="68.6667"/>
  <object id="27" x="299.333" y="522" width="104" height="11.3333"/>
  <object id="28" x="270" y="560" width="47.3333" height="0.666667"/>
  <object id="29" x="421.333" y="556" width="10" height="102.667"/>
  <object id="30" x="394.667" y="646" width="7.33333" height="44.6667"/>
  <object id="31" x="366.667" y="684.667" width="2.66667" height="171.333"/>
  <object id="32" x="397.333" y="842" width="8.66667" height="64"/>
  <object id="33" x="413.333" y="903.333" width="56" height="6.66667"/>
  <object id="34" x="463.333" y="911.333" width="6" height="38"/>
  <object id="35" x="476" y="942" width="28"/>
  <object id="36" x="842.667" y="682" width="11.3333" height="44.6667"/>
  <object id="37" x="813.333" y="742.667" width="13.3333" height="42"/>
  <object id="38" x="872.667" y="750" width="46" height="35.3333"/>
  <object id="39" x="938.667" y="781.333" width="6" height="36.6667"/>
  <object id="40" x="971.333" y="810.667" width="6.66667" height="38"/>
  <object id="41" x="999.333" y="843.333" width="20.6667" height="294.667"/>
  <object id="42" x="934.667" y="1225.33" width="144" height="11.3333"/>
  <object id="43" x="938.667" y="1287.33" width="10.6667" height="10"/>
  <object id="44" x="1066.67" y="1160.67" width="17.3333" height="54"/>
  <object id="45" x="1032.67" y="1133.33" width="12.6667" height="40.6667"/>
  <object id="46" x="1035.33" y="907.333" width="39.3333" height="6"/>
  <object id="47" x="1068.67" y="937.333" width="136" height="14"/>
  <object id="48" x="1198.67" y="907.333" width="33.3333" height="8"/>
  <object id="49" x="1228" y="845.333" width="10.6667" height="72"/>
  <object id="50" x="1196" y="775.333" width="12.6667" height="74.6667"/>
  <object id="51" x="1164" y="720" width="9.33333" height="64.6667"/>
  <object id="52" x="1136" y="684" width="8" height="74.6667"/>
  <object id="53" x="1065.33" y="778.667" width="11.3333" height="10.6667"/>
  <object id="54" x="1032.67" y="812" width="14.6667" height="10"/>
 </objectgroup>
 <objectgroup id="5" name="eventi">
  <object id="1" name="masso forza" x="1105" y="779">
   <point/>
  </object>
  <object id="2" name="masso spaccaroccia" x="1104" y="739">
   <point/>
  </object>
  <object id="3" name="scala primo piano" x="369" y="589">
   <point/>
  </object>
  <object id="4" name="scala per il primo piano centrale alto" x="273" y="526">
   <point/>
  </object>
 </objectgroup>
</map>
