<?xml version="1.0" encoding="UTF-8"?>
<map version="1.10" tiledversion="1.12.2" orientation="orthogonal" renderorder="right-down" width="100" height="147" tilewidth="32" tileheight="32" infinite="0" nextlayerid="8" nextobjectid="291">
 <tileset firstgid="1" source="../tileset-outside.tsx"/>
 <tileset firstgid="4017" source="../Sea.tsj"/>
 <tileset firstgid="4115" source="../outside.tsx"/>
 <tileset firstgid="8131" source="../pokemon_emerald_exterior_32.tsj"/>
 <tileset firstgid="14203" source="../Outside_pallet.tsx"/>
 <tileset firstgid="18219" source="../../Emerald_Outside.tsx"/>
 <tileset firstgid="23467" source="../spiaggia_animata_onde.tsj"/>
 <tileset firstgid="23539" source="../../outside.tsx"/>
 <layer id="1" name="ground" width="100" height="147">
  <data encoding="csv">
4119,4119,4119,4119,4119,4119,4119,4119,4119,4119,4119,4119,4119,4119,4119,4119,4119,4119,4119,4119,4119,4119,4119,4119,4119,4119,4119,4119,4119,4119,4119,4119,4119,4119,4119,4119,4119,4119,4119,4119,4119,4119,4119,4119,4119,4119,4119,4119,4119,4119,4119,4119,4119,4119,4119,4119,4119,4119,4119,4119,4119,4119,4119,4119,4119,4119,4119,4119,4119,4119,4119,4119,4119,4119,4119,4119,4119,4119,4119,4119,4119,4119,4119,4119,4119,4119,4119,4119,4119,4119,4119,4119,4119,4119,4119,4119,4119,4119,4119,4119,
4119,4119,4119,4119,4119,4119,4119,4119,4119,4119,4119,4119,4119,4119,4119,4119,4119,4119,4119,4119,4119,4119,4119,4119,4119,4119,4119,4119,4119,4119,4119,4119,4119,4119,4119,4119,4119,4119,4119,4119,4119,4119,4119,4119,4119,4119,4119,4119,4119,4119,4119,4119,4119,4119,4119,4119,4119,4119,4119,4119,4119,4119,4119,4119,4119,4119,4119,4119,4119,4119,4119,4119,4119,4119,4119,4119,4119,4119,4119,4119,4119,4119,4119,4119,4119,4119,4119,4119,4119,4119,4119,4119,4119,4119,4119,4119,4119,4119,4119,4119,
4119,4119,4119,4119,4119,4119,4119,4119,4119,4119,4119,4119,4119,4119,4119,4119,4119,4119,4119,4119,4119,4119,4119,4119,4119,4119,4119,4119,4119,4119,4119,4119,4119,4119,4119,4119,4119,4119,4119,4119,4119,4119,4119,4119,4119,4119,4119,4119,4119,4119,4119,4119,4119,4119,4119,4119,4119,4119,4119,4119,4119,4119,4119,4119,4119,4119,4119,4119,4119,4119,4119,4119,4119,4119,4119,4119,4119,4119,4119,4119,4119,4119,4119,4119,4119,4119,4119,4119,4119,4119,4119,4119,4119,4119,4119,4119,4119,4119,4119,4119,
4119,4119,4119,4119,4119,4119,4119,4119,4119,4119,4119,4119,4119,4119,4119,4119,4119,4119,4119,4119,4119,4119,4119,4119,4119,4119,4119,4119,4119,4119,4119,4119,4119,4119,4119,4119,4119,4119,4119,4119,4119,4119,4119,4119,4119,4119,4119,4119,4119,4119,4119,4119,4119,4119,4119,4119,4119,4119,4119,4119,4119,4119,4119,4119,4119,4119,4119,4119,4119,4119,4119,4119,4119,4119,4119,4119,4119,4119,4119,4119,4119,4119,4119,4119,4119,4119,4119,4119,4119,4119,4119,4119,4119,4119,4119,4119,4119,4119,4119,4119,
4119,4119,4119,4119,4119,4119,4119,4119,4119,4119,4119,4119,4119,4119,4119,4119,4119,4119,4119,4119,4119,4119,4119,4119,4119,4119,4119,4119,4119,4119,4119,4119,4119,4119,4119,4119,4119,4119,4119,4119,4119,4119,4119,4119,4119,4119,4119,4119,4119,4119,4119,4119,4119,4119,4119,4119,4119,4119,4119,4119,4119,4119,4119,4119,4119,4119,4119,4119,4119,4119,4119,4119,4119,4119,4119,4119,4119,4119,4119,4119,4119,4119,4119,4119,4119,4119,4119,4119,4119,4119,4119,4119,4119,4119,4119,4119,4119,4119,4119,4119,
4119,4119,4119,4119,4119,4119,4119,4119,4119,4119,4119,4119,4119,4119,4119,4119,4119,4119,4119,4119,4119,4119,4119,4119,4119,4119,4119,4119,4119,4119,4119,4119,4119,4119,4119,4119,4119,4119,4119,4119,4119,4119,4119,4119,4119,4119,4119,4119,4119,4119,4119,4119,4119,4119,4119,4119,4119,4119,4119,4119,4119,4119,4119,4119,4119,4119,4119,4119,4119,4119,4119,4119,4119,4119,4119,4119,4119,4119,4119,4119,4119,4119,4119,4119,4119,4119,4119,4119,4119,4119,4119,4119,4119,4119,4119,4119,4119,4119,4119,4119,
4119,4119,4119,4119,4119,4119,4119,4119,4119,4119,4119,4119,4119,4119,4119,4119,4119,4119,4119,4119,4119,4119,4119,4119,4119,4119,4119,4119,4119,4119,4119,4119,4119,4119,4119,4119,4119,4119,4119,4119,4119,4119,4119,4119,4119,4119,4119,4119,4119,4119,4119,4119,4119,4119,4119,4119,4119,4119,4119,4119,4119,4119,4119,4119,4119,4119,4119,4119,4119,4119,4119,4119,4119,4119,4119,4119,4119,4119,4119,4119,4119,4119,4119,4119,4119,4119,4119,4119,4119,4119,4119,4119,4119,4119,4119,4119,4119,4119,4119,4119,
4119,4119,4119,4119,4119,4119,4119,4119,4119,4119,4119,4119,4119,4119,4119,4119,4119,4119,4119,4119,4119,4119,4119,4119,4119,4119,4119,4119,4119,4119,4119,4119,4119,4119,4119,4119,4119,4119,4119,4119,4119,4119,4119,4119,4119,4119,4119,4119,4119,4119,4119,4119,4119,4119,4119,4119,4119,4119,4119,4119,4119,4119,4119,4119,4119,4119,4119,4119,4119,4119,4119,4119,4119,4119,4119,4119,4119,4119,4119,4119,4119,4119,4119,4119,4119,4119,4119,4119,4119,4119,4119,4119,4119,4119,4119,4119,4119,4119,4119,4119,
4119,4119,4119,4119,4119,4119,4119,4119,4119,4119,4119,4119,4119,4119,4119,4119,4119,4119,4119,4119,4119,4119,4119,4119,4119,4119,4119,4119,4119,4119,4119,4119,4119,4119,4119,4119,4119,4119,4119,4119,4119,4119,4119,4119,4119,4119,4119,4119,4119,4119,4119,4119,4119,4119,4119,4119,4119,4119,4119,4119,4119,4119,4119,4119,4119,4119,4119,4119,4119,4119,4119,4119,4119,4119,4119,4119,4119,4119,4119,4119,4119,4119,4119,4119,4119,4119,4119,4119,4119,4119,4119,4119,4119,4119,4119,4119,4119,4119,4119,4119,
4119,4119,4119,4119,4119,4119,4119,4119,4119,4119,4119,4119,4119,4119,4119,4119,4119,4119,4119,4119,4119,4119,4119,4119,4119,4119,4119,4119,4119,4119,4119,4119,4119,4119,4119,4119,4119,4119,4119,4119,4119,4119,4119,4119,4119,4119,4119,4119,4119,4119,4119,4119,4119,4119,4119,4119,4119,4119,4119,4119,4119,4119,4119,4119,4119,4119,4119,4119,4119,4119,4119,4119,4119,4119,4119,4119,4119,4119,4119,4119,4119,4119,4119,4119,4119,4119,4119,4119,4119,4119,4119,4119,4119,4119,4119,4119,4119,4119,4119,4119,
4119,4119,4119,4119,4119,4119,4119,4119,4119,4119,4119,4119,4119,4119,4119,4119,4119,4119,4119,4119,4119,4119,4119,4119,4119,4119,4119,4119,4119,4119,4119,4119,4119,4119,4119,4119,4119,4119,4119,4119,4119,4119,4119,4119,4119,4119,4119,4119,4119,4119,4119,4119,4119,4119,4119,4119,4119,4119,4119,4119,4119,4119,4119,4119,4119,4119,4119,4119,4119,4119,4119,4119,4119,4119,4119,4119,4119,4119,4119,4119,4119,4119,4119,4119,4119,4119,4119,4119,4119,4119,4119,4119,4119,4119,4119,4119,4119,4119,4119,4119,
4119,4119,4119,4119,4119,4119,4119,4119,4119,4119,4119,4119,4119,4119,4119,4119,4119,4119,4119,4119,4119,4119,4119,4119,4119,4119,4119,4119,4119,4119,4119,4119,4119,4119,4119,4119,4119,4119,4119,4119,4119,4119,4119,4119,4119,4119,4119,4119,4119,4119,4119,4119,4119,4119,4119,4119,4119,4119,4119,4119,4119,4119,4119,4119,4119,4119,4119,4119,4119,4119,4119,4119,4119,4119,4119,4119,4119,4119,4119,4119,4119,4119,4119,4119,4119,4119,4119,4119,4119,4119,4119,4119,4119,4119,4119,4119,4119,4119,4119,4119,
4119,4119,4119,4119,4119,4119,4119,4119,4119,4119,4119,4119,4119,4119,4119,4119,4119,4119,4119,4119,4119,4119,4119,4119,4119,4119,4119,4119,4119,4119,4119,4119,4119,4119,4119,4119,4119,4119,4119,4119,4119,4119,4119,4119,4119,4119,4119,4119,4119,4119,4119,4119,4119,4119,4119,4119,4119,4119,4119,4119,4119,4119,4119,4119,4119,4119,4119,4119,4119,4119,4119,4119,4119,4119,4119,4119,4119,4119,4119,4119,4119,4119,4119,4119,4119,4119,4119,4119,4119,4119,4119,4119,4119,4119,4119,4119,4119,4119,4119,4119,
4119,4119,4119,4119,4119,4119,4119,4119,4119,4119,4119,4119,4119,4119,4119,4119,4119,4119,4119,4119,4119,4119,4119,4119,4119,4119,4119,4119,4119,4119,4119,4119,4119,4119,4119,4119,4119,4119,4119,4119,4119,4119,4119,4119,4119,4119,4119,4119,4119,4119,4119,4119,4119,4119,4119,4119,4119,4119,4119,4119,4119,4119,4119,4119,4119,4119,4119,4119,4119,4119,4119,4119,4119,4119,4119,4119,4119,4119,4119,4119,4119,4119,4119,4119,4119,4119,4119,4119,4119,4119,4119,4119,4119,4119,4119,4119,4119,4119,4119,4119,
4119,4119,4119,4119,4119,4119,4119,4119,4119,4119,4119,4119,4119,4119,4119,4119,4119,4119,4119,4119,4119,4119,4119,4119,4119,4119,4119,4119,4119,4119,4119,4119,4119,4119,4119,4119,4119,4119,4119,4119,4119,4119,4119,4119,4119,4119,4119,4119,4119,4119,4119,4119,4119,4119,4119,4119,4119,4119,4119,4119,4119,4119,4119,4119,4119,4119,4119,4119,4119,4119,4119,4119,4119,4119,4119,4119,4119,4119,4119,4119,4119,4119,4119,4119,4119,4119,4119,4119,4119,4119,4119,4119,4119,4119,4119,4119,4119,4119,4119,4119,
4119,4119,4119,4119,4119,4119,4119,4119,4119,4119,4119,4119,4119,4119,4119,4119,4119,4119,4119,4119,4119,4119,4119,4119,4119,4119,4119,4119,4119,4119,4119,4119,4119,4119,4119,4119,4119,4119,4119,4119,4119,4119,4119,4119,4119,4119,4119,4119,4119,4119,4119,4119,4119,4119,4119,4119,4119,4119,4119,4119,4119,4119,4119,4119,4119,4119,4119,4119,4119,4119,4119,4119,4119,4119,4119,4119,4119,4119,4119,4119,4119,4119,4119,4119,4119,4119,4119,4119,4119,4119,4119,4119,4119,4119,4119,4119,4119,4119,4119,4119,
4119,4119,4119,4119,4119,4119,4119,4119,4119,4119,4119,4119,4119,4119,4119,4119,4119,4119,4119,4119,4119,4119,4119,4119,4119,4119,4119,4119,4119,4119,4119,4119,4119,4119,4119,4119,4119,4119,4119,4119,4119,4119,4119,4119,4119,4119,4119,4119,4119,4119,4119,4119,4119,4119,4119,4119,4119,4119,4119,4119,4119,4119,4119,4119,4119,4119,4119,4119,4119,4119,4119,4119,4119,4119,4119,4119,4119,4119,4119,4119,4119,4119,4119,4119,4119,4119,4119,4119,4119,4119,4119,4119,4119,4119,4119,4119,4119,4119,4119,4119,
4119,4119,4119,4119,4119,4119,4119,4119,4119,4119,4119,4119,4119,4119,4119,4119,4119,4119,4119,4119,4119,4119,4119,4119,4119,4119,4119,4119,4119,4119,4119,4119,4119,4119,4119,4119,4119,4119,4119,4119,4119,4119,4119,4119,4119,4119,4119,4119,4119,4119,4119,4119,4119,4119,4119,4119,4119,4119,4119,4119,4119,4119,4119,4119,4119,4119,4119,4119,4119,4119,4119,4119,4119,4119,4119,4119,4119,4119,4119,4119,4119,4119,4119,4119,4119,4119,4119,4119,4119,4119,4119,4119,4119,4119,4119,4119,4119,4119,4119,4119,
4119,4119,4119,4119,4119,4119,4119,4119,4119,4119,4119,4119,4119,4119,4119,4119,4119,4119,4119,4119,4119,4119,4119,4119,4119,4119,4119,4119,4119,4119,4119,4119,4119,4119,4119,4119,4119,4119,4119,4119,4119,4119,4119,4119,4119,4119,4119,4119,4119,4119,4119,4119,4119,4119,4119,4119,4119,4119,4119,4119,4119,4119,4119,4119,4119,4119,4119,4119,4119,4119,4119,4119,4119,4119,4119,4119,4119,4119,4119,4119,4119,4119,4119,4119,4119,4119,4119,4119,4119,4119,4119,4119,4119,4119,4119,4119,4119,4119,4119,4119,
4119,4119,4119,4119,4119,4119,4119,4119,4119,4119,4119,4119,4119,4119,4119,4119,4119,4119,4119,4119,4119,4119,4119,4119,4119,4119,4119,4119,4119,4119,4119,4119,4119,4119,4119,4119,4119,4119,4119,4119,4119,4119,4119,4119,4119,4119,4119,4119,4119,4119,4119,4119,4119,4119,4119,4119,4119,4119,4119,4119,4119,4119,4119,4119,4119,4119,4119,4119,4119,4119,4119,4119,4119,4119,4119,4119,4119,4119,4119,4119,4119,4119,4119,4119,4119,4119,4119,4119,4119,4119,4119,4119,4119,4119,4119,4119,4119,4119,4119,4119,
4119,4119,4119,4119,4119,4119,4119,4119,4119,4119,4119,4119,4119,4119,4119,4119,4119,4119,4119,4119,4119,4119,4119,4119,4119,4119,4119,4119,4119,4119,4119,4119,4119,4119,4119,4119,4119,4119,4119,4119,4119,4119,4119,4119,4119,4119,4119,4119,4119,4119,4119,4119,4119,4119,4119,4119,4119,4119,4119,4119,4119,4119,4119,4119,4119,4119,4119,4119,4119,4119,4119,4119,4119,4119,4119,4119,4119,4119,4119,4119,4119,4119,4119,4119,4119,4119,4119,4119,4119,4119,4119,4119,4119,4119,4119,4119,4119,4119,4119,4119,
4119,4119,4119,4119,4119,4119,4119,4119,4119,4119,4119,4119,4119,4119,4119,4119,4119,4119,4119,4119,4119,4119,4119,4119,4119,4119,4119,4119,4119,4119,4119,4119,4119,4119,4119,4119,4119,4119,4119,4119,4119,4119,4119,4119,4119,4119,4119,4119,4119,4119,4119,4119,4119,4119,4119,4119,4119,4119,4119,4119,4119,4119,4119,4119,4119,4119,4119,4119,4119,4119,4119,4119,4119,4119,4119,4119,4119,4119,4119,4119,4119,4119,4119,4119,4119,4119,4119,4119,4119,4119,4119,4119,4119,4119,4119,4119,4119,4119,4119,4119,
4119,4119,4119,4119,4119,4119,4119,4119,4119,4119,4119,4119,4119,4119,4119,4119,4119,4119,4119,4119,4119,4119,4119,4119,4119,4119,4119,4119,4119,4119,4119,4119,4119,4119,4119,4119,4119,4119,4119,4119,4119,4119,4119,4119,4119,4119,4119,4119,4119,4119,4119,4119,4119,4119,4119,4119,4119,4119,4119,4119,4119,4119,4119,4119,4119,4119,4119,4119,4119,4119,4119,4119,4119,4119,4119,4119,4119,4119,4119,4119,4119,4119,4119,4119,4119,4119,4119,4119,4119,4119,4119,4119,4119,4119,4119,4119,4119,4119,4119,4119,
4119,4119,4119,4119,4119,4119,4119,4119,4119,4119,4119,4119,4119,4119,4119,4119,4119,4119,4119,4119,4119,4119,4119,4119,4119,4119,4119,4119,4119,4119,4119,4119,4119,4119,4119,4119,4119,4119,4119,4119,4119,4119,4119,4119,4119,4119,4119,4119,4119,4119,4119,4119,4119,4119,4119,4119,4119,4119,4119,4119,4119,4119,4119,4119,4119,4119,4119,4119,4119,4119,4119,4119,4119,4119,4119,4119,4119,4119,4119,4119,4119,4119,4119,4119,4119,4119,4119,4119,4119,4119,4119,4119,4119,4119,4119,4119,4119,4119,4119,4119,
4119,4119,4119,4119,4119,4119,4119,4119,4119,4119,4119,4119,4119,4119,4119,4119,4119,4119,4119,4119,4119,4119,4119,4119,4119,4119,4119,4119,4119,4119,4119,4119,4119,4119,4119,4119,4119,4119,4119,4119,4119,4119,4119,4119,4119,4119,4119,4119,4119,4119,4119,4119,4119,4119,4119,4119,4119,4119,4119,4119,4119,4119,4119,4119,4119,4119,4119,4119,4119,4119,4119,4119,4119,4119,4119,4119,4119,4119,4119,4119,4119,4119,4119,4119,4119,4119,4119,4119,4119,4119,4119,4119,4119,4119,4119,4119,4119,4119,4119,4119,
4119,4119,4119,4119,4119,4119,4119,4119,4119,4119,4119,4119,4119,4119,4119,4119,4119,4119,4119,4119,4119,4119,4119,4119,4119,4119,4119,4119,4119,4119,4119,4119,4119,4119,4119,4119,4119,4119,4119,4119,4119,4119,4119,4119,4119,4119,4119,4119,4119,4119,4119,4119,4119,4119,4119,4119,4119,4119,4119,4119,4119,4119,4119,4119,4119,4119,4119,4119,4119,4119,4119,4119,4119,4119,4119,4119,4119,4119,4119,4119,4119,4119,4119,4119,4119,4119,4119,4119,4119,4119,4119,4119,4119,4119,4119,4119,4119,4119,4119,4119,
4119,4119,4119,4119,4119,4119,4119,4119,4119,4119,4119,4119,4119,4119,4119,4119,4119,4119,4119,4119,4119,4119,4119,4119,4119,4119,4119,4119,4119,4119,4119,4119,4119,4119,4119,4119,4119,4119,4119,4119,4119,4119,4119,4119,4119,4119,4119,4119,4119,4119,4119,4119,4119,4119,4119,4119,4119,4119,4119,4119,4119,4119,4119,4119,4119,4119,4119,4119,4119,4119,4119,4119,4119,4119,4119,4119,4119,4119,4119,4119,4119,4119,4119,4119,4119,4119,4119,4119,4119,4119,4119,4119,4119,4119,4119,4119,4119,4119,4119,4119,
4119,4119,4119,4119,4119,4119,4119,4119,4119,4119,4119,4119,4119,4119,4119,4119,4119,4119,4119,4119,4119,4119,4119,4119,4119,4119,4119,4119,4119,4119,4119,4119,4119,4119,4119,4119,4119,4119,4119,4119,4119,4119,4119,4119,4119,4119,4119,4119,4119,4119,4119,4119,4119,4119,4119,4119,4119,4119,4119,4119,4119,4119,4119,4119,4119,4119,4119,4119,4119,4119,4119,4119,4119,4119,4119,4119,4119,4119,4119,4119,4119,4119,4119,4119,4119,4119,4119,4119,4119,4119,4119,4119,4119,4119,4119,4119,4119,4119,4119,4119,
4119,4119,4119,4119,4119,4119,4119,4119,4119,4119,4119,4119,4119,4119,4119,4119,4119,4119,4119,4119,4119,4119,4119,4119,4119,4119,4119,4119,4119,4119,4119,4119,4119,4119,4119,4119,4119,4119,4119,4119,4119,4119,4119,4119,4119,4119,4119,4119,4119,4119,4119,4119,4119,4119,4119,4119,4119,4119,4119,4119,4119,4119,4119,4119,4119,4119,4119,4119,4119,4119,4119,4119,4119,4119,4119,4119,4119,4119,4119,4119,4119,4119,4119,4119,4119,4119,4119,4119,4119,4119,4119,4119,4119,4119,4119,4119,4119,4119,4119,4119,
4119,4119,4119,4119,4119,4119,4119,4119,4119,4119,4119,4119,4119,4119,4119,4119,4119,4119,4119,4119,4119,4119,4119,4119,4119,4119,4119,4119,4119,4119,4119,4119,4119,4119,4119,4119,4119,4119,4119,4119,4119,4119,4119,4119,4119,4119,4119,4119,4119,4119,4119,4119,4119,4119,4119,4119,4119,4119,4119,4119,4119,4119,4119,4119,4119,4119,4119,4119,4119,4119,4119,4119,4119,4119,4119,4119,4119,4119,4119,4119,4119,4119,4119,4119,4119,4119,4119,4119,4119,4119,4119,4119,4119,4119,4119,4119,4119,4119,4119,4119,
4119,4119,4119,4119,4119,4119,4119,4119,4119,4119,4119,4119,4119,4119,4119,4119,4119,4119,4119,4119,4119,4119,4119,4119,4119,4119,4119,4119,4119,4119,4119,4119,4119,4119,4119,4119,4119,4119,4119,4119,4119,4119,4119,4119,4119,4119,4119,4119,4119,4119,4119,4119,4119,4119,4119,4119,4119,4119,4119,4119,4119,4119,4119,4119,4119,4119,4119,4119,4119,4119,4119,4119,4119,4119,4119,4119,4119,4119,4119,4119,4119,4119,4119,4119,4119,4119,4119,4119,4119,4119,4119,4119,4119,4119,4119,4119,4119,4119,4119,4119,
4119,4119,4119,4119,4119,4119,4119,4119,4119,4119,4119,4119,4119,4119,4119,4119,4119,4119,4119,4119,4119,4119,4119,4119,4119,4119,4119,4119,4119,4119,4119,4119,4119,4119,4119,4119,4119,4119,4119,4119,4119,4119,4119,4119,4119,4119,4119,4119,4119,4119,4119,4119,4119,4119,4119,4119,4119,4119,4119,4119,4119,4119,4119,4119,4119,4119,4119,4119,4119,4119,4119,4119,4119,4119,4119,4119,4119,4119,4119,4119,4119,4119,4119,4119,4119,4119,4119,4119,4119,4119,4119,4119,4119,4119,4119,4119,4119,4119,0,0,
3,3,3,3,3,3,3,3,3,3,3,3,3,3,3,3,3,3,3,3,3,3,3,3,3,3,3,3,3,3,3,3,3,3,3,3,3,3,3,3,3,3,3,3,3,3,3,3,3,3,3,3,3,3,3,3,3,3,3,3,3,3,3,3,3,3,3,3,3,3,3,3,3,3,3,3,3,3,3,3,3,3,3,3,3,3,3,3,3,3,3,3,3,3,3,3,3,3,3,3,
3,3,3,3,3,3,3,3,3,3,3,3,3,3,3,3,3,3,3,3,3,3,3,3,3,3,3,3,3,3,3,3,3,3,3,3,3,3,3,3,3,3,3,3,3,3,3,3,3,3,3,3,3,3,3,3,3,3,3,3,3,3,3,3,3,3,3,3,3,3,3,3,3,3,3,3,3,3,3,3,3,3,3,3,3,3,3,3,3,3,3,3,3,3,3,3,3,3,3,3,
3,3,3,3,3,3,3,3,3,3,3,3,3,3,3,3,3,3,3,3,3,3,3,3,3,3,3,3,3,3,3,3,3,3,3,3,3,3,3,3,3,3,3,3,3,3,3,3,3,3,3,3,3,3,3,3,3,3,3,3,3,3,3,3,3,3,3,3,3,3,3,3,3,3,3,3,3,3,3,3,3,3,3,3,3,3,3,3,3,3,3,3,3,3,3,3,3,3,3,3,
3,3,3,3,3,3,3,3,3,3,3,3,3,3,3,3,3,3,3,3,3,3,3,3,3,3,3,3,3,3,3,3,3,3,3,3,3,3,3,3,3,3,3,3,3,3,3,3,3,3,3,3,3,3,3,3,3,3,3,3,3,3,3,3,3,3,3,3,3,3,3,3,3,3,3,3,3,3,3,3,3,3,3,3,3,3,3,3,3,3,3,3,3,3,3,3,3,3,3,3,
3,3,3,3,3,3,3,3,3,3,3,3,3,3,3,3,3,3,3,3,3,3,3,3,3,3,3,3,3,3,3,3,3,3,3,3,3,3,3,3,3,3,3,3,3,3,3,3,3,3,3,3,3,3,3,3,3,3,3,3,3,3,3,3,3,3,3,3,3,3,3,3,107,107,3,3,3,3,3,3,3,3,3,3,3,3,3,3,3,3,3,3,3,3,3,3,3,3,3,3,
3,3,3,3,3,3,3,3,3,3,3,3,3,3,3,3,3,3,3,3,3,3,3,3,3,3,3,3,3,3,3,3,3,3,3,3,3,3,3,3,3,3,3,3,3,3,3,3,3,3,3,3,3,3,3,3,3,3,3,3,3,3,3,3,3,3,3,3,3,107,107,107,3,3,3,3,3,3,3,3,3,3,3,3,3,3,3,3,3,3,3,3,3,3,3,3,3,3,3,3,
3,3,3,3,3,3,3,3,3,3,3,3,3,3,3,3,3,3,3,3,3,3,3,3,3,3,3,3,3,3,3,3,3,3,3,3,3,3,3,3,3,3,3,3,3,3,3,3,3,3,3,3,3,3,3,3,3,3,3,3,3,3,3,3,3,3,3,107,107,3,3,3,3,3,3,3,3,3,3,3,3,3,3,3,3,3,3,3,3,3,3,3,3,3,3,3,3,3,3,3,
3,3,3,3,3,3,3,3,3,3,3,3,3,3,3,3,3,3,3,3,3,3,3,3,3,3,3,3,3,3,3,3,3,3,3,3,3,3,3,3,3,3,3,3,3,3,3,3,3,3,3,3,3,3,3,3,3,3,3,3,3,3,3,3,3,107,107,3,3,3,3,3,3,3,3,3,3,3,3,3,3,3,3,3,3,3,3,3,3,3,3,3,3,3,3,3,3,3,3,3,
3,3,3,3,3,3,3,3,3,3,3,3,3,3,3,3,3,3,3,3,3,3,3,3,3,3,3,3,3,3,3,3,3,3,3,3,3,3,3,3,3,3,3,3,3,3,3,3,3,3,3,3,3,3,3,3,3,3,3,3,3,3,107,107,107,3,3,3,3,3,3,3,3,3,3,3,3,3,3,3,3,3,3,3,3,3,3,3,3,3,3,3,3,3,3,3,3,3,3,3,
3,3,3,3,3,3,3,3,3,3,3,3,3,3,3,3,3,3,3,3,3,3,3,3,3,3,3,3,3,3,3,3,3,3,3,3,3,3,3,3,3,3,3,3,3,3,3,3,3,3,3,3,3,3,3,3,3,3,3,3,3,107,3,3,3,3,3,3,3,3,3,3,3,3,3,3,3,3,3,3,3,3,3,3,3,3,3,3,3,3,3,3,3,3,3,3,3,3,3,3,
3,3,3,3,3,3,3,3,3,3,3,3,3,3,3,3,3,3,3,3,3,3,3,3,3,3,3,3,3,3,3,3,3,3,3,3,3,3,3,3,3,3,3,3,3,3,3,3,3,3,3,3,3,3,3,3,3,3,3,107,107,3,107,3,3,3,3,3,3,3,3,3,3,3,3,3,3,3,3,3,3,3,3,3,3,3,3,3,3,3,3,3,3,3,3,3,3,3,3,3,
3,3,3,3,3,3,3,3,3,3,3,3,3,3,3,3,3,3,3,3,3,3,3,3,3,3,3,3,3,3,3,3,3,3,3,3,3,3,3,3,3,3,3,3,3,3,3,3,3,3,3,3,3,3,3,3,3,107,107,3,3,3,107,3,3,3,3,3,3,3,3,3,3,3,3,3,3,3,3,3,3,3,3,3,3,3,3,3,3,3,3,3,3,3,3,3,3,3,3,3,
107,107,107,107,107,107,107,107,107,107,107,107,107,107,3,3,3,3,3,3,3,3,3,3,3,3,3,3,3,3,3,3,3,3,3,3,3,3,3,3,3,3,3,3,3,3,3,3,3,3,3,3,3,3,3,3,107,3,3,3,3,3,107,3,3,3,3,3,3,3,3,3,3,3,3,3,3,3,3,3,3,3,3,3,3,3,3,3,3,3,3,3,3,3,3,3,3,3,3,3,
107,107,107,107,107,107,107,107,107,107,107,107,107,107,107,3,3,3,3,3,3,3,3,3,3,3,3,3,3,3,3,3,3,3,3,3,3,3,3,3,3,3,3,3,3,3,3,3,3,3,3,3,3,107,107,107,3,3,3,3,3,3,107,3,3,3,3,3,3,3,3,3,3,3,3,3,3,3,3,3,3,3,3,3,3,3,3,3,3,3,3,3,3,3,3,3,3,3,3,3,
3,3,3,3,3,3,3,3,3,3,3,3,3,107,107,3,3,3,3,3,3,3,3,3,3,3,3,3,3,3,3,3,3,3,3,3,3,3,3,3,3,3,3,3,3,3,3,3,3,3,3,107,107,3,3,3,3,3,3,3,3,3,107,3,3,3,3,3,3,3,3,3,3,3,3,3,3,3,3,3,3,3,3,3,3,3,3,3,3,3,3,3,3,3,3,3,3,3,3,3,
3,3,3,3,3,3,3,3,3,3,3,3,3,107,107,3,3,3,3,3,3,3,3,3,3,3,3,3,3,3,3,3,3,3,3,3,3,3,3,3,3,3,3,3,3,3,3,3,3,107,107,3,3,3,3,3,3,3,3,3,3,3,107,107,3,3,3,3,3,3,3,3,3,3,3,3,3,3,3,3,3,3,3,3,3,3,3,3,3,3,3,3,3,3,3,3,3,3,3,3,
3,3,3,3,3,3,3,3,3,3,3,3,3,107,107,3,3,3,3,3,3,3,3,3,3,3,3,3,3,3,3,3,3,3,3,3,3,3,3,3,3,3,3,3,3,3,3,107,107,3,3,3,3,3,3,3,3,3,3,3,3,3,3,107,3,3,3,3,3,3,3,3,3,3,3,3,3,3,3,3,3,3,3,3,3,3,3,3,3,3,3,3,3,3,3,3,3,3,3,3,
3,3,3,3,3,3,3,3,3,3,3,3,3,107,107,3,3,3,3,3,3,3,3,3,3,3,3,3,3,3,3,3,3,3,3,3,3,3,3,3,3,3,3,3,3,3,107,3,3,3,3,3,3,3,3,3,3,3,3,3,3,3,3,107,3,3,3,3,3,3,3,3,3,3,3,3,3,3,3,3,3,3,3,3,3,3,3,3,3,3,3,3,3,3,3,3,3,3,3,3,
3,3,3,3,3,3,3,3,3,3,3,3,3,107,107,3,3,3,3,3,3,3,3,3,3,3,3,3,3,3,3,3,3,3,3,3,3,3,3,3,3,3,3,3,107,107,3,3,3,3,3,3,3,3,3,3,3,3,3,3,3,3,3,107,3,3,3,3,3,3,3,3,3,3,3,3,3,3,3,3,3,3,3,3,3,3,3,3,3,3,3,3,3,3,3,3,3,3,3,3,
3,3,3,3,3,3,3,3,3,3,3,3,3,107,107,3,3,3,3,3,3,3,3,3,3,3,3,3,3,3,3,3,3,3,3,3,3,3,3,3,3,3,3,107,3,3,3,3,3,3,3,3,3,3,3,3,3,3,3,3,3,3,3,107,107,3,3,3,3,3,3,3,3,3,3,3,3,3,3,3,3,3,3,3,3,3,3,3,3,3,3,3,3,3,3,3,3,3,3,3,
107,107,107,107,107,3,3,3,3,3,3,3,3,107,107,3,3,3,3,3,3,3,3,3,3,3,3,3,3,3,3,3,3,3,3,3,3,3,3,3,3,3,107,3,3,3,3,3,3,3,3,3,3,3,3,3,3,3,3,3,3,3,3,3,107,3,3,3,3,3,3,3,3,3,3,3,3,3,3,3,3,3,3,3,3,3,3,3,3,3,3,3,3,3,3,3,3,3,3,3,
3,3,3,3,3,107,107,107,3,3,3,3,3,107,107,3,3,3,3,3,3,3,3,3,3,3,3,3,3,3,3,3,3,3,3,3,3,3,3,3,107,107,3,3,3,3,3,3,3,3,3,3,3,3,3,3,3,3,3,3,3,3,3,3,107,3,3,3,3,3,3,3,3,3,3,3,3,3,3,3,3,3,3,3,3,3,3,3,3,3,3,3,3,3,3,3,3,3,3,3,
3,3,3,3,3,3,3,107,107,3,3,3,3,107,107,3,3,3,3,3,3,3,3,3,3,3,3,3,3,3,3,3,3,3,3,3,3,3,3,107,3,3,3,3,3,3,3,3,3,3,3,3,3,3,3,3,3,3,3,3,3,3,3,3,107,107,3,3,3,3,3,3,3,3,3,3,3,3,3,3,3,3,3,3,3,3,3,3,3,3,3,3,3,3,3,3,3,3,3,3,
3,3,3,3,3,3,3,3,107,107,107,3,3,107,107,3,3,3,3,3,3,3,3,3,3,3,3,3,3,3,3,3,3,3,3,3,3,3,107,3,3,3,3,3,3,3,3,3,3,3,3,3,3,3,3,3,3,3,3,3,3,3,3,3,3,107,3,3,3,3,3,3,3,3,3,3,3,3,3,3,3,3,3,3,3,3,3,3,3,3,3,3,3,3,3,3,3,3,3,3,
3,3,3,3,3,3,3,3,3,3,107,107,3,107,107,107,107,107,107,107,107,107,107,107,107,107,3,3,3,3,3,3,3,3,3,3,3,107,3,3,3,3,3,3,3,3,3,3,3,3,3,3,3,3,3,3,3,3,3,3,3,3,3,3,3,107,107,3,3,3,3,3,3,3,3,3,3,3,3,3,3,3,3,3,3,3,3,3,3,3,3,3,3,3,3,3,3,3,3,3,
3,3,3,3,3,3,3,3,3,3,3,107,107,107,107,107,107,107,107,107,107,107,107,107,107,107,107,3,3,3,3,3,3,3,3,3,3,107,3,3,3,3,3,3,3,3,3,3,3,3,3,3,3,3,3,3,3,3,3,3,3,3,3,3,3,3,107,3,3,3,3,3,3,3,3,3,3,3,3,3,3,3,3,3,3,3,3,3,3,3,3,3,3,3,3,3,3,3,3,3,
4069,3,3,3,3,3,3,3,3,3,3,3,3,107,107,107,107,107,107,107,107,107,107,107,107,107,107,3,3,3,3,3,3,3,3,3,107,3,3,3,3,3,3,3,3,3,3,3,3,3,3,3,3,3,3,3,3,3,3,3,3,3,3,3,3,3,107,107,3,3,3,3,3,3,3,3,3,3,3,3,3,3,3,3,3,3,3,3,3,3,3,3,3,3,3,3,3,3,3,3,
4069,3,3,3,3,3,3,3,3,3,3,3,3,3,107,107,107,107,107,107,107,107,107,107,107,107,107,3,3,3,3,3,3,3,3,107,3,3,3,3,3,3,3,3,3,3,3,3,3,3,3,3,3,3,3,3,3,3,3,3,3,3,3,3,3,3,3,107,3,3,3,3,3,3,3,3,3,3,3,3,3,3,3,3,3,3,3,3,3,3,3,3,3,3,3,3,3,3,3,3,
4069,4069,3,3,3,3,3,3,3,3,3,3,3,3,107,107,107,107,107,107,107,107,107,107,107,107,107,3,3,3,3,3,3,3,107,107,3,3,3,3,3,3,3,3,3,3,3,3,3,3,3,3,3,3,3,3,3,3,3,3,3,3,3,3,3,3,3,107,107,3,3,3,3,3,3,3,3,3,3,3,3,3,3,3,3,3,3,3,3,3,3,3,3,3,3,3,3,3,3,3,
4069,4069,3,3,3,3,3,3,3,3,3,3,3,3,3,3,3,107,107,3,3,3,3,3,107,107,107,3,3,3,3,3,3,107,3,3,3,3,3,3,3,3,3,3,3,3,3,3,3,3,3,3,3,3,3,3,3,3,3,3,3,3,3,3,3,3,3,3,107,107,3,3,3,3,3,3,3,3,3,3,3,3,3,3,3,3,3,3,3,3,3,3,3,3,3,3,3,3,3,3,
4069,4069,4069,3,3,3,3,3,3,3,3,3,3,3,3,3,3,3,107,107,3,3,3,3,107,107,107,3,3,3,3,3,3,107,3,3,3,3,3,3,3,3,3,3,3,3,3,3,3,3,3,3,3,3,3,3,3,3,3,3,3,3,3,3,3,3,3,3,3,107,3,3,3,3,3,3,3,3,3,3,3,3,3,3,3,3,3,3,3,3,3,3,3,3,3,3,3,3,3,3,
4069,4069,4069,3,3,3,3,3,3,3,3,3,3,3,3,3,3,3,3,107,107,3,3,3,107,107,107,3,3,3,3,3,107,107,3,3,3,3,3,3,3,3,3,3,3,3,3,3,3,3,3,3,3,3,3,3,3,3,3,3,3,3,3,3,3,3,3,3,3,107,107,3,3,3,3,3,3,3,3,3,3,3,3,3,3,3,3,3,3,3,3,3,3,3,3,3,3,3,3,3,
4069,4069,4069,4069,3,3,3,3,3,3,3,3,3,3,3,3,3,3,3,3,107,107,3,3,107,107,107,3,3,3,3,3,107,3,3,3,3,3,3,3,3,3,3,3,3,3,3,3,3,3,3,3,3,3,3,3,3,3,3,3,3,3,3,3,3,3,3,3,3,3,107,107,3,3,3,3,3,3,3,3,3,3,3,3,3,3,3,3,3,3,3,3,3,3,3,3,3,3,3,3,
4069,4069,4069,4069,3,3,3,3,3,3,3,3,3,3,3,3,3,3,3,3,3,107,3,3,107,107,107,3,3,3,3,107,3,3,3,3,3,3,3,3,3,3,3,3,3,3,3,3,3,3,3,3,3,3,3,3,3,3,3,3,3,3,3,3,3,3,3,3,3,3,3,107,107,3,3,3,3,3,3,3,3,3,3,3,3,3,3,3,3,3,3,3,3,3,3,3,3,3,3,3,
4069,4069,4069,4069,4069,4069,3,3,3,3,3,3,3,3,3,3,3,3,3,3,3,107,107,3,107,107,107,3,3,3,3,107,3,3,3,3,3,3,3,3,3,3,3,3,3,3,3,3,3,3,3,3,3,3,3,3,3,3,3,3,3,3,3,3,3,3,3,3,3,3,3,3,107,107,3,3,3,3,3,3,3,3,3,3,3,3,3,3,3,3,3,3,3,3,3,3,3,3,3,3,
4069,4069,4069,4069,4069,4069,3,3,3,3,3,3,3,3,3,3,3,3,3,3,3,3,107,3,107,107,107,3,3,3,107,107,3,3,3,3,3,3,3,3,3,3,3,3,3,3,3,3,3,3,3,3,3,3,3,3,3,3,3,3,3,3,3,3,3,3,3,3,3,3,3,3,3,107,107,3,3,3,3,3,3,3,3,3,3,3,3,3,3,3,3,3,3,3,3,3,3,3,3,3,
4069,4069,4069,4069,4069,4069,4069,3,3,3,3,3,3,3,3,3,3,3,3,3,3,3,3,107,107,107,107,3,3,3,107,3,3,3,3,3,3,3,3,3,3,3,3,3,3,3,3,3,3,3,3,3,3,3,3,3,3,3,3,3,3,3,3,3,3,3,3,3,3,3,3,3,3,3,107,3,3,3,3,3,3,3,3,3,3,3,3,3,3,3,3,3,3,3,3,3,3,3,3,3,
4069,4069,4069,4069,4069,4069,4069,3,3,3,3,3,3,3,3,3,3,3,3,3,3,3,3,107,107,107,107,3,3,3,107,3,3,3,3,3,3,3,3,3,3,3,3,3,3,3,3,3,3,3,3,3,3,3,3,3,3,3,3,3,3,3,3,3,3,3,3,3,3,3,3,3,3,3,3,107,3,3,3,3,3,3,3,3,3,3,3,3,3,3,3,3,3,3,3,3,3,3,3,3,
4069,4069,4069,4069,4069,4069,4069,4069,3,3,3,3,3,3,3,3,3,3,3,3,3,3,3,3,107,107,107,3,3,107,3,3,3,3,3,3,3,3,3,3,3,3,3,3,3,3,3,3,3,3,3,3,3,3,3,3,3,3,3,3,3,3,3,3,3,3,3,3,3,3,3,3,3,3,3,107,107,3,3,3,3,3,3,3,3,3,3,3,3,3,3,3,3,3,3,3,3,3,3,3,
4069,4069,4069,4069,4069,4069,4069,4069,4069,3,3,3,3,3,3,3,3,3,3,3,3,3,3,3,107,107,107,3,3,107,3,3,3,3,3,3,3,3,3,3,3,3,3,3,3,3,3,3,3,3,3,3,3,3,3,3,3,3,3,3,3,3,3,3,3,3,3,3,3,3,3,3,3,3,3,3,107,3,3,3,3,3,3,3,3,3,3,3,3,3,3,3,3,3,3,3,3,3,3,3,
4069,4069,4069,4069,4069,4069,4069,4069,4069,4069,3,3,3,3,3,3,3,3,3,3,3,3,3,3,107,107,107,3,107,3,3,3,3,3,3,3,3,3,3,3,3,3,3,3,3,3,3,3,3,3,3,3,3,3,3,3,3,3,3,3,3,3,3,3,3,3,3,3,3,3,3,3,3,3,3,3,107,107,3,3,3,3,3,3,3,3,3,3,3,3,3,3,3,3,3,3,3,3,3,3,
4069,4069,4069,4069,4069,4069,4069,4069,4069,4069,3,3,3,3,3,3,3,3,3,3,3,3,3,3,107,107,107,3,107,3,3,3,3,3,3,3,3,3,3,3,3,3,3,3,3,3,3,3,3,3,3,3,3,3,3,3,3,3,3,3,3,3,3,3,3,3,3,3,3,3,3,3,3,3,3,3,3,107,3,3,3,3,3,3,3,3,3,3,3,3,3,3,3,107,107,107,107,3,3,3,
4069,4069,4069,4069,4069,4069,4069,4069,4069,4069,4069,3,3,3,3,3,3,3,3,3,3,3,3,3,3,3,107,107,107,3,3,3,3,3,3,3,3,3,3,3,3,3,3,3,3,3,3,3,3,3,3,3,3,3,3,3,3,3,3,3,3,3,3,3,3,3,3,3,3,3,3,3,3,3,3,3,3,107,107,3,3,3,3,3,3,107,107,107,107,107,107,107,107,107,3,3,107,107,107,3,
4069,4069,4069,4069,4069,4069,4069,4069,4069,4069,4069,4069,3,3,3,3,3,3,3,3,3,3,3,3,3,3,107,107,107,3,3,3,3,3,3,3,3,3,3,3,3,3,3,3,3,3,3,3,3,3,3,3,3,3,3,3,3,3,3,3,3,3,3,3,3,3,3,3,3,3,3,3,3,3,3,3,3,3,107,107,107,107,107,107,107,3,3,3,3,3,3,3,3,3,3,3,3,3,107,3,
4069,4069,4069,4069,4069,4069,4069,4069,4069,4069,4069,4069,3,3,3,3,3,3,3,3,3,3,3,3,3,3,107,107,107,3,3,3,3,3,3,3,3,3,3,3,3,3,3,3,3,3,3,3,3,3,3,3,3,3,3,3,3,3,3,3,3,3,3,3,3,3,3,3,3,3,3,3,3,3,3,3,3,4069,4069,4069,4069,4069,4069,4069,4069,4069,4069,4069,4069,4069,4069,4069,4069,4069,4069,4069,4069,4069,107,3,
4069,4069,4069,4069,4069,4069,4069,4069,4069,4069,4069,4069,4069,3,3,3,3,3,3,3,3,3,3,3,3,3,107,107,107,3,3,3,3,3,3,3,3,3,3,3,3,3,3,3,3,3,3,3,3,3,3,3,3,3,3,3,3,3,3,3,3,3,3,3,3,3,3,3,3,3,3,3,3,3,3,3,3,4069,4069,4069,4069,4069,4069,4069,4069,4069,4069,4069,4069,4069,4069,4069,4069,4069,4069,4069,4069,4069,107,3,
4069,4069,4069,4069,4069,4069,4069,4069,4069,4069,4069,4069,4069,3,3,3,3,3,3,3,3,3,3,3,3,3,107,107,107,3,3,3,3,3,3,3,3,3,3,3,3,3,3,3,3,3,3,3,3,3,3,3,3,3,3,3,3,3,3,3,3,3,3,3,3,3,3,3,3,3,3,3,3,3,3,3,3,4069,4069,4069,4069,4069,4069,4069,4069,4069,4069,4069,4069,4069,4069,4069,4069,4069,4069,4069,4069,4069,107,3,
4069,4069,4069,4069,4069,4069,4069,4069,4069,4069,4069,4069,4069,4069,3,3,3,3,3,3,3,3,3,3,3,3,107,107,107,107,3,3,3,3,3,3,3,3,3,3,3,3,3,3,3,3,3,3,3,3,3,3,3,3,3,3,3,3,3,3,3,3,3,3,3,3,3,3,3,3,3,3,3,3,3,3,3,4069,4069,4069,4069,4069,4069,4069,4069,4069,4069,4069,4069,4069,4069,4069,4069,4069,4069,4069,4069,4069,107,3,
4069,4069,4069,4069,4069,4069,4069,4069,4069,4069,4069,4069,4069,4069,4069,4069,3,3,3,3,3,3,3,3,3,3,107,107,3,107,3,3,3,3,3,3,3,3,3,3,3,3,3,3,3,3,3,3,3,3,3,3,3,3,3,3,3,3,3,3,3,3,3,3,3,3,3,3,3,3,3,3,3,3,3,3,3,4069,4069,4069,4069,4069,4069,4069,4069,4069,4069,4069,4069,4069,4069,4069,4069,4069,4069,4069,4069,4069,107,3,
4069,4069,4069,4069,4069,4069,4069,4069,4069,4069,4069,4069,4069,4069,4069,4069,3,3,3,3,3,3,3,3,3,3,107,107,3,107,3,3,3,3,3,3,3,3,3,3,3,3,3,3,3,3,3,3,3,3,3,3,3,3,3,3,3,3,3,3,3,3,3,3,3,4069,4069,4069,4069,4069,4069,4069,4069,4069,4069,4069,4069,4069,4069,4069,4069,4069,4069,4069,4069,4069,4069,4069,4069,4069,4069,4069,4069,4069,4069,4069,4069,4069,107,3,
4069,4069,4069,4069,4069,4069,4069,4069,4069,4069,4069,4069,4069,4069,4069,4069,3,3,3,3,3,3,3,3,3,3,107,107,3,107,3,3,3,3,3,3,3,3,3,3,3,3,3,3,3,3,3,3,3,3,3,3,3,3,3,3,3,3,3,3,3,3,3,3,3,4069,4069,4069,4069,4069,4069,4069,4069,4069,4069,4069,4069,4069,4069,4069,4069,4069,4069,4069,4069,4069,4069,4069,4069,4069,4069,4069,4069,4069,4069,4069,4069,4069,107,3,
4069,4069,4069,4069,4069,4069,4069,4069,4069,4069,4069,4069,4069,4069,4069,4069,4069,4069,3,3,3,3,3,3,3,3,107,107,3,3,107,3,3,3,3,3,3,3,3,3,3,3,3,3,3,3,3,3,3,3,3,3,3,3,3,3,3,3,3,3,3,3,3,3,3,4069,4069,4069,4069,4069,4069,4069,4069,4069,4069,4069,4069,4069,4069,4069,4069,4069,4069,4069,4069,4069,4069,4069,4069,4069,4069,4069,4069,4069,4069,4069,4069,4069,107,3,
4069,4069,4069,4069,4069,4069,4069,4069,4069,4069,4069,4069,4069,4069,4069,4069,4069,4069,3,3,3,3,3,3,3,3,107,107,3,3,107,3,3,3,3,3,3,3,3,3,3,3,3,3,3,3,3,3,3,3,3,3,3,3,3,3,3,3,3,3,3,3,3,3,3,4069,4069,4069,4069,4069,4069,4069,4069,4069,4069,4069,4069,4069,4069,4069,4069,4069,4069,4069,4069,4069,4069,4069,4069,4069,4069,4069,4069,4069,4069,4069,4069,4069,107,3,
4069,4069,4069,4069,4069,4069,4069,4069,4069,4069,4069,4069,4069,4069,4069,4069,4069,4069,3,3,3,3,3,3,3,3,107,107,3,3,107,3,3,3,3,3,3,3,3,3,3,3,3,3,3,3,3,3,3,3,3,3,3,3,3,3,3,3,3,3,3,3,3,3,3,4069,4069,4069,4069,4069,4069,4069,4069,4069,4069,4069,4069,4069,4069,4069,4069,4069,4069,4069,4069,4069,4069,4069,4069,4069,4069,4069,4069,4069,4069,4069,4069,4069,107,3,
4069,4069,4069,4069,4069,4069,4069,4069,4069,4069,4069,4069,4069,4069,4069,4069,4069,4069,4069,4069,3,3,3,3,3,3,107,107,3,3,107,3,3,3,3,3,3,3,3,3,3,3,3,3,3,3,3,3,3,3,3,3,3,3,3,3,3,3,3,3,3,3,3,3,3,4069,4069,4069,4069,4069,4069,4069,4069,4069,4069,4069,4069,4069,4069,4069,4069,4069,4069,4069,4069,4069,4069,4069,4069,4069,4069,4069,4069,4069,4069,4069,4069,4069,107,3,
4069,4069,4069,4069,4069,4069,4069,4069,4069,4069,4069,4069,4069,4069,4069,4069,4069,4069,4069,4069,3,3,3,3,3,3,107,107,3,3,107,3,3,3,3,3,3,3,3,3,3,3,3,3,3,3,3,3,3,3,3,3,3,3,3,3,3,3,3,3,3,3,3,3,3,4069,4069,4069,4069,4069,4069,4069,4069,4069,4069,4069,4069,4069,4069,4069,4069,4069,4069,4069,4069,4069,4069,4069,4069,4069,4069,4069,4069,4069,4069,4069,4069,4069,107,3,
4069,4069,4069,4069,4069,4069,4069,4069,4069,4069,4069,4069,4069,4069,4069,4069,4069,4069,4069,4069,3,3,3,3,3,3,107,107,3,3,107,3,3,3,3,3,3,3,3,3,3,3,3,3,3,3,3,3,3,3,3,3,3,3,3,3,3,3,3,3,3,3,3,3,3,4069,4069,4069,4069,4069,4069,4069,4069,4069,4069,4069,4069,4069,4069,4069,4069,4069,4069,4069,4069,4069,4069,4069,4069,4069,4069,4069,4069,4069,4069,4069,4069,4069,107,3,
4069,4069,4069,4069,4069,4069,4069,4069,4069,4069,4069,4069,4069,4069,4069,4069,4069,4069,4069,4069,3,3,3,3,3,3,107,107,3,3,107,107,3,3,3,3,3,3,3,3,3,3,3,3,3,3,3,3,3,3,3,3,3,3,3,3,3,3,3,3,3,3,3,3,3,4069,4069,4069,4069,4069,4069,4069,4069,4069,4069,4069,4069,4069,4069,4069,4069,4069,4069,4069,4069,4069,4069,4069,4069,4069,4069,4069,4069,4069,4069,4069,4069,4069,107,3,
4069,4069,4069,4069,4069,4069,4069,4069,4069,4069,4069,4069,4069,4069,4069,4069,4069,4069,4069,4069,3,3,3,3,3,3,107,107,107,3,3,107,3,3,3,3,3,3,3,3,3,3,3,3,3,3,3,3,3,3,3,3,3,3,3,3,3,3,3,3,3,3,3,3,3,4069,4069,4069,4069,4069,4069,4069,4069,4069,4069,4069,4069,4069,4069,4069,4069,4069,4069,4069,4069,4069,4069,4069,4069,4069,4069,4069,4069,4069,4069,4069,4069,4069,107,3,
4069,4069,4069,4069,4069,4069,4069,4069,4069,4069,4069,4069,4069,4069,4069,4069,4069,4069,4069,4069,3,3,3,3,3,3,107,107,107,3,3,107,3,3,3,3,3,3,3,3,3,3,3,3,3,3,3,3,3,3,3,3,3,3,3,3,3,3,3,3,3,3,3,3,3,4069,4069,4069,4069,4069,4069,4069,4069,4069,4069,4069,4069,4069,4069,4069,4069,4069,4069,4069,4069,4069,4069,4069,4069,4069,4069,4069,4069,4069,4069,4069,4069,4069,107,3,
4069,4069,4069,4069,4069,4069,4069,4069,4069,4069,4069,4069,4069,4069,4069,4069,4069,4069,4069,3,3,3,3,3,3,3,107,107,107,3,3,107,3,3,3,3,3,3,3,3,3,3,3,3,3,3,3,3,3,3,3,3,3,3,3,3,3,3,3,3,3,3,3,3,3,4069,4069,4069,4069,4069,4069,4069,4069,4069,4069,4069,4069,4069,4069,4069,4069,4069,4069,4069,4069,4069,4069,4069,4069,4069,4069,4069,4069,4069,4069,4069,4069,4069,107,3,
4069,4069,4069,4069,4069,4069,4069,4069,4069,4069,4069,4069,4069,4069,4069,4069,4069,4069,4069,3,3,3,3,3,3,3,107,107,107,3,3,107,3,3,3,3,3,3,3,3,3,3,3,3,3,3,3,3,3,3,3,3,3,3,3,3,3,3,3,3,3,3,3,3,3,4069,4069,4069,4069,4069,4069,4069,4069,4069,4069,4069,4069,4069,4069,4069,4069,4069,4069,4069,4069,4069,4069,4069,4069,4069,4069,4069,4069,4069,4069,4069,4069,4069,107,3,
4069,4069,4069,4069,4069,4069,4069,4069,4069,4069,4069,4069,4069,4069,4069,4069,4069,4069,3,3,3,3,3,3,3,3,107,107,107,107,3,107,3,3,3,3,3,3,3,3,3,3,3,3,3,3,3,3,3,3,3,3,3,3,3,3,3,3,3,3,3,3,3,3,3,4069,4069,4069,4069,4069,4069,4069,4069,4069,4069,4069,4069,4069,4069,4069,4069,4069,4069,4069,4069,4069,4069,4069,4069,4069,4069,4069,4069,4069,4069,4069,4069,4069,107,3,
4069,4069,4069,4069,4069,4069,4069,4069,4069,4069,4069,4069,4069,4069,4069,4069,4069,4069,3,3,3,3,3,3,3,3,3,3,107,107,3,107,3,3,3,3,3,3,3,3,3,3,3,3,3,3,3,3,3,3,3,3,3,3,3,3,3,3,3,3,3,3,3,3,3,4069,4069,4069,4069,4069,4069,4069,4069,4069,4069,4069,4069,4069,4069,4069,4069,4069,4069,4069,4069,4069,4069,4069,4069,4069,4069,4069,4069,4069,4069,4069,4069,4069,107,3,
4069,4069,4069,4069,4069,4069,4069,4069,4069,4069,4069,4069,4069,4069,4069,4069,4069,3,3,3,3,3,3,3,3,3,3,3,107,107,3,107,3,3,3,3,3,3,3,3,3,3,3,3,3,3,3,3,3,3,3,3,3,3,3,3,3,3,3,3,3,3,3,3,3,4069,4069,4069,4069,4069,4069,4069,4069,4069,4069,4069,4069,4069,4069,4069,4069,4069,4069,4069,4069,4069,4069,4069,4069,4069,4069,4069,4069,4069,4069,4069,4069,4069,107,3,
4069,4069,4069,4069,4069,4069,4069,4069,4069,4069,4069,4069,4069,4069,4069,4069,4069,3,3,3,3,3,3,3,3,3,3,3,107,107,3,107,3,3,3,3,3,3,3,3,3,3,3,3,3,3,3,3,3,3,3,3,3,3,3,3,3,3,3,3,3,3,3,3,3,4069,4069,4069,4069,4069,4069,4069,4069,4069,4069,4069,4069,4069,4069,4069,4069,4069,4069,4069,4069,4069,4069,4069,4069,4069,4069,4069,4069,4069,4069,4069,4069,4069,107,3,
4069,4069,4069,4069,4069,4069,4069,4069,4069,4069,4069,4069,4069,4069,4069,4069,4069,3,3,3,3,3,3,3,3,3,3,3,107,107,3,107,3,3,3,3,3,3,3,3,3,3,3,3,3,3,3,3,3,3,3,3,3,3,3,3,3,3,3,3,3,3,3,3,3,4069,4069,4069,4069,4069,4069,4069,4069,4069,4069,4069,4069,4069,4069,4069,4069,4069,4069,4069,4069,4069,4069,4069,4069,4069,4069,4069,4069,4069,4069,4069,4069,4069,107,3,
4069,4069,4069,4069,4069,4069,4069,4069,4069,4069,4069,4069,4069,4069,4069,4069,4069,3,3,3,3,3,3,3,3,3,3,3,107,107,107,107,3,3,3,3,3,3,3,3,3,3,3,3,3,3,3,3,3,3,3,3,3,3,3,3,3,3,3,3,3,3,3,3,3,4069,4069,4069,4069,4069,4069,4069,4069,4069,4069,4069,4069,4069,4069,4069,4069,4069,4069,4069,4069,4069,4069,4069,4069,4069,4069,4069,4069,4069,4069,4069,4069,4069,107,3,
4069,4069,4069,4069,4069,4069,4069,4069,4069,4069,4069,4069,4069,4069,4069,4069,4069,3,3,3,3,3,3,3,3,3,3,3,107,107,107,107,3,3,3,3,3,3,3,3,3,3,3,3,3,3,3,3,3,3,3,3,3,3,3,3,3,3,3,3,3,3,3,3,3,4069,4069,4069,4069,4069,4069,4069,4069,4069,4069,4069,4069,4069,4069,4069,4069,4069,4069,4069,4069,4069,4069,4069,4069,4069,4069,4069,4069,4069,4069,4069,4069,4069,107,3,
4069,4069,4069,4069,4069,4069,4069,4069,4069,4069,4069,4069,4069,4069,4069,4069,4069,3,3,3,3,3,3,3,3,3,3,3,107,107,107,107,3,3,3,3,3,3,3,3,3,3,3,3,3,3,3,3,3,3,3,3,3,3,3,3,3,3,3,3,3,3,3,3,3,4069,4069,4069,4069,4069,4069,4069,4069,4069,4069,4069,4069,4069,4069,4069,4069,4069,4069,4069,4069,4069,4069,4069,4069,4069,4069,4069,4069,4069,4069,4069,4069,4069,107,3,
4069,4069,4069,4069,4069,4069,4069,4069,4069,4069,4069,4069,4069,4069,4069,4069,4069,3,3,3,3,3,3,3,3,3,3,3,107,107,107,107,3,3,3,3,3,3,3,3,3,3,3,3,3,3,3,3,3,3,3,3,3,3,3,3,3,3,3,3,3,3,3,3,3,4069,4069,4069,4069,4069,4069,4069,4069,4069,4069,4069,4069,4069,4069,4069,4069,4069,4069,4069,4069,4069,4069,4069,4069,4069,4069,4069,4069,4069,4069,4069,4069,4069,107,3,
4069,4069,4069,4069,4069,4069,4069,4069,4069,4069,4069,4069,4069,4069,4069,4069,4069,3,3,3,3,3,3,3,3,3,3,3,107,107,107,107,3,3,3,3,3,3,3,3,3,3,3,3,3,3,3,3,3,3,3,3,3,3,3,3,3,3,3,3,3,3,3,3,3,4069,4069,4069,4069,4069,4069,4069,4069,4069,4069,4069,4069,4069,4069,4069,4069,4069,4069,4069,4069,4069,4069,4069,4069,4069,4069,4069,4069,4069,4069,4069,4069,4069,107,107,
4069,4069,4069,4069,4069,4069,4069,4069,4069,4069,4069,4069,4069,4069,4069,4069,3,3,3,3,3,3,3,3,3,3,3,3,107,107,107,107,3,3,3,3,3,3,3,3,3,3,3,3,3,3,3,3,3,3,3,3,3,3,3,3,3,3,3,3,3,3,3,3,3,3,3,3,3,3,3,3,3,3,3,3,3,3,3,3,3,3,3,3,3,3,3,3,3,3,3,3,3,3,3,3,3,3,3,107,
4069,4069,4069,4069,4069,4069,4069,4069,4069,4069,4069,4069,4069,4069,4069,4069,3,3,3,3,3,3,3,3,3,3,3,3,107,107,107,107,3,3,3,3,3,3,3,3,3,3,3,3,3,3,3,3,3,3,3,3,3,3,3,3,3,3,3,3,3,3,3,3,3,3,3,3,3,3,3,3,3,3,3,3,3,3,3,3,3,3,3,3,3,3,3,3,3,3,3,3,3,3,3,3,3,3,3,107,
4069,4069,4069,4069,4069,4069,4069,4069,4069,4069,4069,4069,4069,4069,4069,3,3,3,3,3,3,3,3,3,3,3,3,3,107,107,107,3,3,3,3,3,3,3,3,3,3,3,3,3,3,3,3,3,3,3,3,3,3,3,3,3,3,3,3,3,3,3,3,3,3,3,3,3,3,3,3,3,3,3,3,3,3,3,3,3,3,3,3,3,3,3,3,3,3,3,3,3,3,3,3,3,3,3,3,107,
4069,4069,4069,4069,4069,4069,4069,4069,4069,4069,4069,4069,4069,4069,3,3,3,3,3,3,3,3,3,3,3,3,3,3,107,107,107,3,3,3,3,3,3,3,3,3,3,3,3,3,3,3,3,3,3,3,3,3,3,3,3,3,3,3,3,3,3,3,3,3,3,3,3,3,3,3,3,3,3,3,3,3,3,3,3,3,3,3,3,3,3,3,3,3,3,3,3,3,3,3,3,3,3,3,107,107,
4069,4069,4069,4069,4069,4069,4069,4069,4069,4069,4069,4069,4069,3,3,3,3,3,3,3,3,3,3,3,3,3,3,3,107,107,107,3,3,3,3,3,3,3,3,3,3,3,3,3,3,3,3,3,3,3,3,3,3,3,3,3,3,3,3,3,3,3,3,3,3,3,3,3,3,3,3,3,3,3,3,3,3,3,3,3,3,3,3,3,3,3,3,3,3,3,3,3,3,3,3,3,3,3,107,3,
4069,4069,4069,4069,4069,4069,4069,4069,4069,4069,4069,4069,3,3,3,3,3,3,3,3,3,3,3,3,3,3,3,3,107,107,107,3,3,3,3,3,3,3,3,3,3,3,3,3,3,3,3,3,3,3,3,3,3,3,3,3,3,3,3,3,3,3,3,3,3,3,3,3,3,3,3,3,3,3,3,3,3,3,3,3,3,3,3,3,3,3,3,3,3,3,3,3,3,3,3,3,3,107,107,3,
4069,4069,4069,4069,4069,4069,4069,4069,4069,4069,4069,3,3,3,3,3,3,3,3,3,3,3,3,3,3,3,3,3,107,107,107,3,3,3,3,3,3,3,3,3,3,3,3,3,3,3,3,3,3,3,3,3,3,3,3,3,3,3,3,3,3,3,107,107,107,107,107,107,107,107,107,107,3,3,3,3,3,3,3,3,3,3,3,3,3,3,3,3,3,3,3,3,3,3,3,3,107,107,3,3,
4069,4069,4069,4069,4069,4069,4069,4069,4069,4069,3,3,3,3,3,3,3,3,3,3,3,3,3,3,3,3,3,3,107,107,107,3,3,3,3,3,3,3,3,3,3,3,3,3,3,3,3,3,3,3,3,3,3,3,3,3,3,3,3,3,107,107,107,3,3,3,3,3,3,3,3,107,107,107,107,107,107,3,3,3,3,3,3,3,3,3,3,3,3,3,3,3,3,3,3,107,107,3,3,3,
4069,4069,4069,4069,4069,4069,4069,4069,4069,4069,3,3,3,3,3,3,3,3,3,3,3,3,3,3,3,3,3,3,107,107,107,3,3,3,3,3,3,3,3,3,3,3,3,3,3,3,3,3,3,3,3,3,3,3,3,3,3,3,3,107,107,3,3,3,3,3,3,3,3,3,3,3,3,3,3,3,3,107,107,107,107,107,3,3,3,3,3,3,3,3,3,3,3,107,107,107,3,3,3,3,
4069,4069,4069,4069,4069,4069,4069,4069,4069,5044,3,3,3,3,3,3,3,3,3,3,3,3,3,3,3,3,3,3,107,107,107,3,3,3,3,3,3,3,3,3,3,3,3,3,3,3,3,3,3,3,3,3,3,3,3,3,3,3,107,107,3,3,3,3,3,3,3,3,3,3,3,3,3,3,3,3,3,3,3,3,3,3,107,107,107,107,107,107,107,107,107,107,107,107,3,3,3,3,3,3,
4069,4069,4069,4069,4069,4069,4069,4069,5044,3,3,3,3,3,3,3,3,3,3,3,3,3,3,3,3,3,3,3,107,107,107,3,3,3,3,3,3,3,3,3,3,3,3,3,3,3,3,3,3,3,3,3,3,3,3,3,3,107,107,3,3,3,3,3,3,3,3,3,3,3,3,3,3,3,3,3,3,3,3,3,3,3,3,3,3,3,3,3,3,3,3,3,3,3,3,3,3,3,3,3,
4069,4069,4069,4069,4069,4069,4069,5044,3,3,3,3,3,3,3,3,3,3,3,3,3,3,3,3,3,3,3,3,107,107,107,3,3,3,3,3,3,3,3,3,3,3,3,3,3,3,3,3,3,3,3,3,3,3,3,3,107,107,3,3,3,3,3,3,3,3,3,3,3,3,3,3,3,3,3,3,3,3,3,3,3,3,3,3,3,3,3,3,3,3,3,3,3,3,3,3,3,3,3,3,
4069,4069,4069,4069,4069,5044,5044,3,3,3,3,3,3,3,3,3,3,3,3,3,3,3,3,3,3,3,3,3,107,107,107,3,3,3,3,3,3,3,3,3,3,3,3,3,3,3,3,3,3,3,3,3,3,3,3,3,107,3,3,3,3,3,3,3,3,3,3,3,3,3,3,3,3,3,3,3,3,3,3,3,3,3,3,3,3,3,3,3,3,3,3,3,3,3,3,3,3,3,3,3,
4069,4069,4069,5044,5044,3,3,3,3,3,3,3,3,3,3,3,3,3,3,3,3,3,3,3,3,3,3,3,107,107,107,3,3,3,3,3,3,3,3,3,3,3,3,3,3,3,3,3,3,3,3,3,3,3,3,107,107,3,3,3,3,3,3,3,3,3,3,3,3,3,3,3,3,3,3,3,3,3,3,3,3,3,3,3,3,3,3,3,3,3,3,3,3,3,3,3,3,3,3,3,
4069,5044,5044,3,3,3,3,3,3,3,3,4117,4117,4117,4117,4117,3,3,3,3,3,3,3,3,3,3,3,3,107,107,107,3,3,3,3,3,3,3,3,3,3,3,3,3,3,3,3,3,3,3,3,3,3,3,3,107,3,3,3,3,3,3,3,3,3,3,3,3,3,3,3,3,3,3,3,3,3,3,3,3,3,3,3,3,3,3,3,3,3,3,3,3,3,3,3,3,3,3,3,3,
5044,3,3,3,3,3,3,3,3,3,3,4117,4117,4117,4117,4117,3,3,3,3,3,3,3,3,3,3,3,3,107,107,107,3,3,3,3,3,3,3,3,3,3,3,3,3,3,3,3,3,3,3,3,3,3,3,3,107,3,3,3,3,3,3,3,3,3,3,3,3,3,3,3,3,3,3,3,3,3,3,3,3,3,3,3,3,3,3,3,3,3,3,3,3,3,3,3,3,3,3,3,3,
3,3,3,3,3,3,3,3,3,3,3,4117,4117,4117,4117,4117,3,3,3,3,3,3,3,3,3,3,3,3,107,107,107,3,3,3,3,3,3,3,3,3,3,3,3,3,3,3,3,3,3,3,3,3,3,3,3,107,3,3,3,3,3,3,3,3,3,3,3,3,3,3,3,3,3,3,3,3,3,3,3,3,3,3,3,3,3,3,3,3,3,3,3,3,3,3,3,3,3,3,3,3,
3,3,3,3,3,3,3,3,3,3,3,4117,4117,4117,4117,4117,3,3,3,3,3,3,3,3,3,3,3,3,107,107,107,3,3,3,3,3,3,3,3,3,3,3,3,3,3,3,3,3,3,3,3,3,3,3,3,107,3,3,3,3,3,3,3,3,3,3,3,3,3,3,3,3,3,3,3,3,3,3,3,3,3,3,3,3,3,3,3,3,3,3,3,3,3,3,3,3,3,3,3,3,
3,3,3,3,3,3,3,3,4535,3,3,4117,4117,4117,4117,4117,3,107,107,107,107,107,107,107,107,107,107,107,107,107,107,107,3,3,3,3,3,3,3,3,3,3,3,3,3,3,3,3,3,3,3,3,3,3,3,107,3,3,3,3,3,3,3,3,3,3,3,3,3,3,3,3,3,3,3,3,3,3,3,3,3,3,3,3,3,3,3,3,3,3,3,3,3,3,3,3,3,3,3,3,
3,3,3,3,3,3,3,3,3,3,3,4117,4117,4117,4117,4117,3,107,107,107,107,107,107,107,107,107,107,107,107,107,107,107,107,107,107,3,3,3,3,3,3,3,3,3,3,3,3,3,3,3,3,3,3,3,3,107,3,3,3,3,3,3,3,3,3,3,3,3,3,3,3,3,3,3,3,3,3,3,3,3,3,3,3,3,3,3,3,3,3,3,3,3,3,3,3,3,3,3,3,3,
3,3,3,3,3,3,3,3,3,3,3,3,3,3,3,3,3,107,107,107,107,107,3,3,3,3,3,3,3,3,3,3,3,3,107,107,107,107,107,107,107,107,107,107,107,107,107,107,107,107,107,107,107,107,107,107,107,107,107,107,107,107,107,107,3,3,3,3,3,3,3,3,3,3,3,3,3,3,3,3,3,3,3,3,3,3,3,3,3,3,3,3,3,3,3,3,3,3,3,3,
3,3,3,3,3,3,3,3,3,3,107,107,107,107,107,107,107,107,107,107,107,107,107,3,3,3,3,3,3,3,3,3,3,3,3,3,3,3,3,3,3,3,3,3,3,3,3,3,3,3,3,3,3,3,3,3,3,3,3,3,3,3,3,107,107,107,107,107,107,107,107,107,107,107,107,107,107,3,3,3,3,3,3,3,3,3,3,3,3,3,3,3,3,3,3,3,3,107,107,107,
107,107,107,107,107,107,107,107,107,107,107,107,107,107,107,107,107,107,107,107,107,107,107,3,3,3,3,3,3,3,3,3,3,3,3,3,3,3,3,3,3,3,3,3,3,3,3,3,3,3,3,3,3,3,3,3,3,3,3,3,3,3,3,3,3,3,3,3,3,3,3,3,3,3,3,3,3,107,107,107,107,107,107,107,107,107,107,107,107,107,107,107,107,107,107,107,107,3,3,3,
107,107,107,107,107,107,107,107,107,107,107,3,3,3,3,3,3,3,3,3,3,3,3,3,3,3,3,3,3,3,3,3,3,3,3,3,3,3,3,3,3,3,3,3,3,3,3,3,3,3,3,3,3,3,3,3,3,3,3,3,3,3,3,3,3,3,3,3,3,3,3,3,3,3,3,3,3,3,3,3,3,3,3,3,3,3,3,3,3,3,3,3,3,3,3,3,3,3,3,3,
107,107,107,107,107,107,107,107,107,107,107,3,3,3,3,3,3,3,3,3,3,3,3,3,3,3,3,3,3,3,3,3,3,3,3,3,3,3,3,3,3,3,3,3,3,3,3,3,3,3,3,3,3,3,3,3,3,3,3,3,3,3,3,3,3,3,3,3,3,3,3,3,3,3,3,3,3,3,3,3,3,3,3,3,3,3,3,3,3,3,3,3,3,3,3,3,3,3,3,3,
3,3,4991,3,3,3,3,3,3,3,3,3,3,3,3,3,3,3,3,3,3,3,3,3,3,3,3,3,3,3,3,3,3,3,3,3,3,3,3,3,3,3,3,3,3,3,3,3,4220,4222,3,3,3,3,3,3,3,3,3,3,3,3,3,3,3,3,3,3,3,3,3,3,3,3,3,3,3,3,3,3,3,3,3,3,3,3,3,3,3,3,3,3,3,3,3,3,3,3,3,3,
3,4991,3,3,3,3,3,3,3,3,3,3,3,3,3,3,3,3,3,3,3,3,3,3,3,3,3,3,3,3,3,3,3,3,3,3,3,3,3,3,3,3,3,3,3,3,3,3,4220,4222,3,3,3,3,3,3,3,3,3,3,3,3,3,3,3,3,3,3,3,3,3,3,3,3,3,3,3,3,3,3,3,3,3,3,3,3,3,3,3,3,3,3,3,3,3,3,3,3,3,3,
3,3,3,3,3,3,3,3,3,3,3,3,3,3,3,3,3,3,3,3,3,3,3,3,3,3,3,3,3,3,3,3,3,3,3,3,3,3,3,3,3,3,3,3,3,3,3,3,4220,4222,3,3,3,3,3,3,3,3,3,3,3,3,3,3,3,3,3,3,3,3,3,3,3,3,3,3,3,3,3,3,3,3,3,3,3,3,3,3,3,3,3,3,3,3,3,3,3,3,3,3,
4119,4119,4119,4119,4119,4119,4119,4119,4119,4119,4119,4119,4119,4119,4119,4119,4119,4119,4119,4119,4119,4119,4119,4119,4119,4119,4119,4119,4119,4119,4119,4119,4119,4119,4119,4119,4119,4119,4119,4119,4119,4119,4119,4119,4119,4119,4119,4119,4220,4222,4119,4119,4119,4119,4119,4119,4119,4119,4119,4119,4119,4119,4119,4119,4119,4119,4119,4119,4119,4119,4119,4119,4119,4119,4119,4119,4119,4119,4119,4119,4119,4119,4119,4119,4119,4119,4119,4119,4119,4119,4119,4119,4119,4119,4119,4119,4119,4119,4119,4119,
4119,4119,4119,4119,4119,4119,4119,4119,4119,4119,4119,4119,4119,4119,4119,4119,4119,4119,4119,4119,4119,4119,4119,4119,4119,4119,4119,4119,4119,4119,4119,4119,4119,4119,4119,4119,4119,4119,4119,4119,4119,4119,4119,4119,4119,4119,4119,4119,4220,4222,4119,4119,4119,4119,4119,4119,4119,4119,4119,4119,4119,4119,4119,4119,4119,4119,4119,4119,4119,4119,4119,4119,4119,4119,4119,4119,4119,4119,4119,4119,4119,4119,4119,4119,4119,4119,4119,4119,4119,4119,4119,4119,4119,4119,4119,4119,4119,4119,4119,4119,
4119,4119,4119,4119,4119,4119,4119,4119,4119,4119,4119,4119,4119,4119,4119,4119,4119,4119,4119,4119,4119,4119,4119,4119,4119,4119,4119,4119,4119,4119,4119,4119,4119,4119,4119,4119,4119,4119,4119,4119,4119,4119,4119,4119,4119,4119,4119,4119,4220,4222,4119,4119,4119,4119,4119,4119,4119,4119,4119,4119,4119,4119,4119,4119,4119,4119,4119,4119,4119,4119,4119,4119,4119,4119,4119,4119,4119,4119,4119,4119,4119,4119,4119,4119,4119,4119,4119,4119,4119,4119,4119,4119,4119,4119,4119,4119,4119,4119,4119,4119,
4119,4119,4119,4119,4119,4119,4119,4119,4119,4119,4119,4119,4119,4119,4119,4119,4119,4119,4119,4119,4119,4119,4119,4119,4119,4119,4119,4119,4119,4119,4119,4119,4119,4119,4119,4119,4119,4119,4119,4119,4119,4119,4119,4119,4119,4119,4119,4119,4220,4222,4119,4119,4119,4119,4119,4119,4119,4119,4119,4119,4119,4119,4119,4119,4119,4119,4119,4119,4119,4119,4119,4119,4119,4119,4119,4119,4119,4119,4119,4119,4119,4119,4119,4119,4119,4119,4119,4119,4119,4119,4119,4119,4119,4119,4119,4119,4119,4119,4119,4119,
4119,4119,4119,4119,4119,4119,4119,4119,4119,4119,4119,4119,4119,4119,4119,4119,4119,4119,4119,4119,4119,4119,4119,4119,4119,4119,4119,4119,4119,4119,4119,4119,4119,4119,4119,4119,4119,4119,4119,4119,4119,4119,4119,4119,4119,4119,4119,4119,4220,4222,4119,4119,4119,4119,4119,4119,4119,4119,4119,4119,4119,4119,4119,4119,4119,4119,4119,4119,4119,4119,4119,4119,4119,4119,4119,4119,4119,4119,4119,4119,4119,4119,4119,4119,4119,4119,4119,4119,4119,4119,4119,4119,4119,4119,4119,4119,4119,4119,4119,4119,
4119,4119,4119,4119,4119,4119,4119,4119,4119,4119,4119,4119,4119,4119,4119,4119,4119,4119,4119,4119,4119,4119,4119,4119,4119,4119,4119,4119,4119,4119,4119,4119,4119,4119,4119,4119,4119,4119,4119,4119,4119,4119,4119,4119,4119,4119,4119,4119,4220,4222,4119,4119,4119,4119,4119,4119,4119,4119,4119,4119,4119,4119,4119,4119,4119,4119,4119,4119,4119,4119,4119,4119,4119,4119,4119,4119,4119,4119,4119,4119,4119,4119,4119,4119,4119,4119,4119,4119,4119,4119,4119,4119,4119,4119,4119,4119,4119,4119,4119,4119,
4119,4119,4119,4119,4119,4119,4119,4119,4119,4119,4119,4119,4119,4119,4119,4119,4119,4119,4119,4119,4119,4119,4119,4119,4119,4119,4119,4119,4119,4119,4119,4119,4119,4119,4119,4119,4119,4119,4119,4119,4119,4119,4119,4119,4119,4119,4119,4119,4220,4222,4119,4119,4119,4119,4119,4119,4119,4119,4119,4119,4119,4119,4119,4119,4119,4119,4119,4119,4119,4119,4119,4119,4119,4119,4119,4119,4119,4119,4119,4119,4119,4119,4119,4119,4119,4119,4119,4119,4119,4119,4119,4119,4119,4119,4119,4119,4119,4119,4119,4119,
4119,4119,4119,4119,4119,4119,4119,4119,4119,4119,4119,4119,4119,4119,4119,4119,4119,4119,4119,4119,4119,4119,4119,4119,4119,4119,4119,4119,4119,4119,4119,4119,4119,4119,4119,4119,4119,4119,4119,4119,4119,4119,4119,4119,4119,4119,4119,4119,4220,4222,4119,4119,4119,4119,4119,4119,4119,4119,4119,4119,4119,4119,4119,4119,4119,4119,4119,4119,4119,4119,4119,4119,4119,4119,4119,4119,4119,4119,4119,4119,4119,4119,4119,4119,4119,4119,4119,4119,4119,4119,4119,4119,4119,4119,4119,4119,4119,4119,4119,4119,
4119,4119,4119,4119,4119,4119,4119,4119,4119,4119,4119,4119,4119,4119,4119,4119,4119,4119,4119,4119,4119,4119,4119,4119,4119,4119,4119,4119,4119,4119,4119,4119,4119,4119,4119,4119,4119,4119,4119,4119,4119,4119,4119,4119,4119,4119,4119,4119,4220,4222,4119,4119,4119,4119,4119,4119,4119,4119,4119,4119,4119,4119,4119,4119,4119,4119,4119,4119,4119,4119,4119,4119,4119,4119,4119,4119,4119,4119,4119,4119,4119,4119,4119,4119,4119,4119,4119,4119,4119,4119,4119,4119,4119,4119,4119,4119,4119,4119,4119,4119,
4119,4119,4119,4119,4119,4119,4119,4119,4119,4119,4119,4119,4119,4119,4119,4119,4119,4119,4119,4119,4119,4119,4119,4119,4119,4119,4119,4119,4119,4119,4119,4119,4119,4119,4119,4119,4119,4119,4119,4119,4119,4119,4119,4119,4119,4119,4119,4119,4220,4222,4119,4119,4119,4119,4119,4119,4119,4119,4119,4119,4119,4119,4119,4119,4119,4119,4119,4119,4119,4119,4119,4119,4119,4119,4119,4119,4119,4119,4119,4119,4119,4119,4119,4119,4119,4119,4119,4119,4119,4119,4119,4119,4119,4119,4119,4119,4119,4119,4119,4119,
4119,4119,4119,4119,4119,4119,4119,4119,4119,4119,4119,4119,4119,4119,4119,4119,4119,4119,4119,4119,4119,4119,4119,4119,4119,4119,4119,4119,4119,4119,4119,4119,4119,4119,4119,4119,4119,4119,4119,4119,4119,4119,4119,4119,4119,4119,4119,4119,4119,4119,4119,4119,4119,4119,4119,4119,4119,4119,4119,4119,4119,4119,4119,4119,4119,4119,4119,4119,4119,4119,4119,4119,4119,4119,4119,4119,4119,4119,4119,4119,4119,4119,4119,4119,4119,4119,4119,4119,4119,4119,4119,4119,4119,4119,4119,4119,4119,4119,4119,4119,
4119,4119,4119,4119,4119,4119,4119,4119,4119,4119,4119,4119,4119,4119,4119,4119,4119,4119,4119,4119,4119,4119,4119,4119,4119,4119,4119,4119,4119,4119,4119,4119,4119,4119,4119,4119,4119,4119,4119,4119,4119,4119,4119,4119,4119,4119,4119,4119,4119,4119,4119,4119,4119,4119,4119,4119,4119,4119,4119,4119,4119,4119,4119,4119,4119,4119,4119,4119,4119,4119,4119,4119,4119,4119,4119,4119,4119,4119,4119,4119,4119,4119,4119,4119,4119,4119,4119,4119,4119,4119,4119,4119,4119,4119,4119,4119,4119,4119,4119,4119,
4119,4119,4119,4119,4119,4119,4119,4119,4119,4119,4119,4119,4119,4119,4119,4119,4119,4119,4119,4119,4119,4119,4119,4119,4119,4119,4119,4119,4119,4119,4119,4119,4119,4119,4119,4119,4119,4119,4119,4119,4119,4119,4119,4119,4119,4119,4119,4119,4119,4119,4119,4119,4119,4119,4119,4119,4119,4119,4119,4119,4119,4119,4119,4119,4119,4119,4119,4119,4119,4119,4119,4119,4119,4119,4119,4119,4119,4119,4119,4119,4119,4119,4119,4119,4119,4119,4119,4119,4119,4119,4119,4119,4119,4119,4119,4119,4119,4119,4119,4119,
4119,4119,4119,4119,4119,4119,4119,4119,4119,4119,4119,4119,4119,4119,4119,4119,4119,4119,4119,4119,4119,4119,4119,4119,4119,4119,4119,4119,4119,4119,4119,4119,4119,4119,4119,4119,4119,4119,4119,4119,4119,4119,4119,4119,4119,4119,4119,4119,4119,4119,4119,4119,4119,4119,4119,4119,4119,4119,4119,4119,4119,4119,4119,4119,4119,4119,4119,4119,4119,4119,4119,4119,4119,4119,4119,4119,4119,4119,4119,4119,4119,4119,4119,4119,4119,4119,4119,4119,4119,4119,4119,4119,4119,4119,4119,4119,4119,4119,4119,4119,
4119,4119,4119,4119,4119,4119,4119,4119,4119,4119,4119,4119,4119,4119,4119,4119,4119,4119,4119,4119,4119,4119,4119,4119,4119,4119,4119,4119,4119,4119,4119,4119,4119,4119,4119,4119,4119,4119,4119,4119,4119,4119,4119,4119,4119,4119,4119,4119,4119,4119,4119,4119,4119,4119,4119,4119,4119,4119,4119,4119,4119,4119,4119,4119,4119,4119,4119,4119,4119,4119,4119,4119,4119,4119,4119,4119,4119,4119,4119,4119,4119,4119,4119,4119,4119,4119,4119,4119,4119,4119,4119,4119,4119,4119,4119,4119,4119,4119,4119,4119
</data>
 </layer>
 <layer id="2" name="deco_sotto" width="100" height="147">
  <data encoding="csv">
0,0,0,0,0,0,0,0,0,0,0,0,0,0,0,0,0,0,0,0,0,0,0,0,0,0,0,0,0,0,0,0,0,0,0,0,0,0,0,0,0,0,0,0,0,0,0,0,0,0,0,0,0,0,0,0,0,0,0,0,0,0,0,0,0,0,0,0,0,0,0,0,0,0,0,0,0,0,0,0,0,0,0,0,0,0,0,0,0,0,0,0,0,0,0,0,0,0,0,0,
0,0,0,0,0,0,0,0,0,0,0,0,0,0,0,0,0,0,0,0,0,0,0,0,0,0,0,0,0,0,0,0,0,0,0,0,0,0,0,0,0,0,0,0,0,0,0,0,0,0,0,0,0,0,0,0,0,0,0,0,0,0,0,0,0,0,0,0,0,0,0,0,0,0,0,0,0,0,0,0,0,0,0,0,0,0,0,0,0,0,0,0,0,0,0,0,0,0,0,0,
0,0,0,0,0,0,0,0,0,0,0,0,0,0,0,0,0,0,0,0,0,0,0,0,0,0,0,0,0,0,0,0,0,0,0,0,0,0,0,0,0,0,0,0,0,0,0,0,0,0,0,0,0,0,0,0,0,0,0,0,0,0,0,0,0,0,0,0,0,0,0,0,0,0,0,0,0,0,0,0,0,0,0,0,0,0,0,0,0,0,0,0,0,0,0,0,0,0,0,0,
0,0,0,0,0,0,0,0,0,0,0,0,0,0,0,0,0,0,0,0,0,0,0,0,0,0,0,0,0,0,0,0,0,0,0,0,0,0,0,0,0,0,0,0,0,0,0,0,0,0,0,0,0,0,0,0,0,0,0,0,0,0,0,0,0,0,0,0,0,0,0,0,0,0,0,0,0,0,0,0,0,0,0,0,0,0,0,0,0,0,0,0,0,0,0,0,0,0,0,0,
0,0,0,0,0,0,0,0,0,0,0,0,0,0,0,0,0,0,0,0,0,0,0,0,0,0,0,0,0,0,0,0,0,0,0,0,0,0,0,0,0,0,0,0,0,0,0,0,0,0,0,0,0,0,0,0,0,0,0,0,0,0,0,0,0,0,0,0,0,0,0,0,0,0,0,0,0,0,0,0,0,0,0,0,0,0,0,0,0,0,0,0,0,0,0,0,0,0,0,0,
0,0,0,0,0,0,0,0,0,0,0,0,0,0,0,0,0,0,0,0,0,0,0,0,0,0,0,0,0,0,0,0,0,0,0,0,0,0,0,0,0,0,0,0,0,0,0,0,0,0,0,0,0,0,0,0,0,0,0,0,0,0,0,0,0,0,0,0,0,0,0,0,0,0,0,0,0,0,0,0,0,0,0,0,0,0,0,0,0,0,0,0,0,0,0,0,0,0,0,0,
0,0,0,0,0,0,0,0,0,0,0,0,0,0,0,0,0,0,0,0,0,0,0,0,0,0,0,0,0,0,0,0,0,0,0,0,0,0,0,0,0,0,0,0,0,0,0,0,0,0,0,0,0,0,0,0,0,0,0,0,0,0,0,0,0,0,0,0,0,0,0,0,0,0,0,0,0,0,0,0,0,0,0,0,0,0,0,0,0,0,0,0,0,0,0,0,0,0,0,0,
0,0,0,0,0,0,0,0,0,0,0,0,0,0,0,0,0,0,0,0,0,0,0,0,0,0,0,0,0,0,0,0,0,0,0,0,0,0,0,0,0,0,0,0,0,0,0,0,0,0,0,0,0,0,0,0,0,0,0,0,0,0,0,0,0,0,0,0,0,0,0,0,0,0,0,0,0,0,0,0,0,0,0,0,0,0,0,0,0,0,0,0,0,0,0,0,0,0,0,0,
0,0,0,0,0,0,0,0,0,0,0,0,0,0,0,0,0,0,0,0,0,0,0,0,0,0,0,0,0,0,0,0,0,0,0,0,0,0,0,0,0,0,0,0,0,0,0,0,0,0,0,0,0,0,0,0,0,0,0,0,0,0,0,0,0,0,0,0,0,0,0,0,0,0,0,0,0,0,0,0,0,0,0,0,0,0,0,0,0,0,0,0,0,0,0,0,0,0,0,0,
0,0,0,0,0,0,0,0,0,0,0,0,0,0,0,0,0,0,0,0,0,0,0,0,0,0,0,0,0,0,0,0,0,0,0,0,0,0,0,0,0,0,0,0,0,0,0,0,0,0,0,0,0,0,0,0,0,0,0,0,0,0,0,0,0,0,0,0,0,0,0,0,0,0,0,0,0,0,0,0,0,0,0,0,0,0,0,0,0,0,0,0,0,0,0,0,0,0,0,0,
0,0,0,0,0,0,0,0,0,0,0,0,0,0,0,0,0,0,0,0,0,0,0,0,0,0,0,0,0,0,0,0,0,0,0,0,0,0,0,0,0,0,0,0,0,0,0,0,0,0,0,0,0,0,0,0,0,0,0,0,0,0,0,0,0,0,0,0,0,0,0,0,0,0,0,0,0,0,0,0,0,0,0,0,0,0,0,0,0,0,0,0,0,0,0,0,0,0,0,0,
0,0,0,0,0,0,0,0,0,0,0,0,0,0,0,0,0,0,0,0,0,0,0,0,0,0,0,0,0,0,0,0,0,0,0,0,0,0,0,0,0,0,0,0,0,0,0,0,0,0,0,0,0,0,0,0,0,0,0,0,0,0,0,0,0,0,0,0,0,0,0,0,0,0,0,0,0,0,0,0,0,0,0,0,0,0,0,0,0,0,0,0,0,0,0,0,0,0,0,0,
0,0,0,0,0,0,0,0,0,0,0,0,0,0,0,0,0,0,0,0,0,0,0,0,0,0,0,0,0,0,0,0,0,0,0,0,0,0,0,0,0,0,0,0,0,0,0,0,0,0,0,0,0,0,0,0,0,0,0,0,0,0,0,0,0,0,0,0,0,0,0,0,0,0,0,0,0,0,0,0,0,0,0,0,0,0,0,0,0,0,0,0,0,0,0,0,0,0,0,0,
0,0,0,0,0,0,0,0,0,0,0,0,0,0,0,0,0,0,0,0,0,0,0,0,0,0,0,0,0,0,0,0,0,0,0,0,0,0,0,0,0,0,0,0,0,0,0,0,0,0,0,0,0,0,0,0,0,0,0,0,0,0,0,0,0,0,0,0,0,0,0,0,0,0,0,0,0,0,0,0,0,0,0,0,0,0,0,0,0,0,0,0,0,0,0,0,0,0,0,0,
0,0,0,0,0,0,0,0,0,0,0,0,0,0,0,0,0,0,0,0,0,0,0,0,0,0,0,0,0,0,0,0,0,0,0,0,0,0,0,0,0,0,0,0,0,0,0,0,0,0,0,0,0,0,0,0,0,0,0,0,0,0,0,0,0,0,0,0,0,0,0,0,0,0,0,0,0,0,0,0,0,0,0,0,0,0,0,0,0,0,0,0,0,0,0,0,0,0,0,0,
0,0,0,0,0,0,0,0,0,0,0,0,0,0,0,0,0,0,0,0,0,0,0,0,0,0,0,0,0,0,0,0,0,0,0,0,0,0,0,0,0,0,0,0,0,0,0,0,0,0,0,0,0,0,0,0,0,0,0,0,0,0,0,0,0,0,0,0,0,0,0,0,0,0,0,0,0,0,0,0,0,0,0,0,0,0,0,0,0,0,0,0,0,0,0,0,0,0,0,0,
0,0,0,0,0,0,0,0,0,0,0,0,0,0,0,0,0,0,0,0,0,0,0,0,0,0,0,0,0,0,0,0,0,0,0,0,0,0,0,0,0,0,0,0,0,0,0,0,0,0,0,0,0,0,0,0,0,0,0,0,0,0,0,0,0,0,0,0,0,0,0,0,0,0,0,0,0,0,0,0,0,0,0,0,0,0,0,0,0,0,0,0,0,0,0,0,0,0,0,0,
0,0,0,0,0,0,0,0,0,0,0,0,0,0,0,0,0,0,0,0,0,0,0,0,0,0,0,0,0,0,0,0,0,0,0,0,0,0,0,0,0,0,0,0,0,0,0,0,0,0,0,0,0,0,0,0,0,0,0,0,0,0,0,0,0,0,0,0,0,0,0,0,0,0,0,0,0,0,0,0,0,0,0,0,0,0,0,0,0,0,0,0,0,0,0,0,0,0,0,0,
0,0,0,0,0,0,0,0,0,0,0,0,0,0,0,0,0,0,0,0,0,0,0,0,0,0,0,0,0,0,0,0,0,0,0,0,0,0,0,0,0,0,0,0,0,0,0,0,0,0,0,0,0,0,0,0,0,0,0,0,0,0,0,0,0,0,0,0,0,0,0,0,0,0,0,0,0,0,0,0,0,0,0,0,0,0,0,0,0,0,0,0,0,0,0,0,0,0,0,0,
0,0,0,0,0,0,0,0,0,0,0,0,0,0,0,0,0,0,0,0,0,0,0,0,0,0,0,0,0,0,0,0,0,0,0,0,0,0,0,0,0,0,0,0,0,0,0,0,0,0,0,0,0,0,0,0,0,0,0,0,0,0,0,0,0,0,0,0,0,0,0,0,0,0,0,0,0,0,0,0,0,0,0,0,0,0,0,0,0,0,0,0,0,0,0,0,0,0,0,0,
0,0,0,0,0,0,0,0,0,0,0,0,0,0,0,0,0,0,0,0,0,0,0,0,0,0,0,0,0,0,0,0,0,0,0,0,0,0,0,0,0,0,0,0,0,0,0,0,0,0,0,0,0,0,0,0,0,0,0,0,0,0,0,0,0,0,0,0,0,0,0,0,0,0,0,0,0,0,0,0,0,0,0,0,0,0,0,0,0,0,0,0,0,0,0,0,0,0,0,0,
0,0,0,0,0,0,0,0,0,0,0,0,0,0,0,0,0,0,0,0,0,0,0,0,0,0,0,0,0,0,0,0,0,0,0,0,0,0,0,0,0,0,0,0,0,0,0,0,0,0,0,0,0,0,0,0,0,0,0,0,0,0,0,0,0,0,0,0,0,0,0,0,0,0,0,0,0,0,0,0,0,0,0,0,0,0,0,0,0,0,0,0,0,0,0,0,0,0,0,0,
0,0,0,0,0,0,0,0,0,0,0,0,0,0,0,0,0,0,0,0,0,0,0,0,0,0,0,0,0,0,0,0,0,0,0,0,0,0,0,0,0,0,0,0,0,0,0,0,0,0,0,0,0,0,0,0,0,0,0,0,0,0,0,0,0,0,0,0,0,0,0,0,0,0,0,0,0,0,0,0,0,0,0,0,0,0,0,0,0,0,0,0,0,0,0,0,0,0,0,0,
0,0,0,0,0,0,0,0,0,0,0,0,0,0,0,0,0,0,0,0,0,0,0,0,0,0,0,0,0,0,0,0,0,0,0,0,0,0,0,0,0,0,0,0,0,0,0,0,0,0,0,0,0,0,0,0,0,0,0,0,0,0,0,0,0,0,0,0,0,0,0,0,0,0,0,0,0,0,0,0,0,0,0,0,0,0,0,0,0,0,0,0,0,0,0,0,0,0,0,0,
0,0,0,0,0,0,0,0,0,0,0,0,0,0,0,0,0,0,0,0,0,0,0,0,0,0,0,0,0,0,0,0,0,0,0,0,0,0,0,0,0,0,0,0,0,0,0,0,0,0,0,0,0,0,0,0,0,0,0,0,0,0,0,0,0,0,0,0,0,0,0,0,0,0,0,0,0,0,0,0,0,0,0,0,0,0,0,0,0,0,0,0,0,0,4118,4118,4118,4118,4118,4118,
0,0,0,0,0,0,0,0,0,0,0,0,0,0,0,0,0,0,0,0,0,0,0,0,0,0,0,0,0,0,0,0,0,0,0,0,0,0,0,0,0,0,0,0,0,0,0,0,0,0,0,0,0,0,0,0,0,0,0,0,0,0,0,0,0,0,0,0,0,0,0,0,0,0,0,0,0,0,0,0,0,0,0,0,0,0,0,0,0,0,0,0,0,0,4118,4118,4118,4118,4118,4118,
0,0,0,0,0,0,0,0,0,0,0,0,0,0,0,0,0,0,0,0,0,0,0,0,0,0,0,0,0,0,0,0,0,0,0,0,0,0,0,0,0,0,0,0,0,0,0,0,0,0,0,0,0,0,0,0,0,0,0,0,0,0,0,0,0,0,0,0,0,0,0,0,0,0,0,0,0,0,0,0,0,0,0,0,0,0,0,0,0,0,0,0,0,0,4118,4118,4118,4118,4118,4118,
0,0,0,0,0,0,0,0,0,0,0,0,0,0,0,0,0,0,0,0,0,0,0,0,0,0,0,0,0,0,0,0,0,0,0,0,0,0,0,0,0,0,0,0,0,0,0,0,0,0,0,0,0,0,0,0,0,0,0,0,0,0,0,0,0,0,0,0,0,0,0,0,0,0,0,0,0,0,0,0,0,0,0,0,0,0,0,0,0,0,0,0,0,0,4118,4118,4118,4118,4118,4118,
0,0,0,0,0,0,0,0,0,0,0,0,0,0,0,0,0,0,0,0,0,0,0,0,0,0,0,0,0,0,0,0,0,0,0,0,0,0,0,0,0,0,0,0,0,0,0,0,0,0,0,0,0,0,0,0,0,0,0,0,0,0,0,0,0,0,0,0,0,0,0,0,0,0,0,0,0,0,0,0,0,0,0,0,0,0,0,0,0,0,0,0,0,0,4118,4118,4118,4118,4118,4118,
0,0,0,0,0,0,0,0,0,0,0,0,0,0,0,0,0,0,0,0,0,0,0,0,0,0,0,0,0,0,0,0,0,0,0,0,0,0,0,0,0,0,0,0,0,0,0,0,0,0,0,0,0,0,0,0,0,0,0,0,0,0,0,0,0,0,0,0,0,0,0,0,0,0,0,0,0,0,0,0,0,0,0,0,0,0,0,0,0,0,0,0,0,0,4118,4118,4118,4118,4118,4118,
0,0,0,0,0,0,0,0,0,0,0,0,0,0,0,0,0,0,0,0,0,0,0,0,0,0,0,0,0,0,0,0,0,0,0,0,0,0,0,0,0,0,0,0,0,0,0,0,0,0,0,0,0,0,0,0,0,0,0,0,0,0,0,0,0,0,0,0,0,0,0,0,0,0,0,0,0,0,0,0,0,0,0,0,0,0,0,0,0,0,0,0,0,0,4118,4118,4118,4118,4118,4118,
0,0,0,0,0,0,0,0,0,0,0,0,0,0,0,0,0,0,0,0,0,0,0,0,0,0,0,0,0,0,0,0,0,0,0,0,0,0,0,0,0,0,0,0,0,0,0,0,0,0,0,0,0,0,0,0,0,0,0,0,0,0,0,0,0,0,0,0,0,0,0,0,0,0,0,0,0,0,0,0,0,0,0,0,0,0,0,0,0,0,0,0,0,0,4118,4118,4118,4118,4118,4118,
0,0,0,0,0,0,0,0,0,0,0,0,0,0,0,0,0,0,0,0,0,0,0,0,0,0,0,0,0,0,0,0,0,0,0,0,0,0,0,0,0,0,0,0,0,0,0,0,0,0,0,0,0,0,0,0,0,0,0,0,0,0,0,0,0,0,0,0,0,0,0,0,0,0,0,0,0,0,0,0,0,0,0,0,0,0,0,0,0,0,4221,4221,4221,4221,4118,4118,4118,4118,4118,4118,
0,0,0,0,0,0,0,0,0,0,0,0,0,0,0,0,0,0,0,0,0,0,0,0,0,0,0,0,0,0,0,0,0,0,0,0,0,0,0,0,0,0,0,0,0,0,0,0,0,0,0,0,0,0,0,0,0,0,0,0,0,0,0,0,0,0,0,0,0,0,0,0,0,0,0,0,0,0,0,0,0,0,0,0,0,0,0,0,0,0,4221,0,0,0,4118,4118,4118,4118,4118,4118,
0,0,0,0,0,0,0,0,0,0,0,0,0,0,0,0,0,0,0,0,0,0,0,0,0,0,0,0,0,0,0,0,0,0,0,0,0,0,0,0,0,0,0,0,0,0,0,0,0,0,0,0,0,0,0,0,0,0,0,0,0,0,0,0,0,0,0,0,0,0,0,0,0,0,0,0,0,0,0,0,0,0,0,0,0,0,0,0,0,4117,4221,0,0,0,0,0,0,0,0,0,
0,0,0,0,0,0,0,0,0,0,0,0,0,0,0,0,0,0,0,0,0,0,0,0,0,0,0,0,0,0,0,0,0,0,0,0,0,0,0,0,0,0,0,0,0,0,0,0,0,0,0,0,0,0,0,0,0,0,0,0,0,0,0,0,0,0,0,0,0,0,0,0,0,0,0,0,0,0,0,0,0,0,0,0,0,0,0,0,0,0,4221,0,0,0,0,0,0,0,0,0,
0,0,0,0,0,0,0,0,0,0,0,0,0,0,0,0,0,0,0,0,0,0,0,0,0,0,0,0,0,0,0,0,0,0,0,0,0,0,0,0,0,0,0,0,0,0,0,0,0,0,0,0,0,0,0,0,0,0,0,0,0,0,0,0,0,0,0,0,0,0,0,0,0,4221,4221,4221,4221,4221,4221,4221,4221,4221,4221,4221,4221,4221,4221,4221,4221,4221,4221,0,0,0,0,0,0,0,0,0,
0,0,0,0,0,0,0,0,0,0,0,0,0,0,0,0,0,0,0,0,0,0,0,0,0,0,0,0,0,0,0,0,0,0,0,0,0,4121,4121,4121,0,0,0,0,0,0,0,0,0,0,0,0,0,0,0,0,0,0,0,0,0,0,0,0,0,0,0,0,0,0,0,0,0,0,0,0,0,0,0,0,0,0,0,0,0,0,0,0,0,0,0,0,0,0,0,0,0,0,0,0,
0,0,0,0,0,0,0,0,0,0,0,0,0,0,0,0,0,0,0,0,0,0,0,0,0,0,4535,4536,0,0,0,0,4535,4536,4535,4536,4535,4536,4535,4536,4535,4536,4535,4536,4535,4536,4535,4536,4535,4536,4535,4536,4535,4536,4535,4536,4535,4536,4535,4536,0,5063,0,0,0,0,0,0,0,0,0,0,0,0,0,0,0,0,0,0,0,0,4146,0,0,0,0,0,0,0,0,0,0,0,0,4146,0,0,0,0,
0,0,0,0,0,0,0,0,0,0,0,0,0,0,0,0,0,0,0,0,0,0,0,0,0,0,4543,4544,0,5063,0,0,4543,4544,4543,4544,4543,4544,4543,4544,4543,4544,4543,4544,4543,4544,4543,4544,4543,4544,4543,4544,4543,4544,4543,4544,4543,4544,4543,4544,0,0,0,0,0,0,0,0,0,0,0,0,0,0,0,0,0,0,0,0,0,0,0,0,0,0,0,0,0,0,0,0,0,0,0,0,0,0,0,0,
0,0,0,0,0,0,0,0,0,0,0,0,0,0,0,0,0,0,0,0,0,0,0,0,0,0,4551,4552,0,0,0,0,4551,4552,4551,4552,4551,4552,4551,4552,4551,4552,4551,4552,4551,4552,4551,4552,4551,4552,4551,4552,4551,4552,4551,4552,4551,4552,4551,4552,0,0,0,0,0,0,0,0,0,0,0,0,0,0,0,0,0,0,0,0,0,0,0,0,0,0,0,0,0,0,0,0,0,0,0,0,0,0,0,0,
0,0,0,0,0,0,0,0,0,0,0,0,0,0,0,0,0,0,0,0,0,0,0,0,0,0,4535,4536,0,0,0,0,4535,4536,0,0,0,0,0,0,0,0,0,0,0,0,0,0,0,0,0,0,0,0,0,0,0,0,0,0,0,0,0,0,0,0,0,0,0,0,0,0,0,0,0,0,0,0,0,0,0,0,0,0,0,0,0,0,0,0,0,0,0,0,0,0,0,0,0,0,
0,0,0,0,0,0,0,0,0,0,0,0,0,0,0,0,0,0,0,0,0,0,0,0,0,0,4543,4544,0,0,0,0,4543,4544,0,0,0,0,0,0,0,0,0,0,0,0,0,0,0,0,0,0,0,0,0,0,0,0,0,0,0,0,0,0,0,0,0,0,0,0,0,0,0,0,0,0,0,0,0,0,0,0,0,0,0,0,0,0,0,0,0,0,0,0,0,0,0,0,0,0,
0,0,0,0,0,0,0,0,0,0,0,0,0,0,0,0,0,0,0,0,0,0,0,0,0,0,4551,4552,0,0,0,0,4551,4552,0,0,0,0,0,0,0,0,0,0,0,0,0,0,0,0,0,0,0,0,0,0,0,0,0,0,0,0,0,0,0,0,0,0,0,0,0,0,0,0,0,0,0,0,0,0,0,0,0,0,0,0,0,4146,4146,4146,0,0,0,0,0,0,0,0,0,0,
0,0,0,0,0,0,0,0,0,0,0,0,0,0,0,0,0,0,0,0,0,0,0,0,0,0,4535,4536,0,0,0,0,4535,4536,0,0,0,0,0,0,0,0,0,0,0,0,0,0,0,0,0,0,0,0,0,0,0,0,0,0,0,0,0,0,0,0,0,0,0,0,0,0,0,0,0,0,0,0,0,0,0,0,0,0,0,0,0,0,0,0,0,0,0,0,0,0,0,0,0,0,
0,0,0,0,0,0,0,0,0,0,4121,4121,4121,4121,0,0,0,0,0,0,0,0,0,0,0,0,4543,4544,0,0,0,0,4543,4544,0,0,0,0,0,0,0,0,0,0,0,0,0,0,0,0,0,0,0,0,0,0,0,0,0,0,0,0,0,0,0,0,0,0,0,0,0,0,0,0,0,0,0,0,0,0,0,0,0,0,0,0,0,0,0,0,0,0,0,0,0,0,0,0,0,0,
0,0,4121,4121,4121,4121,4121,4121,4121,4121,4121,4121,4121,4121,0,4121,0,0,0,0,0,0,0,0,0,0,4551,4552,0,0,0,0,4551,4552,0,0,0,0,0,0,0,0,0,0,0,0,0,0,0,0,0,0,0,0,0,0,0,0,0,0,0,0,0,0,0,0,0,0,0,0,0,0,0,0,0,0,0,0,0,0,0,0,0,0,0,0,0,0,0,0,0,0,0,0,0,0,0,0,0,0,
4121,4121,0,0,0,0,0,0,4121,4121,4121,4121,0,0,4121,0,0,0,0,0,0,0,0,0,0,0,4535,4536,0,0,0,0,4535,4536,0,0,0,0,0,0,0,0,0,4535,4536,4535,4536,4535,4536,4535,4536,4535,4536,4535,4536,4535,4536,4535,4536,4535,4536,4535,4536,0,0,0,0,0,0,0,0,0,0,0,0,0,0,0,4146,0,0,0,0,0,0,0,0,0,0,0,0,0,0,0,0,0,0,0,0,0,
0,0,0,0,0,0,4121,4121,0,4121,4121,4121,4121,0,4121,0,0,0,0,0,0,0,0,0,0,0,4543,4544,0,0,0,0,4543,4544,0,0,0,0,0,0,0,0,0,4543,4544,4543,4544,4543,4544,4543,4544,4543,4544,4543,4544,4543,4544,4543,4544,4543,4544,4543,4544,0,0,0,0,0,0,0,0,0,0,0,0,0,0,0,4146,0,0,0,0,0,0,0,0,0,0,0,0,0,0,0,0,0,0,4146,0,0,
4121,4121,4121,4121,4121,4121,0,0,4121,4121,4121,4121,0,4121,4121,4121,0,0,0,0,0,0,0,0,0,0,4551,4552,0,0,0,0,4551,4552,0,0,0,0,0,0,0,0,0,4551,4552,4551,4552,4551,4552,4551,4552,4551,4552,4551,4552,4551,4552,4551,4552,4551,4552,4551,4552,0,0,0,0,0,0,0,0,0,0,0,0,0,0,0,4146,0,0,0,0,0,0,0,0,0,0,0,0,0,0,0,0,0,0,4146,0,0,
0,0,0,0,4121,0,4121,4121,4121,4121,4121,4121,4121,4121,4121,0,4121,0,0,0,0,0,0,0,0,0,4535,4536,0,0,0,0,4535,4536,0,0,0,0,0,0,0,0,0,4535,4536,4535,4536,4535,4536,4535,4536,4535,4536,4535,4536,4535,4536,4535,4536,4535,4536,4535,4536,0,0,0,0,0,0,0,0,0,0,0,0,0,0,0,4146,0,0,0,0,0,0,0,0,0,0,0,4146,0,0,0,0,0,0,0,0,0,
0,0,4121,4121,0,0,0,4121,4121,4121,0,0,0,4121,0,0,4121,0,4121,0,0,0,0,0,0,0,4543,4544,0,0,0,0,4543,4544,0,0,0,0,0,0,0,0,0,4543,4544,4543,4544,4543,4544,4543,4544,4543,4544,4543,4544,4543,4544,4543,4544,4543,4544,4543,4544,0,0,0,0,0,0,0,0,4146,0,0,0,0,0,0,0,4146,0,0,0,0,0,0,0,0,0,0,4146,0,0,0,0,0,0,0,0,0,
0,4121,0,4121,4121,4121,4121,0,0,4121,0,0,0,4121,4121,4121,0,0,0,0,0,0,0,0,0,0,4551,4552,0,0,0,0,4551,4552,0,0,0,0,0,0,0,0,0,4551,4552,4551,4552,4551,4552,4551,4552,4551,4552,4551,4552,4551,4552,4551,4552,4551,4552,4551,4552,0,0,0,0,0,0,0,0,4146,0,0,0,0,0,0,0,4146,0,0,0,0,0,0,0,0,0,4146,0,0,0,0,0,0,0,0,0,0,
4121,4121,4121,0,0,0,0,0,0,4121,0,0,0,4121,4121,4121,4121,4121,4121,4121,0,0,0,0,0,0,4535,4536,0,0,0,0,4535,4536,0,0,0,0,0,0,0,0,0,0,0,0,0,0,0,0,0,0,0,0,0,0,0,0,0,0,0,0,0,0,0,0,0,0,0,0,0,0,4146,4146,0,0,0,0,0,4146,4146,0,0,0,0,0,0,0,4146,4146,0,0,0,0,0,0,0,0,0,0,
0,4121,0,0,0,0,0,0,4121,4121,0,0,0,0,0,4121,4121,4121,4121,4121,4121,4121,4121,4121,4121,0,4543,4544,0,0,0,0,4543,4544,0,0,0,0,0,0,0,0,0,0,0,0,0,0,0,0,0,0,0,0,0,0,0,0,0,0,4146,0,5063,0,0,0,0,0,0,0,0,0,0,0,4146,4146,4146,0,0,0,4146,0,0,0,0,0,0,0,0,0,0,0,0,0,0,0,0,0,0,0,
4121,4121,4121,0,0,0,4121,4121,4121,0,0,0,0,0,0,4121,4121,4121,4121,4121,0,4121,0,0,0,0,4551,4552,0,0,0,0,4551,4552,0,0,0,0,0,0,0,0,0,0,0,0,0,0,0,0,0,0,0,0,0,0,0,0,0,0,4146,4146,0,0,0,0,0,0,0,0,0,0,0,0,0,0,0,0,0,0,0,0,0,0,0,0,0,0,0,0,0,0,0,0,0,0,0,0,0,0,
0,4121,4121,4121,4121,4121,0,0,0,0,0,0,0,0,4121,4121,4121,4121,4121,0,4121,0,0,0,0,0,0,0,0,0,0,0,0,0,0,0,0,0,0,0,0,0,0,0,0,0,0,0,0,0,0,0,0,0,4146,0,0,0,0,0,0,4121,4121,0,0,0,0,0,0,0,0,0,0,0,0,0,0,0,0,0,0,0,0,0,0,0,0,0,0,0,0,0,0,0,0,0,0,0,0,0,
0,0,0,0,0,0,4121,4121,4121,4121,4121,4121,4121,4121,0,4121,4121,4121,0,4121,0,0,0,0,0,0,0,0,0,0,0,0,0,0,0,0,0,0,0,0,0,0,0,0,0,0,0,4146,0,0,0,4146,4146,4146,0,0,0,0,0,0,0,4121,4121,0,0,0,0,0,0,0,0,0,0,0,0,0,0,0,0,0,0,0,0,0,5063,0,0,0,0,0,0,0,0,0,0,0,0,0,0,0,
4996,0,0,0,0,0,0,0,0,0,0,0,0,0,4121,4121,0,0,4121,0,0,0,0,0,0,0,0,0,0,0,0,0,0,0,0,0,0,0,0,0,0,0,0,0,0,0,0,0,0,4146,4146,0,0,0,0,0,0,0,0,0,0,4121,4121,0,0,0,0,0,0,0,0,0,0,0,0,0,0,0,0,0,0,0,0,0,0,0,0,0,0,0,0,0,0,0,0,0,0,0,0,0,
4996,0,0,0,0,0,0,0,0,0,0,0,0,0,4121,0,0,4121,4121,0,0,0,0,0,0,0,0,0,0,0,0,0,0,0,0,0,0,0,0,0,0,0,0,0,0,0,4146,4146,4146,0,0,0,0,0,0,0,0,0,0,0,0,4121,4121,0,0,0,0,0,0,0,0,0,0,0,0,0,0,0,0,0,0,0,0,0,0,0,0,0,0,0,0,0,0,0,0,0,0,0,0,0,
4996,4996,0,0,0,0,0,0,0,0,0,0,0,0,4121,0,4121,4121,0,0,0,0,0,0,0,0,0,0,0,0,0,0,0,0,0,0,0,0,0,0,0,0,0,0,0,4146,4146,0,0,0,0,0,0,0,0,0,0,0,0,0,0,4121,4121,0,0,0,0,0,0,0,0,0,0,0,0,0,0,0,0,0,0,0,0,0,0,0,0,0,0,0,0,0,0,0,0,0,0,0,0,0,
0,4987,0,0,0,0,0,0,0,0,0,0,0,0,0,4121,4121,0,0,0,0,0,0,0,0,0,0,0,0,0,0,0,0,0,0,0,0,0,0,0,0,0,0,0,0,0,0,0,0,0,0,0,0,0,4146,0,0,0,0,0,0,4121,4121,0,0,0,0,0,0,0,0,0,0,0,0,0,0,0,0,0,0,0,0,0,0,0,0,0,0,0,0,0,0,0,0,0,0,0,0,0,
0,4995,5004,0,0,0,0,0,0,0,0,0,0,0,0,0,0,0,0,0,0,0,0,0,0,0,0,0,0,0,0,0,0,0,0,0,0,0,0,0,0,0,0,0,0,0,0,0,0,0,0,0,0,0,0,0,0,0,0,0,0,4121,4121,0,0,0,0,0,0,0,0,0,0,0,0,0,0,0,0,0,0,0,0,0,0,0,0,0,0,0,0,0,0,0,0,0,0,0,0,0,
0,0,4987,0,0,0,0,0,0,0,0,0,0,0,0,0,0,0,0,0,0,0,0,0,0,0,0,0,0,0,0,0,0,0,0,0,0,0,0,0,0,0,0,0,0,0,0,0,0,0,0,0,0,0,0,0,0,4146,0,0,0,0,0,0,0,0,0,0,0,0,0,0,0,0,0,0,0,0,0,0,0,0,0,0,0,0,0,0,0,0,0,0,0,0,0,0,0,0,0,0,
0,0,4995,5004,0,0,0,0,0,0,0,0,0,0,0,0,0,0,0,0,0,0,0,0,0,0,0,0,0,0,0,0,0,0,0,0,0,0,0,0,0,0,0,0,0,0,0,0,4121,4121,0,0,0,0,0,4121,4121,4121,0,0,0,0,0,0,0,0,0,0,0,0,0,0,0,0,0,0,0,0,0,0,0,0,0,0,0,0,0,0,0,0,0,0,0,0,0,0,0,0,0,0,
0,0,0,4987,0,5063,0,0,0,0,0,0,0,0,0,0,0,0,0,0,0,0,0,0,0,0,0,0,0,0,0,0,0,0,0,0,0,0,0,0,0,0,0,0,0,0,0,0,4121,4121,0,0,0,0,0,4121,4121,4121,0,0,0,0,0,0,0,0,0,0,0,0,0,0,0,0,0,0,0,0,0,0,0,0,0,0,0,0,0,0,0,0,0,0,0,0,0,0,0,0,0,0,
0,0,0,4995,4996,5004,0,0,0,0,0,0,0,0,0,0,0,0,0,0,0,0,0,0,0,0,0,0,0,0,0,0,0,0,0,0,0,0,0,0,0,0,0,0,0,4146,0,0,4121,4121,0,0,0,0,0,4121,4121,4121,0,0,0,0,0,0,0,0,0,0,0,0,0,0,0,0,0,0,0,0,0,0,0,0,0,0,0,0,0,0,0,0,0,0,0,0,0,0,0,0,0,0,
0,0,0,0,0,4987,4117,0,0,0,0,0,0,0,0,0,0,0,0,0,0,0,0,0,0,0,0,0,0,0,0,0,0,0,0,0,0,0,0,0,0,0,0,0,0,0,0,0,4121,4121,0,0,0,0,0,4121,4121,4121,0,0,0,0,0,0,0,0,0,0,0,0,0,0,0,0,0,0,0,0,0,0,0,0,0,0,0,0,0,0,0,0,0,0,0,0,0,0,0,0,0,0,
0,0,0,0,0,4987,4117,0,0,0,0,0,0,0,0,0,0,0,0,0,0,0,0,0,0,0,0,0,0,0,0,0,0,0,0,0,0,0,0,0,0,0,0,0,0,0,0,0,4121,4121,0,0,0,0,0,4121,4121,4121,0,0,0,0,0,0,0,0,0,0,0,0,0,0,0,0,0,0,0,0,0,0,0,0,0,0,4992,4992,0,0,0,0,0,0,0,0,0,0,0,0,0,0,
0,0,0,0,0,4987,4117,0,0,0,0,0,0,0,0,0,0,0,0,0,0,0,0,0,0,0,0,0,0,0,0,0,0,0,0,0,0,0,0,0,0,0,0,0,0,0,0,0,0,4146,0,0,0,0,0,0,0,0,0,0,0,0,0,0,0,0,0,0,0,0,0,0,0,0,0,0,0,0,0,0,0,0,0,0,4992,0,0,0,0,0,0,0,0,0,0,0,0,0,0,0,
0,0,0,0,0,4995,4996,5004,0,0,0,0,0,0,0,0,0,0,0,0,0,0,0,0,0,0,0,0,0,0,0,0,0,0,0,0,0,0,0,0,0,0,0,0,0,0,0,0,0,4146,4146,0,0,0,0,0,0,0,0,0,0,0,0,0,0,0,0,0,0,0,0,0,0,0,0,0,0,0,0,0,0,0,0,0,4992,0,0,0,0,0,0,0,0,0,0,0,0,0,0,0,
0,0,0,0,0,0,0,4995,5004,0,0,0,0,0,0,0,0,0,0,0,0,0,0,0,0,0,0,0,0,0,0,0,0,0,0,0,0,0,0,0,0,0,0,0,0,0,0,0,0,0,0,0,0,0,0,0,0,0,0,0,0,0,0,0,0,0,0,0,0,0,0,0,0,0,0,0,0,0,0,0,0,0,0,0,4992,0,0,0,0,0,0,0,0,0,0,0,0,0,0,0,
0,0,0,0,0,0,0,0,4995,5004,0,0,0,0,0,0,0,0,0,0,0,0,0,0,0,0,0,0,0,0,0,0,0,0,0,0,0,0,0,0,0,0,0,0,0,0,0,0,0,0,0,0,0,0,0,0,0,0,0,0,0,0,0,0,0,0,0,0,0,0,0,0,0,0,0,0,0,0,0,0,0,0,0,0,0,0,0,0,0,0,0,0,0,0,0,0,0,0,0,0,
0,0,0,0,0,0,0,0,0,4990,0,0,0,0,0,0,0,0,0,0,0,0,0,0,0,0,0,0,0,0,0,0,0,0,0,0,0,0,0,4121,0,0,0,0,0,0,0,0,0,0,0,0,0,0,0,0,0,0,0,0,0,0,0,0,0,0,0,0,0,0,0,0,0,0,0,0,0,0,0,0,0,0,0,0,0,0,0,0,0,0,0,0,0,0,0,0,0,0,0,0,
0,0,0,0,0,0,0,0,0,4995,5004,0,0,0,0,0,0,0,0,0,0,0,0,0,0,0,0,0,0,0,0,0,0,0,0,0,0,0,0,4121,4121,4121,4121,4121,4121,4121,4121,4121,4121,0,0,0,0,0,0,0,0,0,0,0,0,0,0,0,0,0,0,0,0,0,0,0,0,0,0,0,0,0,0,0,0,0,0,0,0,0,0,0,0,0,0,0,0,0,0,0,0,0,0,0,
0,0,0,0,0,0,0,0,0,0,4995,5004,0,0,0,0,0,0,0,0,0,0,0,0,0,0,0,0,0,0,0,0,0,0,0,0,0,4121,4121,4121,0,0,0,4121,4121,4121,4121,0,0,4121,4121,4121,4121,4121,4121,0,0,0,0,0,0,0,0,0,0,0,0,0,0,0,0,0,0,0,0,0,0,0,0,0,0,0,0,0,0,0,0,0,0,0,0,0,0,0,0,0,0,0,0,0,
0,0,0,0,0,0,0,0,0,0,0,4990,0,0,0,0,0,0,0,0,0,0,0,0,0,0,0,0,0,0,0,0,0,0,0,0,0,4121,4121,4121,0,0,0,0,0,0,0,4121,4121,4121,4121,4121,4121,4121,0,0,0,0,0,0,0,0,0,4121,4121,0,0,0,0,0,0,0,0,0,0,0,0,0,0,0,0,0,0,0,0,0,0,0,0,0,0,0,0,0,0,0,0,0,0,0,
0,0,0,0,0,0,0,0,0,0,0,4995,4990,0,0,0,0,0,0,0,0,0,0,0,0,0,0,0,0,0,0,0,0,0,0,0,0,4121,4121,4121,0,0,0,0,4121,4121,0,0,0,4121,4121,4121,4121,4121,4121,4121,4121,4121,4121,4121,4121,4121,4121,4121,0,0,0,0,0,0,0,0,0,0,0,0,0,0,0,0,0,0,0,0,0,0,0,0,0,0,0,0,0,0,0,0,0,0,0,0,
0,0,0,0,0,0,0,0,0,0,0,0,4990,0,0,0,0,0,0,0,0,0,0,0,0,0,0,0,0,0,0,0,0,0,0,0,0,4121,4121,4121,0,5063,0,4121,4121,4121,4121,4121,4121,4121,4121,4121,4121,4121,4121,4121,0,4121,4121,0,0,0,0,0,0,0,0,0,0,0,0,0,0,0,0,0,0,0,0,0,0,0,0,0,0,0,0,0,0,0,0,0,0,0,0,0,0,0,0,0,
0,0,0,0,0,0,0,0,0,0,0,0,4995,5004,0,0,0,0,0,0,0,0,0,0,0,0,0,0,0,0,0,0,0,0,0,0,0,4121,0,4121,0,0,4121,4121,4121,0,0,0,0,4121,0,4121,4121,4121,0,0,0,0,4121,4121,0,0,0,0,0,0,0,0,0,0,0,0,0,0,0,0,0,0,0,0,0,0,0,0,0,0,0,0,0,0,0,0,0,0,0,0,0,0,0,0,
0,0,0,0,0,0,0,0,0,0,0,0,0,4995,4996,5004,0,0,0,0,0,0,0,0,0,0,0,0,4121,0,0,0,0,0,0,0,0,4121,0,4121,4121,4121,0,0,0,4121,4121,4121,4121,4121,4121,4121,0,0,0,0,0,0,4121,4121,0,0,0,0,0,0,0,0,0,0,0,0,0,0,0,0,0,0,0,0,0,0,0,0,0,0,0,0,0,0,0,0,0,0,0,0,0,0,0,0,
0,0,0,0,0,0,0,0,0,0,0,0,0,0,0,4990,0,0,0,0,0,0,0,0,0,0,0,0,4121,0,0,0,0,0,0,0,0,0,4121,4121,4121,0,0,0,0,0,0,0,0,4121,4121,4121,4121,4121,0,0,4121,4121,4121,0,0,0,0,0,0,0,0,0,0,0,0,0,0,0,0,0,0,0,0,0,0,0,0,0,0,0,0,0,0,0,0,0,0,0,0,0,0,0,0,0,
0,0,0,0,0,0,0,0,0,0,0,0,0,0,0,4990,0,0,0,0,0,0,0,0,0,0,0,0,4121,0,0,0,0,0,0,0,0,0,4121,4121,4121,4121,4121,0,0,0,0,4121,4121,0,0,0,0,0,4121,4121,0,0,0,0,0,0,4121,0,4121,0,0,0,0,0,0,0,0,0,0,0,0,0,0,0,0,0,0,0,0,0,0,0,0,0,0,0,0,0,0,0,0,0,0,0,
0,0,0,0,0,0,0,0,0,0,0,0,0,0,0,4995,4996,5004,0,0,0,0,0,0,0,24406,24407,24407,24407,24407,24407,24407,24407,24407,24408,24413,0,0,4121,4121,4121,4121,4121,4121,4121,4121,4121,0,0,4121,4121,4121,4121,4121,4121,4121,4121,0,0,0,0,0,4121,4121,4121,0,0,0,0,0,0,0,0,0,0,0,0,0,0,0,0,0,0,0,0,0,0,0,0,0,0,0,0,0,0,0,0,0,0,0,
0,0,0,0,0,0,0,0,0,0,0,0,0,0,0,0,0,4990,0,0,0,0,0,0,0,24414,24406,24407,24407,24407,24407,24407,24407,24408,24416,24413,0,0,0,4121,4121,4121,4121,4121,4121,4121,4121,4121,4121,4121,4121,4121,0,4121,4121,4121,0,4121,4121,4121,0,0,4121,4121,4121,0,0,0,0,0,0,0,0,0,0,0,0,0,0,0,0,0,0,0,0,0,0,0,0,0,0,0,0,0,0,0,0,0,0,0,
0,0,0,0,0,0,0,0,0,0,0,0,0,0,0,0,0,4990,0,0,0,0,0,0,0,24414,24414,24412,24412,24412,24412,24412,24412,24416,24416,24413,0,0,4121,4121,4121,4121,4121,4121,4121,4121,4121,4121,4121,4121,4121,4121,4121,0,0,4121,4121,4121,4121,0,0,0,4121,4121,4121,0,0,0,0,0,0,0,0,0,0,0,0,0,0,0,0,0,0,0,0,0,0,0,0,0,0,0,0,0,0,0,0,0,0,0,
0,0,0,0,0,0,0,0,0,0,0,0,0,0,0,0,0,4998,4999,5004,0,0,0,0,0,24414,24414,24412,24412,24412,24412,24412,24412,24416,24416,24413,0,4121,4121,0,0,4121,4121,4121,4121,4121,4121,4121,4121,4121,4121,4121,4121,4121,4121,4121,4121,4121,4121,0,0,0,0,4121,4121,0,0,0,0,0,0,0,0,0,0,0,0,0,0,0,0,0,0,0,0,0,0,0,0,0,0,0,0,0,0,0,0,0,0,0,
0,0,0,0,0,0,0,0,0,0,0,0,0,0,0,0,0,0,0,4990,0,0,0,0,0,24414,24414,24412,24412,24412,24412,24412,24412,24416,24416,24413,4121,4121,4121,0,0,4121,4121,4121,4121,4121,4121,4121,4121,4121,4121,4121,4121,4121,4121,4121,4121,4121,4121,4121,0,0,0,4121,4121,0,0,0,0,0,0,0,0,0,0,0,0,0,0,0,0,0,0,0,0,0,0,0,0,0,0,0,0,0,0,0,0,0,0,0,
0,0,0,0,0,0,0,0,0,0,0,0,0,0,0,0,0,0,0,4990,0,0,0,0,0,24414,24414,24412,24412,24412,24412,24412,24412,24416,24416,24413,4121,0,0,4121,4121,4121,0,0,4121,4121,4121,4121,4121,4121,4121,4121,4121,4121,4121,4121,4121,4121,4121,4121,0,0,0,4121,4121,0,0,0,0,0,0,0,0,0,0,0,0,0,0,0,0,0,0,0,0,0,0,0,0,0,0,0,0,0,0,0,0,0,0,0,
0,0,0,0,0,0,0,0,0,0,0,0,0,0,0,0,0,0,0,4990,0,0,0,0,0,24414,24414,24412,24412,24412,24412,24412,24412,24416,24416,24413,4121,4121,4121,4121,4121,4121,0,4121,4121,0,0,4121,4121,4121,4121,4121,4121,4121,4121,4121,4121,4121,4121,0,0,0,0,4121,4121,0,0,0,0,0,0,0,0,0,0,0,0,0,0,0,0,0,15151,0,0,0,0,0,0,0,0,0,0,0,0,0,0,0,0,0,
0,0,0,0,0,0,0,0,0,0,0,0,0,0,0,0,0,0,0,4990,0,0,0,0,0,24414,24414,24412,24412,24412,24412,24412,24412,24416,24416,0,0,0,0,0,4121,4121,4121,0,0,0,0,0,0,4121,4121,4121,4121,4121,4121,4121,4121,4121,4121,0,0,0,0,4121,4121,0,0,0,0,0,0,0,0,0,0,0,0,0,0,0,0,0,0,0,0,0,0,0,0,0,0,0,0,0,0,0,0,0,0,0,
0,0,0,0,0,0,0,0,0,0,0,0,0,0,0,0,0,0,0,4990,0,0,0,0,0,24414,24422,24423,24423,24423,24423,24423,24423,24424,24416,0,0,0,0,4121,0,0,0,0,0,0,0,0,0,0,0,0,4121,4121,0,4121,4121,4121,0,0,0,0,0,4121,4121,0,0,0,0,0,0,0,0,0,0,0,0,0,0,0,0,0,0,0,0,0,0,0,0,0,0,0,0,0,0,0,0,0,0,0,
0,0,0,0,0,0,0,0,0,0,0,0,0,0,0,0,0,0,0,4990,0,0,0,0,0,24414,24412,24412,24412,24412,24412,24412,24412,24412,24416,0,0,0,0,4121,4121,0,0,0,0,0,0,0,0,0,0,0,0,4121,4121,0,0,0,0,0,0,0,0,4121,4121,0,0,0,0,0,0,0,0,0,0,0,0,0,0,0,0,0,0,0,0,0,0,0,0,0,0,0,0,0,0,0,0,0,0,0,
0,0,0,0,0,0,0,0,0,0,0,0,0,0,0,0,0,0,0,4990,0,0,0,0,0,24422,24423,24423,24423,24423,24423,24423,24423,24423,24424,0,0,0,0,0,4121,4121,4121,4121,4121,4121,4121,4121,4121,4121,4121,4121,4121,4121,4121,0,0,0,0,0,0,0,0,0,4121,0,0,0,0,0,0,0,0,0,0,0,0,0,0,0,0,0,0,0,0,0,0,0,0,0,0,0,0,0,0,0,0,0,0,0,
0,0,0,0,0,0,0,0,0,0,0,0,0,0,0,0,0,0,4982,4991,0,0,0,0,0,24412,24412,24412,24412,24412,24412,24412,24412,24412,24412,0,0,4121,4121,4121,4121,0,0,0,0,0,0,4121,4121,4121,4121,0,0,0,4121,4121,4121,4121,4121,4121,4121,0,0,0,4121,4121,0,0,0,0,0,0,0,0,0,0,0,0,0,0,0,0,0,0,0,0,0,0,0,0,0,0,0,0,0,0,0,0,0,0,
0,0,0,0,0,0,0,0,0,0,0,0,0,0,0,0,0,0,4990,4991,0,0,0,0,0,4121,4121,4121,0,24316,4121,0,0,0,0,0,0,0,4121,4121,4121,4121,4121,0,4121,4121,4121,0,4121,4121,4121,4121,4121,4121,4121,4121,4121,4121,4121,4121,4121,4121,4121,0,4121,4121,0,0,0,0,0,0,0,0,0,0,0,0,0,0,0,0,0,0,0,0,0,0,0,0,0,0,0,0,0,0,0,0,0,0,
0,0,0,0,0,0,0,0,0,0,0,0,0,0,0,0,0,4990,4991,4991,0,0,0,0,0,0,4121,4121,0,0,4121,0,0,0,0,0,0,0,4121,0,4121,0,0,4121,4121,4121,4121,4121,4121,4121,4121,4121,4121,4121,4121,4121,4121,4121,4121,4121,4121,4121,4121,0,4121,4121,0,0,0,0,0,0,0,0,0,0,0,0,0,0,0,0,0,0,0,0,0,0,0,0,0,0,0,0,0,0,0,0,0,0,
0,0,0,0,0,0,0,0,0,0,0,0,0,0,0,0,0,4990,4991,4991,0,0,0,0,0,0,4121,4121,0,0,4121,0,0,0,0,0,0,0,4121,4121,4121,0,0,4121,4121,0,0,0,0,0,4121,4121,4121,4121,4121,4121,4121,4121,4121,4121,4121,4121,4121,0,4121,4121,0,0,0,0,0,0,0,0,0,0,0,0,0,0,0,0,0,0,0,0,0,0,0,0,0,0,0,0,0,0,0,0,0,0,
0,0,0,0,0,0,0,0,0,0,0,0,0,0,0,0,0,4990,4991,4991,0,0,0,0,0,0,4121,4121,0,0,4121,0,0,0,0,0,0,0,4121,4121,4121,0,0,0,4121,4121,4121,4121,4121,4121,0,0,0,0,0,0,0,0,0,0,4121,0,0,0,4121,0,0,0,0,0,0,0,0,0,0,0,0,0,0,0,0,0,0,0,0,0,0,0,0,0,0,0,0,0,0,0,0,0,4979,0,
0,0,0,0,0,0,0,0,0,0,0,0,0,0,0,0,0,4990,4991,4991,0,0,0,0,0,0,4121,4121,0,0,0,0,0,0,0,0,0,0,4121,4121,4121,4121,0,0,4121,4121,4121,4121,4121,0,0,0,0,0,0,0,0,0,0,0,4121,0,0,0,4121,0,0,0,0,0,0,0,0,0,0,0,0,0,0,0,0,0,0,0,0,0,0,0,0,0,0,0,0,0,0,0,0,0,0,0,
0,0,0,0,0,0,0,0,0,0,0,0,0,0,0,0,0,4990,4991,4991,0,0,0,0,0,0,4121,4121,0,0,0,0,0,0,0,0,0,0,4121,4121,4121,4121,4121,4121,0,0,0,0,4121,4121,4121,4121,4121,4121,4121,0,0,0,0,0,0,4121,4121,0,0,0,0,0,0,0,0,0,0,0,0,0,0,0,0,0,0,0,0,0,0,0,0,0,0,0,0,0,0,0,0,0,0,0,0,0,
0,0,0,0,0,0,0,0,0,0,0,0,0,0,0,0,0,4990,4991,0,0,0,0,0,0,0,4121,4121,0,0,0,0,0,0,0,0,4121,4121,4121,4121,4121,4121,0,0,0,0,0,4121,4121,4121,4121,4121,4121,4121,0,4121,0,0,0,0,0,0,4121,0,0,0,0,0,0,0,0,0,0,0,0,0,0,0,0,0,0,0,0,0,0,0,0,0,0,0,0,0,0,0,0,0,0,0,0,0,
0,0,0,0,0,0,0,0,0,0,0,0,0,0,0,0,0,4990,4991,0,0,0,0,0,0,0,4121,4121,0,0,0,0,0,0,0,4121,0,0,4121,4121,4121,4121,0,0,0,0,0,4121,4121,4121,5063,4121,4121,0,0,0,4121,4121,0,0,0,0,4121,4121,0,0,0,0,0,0,0,0,0,0,0,0,0,0,0,0,0,0,0,0,0,0,0,0,0,0,0,0,0,0,0,0,0,0,0,0,
0,0,0,0,0,0,0,0,0,0,0,0,0,0,0,0,0,4991,4991,0,0,0,0,0,0,0,4121,4121,0,0,0,0,0,0,0,4121,4121,4121,4121,4121,4121,4121,0,0,0,0,0,0,4121,4121,4121,4121,4121,4121,4121,4121,4121,0,0,0,0,0,0,4121,0,0,0,0,0,0,0,0,0,0,0,0,0,0,0,0,0,0,0,0,0,0,0,0,0,0,0,0,0,0,0,0,0,0,0,0,
0,0,0,0,0,0,0,0,0,0,0,0,0,0,0,0,4991,4991,4991,0,0,0,0,0,0,0,4121,4121,0,0,0,0,0,0,0,0,0,0,4121,4121,4121,4121,4121,4121,4121,4121,4121,4121,4121,4121,0,0,0,0,0,0,0,0,0,0,0,0,0,0,4121,0,0,0,0,0,0,0,0,0,0,0,0,0,0,0,0,0,0,0,0,0,0,0,0,0,0,0,0,0,0,0,0,0,0,0,
0,0,0,0,0,0,0,0,0,0,0,0,0,0,0,0,4991,4991,4991,0,0,0,0,0,0,0,4121,4121,0,0,0,0,0,0,0,0,0,0,4121,4121,4121,4121,4121,4121,0,0,0,0,0,0,0,0,0,0,0,0,0,0,0,0,0,0,0,0,4121,4121,0,0,0,0,4121,4121,4121,0,0,0,0,0,0,0,0,0,0,0,0,0,0,0,0,0,0,0,0,0,4121,4121,4121,4121,4121,4121,
0,0,0,0,0,0,0,0,0,0,0,0,0,0,0,4987,4991,4991,4991,0,0,0,0,0,0,0,4121,4121,0,0,0,0,0,0,0,0,0,0,4121,4121,4121,4121,4121,4121,4121,0,0,0,0,0,0,0,0,0,0,0,0,0,0,0,0,0,0,0,0,0,4121,4121,0,0,0,4121,4121,4121,4121,4121,4121,4121,4121,4121,4121,4121,4121,4121,0,0,0,0,4121,4121,4121,4121,4121,4121,4121,4121,0,0,0,0,
0,0,0,0,0,0,0,0,0,0,0,0,0,0,4991,4991,4991,4991,4991,0,0,0,0,0,0,0,4121,4121,0,0,0,0,0,0,0,0,0,0,4121,4121,0,0,0,0,0,0,4121,4121,4121,4121,4121,4121,4121,0,0,0,0,0,0,0,0,0,0,0,0,0,0,0,4121,4121,4121,4121,4121,4121,4121,4121,4121,4121,4121,4121,4121,4121,4121,4121,4121,4121,4121,4121,4121,0,0,0,0,0,0,0,0,0,0,0,
0,0,0,0,0,0,0,0,0,0,0,0,0,4991,4991,4991,4991,4991,4991,0,0,0,0,0,0,0,4121,4121,0,0,0,0,0,0,0,0,0,0,4121,4121,4121,4121,4121,4121,4121,0,0,0,0,0,0,0,0,0,0,0,0,0,0,0,0,0,0,0,0,0,0,0,0,0,0,0,0,0,0,0,0,0,0,0,0,0,0,0,0,0,4121,4121,0,0,0,0,0,0,0,0,0,0,0,0,
0,0,0,0,0,0,0,0,0,0,0,0,0,4991,4991,4991,4991,4991,4991,0,0,0,0,0,0,0,4121,4121,0,0,0,0,0,0,0,0,0,0,0,0,0,0,0,0,0,0,0,0,0,0,0,0,0,0,0,0,0,0,0,0,0,0,0,0,0,0,0,0,0,0,0,0,0,0,0,0,0,0,0,0,0,0,0,0,0,0,0,0,0,0,0,0,0,0,0,0,0,0,0,0,
0,0,0,0,0,0,0,0,0,0,0,4991,4991,4991,4991,4991,4991,4991,4991,0,0,0,0,0,0,0,4121,4121,0,0,0,0,0,0,0,0,0,0,0,0,0,0,0,0,0,0,0,0,0,0,0,0,0,0,0,0,0,0,15151,0,0,0,0,0,0,0,0,0,0,0,0,0,0,0,0,0,0,0,0,0,0,0,0,0,0,0,0,0,0,0,0,0,0,0,0,0,0,0,0,0,
0,0,0,0,0,0,0,0,0,0,4991,4991,4991,4991,4991,4991,4991,4991,0,0,0,0,0,0,0,0,4121,4121,0,0,0,0,0,0,0,0,0,0,0,0,0,0,0,0,0,0,0,0,0,0,0,0,0,0,0,0,0,0,0,0,0,0,0,0,0,0,0,0,0,0,0,0,0,0,0,0,0,0,0,0,0,0,0,0,0,0,0,0,0,0,0,0,0,0,0,0,0,0,0,0,
0,0,0,0,0,0,0,0,0,0,4991,4991,4991,4983,4991,4991,4991,4991,0,0,0,0,0,0,0,0,4121,4121,0,0,0,0,0,0,0,0,0,0,0,0,0,0,0,0,0,0,0,0,0,0,0,0,0,0,0,0,0,0,0,0,0,0,0,0,0,0,0,0,0,0,0,0,0,0,0,0,0,0,0,0,0,0,0,0,0,0,0,0,0,0,0,0,0,0,0,0,0,0,0,0,
0,0,0,0,0,0,0,0,0,0,4983,4991,4982,4983,4991,4991,4991,0,0,0,0,0,0,0,0,0,4121,4121,0,0,0,0,0,0,0,0,0,0,0,0,0,0,0,0,0,0,0,0,0,0,0,0,0,0,0,0,0,0,0,0,0,0,0,0,0,0,0,0,0,0,0,0,0,0,0,0,0,0,0,0,0,0,0,0,0,0,0,0,0,0,0,0,0,0,0,0,0,0,0,0,
0,0,0,0,0,0,0,0,4983,4983,4982,4983,4991,4991,4991,4991,0,0,0,0,0,0,0,0,0,0,4121,4121,0,0,0,0,0,0,0,0,0,0,0,0,0,0,0,0,0,0,0,0,0,0,0,0,0,0,0,0,0,0,0,0,0,0,0,0,0,0,0,0,0,0,0,0,0,0,0,0,0,0,0,0,0,0,0,0,0,0,0,0,0,0,0,0,0,0,0,0,0,0,0,0,
0,0,0,0,0,0,0,0,4983,4982,4983,4982,4991,4991,4991,0,0,0,0,0,0,0,0,0,0,0,4121,4121,0,0,0,0,0,0,0,0,0,0,0,0,0,0,0,0,0,0,0,0,0,0,0,0,0,0,0,0,0,0,0,0,0,0,0,0,0,0,0,0,0,0,0,0,0,0,0,0,0,0,0,0,0,0,0,0,0,0,0,0,0,0,0,0,0,0,0,0,0,0,0,0,
0,0,0,0,0,4983,4983,4983,4982,4983,4982,4991,4991,4991,0,0,0,0,0,0,0,0,0,0,0,0,4121,4121,0,0,0,0,0,0,0,0,0,0,0,0,0,0,0,0,0,0,0,0,0,0,0,0,0,0,0,0,0,0,0,0,0,0,0,0,0,0,0,0,0,0,0,0,0,0,0,0,0,0,0,0,0,0,0,0,0,0,0,0,0,0,0,0,0,0,0,0,0,0,0,0,
0,0,0,4982,4983,4983,4982,4980,4991,4982,4991,4982,4991,0,0,0,0,0,0,0,0,0,0,0,0,0,4121,4121,0,0,0,0,0,0,0,0,0,0,0,0,0,0,0,0,0,0,0,0,0,0,0,0,0,0,0,0,0,0,0,0,0,0,0,0,0,0,0,0,0,0,0,0,0,0,0,0,0,0,0,0,0,0,0,0,0,0,0,0,0,0,0,0,0,0,0,0,0,0,0,0,
0,4983,4983,4990,4983,4982,4988,4982,4983,4983,4991,4991,4991,0,4117,0,0,0,0,0,0,0,0,0,0,0,4121,4121,0,0,0,0,0,0,0,0,0,0,0,0,0,0,0,0,0,0,0,0,0,0,0,0,0,0,0,0,0,0,0,0,0,0,0,0,0,0,0,0,0,0,0,0,0,0,0,0,0,0,0,0,0,0,0,0,0,0,0,0,0,0,0,0,0,0,0,0,0,0,0,0,
4983,4983,4982,4980,4982,4988,4982,4991,4991,4991,4991,4991,4117,4117,4117,0,0,0,0,0,0,0,0,0,0,0,4121,4121,0,0,0,0,0,0,0,0,0,0,0,0,0,0,0,0,0,0,0,0,0,0,0,0,0,0,0,0,0,0,0,0,0,0,0,0,0,0,0,0,0,0,0,0,0,0,0,0,0,0,0,0,0,0,0,0,0,0,0,0,0,0,0,0,0,0,0,0,0,0,0,0,
4983,4982,4983,4982,4988,4982,4991,4991,4991,4991,4989,4117,4117,4117,4117,4117,0,0,0,0,0,0,0,0,0,0,4121,4121,0,0,0,0,0,0,0,0,0,0,0,0,0,0,0,0,0,0,0,0,0,0,0,0,0,0,0,0,0,0,0,0,0,0,0,0,0,0,0,0,0,0,0,0,0,0,0,0,0,0,0,0,0,0,0,0,0,0,0,0,0,0,0,0,0,0,0,0,0,0,0,0,
4982,4983,4982,4988,4982,4991,4991,4991,4991,4991,4989,4117,4117,4117,4117,4117,0,0,0,0,0,0,0,0,0,0,4121,4121,0,0,0,0,0,0,0,0,0,0,0,0,0,0,0,0,0,0,0,0,0,0,0,0,0,0,0,0,0,0,0,0,0,0,0,0,0,0,0,0,0,0,0,0,0,0,0,0,0,0,0,0,0,0,0,0,0,0,0,0,0,0,0,0,0,0,0,0,0,0,0,0,
4983,4983,4988,4982,4991,4991,4991,4991,4991,4991,4989,4117,4117,4117,4117,4117,0,0,0,0,0,0,0,0,0,0,0,0,0,0,0,0,0,0,0,0,0,0,0,0,0,0,0,0,0,0,0,0,0,0,0,0,0,0,0,0,0,0,0,0,0,0,0,0,0,0,0,0,0,0,0,0,0,0,0,0,0,0,0,0,0,0,0,0,0,0,0,0,0,0,0,0,0,0,0,0,0,0,0,0,
4983,4983,4983,4991,4991,4991,4991,4991,4991,4991,4989,4117,4117,4117,4117,4117,0,0,0,0,0,0,0,0,0,0,0,0,0,0,0,0,0,0,0,0,0,0,0,0,0,0,0,0,0,0,0,0,0,0,0,0,0,0,0,0,0,0,0,0,0,0,0,0,0,0,0,0,0,0,0,0,0,0,0,0,0,0,0,0,0,0,0,0,0,0,0,0,0,0,0,0,0,0,0,0,0,0,0,0,
4983,4983,4988,4988,4988,4988,4988,4988,4988,4988,4997,0,0,0,0,0,0,0,0,0,0,0,4121,4121,4121,4121,4121,4121,4121,4121,4121,4121,4121,4121,0,0,0,0,0,0,0,0,0,0,0,0,0,0,0,0,0,0,0,0,0,0,0,0,0,0,0,0,0,0,0,0,0,0,0,0,0,0,0,0,0,0,0,0,0,0,0,0,0,0,0,0,0,0,0,0,0,0,0,0,0,0,0,0,0,0,
4996,4991,4996,4996,4996,4996,4996,4996,4996,4997,0,0,0,0,0,0,0,0,0,0,0,0,0,4121,4121,0,0,0,0,0,0,0,0,0,4221,4221,4221,4221,4221,4221,4221,4221,4221,4221,4221,4221,4221,4221,4221,4221,4221,4221,4221,4221,4221,4221,4221,4221,4221,4221,4221,4221,4221,4221,0,0,0,0,0,0,0,0,0,0,0,0,0,0,0,0,0,0,0,0,0,0,0,0,0,0,0,0,0,0,0,0,0,0,0,0,
0,0,4991,0,0,0,0,0,0,0,4989,0,0,0,0,0,0,0,0,0,0,0,0,0,4121,4121,0,0,0,0,0,0,0,0,0,0,0,0,0,0,0,0,0,0,0,0,0,0,4220,4222,0,0,0,0,0,0,0,0,0,0,0,0,0,0,0,0,0,0,0,0,0,0,0,0,0,0,0,0,0,0,0,0,0,0,0,0,0,0,0,0,0,0,0,0,0,0,0,0,0,0,
0,0,4991,0,0,0,0,0,0,0,0,4121,0,0,0,0,0,0,0,0,0,0,0,0,4121,4121,0,0,0,0,0,0,0,0,0,0,0,0,0,0,0,0,0,0,0,0,0,0,4220,4222,0,0,0,0,0,0,0,0,0,0,0,0,0,0,0,0,0,0,0,0,0,0,0,0,0,0,0,0,0,0,0,0,0,0,0,0,0,0,0,0,0,0,0,0,0,0,0,0,0,0,
0,0,4991,0,0,0,0,0,0,0,0,4121,4121,4121,0,0,0,0,0,0,0,0,0,4121,4121,0,0,0,0,0,0,0,0,0,0,0,0,0,0,0,0,0,0,0,0,0,0,0,4220,4222,0,0,0,0,0,0,0,0,0,0,0,0,0,0,0,0,0,0,0,0,0,0,0,0,0,0,0,0,0,0,0,0,0,0,0,0,0,0,0,0,0,0,0,0,0,0,0,0,0,0,
4121,4121,4991,4121,4121,4121,4121,4121,4121,4121,4121,4121,4121,4121,4121,4121,4121,4121,4121,4121,4121,4121,4121,4121,0,0,0,0,0,0,0,0,0,0,0,0,0,0,0,0,0,0,0,0,0,0,0,0,0,0,0,0,0,0,0,0,0,0,0,0,0,0,0,0,0,0,0,0,0,0,0,0,0,0,0,0,0,0,0,0,0,0,0,0,0,0,0,0,0,0,0,0,0,0,0,0,0,0,0,0,
0,4991,0,0,0,0,0,0,0,0,0,0,0,0,0,0,0,0,0,0,0,0,0,0,0,0,0,0,0,0,0,0,0,0,0,0,0,0,0,0,0,0,0,0,0,0,0,0,0,0,0,0,0,0,0,0,0,0,0,0,0,0,0,0,0,0,0,0,0,0,0,0,0,0,0,0,0,0,0,0,0,0,0,0,0,0,0,0,0,0,0,0,0,0,0,0,0,0,0,0,
0,0,0,0,0,0,0,0,0,0,0,0,0,0,0,0,0,0,0,0,0,0,0,0,0,0,0,0,0,0,0,0,0,0,0,0,0,0,0,0,0,0,0,0,0,0,0,0,0,0,0,0,0,0,0,0,0,0,0,0,0,0,0,0,0,0,0,0,0,0,0,0,0,0,0,0,0,0,0,0,0,0,0,0,0,0,0,0,0,0,0,0,0,0,0,0,0,0,0,0,
0,0,0,0,0,0,0,0,0,0,0,0,0,0,0,0,0,0,0,0,0,0,0,0,0,0,0,0,0,0,0,0,0,0,0,0,0,0,0,0,0,0,0,0,0,0,0,0,0,0,0,0,0,0,0,0,0,0,0,0,0,0,0,0,0,0,0,0,0,0,0,0,0,0,0,0,0,0,0,0,0,0,0,0,0,0,0,0,0,0,0,0,0,0,0,0,0,0,0,0,
0,0,0,0,0,0,0,0,0,0,0,0,0,0,0,0,0,0,0,0,0,0,0,0,0,0,0,0,0,0,0,0,0,0,0,0,0,0,0,0,0,0,0,0,0,0,0,0,0,0,0,0,0,0,0,0,0,0,0,0,0,0,0,0,0,0,0,0,0,0,0,0,0,0,0,0,0,0,0,0,0,0,0,0,0,0,0,0,0,0,0,0,0,0,0,0,0,0,0,0,
0,0,0,0,0,0,0,0,0,0,0,0,0,0,0,0,0,0,0,0,0,0,0,0,0,0,0,0,0,0,0,0,0,0,0,0,0,0,0,0,0,0,0,0,0,0,0,0,0,0,0,0,0,0,0,0,0,0,0,0,0,0,0,0,0,0,0,0,0,0,0,0,0,0,0,0,0,0,0,0,0,0,0,0,0,0,0,0,0,0,0,0,0,0,0,0,0,0,0,0,
0,0,0,0,0,0,0,0,0,0,0,0,0,0,0,0,0,0,0,0,0,0,0,0,0,0,0,0,0,0,0,0,0,0,0,0,0,0,0,0,0,0,0,0,0,0,0,0,0,0,0,0,0,0,0,0,0,0,0,0,0,0,0,0,0,0,0,0,0,0,0,0,0,0,0,0,0,0,0,0,0,0,0,0,0,0,0,0,0,0,0,0,0,0,0,0,0,0,0,0,
0,0,0,0,0,0,0,0,0,0,0,0,0,0,0,0,0,0,0,0,0,0,0,0,0,0,0,0,0,0,0,0,0,0,0,0,0,0,0,0,0,0,0,0,0,0,0,0,0,0,0,0,0,0,0,0,0,0,0,0,0,0,0,0,0,0,0,0,0,0,0,0,0,0,0,0,0,0,0,0,0,0,0,0,0,0,0,0,0,0,0,0,0,0,0,0,0,0,0,0,
0,0,0,0,0,0,0,0,0,0,0,0,0,0,0,0,0,0,0,0,0,0,0,0,0,0,0,0,0,0,0,0,0,0,0,0,0,0,0,0,0,0,0,0,0,0,0,0,0,0,0,0,0,0,0,0,0,0,0,0,0,0,0,0,0,0,0,0,0,0,0,0,0,0,0,0,0,0,0,0,0,0,0,0,0,0,0,0,0,0,0,0,0,0,0,0,0,0,0,0,
0,0,0,0,0,0,0,0,0,0,0,0,0,0,0,0,0,0,0,0,0,0,0,0,0,0,0,0,0,0,0,0,0,0,0,0,0,0,0,0,0,0,0,0,0,0,0,0,0,0,0,0,0,0,0,0,0,0,0,0,0,0,0,0,0,0,0,0,0,0,0,0,0,0,0,0,0,0,0,0,0,0,0,0,0,0,0,0,0,0,0,0,0,0,0,0,0,0,0,0,
0,0,0,0,0,0,0,0,0,0,0,0,0,0,0,0,0,0,0,0,0,0,0,0,0,0,0,0,0,0,0,0,0,0,0,0,0,0,0,0,0,0,0,0,0,0,0,0,0,0,0,0,0,0,0,0,0,0,0,0,0,0,0,0,0,0,0,0,0,0,0,0,0,0,0,0,0,0,0,0,0,0,0,0,0,0,0,0,0,0,0,0,0,0,0,0,0,0,0,0,
0,0,0,0,0,0,0,0,0,0,0,0,0,0,0,0,0,0,0,0,0,0,0,0,0,0,0,0,0,0,0,0,0,0,0,0,0,0,0,0,0,0,0,0,0,0,0,0,0,0,0,0,0,0,0,0,0,0,0,0,0,0,0,0,0,0,0,0,0,0,0,0,0,0,0,0,0,0,0,0,0,0,0,0,0,0,0,0,0,0,0,0,0,0,0,0,0,0,0,0,
0,0,0,0,0,0,0,0,0,0,0,0,0,0,0,0,0,0,0,0,0,0,0,0,0,0,0,0,0,0,0,0,0,0,0,0,0,0,0,0,0,0,0,0,0,0,0,0,0,0,0,0,0,0,0,0,0,0,0,0,0,0,0,0,0,0,0,0,0,0,0,0,0,0,0,0,0,0,0,0,0,0,0,0,0,0,0,0,0,0,0,0,0,0,0,0,0,0,0,0,
0,0,0,0,0,0,0,0,0,0,0,0,0,0,0,0,0,0,0,0,0,0,0,0,0,0,0,0,0,0,0,0,0,0,0,0,0,0,0,0,0,0,0,0,0,0,0,0,0,0,0,0,0,0,0,0,0,0,0,0,0,0,0,0,0,0,0,0,0,0,0,0,0,0,0,0,0,0,0,0,0,0,0,0,0,0,0,0,0,0,0,0,0,0,0,0,0,0,0,0,
0,0,0,0,0,0,0,0,0,0,0,0,0,0,0,0,0,0,0,0,0,0,0,0,0,0,0,0,0,0,0,0,0,0,0,0,0,0,0,0,0,0,0,0,0,0,0,0,0,0,0,0,0,0,0,0,0,0,0,0,0,0,0,0,0,0,0,0,0,0,0,0,0,0,0,0,0,0,0,0,0,0,0,0,0,0,0,0,0,0,0,0,0,0,0,0,0,0,0,0,
0,0,0,0,0,0,0,0,0,0,0,0,0,0,0,0,0,0,0,0,0,0,0,0,0,0,0,0,0,0,0,0,0,0,0,0,0,0,0,0,0,0,0,0,0,0,0,0,0,0,0,0,0,0,0,0,0,0,0,0,0,0,0,0,0,0,0,0,0,0,0,0,0,0,0,0,0,0,0,0,0,0,0,0,0,0,0,0,0,0,0,0,0,0,0,0,0,0,0,0,
0,0,0,0,0,0,0,0,0,0,0,0,0,0,0,0,0,0,0,0,0,0,0,0,0,0,0,0,0,0,0,0,0,0,0,0,0,0,0,0,0,0,0,0,0,0,0,0,0,0,0,0,0,0,0,0,0,0,0,0,0,0,0,0,0,0,0,0,0,0,0,0,0,0,0,0,0,0,0,0,0,0,0,0,0,0,0,0,0,0,0,0,0,0,0,0,0,0,0,0,
4991,0,0,0,0,0,0,0,0,0,0,0,0,0,0,0,0,0,0,0,0,0,0,0,0,0,0,0,0,0,0,0,0,0,0,0,0,0,0,0,0,0,0,0,0,0,0,0,0,0,0,0,0,0,0,0,0,0,0,0,0,0,0,0,0,0,0,0,0,0,0,0,0,0,0,0,0,0,0,0,0,0,0,0,0,0,0,0,0,0,0,0,0,0,0,0,0,0,0,0
</data>
 </layer>
 <layer id="3" name="edifici" width="100" height="147">
  <data encoding="csv">
4535,4536,4535,4536,4535,4536,4535,4536,4535,4536,4535,4536,4535,4536,4535,4536,4535,4536,4535,4536,4535,4536,4535,4536,4535,4536,4535,4536,4535,4536,4535,4536,4535,4536,4535,4536,4535,4536,4535,4536,4535,4536,4535,4536,4535,4536,4535,4536,4535,4536,4535,4536,4535,4536,4535,4536,4535,4536,4535,4536,4535,4536,4535,4536,4987,4988,4990,4988,4990,4988,4990,4988,4990,4988,4988,4988,4988,4988,4988,4988,4988,4992,4988,4992,4988,4992,4988,4992,4988,4989,4535,4536,4535,4536,4535,4536,4535,4536,4535,4536,
4543,4544,4543,4544,4543,4544,4543,4544,4543,4544,4543,4544,4543,4544,4543,4544,4543,4544,4543,4544,4543,4544,4543,4544,4543,4544,4543,4544,4543,4544,4543,4544,4543,4544,4543,4544,4543,4544,4543,4544,4543,4544,4543,4544,4543,4544,4543,4544,4543,4544,4543,4544,4543,4544,4543,4544,4543,4544,4543,4544,4543,4544,4543,4544,4987,4988,4990,4988,4990,4988,4990,4988,4990,4988,4988,4988,4988,4988,4988,4988,4988,4992,4988,4992,4988,4992,4988,4992,4988,4989,4543,4544,4543,4544,4543,4544,4543,4544,4543,4544,
4551,4552,4551,4552,4551,4552,4551,4552,4551,4552,4551,4552,4551,4552,4551,4552,4551,4552,4551,4552,4551,4552,4551,4552,4551,4552,4551,4552,4551,4552,4551,4552,4551,4552,4551,4552,4551,4552,4551,4552,4551,4552,4551,4552,4551,4552,4551,4552,4551,4552,4551,4552,4551,4552,4551,4552,4551,4552,4551,4552,4551,4552,4551,4552,4987,4988,4990,4988,4990,4988,4990,4988,4990,4988,4988,4988,4988,4988,4988,4988,4988,4992,4988,4992,4988,4992,4988,4992,4988,4989,4551,4552,4551,4552,4551,4552,4551,4552,4551,4552,
4535,4536,4535,4536,4535,4536,4535,4536,4535,4536,4535,4536,4535,4536,4535,4536,4535,4536,4535,4536,4535,4536,4535,4536,4535,4536,4535,4536,4535,4536,4535,4536,4535,4536,4535,4536,4535,4536,4535,4536,4535,4536,4535,4536,4535,4536,4535,4536,4535,4536,4535,4536,4535,4536,4535,4536,4535,4536,4535,4536,4535,4536,4535,4536,4987,4988,4990,4988,4990,4988,4990,4988,4990,4988,4988,4988,4988,4988,4988,4988,4988,4992,4988,4992,4988,4992,4988,4992,4988,4989,4535,4536,4535,4536,4535,4536,4535,4536,4535,4536,
4543,4544,4543,4544,4543,4544,4543,4544,4543,4544,4543,4544,4543,4544,4543,4544,4543,4544,4543,4544,4543,4544,4543,4544,4543,4544,4543,4544,4543,4544,4543,4544,4543,4544,4543,4544,4543,4544,4543,4544,4543,4544,4543,4544,4543,4544,4543,4544,4543,4544,4543,4544,4543,4544,4543,4544,4543,4544,4543,4544,4543,4544,4543,4544,4987,4988,4990,4988,4990,4988,4990,4988,4990,4988,4988,4988,4988,4988,4988,4988,4988,4992,4988,4992,4988,4992,4988,4992,4988,4989,4543,4544,4543,4544,4543,4544,4543,4544,4543,4544,
4551,4552,4551,4552,4551,4552,4551,4552,4551,4552,4551,4552,4551,4552,4551,4552,4551,4552,4551,4552,4551,4552,4551,4552,4551,4552,4551,4552,4551,4552,4551,4552,4551,4552,4551,4552,4551,4552,4551,4552,4551,4552,4551,4552,4551,4552,4551,4552,4551,4552,4551,4552,4551,4552,4551,4552,4551,4552,4551,4552,4551,4552,4551,4552,4987,4988,4990,4988,4990,4988,4990,4988,4990,4988,4988,4988,4988,4988,4988,4988,4988,4992,4988,4992,4988,4992,4988,4992,4988,4989,4551,4552,4551,4552,4551,4552,4551,4552,4551,4552,
4535,4536,4535,4536,4535,4536,4535,4536,4535,4536,4535,4536,4535,4536,4535,4536,4535,4536,4535,4536,4535,4536,4535,4536,4535,4536,4535,4536,4535,4536,4535,4536,4535,4536,4535,4536,4535,4536,4535,4536,4535,4536,4535,4536,4535,4536,4535,4536,4535,4536,4535,4536,4535,4536,4535,4536,4535,4536,4535,4536,4535,4536,4535,4536,4987,4988,4990,4988,4990,4988,4990,4988,4990,4988,4988,4988,4988,4988,4988,4988,4988,4992,4988,4992,4988,4992,4988,4992,4988,4989,4535,4536,4535,4536,4535,4536,4535,4536,4535,4536,
4543,4544,4543,4544,4543,4544,4543,4544,4543,4544,4543,4544,4543,4544,4543,4544,4543,4544,4543,4544,4543,4544,4543,4544,4543,4544,4543,4544,4543,4544,4543,4544,4543,4544,4543,4544,4543,4544,4543,4544,4543,4544,4543,4544,4543,4544,4543,4544,4543,4544,4543,4544,4543,4544,4543,4544,4543,4544,4543,4544,4543,4544,4543,4544,4987,4988,4990,4988,4990,4988,4990,4988,4990,4988,4988,4988,4988,4988,4988,4988,4988,4992,4988,4992,4988,4992,4988,4992,4988,4989,4543,4544,4543,4544,4543,4544,4543,4544,4543,4544,
4551,4552,4551,4552,4551,4552,4551,4552,4551,4552,4551,4552,4551,4552,4551,4552,4551,4552,4551,4552,4551,4552,4551,4552,4551,4552,4551,4552,4551,4552,4551,4552,4551,4552,4551,4552,4551,4552,4551,4552,4551,4552,4551,4552,4551,4552,4551,4552,4551,4552,4551,4552,4551,4552,4551,4552,4551,4552,4551,4552,4551,4552,4551,4552,4987,4988,4990,4988,4990,4988,4990,4988,4990,4988,4988,4988,4988,4988,4988,4988,4988,4992,4988,4992,4988,4992,4988,4992,4988,4989,4551,4552,4551,4552,4551,4552,4551,4552,4551,4552,
4535,4536,4535,4536,4535,4536,4535,4536,4535,4536,4535,4536,4535,4536,4535,4536,4535,4536,4535,4536,4535,4536,4535,4536,4535,4536,4535,4536,4535,4536,4535,4536,4535,4536,4535,4536,4535,4536,4535,4536,4535,4536,4535,4536,4535,4536,4535,4536,4535,4536,4535,4536,4535,4536,4535,4536,4535,4536,4535,4536,4535,4536,4535,4536,4987,4988,4990,4988,4990,4988,4990,4988,4990,4988,4988,4988,4988,4988,4988,4988,4988,4992,4988,4992,4988,4992,4988,4992,4988,4992,4535,4536,4535,4536,4535,4536,4535,4536,4535,4536,
4543,4544,4543,4544,4543,4544,4543,4544,4543,4544,4543,4544,4543,4544,4543,4544,4543,4544,4543,4544,4543,4544,4543,4544,4543,4544,4543,4544,4543,4544,4543,4544,4543,4544,4543,4544,4543,4544,4543,4544,4543,4544,4543,4544,4543,4544,4543,4544,4543,4544,4543,4544,4543,4544,4543,4544,4543,4544,4543,4544,4543,4544,4543,4544,4987,4988,4990,4988,4990,4988,4990,4988,4990,4988,4988,4988,4988,4988,4988,4988,4988,4992,4988,4992,4988,4992,4988,4992,4988,4992,4543,4544,4543,4544,4543,4544,4543,4544,4543,4544,
4551,4552,4551,4552,4551,4552,4551,4552,4551,4552,4551,4552,4551,4552,4551,4552,4551,4552,4551,4552,4551,4552,4551,4552,4551,4552,4551,4552,4551,4552,4551,4552,4551,4552,4551,4552,4551,4552,4551,4552,4551,4552,4551,4552,4551,4552,4551,4552,4551,4552,4551,4552,4551,4552,4551,4552,4551,4552,4551,4552,4551,4552,4551,4552,4987,4988,4990,4988,4990,4988,4990,4988,4990,4988,4988,4988,4988,4988,4988,4988,4988,4992,4988,4992,4988,4992,4988,4992,4988,4992,4551,4552,4551,4552,4551,4552,4551,4552,4551,4552,
4535,4536,4535,4536,4535,4536,4535,4536,4535,4536,4535,4536,4535,4536,4535,4536,4535,4536,4535,4536,4535,4536,4535,4536,4535,4536,4535,4536,4535,4536,4535,4536,4535,4536,4535,4536,4535,4536,4535,4536,4535,4536,4535,4536,4535,4536,4535,4536,4535,4536,4535,4536,4535,4536,4535,4536,4535,4536,4535,4536,4535,4536,4535,4536,4987,4988,4990,4988,4990,4988,4990,4988,4990,4988,4988,4988,4988,4988,4988,4988,4988,4992,4988,4992,4988,4992,4988,4992,4988,4992,4535,4536,4535,4536,4535,4536,4535,4536,4535,4536,
4543,4544,4543,4544,4543,4544,4543,4544,4543,4544,4543,4544,4543,4544,4543,4544,4543,4544,4543,4544,4543,4544,4543,4544,4543,4544,4543,4544,4543,4544,4543,4544,4543,4544,4543,4544,4543,4544,4543,4544,4543,4544,4543,4544,4543,4544,4543,4544,4543,4544,4543,4544,4543,4544,4543,4544,4543,4544,4543,4544,4543,4544,4543,4544,4987,4988,4990,4988,4990,4988,4990,4988,4990,4988,4988,4988,4988,4988,4988,4988,4988,4992,4988,4992,4988,4992,4988,4992,4988,4992,4543,4544,4543,4544,4543,4544,4543,4544,4543,4544,
4551,4552,4551,4552,4551,4552,4551,4552,4551,4552,4551,4552,4551,4552,4551,4552,4551,4552,4551,4552,4551,4552,4551,4552,4551,4552,4551,4552,4551,4552,4551,4552,4551,4552,4551,4552,4551,4552,4551,4552,4551,4552,4551,4552,4551,4552,4551,4552,4551,4552,4551,4552,4551,4552,4551,4552,4551,4552,4551,4552,4551,4552,4551,4552,4987,4988,4990,4988,4990,4988,4990,4988,4990,4988,4988,4988,4988,4988,4988,4988,4988,4992,4988,4992,4988,4992,4988,4992,4988,4992,4551,4552,4551,4552,4551,4552,4551,4552,4551,4552,
4535,4536,4535,4536,4535,4536,4535,4536,4535,4536,4535,4536,4535,4536,4535,4536,4535,4536,4535,4536,4535,4536,4535,4536,4535,4536,4535,4536,4535,4536,4535,4536,4535,4536,4535,4536,4535,4536,4535,4536,4535,4536,4535,4536,4535,4536,4535,4536,4535,4536,4535,4536,4535,4536,4535,4536,4535,4536,4535,4536,4535,4536,4535,4536,4987,4988,4990,4988,4990,4988,4990,4988,4990,4988,4988,4988,4988,4988,4988,4988,4988,4992,4988,4992,4988,4992,4988,4992,4988,4992,4535,4536,4535,4536,4535,4536,4535,4536,4535,4536,
4543,4544,4543,4544,4543,4544,4543,4544,4543,4544,4543,4544,4543,4544,4543,4544,4543,4544,4543,4544,4543,4544,4543,4544,4543,4544,4543,4544,4543,4544,4543,4544,4543,4544,4543,4544,4543,4544,4543,4544,4543,4544,4543,4544,4543,4544,4543,4544,4543,4544,4543,4544,4543,4544,4543,4544,4543,4544,4543,4544,4543,4544,4543,4544,4987,4988,4990,4988,4990,4988,4990,4988,4990,4988,4988,4988,4988,4988,4988,4988,4988,4992,4988,4992,4988,4992,4988,4992,4988,4992,4543,4544,4543,4544,4543,4544,4543,4544,4543,4544,
4551,4552,4551,4552,4551,4552,4551,4552,4551,4552,4551,4552,4551,4552,4551,4552,4551,4552,4551,4552,4551,4552,4551,4552,4551,4552,4551,4552,4551,4552,4551,4552,4551,4552,4551,4552,4551,4552,4551,4552,4551,4552,4551,4552,4551,4552,4551,4552,4551,4552,4551,4552,4551,4552,4551,4552,4551,4552,4551,4552,4551,4552,4551,4552,4987,4988,4990,4988,4990,4988,4990,4988,4990,4988,4988,4988,4988,4988,4988,4988,4988,4992,4988,4992,4988,4992,4988,4992,4988,4992,4551,4552,4551,4552,4551,4552,4551,4552,4551,4552,
4535,4536,4535,4536,4535,4536,4535,4536,4535,4536,4535,4536,4535,4536,4535,4536,4535,4536,4535,4536,4535,4536,4535,4536,4535,4536,4535,4536,4535,4536,4535,4536,4535,4536,4535,4536,4535,4536,4535,4536,4535,4536,4535,4536,4535,4536,4535,4536,4535,4536,4535,4536,4535,4536,4535,4536,4535,4536,4535,4536,4535,4536,4535,4536,4987,4988,4990,4988,4990,4988,4990,4988,4990,4988,4988,4988,4988,4988,4988,4988,4988,4992,4988,4992,4988,4992,4988,4992,4988,4992,4535,4536,4535,4536,4535,4536,4535,4536,4535,4536,
4543,4544,4543,4544,4543,4544,4543,4544,4543,4544,4543,4544,4543,4544,4543,4544,4543,4544,4543,4544,4543,4544,4543,4544,4543,4544,4543,4544,4543,4544,4543,4544,4543,4544,4543,4544,4543,4544,4543,4544,4543,4544,4543,4544,4543,4544,4543,4544,4543,4544,4543,4544,4543,4544,4543,4544,4543,4544,4543,4544,4543,4544,4543,4544,4987,4988,4990,4988,4990,4988,4990,4988,4990,4988,4988,4988,4988,4988,4988,4988,4988,4992,4988,4992,4988,4992,4988,4992,4988,4992,4543,4544,4543,4544,4543,4544,4543,4544,4543,4544,
4551,4552,4551,4552,4551,4552,4551,4552,4551,4552,4551,4552,4551,4552,4551,4552,4551,4552,4551,4552,4551,4552,4551,4552,4551,4552,4551,4552,4551,4552,4551,4552,4551,4552,4551,4552,4551,4552,4551,4552,4551,4552,4551,4552,4551,4552,4551,4552,4551,4552,4551,4552,4551,4552,4551,4552,4551,4552,4551,4552,4551,4552,4551,4552,4987,4988,4990,4988,4990,4988,4990,4988,4990,4988,4988,4988,4988,4988,4988,4988,4988,4992,4988,4992,4988,4992,4988,4992,4988,4992,4551,4552,4551,4552,4551,4552,4551,4552,4551,4552,
4535,4536,4535,4536,4535,4536,4535,4536,4535,4536,4535,4536,4535,4536,4535,4536,4535,4536,4535,4536,4535,4536,4535,4536,4535,4536,4535,4536,4535,4536,4535,4536,4535,4536,4535,4536,4535,4536,4535,4536,4535,4536,4535,4536,4535,4536,4535,4536,4535,4536,4535,4536,4535,4536,4535,4536,4535,4536,4535,4536,4535,4536,4535,4536,4987,4988,4990,4988,4990,4988,4990,4988,4990,4988,4988,4988,4988,4988,4988,4988,4988,4992,4988,4992,4988,4992,4988,4992,4988,4992,4213,4213,4213,4214,4535,4536,4535,4536,4535,4536,
4543,4544,4543,4544,4543,4544,4543,4544,4543,4544,4543,4544,4543,4544,4543,4544,4543,4544,4543,4544,4543,4544,4543,4544,4543,4544,4543,4544,4543,4544,4543,4544,4543,4544,4543,4544,4543,4544,4543,4544,4543,4544,4543,4544,4543,4544,4543,4544,4543,4544,4543,4544,4543,4544,4543,4544,4543,4544,4543,4544,4543,4544,4543,4544,4987,4988,4990,4988,4990,4988,4990,4988,4990,4988,4988,4988,4988,4988,4988,4988,4988,4992,4988,4992,4988,4992,4988,4992,4988,5002,4229,4229,4217,4222,4543,4544,4543,4544,4543,4544,
4551,4552,4551,4552,4551,4552,4551,4552,4551,4552,4551,4552,4551,4552,4551,4552,4551,4552,4551,4552,4551,4552,4551,4552,4551,4552,4551,4552,4551,4552,4551,4552,4551,4552,4551,4552,4551,4552,4551,4552,4551,4552,4551,4552,4551,4552,4551,4552,4551,4552,4551,4552,4551,4552,4551,4552,4551,4552,4551,4552,4551,4552,4551,4552,4987,4988,4990,4988,4990,4988,4990,4988,4990,4988,4988,4988,4988,4988,4988,4988,4988,4992,4988,4992,4988,4992,4988,4992,4988,4992,0,0,4220,4222,4551,4552,4551,4552,4551,4552,
4535,4536,4535,4536,4535,4536,4535,4536,4535,4536,4535,4536,4535,4536,4535,4536,4535,4536,4535,4536,4535,4536,4535,4536,4535,4536,4535,4536,4535,4536,4535,4536,4535,4536,4535,4536,4535,4536,4535,4536,4535,4536,4535,4536,4535,4536,4535,4536,4535,4536,4535,4536,4535,4536,4535,4536,4535,4536,4535,4536,4535,4536,4535,4536,4987,4988,4990,4988,4990,4988,4990,4988,4998,4999,4999,4999,4999,4999,4999,4999,4999,5000,4988,4992,4988,4992,4988,4992,4988,4992,0,0,4220,4222,4535,4536,4535,4536,4535,4536,
4543,4544,4543,4544,4543,4544,4543,4544,4543,4544,4543,4544,4543,4544,4543,4544,4543,4544,4543,4544,4543,4544,4543,4544,4543,4544,4543,4544,4543,4544,4543,4544,4543,4544,4543,4544,4543,4544,4543,4544,4543,4544,4543,4544,4543,4544,4543,4544,4543,4544,4543,4544,4543,4544,4543,4544,4543,4544,4543,4544,4543,4544,4543,4544,4987,4988,4990,4988,4990,4988,4990,4988,4988,4988,4988,4988,4988,4988,4988,4988,4988,4988,4988,4992,4988,4992,4988,4992,4988,4992,0,0,4220,4222,4543,4544,4543,4544,4543,4544,
4551,4552,4551,4552,4551,4552,4551,4552,4551,4552,4551,4552,4551,4552,4551,4552,4551,4552,4551,4552,4551,4552,4551,4552,4551,4552,4551,4552,4551,4552,4551,4552,4551,4552,4551,4552,4551,4552,4551,4552,4551,4552,4551,4552,4551,4552,4551,4552,4551,4552,4551,4552,4551,4552,4551,4552,4551,4552,4551,4552,4551,4552,4551,4552,4987,4988,4990,4988,4990,4988,4998,4999,4999,4999,4999,4999,4999,4999,4999,4999,4999,4999,4999,5000,4988,4992,4988,4992,4988,4992,0,0,4220,4222,4551,4552,4551,4552,4551,4552,
4535,4536,4535,4536,4535,4536,4535,4536,4535,4536,4535,4536,4535,4536,4535,4536,4535,4536,4535,4536,4535,4536,4535,4536,4535,4536,4535,4536,4535,4536,4535,4536,4535,4536,4535,4536,4535,4536,4535,4536,4535,4536,4535,4536,4535,4536,4535,4536,4535,4536,4535,4536,4535,4536,4535,4536,4535,4536,4535,4536,4535,4536,4535,4536,4987,4988,4990,4988,4990,4988,4988,4988,4988,4988,4988,4988,4988,4988,4988,4988,4988,4988,4988,4988,4988,4992,4988,4992,4988,4992,0,0,4220,4222,4535,4536,4535,4536,4535,4536,
4543,4544,4543,4544,4543,4544,4543,4544,4543,4544,4543,4544,4543,4544,4543,4544,4543,4544,4543,4544,4543,4544,4543,4544,4543,4544,4543,4544,4543,4544,4543,4544,4543,4544,4543,4544,4543,4544,4543,4544,4543,4544,4543,4544,4543,4544,4543,4544,4543,4544,4543,4544,4543,4544,4543,4544,4543,4544,4543,4544,4543,4544,4543,4544,4987,4988,4990,4988,4998,4999,4999,4999,4999,4999,4999,4999,4999,4999,4999,4999,4999,4999,4999,4999,4999,5000,4988,4992,4988,4992,0,0,4220,4222,4543,4544,4543,4544,4543,4544,
4551,4552,4551,4552,4551,4552,4551,4552,4551,4552,4551,4552,4551,4552,4551,4552,4551,4552,4551,4552,4551,4552,4551,4552,4551,4552,4551,4552,4551,4552,4551,4552,4551,4552,4551,4552,4551,4552,4551,4552,4551,4552,4551,4552,4551,4552,4551,4552,4551,4552,4551,4552,4551,4552,4551,4552,4551,4552,4551,4552,4551,4552,4551,4552,4987,4988,4990,4988,4988,4988,4988,4988,4988,4988,4988,4988,4988,4988,4988,4988,4988,4988,4988,4988,4988,4988,4988,4992,4988,4992,0,0,4220,4222,4551,4552,4551,4552,4551,4552,
0,0,0,0,0,0,0,0,0,0,0,0,0,0,0,0,0,0,0,0,0,0,0,0,0,0,0,0,0,0,0,0,0,0,0,0,0,0,0,0,0,0,0,0,0,0,0,0,0,0,0,0,0,0,0,0,0,0,0,0,0,0,0,0,4987,4988,4998,4999,4999,4999,4999,4999,4999,4999,4999,4999,4999,4999,4999,4999,4999,4999,4999,4999,4999,4999,4999,5000,4988,4992,0,0,4220,4222,4535,4536,4535,4536,4535,4536,
0,0,0,0,0,0,0,0,0,0,0,0,0,0,0,0,0,0,0,0,0,0,0,0,0,0,0,0,0,0,0,0,0,0,0,0,0,0,0,0,0,0,0,0,0,0,0,0,0,0,0,0,0,0,0,0,0,0,0,0,0,0,0,0,4987,4988,4988,4988,4988,4988,4988,4988,4988,4988,4988,4988,4988,4988,4988,4988,4988,4988,4988,4988,4988,4988,4988,4988,4988,4992,0,0,4220,4222,4543,4544,4543,4544,4543,4544,
4535,4536,4535,4536,4535,4536,4535,4536,4535,4536,4535,4536,4535,4536,4535,4536,4535,4536,4535,4536,4535,4536,4535,4536,4535,4536,4535,4536,4535,4536,4535,4536,4535,4536,4535,4536,4535,4536,4535,4536,4535,4536,4535,4536,4535,4536,4535,4536,4535,4536,4535,4536,4535,4536,4535,4536,4535,4536,4535,4536,4535,4536,4535,4536,4995,4996,4996,4996,4996,4996,4996,4996,4996,4996,4996,4996,4996,4996,4996,4996,4996,4996,4996,4996,4996,4996,4996,4996,4996,5000,4212,4213,4233,4222,4551,4552,4551,4552,4551,4552,
4543,4544,4543,4544,4543,4544,4543,4544,4543,4544,4543,4544,4543,4544,4543,4544,4543,4544,4543,4544,4543,4544,4543,4544,4543,4544,4543,4544,4543,4544,4543,4544,4543,4544,4543,4544,4543,4544,4543,4544,4543,4544,4543,4544,4543,4544,4543,4544,4543,4544,4543,4544,4543,4544,4543,4544,4543,4544,4543,4544,4543,4544,4543,4544,0,0,0,0,0,0,0,0,0,0,0,0,0,0,0,0,0,0,0,0,0,0,0,5069,0,0,4220,4215,4229,4230,4590,4590,4118,4118,0,0,
4551,4552,4551,4552,4551,4552,4551,4552,4551,4552,4551,4552,4551,4552,4551,4552,4551,4552,4551,4552,4551,4552,4551,4552,4551,4552,4551,4552,4551,4552,4551,4552,4551,4552,4551,4552,4551,4552,4551,4552,4551,4552,4551,4552,4551,4552,4551,4552,4551,4552,4551,4552,4551,4552,4551,4552,4551,4552,4551,4552,4551,4552,4551,4552,0,0,0,0,0,0,0,0,0,0,0,0,0,0,0,0,0,0,0,0,0,0,0,0,0,4117,4220,4222,5058,5058,0,0,0,0,0,0,
421,422,421,422,421,422,421,422,421,422,421,422,421,422,421,422,421,422,421,422,421,422,421,422,421,422,421,422,421,422,421,422,421,422,421,422,421,422,421,422,421,422,421,422,421,422,421,422,421,422,421,422,421,422,421,422,421,422,421,422,421,422,421,422,0,0,0,0,0,0,0,0,4213,4213,4213,4213,4213,4213,4213,4213,4213,4213,4213,4213,4213,4213,4213,4213,4213,4213,4233,4222,5058,7020,7021,7021,7021,7021,7021,7021,
429,430,429,430,429,430,429,430,429,430,429,430,429,430,429,430,429,430,429,430,429,430,429,430,429,430,429,430,429,430,429,430,429,430,429,430,429,430,429,430,429,430,429,430,429,430,429,430,429,430,429,430,429,430,429,430,429,430,429,430,429,430,429,430,0,0,0,0,0,0,0,0,4229,4229,4229,4229,4229,4229,4229,4229,4229,4229,4229,4229,4229,4229,4229,4229,4229,4229,4229,4230,7027,7028,7029,7029,7029,7029,7029,7029,
437,438,437,438,437,438,437,438,437,438,437,438,437,438,437,438,437,438,437,438,437,438,437,438,437,438,437,438,437,438,437,438,437,438,437,438,437,438,437,438,437,438,437,438,437,438,437,438,437,438,437,438,437,438,437,438,437,438,437,438,437,438,437,438,0,0,0,0,0,0,0,0,0,0,0,0,0,0,0,0,0,0,0,0,0,0,0,0,0,0,0,0,7035,7036,7037,7037,7037,7037,7037,7037,
0,0,0,0,0,0,0,0,0,0,0,0,0,0,0,0,0,0,0,0,0,0,0,0,0,0,0,0,0,0,0,0,0,0,0,0,0,0,0,0,0,0,0,0,0,0,0,0,0,0,0,0,0,0,0,0,0,0,0,0,0,0,0,0,0,0,0,0,0,0,0,0,0,0,0,0,0,0,0,0,0,0,0,0,0,0,0,0,0,0,0,0,7043,7044,7108,7108,7108,7108,7108,7108,
0,0,0,0,0,0,0,0,0,0,0,0,0,0,0,0,0,0,0,0,0,0,0,0,0,0,0,0,0,0,0,0,0,0,0,0,0,0,0,0,0,0,0,0,0,0,0,0,0,0,0,0,0,0,0,0,0,0,0,0,0,0,0,0,0,0,0,0,0,0,0,0,0,0,0,0,0,0,0,0,0,0,0,0,0,0,0,0,0,0,0,0,7051,7052,7116,7116,7116,7116,7116,7116,
0,0,0,0,0,0,0,0,0,0,0,0,0,0,0,0,0,0,0,0,0,0,0,0,0,0,0,0,0,0,0,0,0,0,0,0,0,0,0,0,0,0,0,0,0,0,0,0,0,0,0,0,0,0,0,0,0,0,0,0,0,0,0,0,0,0,0,0,0,0,0,0,0,0,0,0,0,0,0,0,0,4979,4980,4981,0,0,0,0,0,0,0,0,4535,4536,4535,4536,4535,4536,4535,4536,
0,0,0,0,0,0,0,0,0,0,0,0,0,0,0,0,0,0,0,0,0,0,0,0,0,0,0,0,0,0,0,0,0,0,0,0,0,0,0,0,0,0,0,0,0,0,0,0,0,0,0,0,0,0,0,0,0,0,0,0,0,0,0,0,0,0,0,0,0,0,0,0,0,0,0,0,0,0,0,0,0,4987,4988,4989,0,0,0,0,0,0,0,0,4543,4544,4543,4544,4543,4544,4543,4544,
0,0,0,0,0,0,0,0,0,0,0,0,0,0,0,0,0,0,0,0,0,0,0,0,0,0,0,0,0,0,0,0,0,0,0,0,0,0,0,0,0,0,0,0,0,0,0,0,0,0,0,0,0,0,0,0,0,0,0,0,0,0,0,0,0,0,0,4979,4980,4981,5177,5178,5177,5178,4535,4536,4535,4536,5177,5178,0,4995,4996,4997,0,0,0,0,0,0,0,0,4551,4552,4551,4552,4551,4552,4551,4552,
0,0,0,0,0,0,0,0,0,0,0,0,0,0,0,0,0,0,0,0,0,0,0,0,0,0,0,0,0,0,0,0,0,0,0,0,0,0,0,0,0,0,0,0,0,0,0,0,0,0,0,0,0,0,0,0,0,0,0,0,0,0,0,0,0,0,0,4987,4988,4989,5185,5186,5185,5186,4543,4544,4543,4544,5185,5186,0,0,0,0,0,0,0,0,0,0,0,0,4535,4536,4535,4536,4535,4536,4535,4536,
0,0,0,0,0,0,0,0,0,0,0,0,0,0,0,0,0,0,0,0,0,0,0,0,0,0,0,0,0,0,0,0,0,0,0,0,0,0,0,0,0,0,0,0,0,0,0,0,0,0,0,0,0,0,0,0,0,0,0,0,0,0,0,0,0,0,0,4995,4996,4997,0,0,0,0,4551,4552,4551,4552,0,0,0,0,0,0,0,0,0,0,0,0,0,0,4543,4544,4543,4544,4543,4544,4543,4544,
0,0,0,0,0,0,0,0,0,0,0,0,0,0,0,0,0,0,0,0,0,0,0,0,0,0,0,0,0,0,0,0,0,0,0,0,0,0,0,0,0,0,0,0,0,0,0,0,0,0,0,0,0,0,0,0,0,0,0,0,0,0,0,0,0,0,0,0,0,0,0,0,0,0,4535,4536,4535,4536,0,0,0,0,0,0,0,0,0,0,0,0,0,0,4551,4552,4551,4552,4551,4552,4551,4552,
0,0,0,0,0,0,0,0,0,0,0,0,0,0,0,0,0,0,0,0,0,0,0,0,0,0,0,0,0,0,0,0,0,0,0,0,0,0,0,0,0,0,0,0,0,0,0,0,0,0,0,0,0,0,0,0,0,0,0,0,0,0,0,0,0,0,0,0,0,0,0,0,0,0,4543,4544,4543,4544,0,0,0,0,0,0,0,0,0,0,0,0,0,0,4535,4536,4535,4536,4535,4536,4535,4536,
0,0,0,0,0,0,0,0,0,0,0,0,0,0,0,0,0,0,0,0,0,0,0,0,0,0,0,0,0,0,0,0,0,0,0,0,0,0,0,0,0,0,0,0,0,0,0,0,0,0,0,0,0,0,0,0,0,0,0,0,0,0,0,0,0,0,0,0,0,0,0,0,0,0,4551,4552,4551,4552,0,0,0,0,0,0,0,0,0,0,0,0,0,0,4543,4544,4543,4544,4543,4544,4543,4544,
0,0,0,0,0,0,0,0,0,0,0,0,0,0,0,0,0,0,0,0,0,0,0,0,0,0,0,0,0,0,0,0,0,0,0,0,0,0,0,0,0,0,0,0,0,0,0,0,0,0,0,0,0,0,0,0,0,0,0,0,0,0,0,0,0,0,0,0,0,0,0,0,0,0,4535,4536,4535,4536,0,0,0,0,0,0,0,0,0,0,0,0,0,0,4551,4552,4551,4552,4551,4552,4551,4552,
0,0,0,0,0,0,0,0,0,0,0,0,0,0,0,0,0,0,0,0,0,0,0,0,0,0,0,0,0,0,0,0,0,0,0,0,0,0,0,0,0,0,0,0,0,0,0,0,0,0,0,0,0,0,0,0,0,0,0,0,0,0,0,0,0,0,0,0,0,0,0,0,0,0,4543,4544,4543,4544,0,0,0,0,0,0,0,0,0,0,0,0,0,0,4535,4536,4535,4536,4535,4536,4535,4536,
0,0,0,0,0,0,0,0,0,0,0,0,0,0,0,0,0,0,0,0,0,0,0,0,0,0,0,0,0,0,0,0,0,0,0,0,0,0,0,0,0,0,0,0,0,0,0,0,0,0,0,0,0,0,0,0,0,0,0,0,0,0,0,0,0,0,0,0,0,0,0,0,0,0,4551,4552,4551,4552,0,0,0,0,0,0,4979,4980,4981,5177,5178,0,5177,5178,4543,4544,4543,4544,4543,4544,4543,4544,
0,0,0,0,0,0,0,0,0,0,0,0,0,0,0,0,0,0,0,0,0,0,0,0,0,0,0,0,0,0,0,0,0,0,0,0,0,0,0,0,0,0,0,0,0,0,0,0,0,0,0,0,0,0,0,0,0,0,0,0,0,0,0,0,0,0,0,0,0,0,0,0,0,0,4535,4536,4535,4536,0,0,0,0,0,0,4987,4988,4989,5185,5186,0,5185,5186,4551,4552,4551,4552,4551,4552,4551,4552,
0,0,0,0,0,0,0,0,0,0,0,0,0,0,0,0,0,0,0,0,0,0,0,0,0,0,0,0,0,0,0,0,0,0,0,0,0,0,0,0,0,0,0,0,0,0,0,0,0,0,0,0,0,0,0,0,0,0,0,0,0,0,0,0,0,0,0,0,0,0,0,0,0,0,4543,4544,4543,4544,0,0,0,0,0,0,4995,4996,4997,0,0,0,0,0,4535,4536,4535,4536,4535,4536,4535,4536,
0,0,0,0,0,0,0,0,0,0,0,0,0,0,0,0,0,0,0,0,0,0,0,0,0,0,0,0,0,0,0,0,0,0,0,0,0,0,0,0,0,0,0,5432,5448,5448,5448,5448,5448,5448,5448,5448,5448,5448,5448,5448,5448,5448,5448,5448,5448,5448,5448,5433,0,0,0,0,0,0,0,0,0,0,4551,4552,4551,4552,0,0,0,0,0,0,0,0,0,0,0,0,0,0,4543,4544,4543,4544,4543,4544,4543,4544,
4535,4536,4535,4536,0,0,0,0,0,0,0,0,0,0,0,0,0,0,0,0,0,0,0,0,0,0,0,0,0,0,0,0,0,0,0,0,0,0,0,0,0,0,0,5439,4678,4679,4680,0,0,0,0,0,0,0,0,0,0,0,0,0,0,0,0,5438,0,0,0,0,0,0,0,0,0,0,4535,4536,4535,4536,0,0,0,0,0,0,0,0,0,0,0,0,0,0,4551,4552,4551,4552,4551,4552,4551,4552,
4543,4544,4543,4544,0,0,0,0,0,0,0,0,0,0,0,0,0,0,0,0,0,0,0,0,0,0,0,0,0,0,0,0,0,0,0,0,0,0,0,0,0,0,0,5439,4686,4687,4688,0,0,0,0,0,0,0,0,5451,5452,5453,5454,5455,0,0,0,5438,0,0,0,0,0,0,0,0,0,0,4543,4544,4543,4544,0,0,0,0,0,0,0,0,0,0,0,0,0,0,4535,4536,4535,4536,4535,4536,4535,4536,
4551,4552,4551,4552,0,0,0,0,0,0,0,0,0,0,0,0,0,0,0,0,0,0,0,0,0,0,0,0,0,0,0,0,0,0,0,0,0,0,0,0,0,0,0,5439,4694,4695,4696,0,0,0,0,0,0,0,0,5459,5460,5461,5462,5463,0,0,0,5438,0,0,0,0,0,0,0,0,0,0,4551,4552,4551,4552,0,0,0,0,0,0,0,0,0,0,0,0,0,0,4543,4544,4543,4544,4543,4544,4543,4544,
0,4535,4536,0,0,0,0,0,0,0,0,0,0,0,0,0,0,0,0,0,0,0,0,0,0,0,0,0,0,0,0,0,0,0,0,0,0,0,0,0,0,0,0,5439,4702,4703,4704,0,0,0,0,0,0,0,0,5467,5468,5469,5470,5471,0,0,0,5438,0,0,0,0,0,0,0,0,0,0,4535,4536,4535,4536,0,0,0,0,0,0,0,0,0,0,0,0,0,0,4551,4552,4551,4552,4551,4552,4551,4552,
0,4543,4544,4535,4536,0,0,0,0,0,0,0,0,0,0,0,0,0,0,0,0,0,0,0,0,0,0,0,0,0,0,0,0,0,0,0,0,0,0,0,0,0,0,5439,4710,4711,4712,0,0,0,0,0,0,0,0,5475,5476,5477,5478,5479,0,0,0,5438,0,0,0,0,0,0,0,0,0,0,4543,4544,4543,4544,0,0,0,0,4979,4980,4981,0,5177,5178,5177,5178,5177,5178,4535,4536,4535,4536,4535,4536,4535,4536,
0,4551,4552,4543,4544,0,0,0,0,0,0,0,0,0,0,0,0,0,0,0,0,0,0,0,0,0,0,0,0,0,0,0,0,0,0,0,0,0,0,0,0,0,0,5439,4718,4719,4720,0,0,0,0,0,0,0,0,0,0,0,0,0,0,0,0,5438,0,0,0,0,0,0,0,0,0,0,4551,4552,4551,4552,0,0,0,0,4987,4988,4989,0,5185,5186,5185,5186,5185,5186,4543,4544,4543,4544,4543,4544,4543,4544,
0,0,0,4551,4552,0,0,0,0,0,0,0,0,0,0,0,0,0,0,0,0,0,4599,0,0,0,0,0,0,0,0,0,0,0,0,0,0,0,0,0,0,0,5069,5440,0,0,0,0,0,0,0,0,0,0,0,0,0,0,0,0,0,0,0,5438,0,0,0,0,0,0,0,0,0,0,4535,4536,4535,4536,0,0,0,0,4995,4996,4997,0,0,0,0,0,0,0,4551,4552,4551,4552,4551,4552,4551,4552,
0,0,0,4535,4536,0,4535,4536,4535,4536,4535,4536,0,0,0,0,0,0,0,0,0,4606,4607,4608,0,0,0,0,0,0,0,0,0,0,0,0,0,0,0,0,0,0,0,0,0,0,0,0,0,0,0,0,0,0,0,0,0,0,0,0,0,0,0,5438,0,0,0,0,0,0,0,0,0,0,4543,4544,4543,4544,0,0,0,0,0,0,0,0,0,0,0,0,0,0,4535,4536,4535,4536,4535,4536,4535,4536,
0,0,0,4543,4544,0,4543,4544,4543,4544,4543,4544,0,0,0,0,0,0,0,0,0,4614,4615,4616,0,0,0,0,0,0,0,0,0,0,0,0,0,0,0,0,0,0,0,0,0,0,0,0,0,0,0,4678,4679,4680,0,0,0,0,0,0,0,0,0,5438,0,0,0,0,0,0,0,0,0,0,4551,4552,4551,4552,0,0,0,0,0,0,0,0,0,0,0,0,0,0,4543,4544,4543,4544,4543,4544,4543,4544,
0,0,0,4551,4552,0,4551,4552,4551,4552,4551,4552,0,5187,5188,0,0,0,0,0,0,4622,4623,4624,0,0,0,0,0,0,0,0,0,0,0,0,0,0,0,0,0,0,0,5432,4678,4679,4680,0,0,0,0,4686,4687,4688,0,0,0,0,0,4678,4679,4680,0,5438,0,0,0,0,0,0,0,0,0,0,4535,4536,4535,4536,0,0,0,0,0,0,0,0,0,0,0,0,0,0,4551,4552,4551,4552,4551,4552,4551,4552,
0,0,0,0,0,0,4535,4536,4535,4536,4535,4536,0,5195,5196,5197,0,0,0,0,0,0,0,0,0,0,0,0,0,0,0,0,0,0,0,0,0,0,0,0,0,0,0,5439,4686,4687,4688,0,0,0,0,4694,4695,4696,0,0,0,0,0,4686,4687,4688,0,5438,0,0,0,0,0,0,0,0,0,0,4543,4544,4543,4544,0,0,0,0,0,0,4535,4536,4535,4536,4535,4536,4535,4536,4535,4536,4535,4536,4535,4536,4535,4536,
0,0,0,0,0,0,4543,4544,4543,4544,4543,4544,0,5203,5204,5205,0,0,0,0,0,0,0,0,0,0,0,0,0,0,0,0,0,0,0,0,0,0,0,0,0,0,0,5439,4694,4695,4696,0,0,0,0,4702,4703,4704,0,0,0,0,0,4694,4695,4696,0,5438,0,0,0,0,0,0,0,0,0,0,4551,4552,4551,4552,0,0,0,0,0,0,4543,4544,4543,4544,4543,4544,4543,4544,4543,4544,4543,4544,4543,4544,4543,4544,
0,0,0,0,0,0,4551,4552,4551,4552,4551,4552,0,0,0,0,0,5187,5188,0,0,0,0,0,0,0,0,0,0,0,0,0,0,0,0,0,0,0,0,0,0,0,0,5439,4702,4703,4704,0,0,0,0,4710,4711,4712,0,0,0,0,0,4702,4703,4704,0,5438,0,0,0,0,0,0,0,0,0,0,0,0,0,0,0,0,0,0,0,0,4551,4552,4551,4552,4551,4552,4551,4552,4551,4552,4551,4552,4551,4552,4551,4552,
0,0,0,0,0,0,4535,4536,4535,4536,4535,4536,0,0,0,0,0,5195,5196,5197,0,0,0,0,0,0,0,0,0,0,0,0,0,0,0,0,0,0,0,0,0,0,0,5439,4710,4711,4712,0,0,0,0,4718,4719,4720,0,0,0,0,0,4710,4711,4712,0,5438,0,0,0,4979,4980,4981,0,0,0,0,4221,0,0,0,0,0,0,0,4535,4536,5003,4996,4996,4996,4996,4996,4996,4996,4996,4996,4996,4996,4996,4996,4996,4996,
0,0,0,0,0,0,4543,4544,4543,4544,4543,4544,4535,4536,4535,4536,0,5203,5204,5205,0,0,0,0,0,0,0,0,0,0,0,0,0,0,0,0,0,0,0,0,0,0,0,5439,4718,4719,4720,0,0,0,0,0,0,0,0,0,0,0,0,4718,4719,4720,0,5438,0,0,0,4987,4988,4989,0,0,0,0,0,4221,0,0,0,0,0,0,4543,4544,4992,4069,4069,4069,4069,4069,4069,4069,4069,4069,4069,4069,4069,4069,4069,4069,
0,0,0,0,0,0,4551,4552,4551,4552,4551,4552,4543,4544,4543,4544,4535,4536,0,0,0,0,0,0,0,0,0,0,0,0,0,0,0,0,0,0,0,0,0,0,0,0,0,5440,5448,5448,5448,5448,5448,5448,5448,5448,5448,5448,5448,5448,5448,5448,5448,5448,5448,5448,5448,5441,0,0,0,4995,4996,4997,0,0,0,0,0,4221,0,0,0,0,0,0,4551,4552,4992,4069,4069,4069,4069,4069,4069,4069,4069,4069,4069,4069,4069,4069,4069,4069,
0,0,0,0,0,0,0,0,0,0,4535,4536,4551,4552,4551,4552,4543,4544,0,0,0,0,0,0,0,0,0,0,0,0,0,0,0,0,0,0,421,422,421,422,421,422,421,422,421,422,421,422,421,422,421,422,421,422,421,422,421,422,421,422,421,422,421,422,0,0,0,0,0,0,0,0,0,0,0,4221,4221,0,0,0,0,0,4535,4536,4992,4069,4069,4069,4069,4069,4069,4069,4069,4069,4069,4069,4069,4069,4069,4069,
0,0,0,0,0,0,0,0,0,0,4543,4544,4535,4536,4535,4536,4551,4552,4535,4536,0,0,0,0,0,0,0,0,0,0,0,0,0,0,0,0,429,430,429,430,429,430,429,430,429,430,429,430,429,430,429,430,429,430,429,430,429,430,429,430,429,430,429,430,0,0,0,0,0,0,0,0,0,0,0,0,4221,0,0,0,4535,4536,4543,4544,4992,4069,4069,4069,4069,4069,4069,4069,4069,4069,4069,4069,4069,4069,4069,4069,
0,0,0,0,0,0,0,0,0,0,4551,4552,4543,4544,4543,4544,4535,4536,4543,4544,0,0,0,0,0,0,0,0,0,0,0,0,0,0,0,0,437,438,437,438,437,438,437,438,437,438,437,438,437,438,437,438,437,438,437,438,437,438,437,438,437,438,437,438,0,0,0,0,0,0,4979,4980,4981,0,0,0,4221,0,0,0,4543,4544,4551,4552,4992,4069,4069,4069,4069,4069,4069,4069,4069,4069,4069,4069,4069,4069,4069,4069,
0,0,0,0,0,0,0,0,0,0,0,0,4551,4552,4551,4552,4543,4544,4551,4552,0,0,0,0,0,0,0,0,0,0,0,0,0,0,0,0,421,422,0,0,0,0,0,0,0,0,0,0,0,0,0,0,0,0,0,0,0,0,0,0,0,0,0,0,0,0,0,0,0,0,4987,4988,4989,0,0,0,4221,0,0,0,4551,4552,0,0,4992,4069,4069,4069,4069,4069,4069,4069,4069,4069,4069,4069,4069,4069,4069,4069,
0,0,0,0,0,0,0,0,0,0,0,0,4535,4536,4535,4536,4551,4552,4535,4536,0,0,0,0,0,0,0,0,0,0,0,0,0,0,0,0,429,430,0,0,0,0,0,0,0,0,0,0,0,0,0,0,0,0,0,0,0,0,0,0,0,0,0,0,0,0,0,0,0,0,4995,4996,4997,0,0,0,4221,0,0,0,0,0,0,0,4992,4069,4069,4069,4069,4069,4069,4069,4069,4069,4069,4069,4069,4069,4069,4069,
0,0,0,0,0,0,0,0,0,0,0,0,4543,4544,4543,4544,4535,4536,4543,4544,0,0,0,0,0,0,0,0,0,0,0,0,0,0,0,0,437,438,0,0,0,0,0,0,0,4221,4221,4221,4221,4221,4221,4221,4221,4221,4221,4221,4221,4221,4221,4221,4221,4221,4221,4221,4221,0,0,0,0,0,0,0,0,0,0,4221,4221,0,0,0,5003,4999,4999,4999,5000,4069,4069,4069,4069,4069,4069,4069,4069,4069,4069,4069,4069,4069,4069,4069,
0,0,0,0,0,0,0,0,0,0,0,0,4551,4552,4551,4552,4543,4544,4551,4552,4535,4536,4535,4536,0,0,0,0,0,0,0,0,0,0,0,0,421,422,0,0,0,4221,4221,4221,4221,4221,0,0,0,0,0,0,0,0,0,0,0,0,0,0,0,0,0,0,4221,4221,0,0,0,0,0,0,0,0,0,4221,0,5003,4999,4999,5000,4069,4069,4069,4069,4069,4069,4069,4069,4069,4069,4069,4069,4069,4069,4069,4069,4069,4069,4069,
0,0,0,0,0,0,0,0,0,0,0,0,0,0,0,0,4551,4552,4535,4536,4543,4544,4543,4544,0,0,0,0,0,0,0,0,0,0,0,0,429,430,0,0,4221,4221,0,0,0,0,0,0,0,0,0,0,0,0,0,421,422,421,422,421,422,421,422,0,0,4221,4221,0,0,0,0,0,0,0,0,4221,0,4989,0,0,4069,4069,4069,4069,4069,4069,4069,4069,4069,4069,4069,4069,4069,4069,4069,4069,4069,4069,4069,4069,
0,0,0,0,0,0,0,0,0,0,0,0,0,0,0,0,4535,4536,4543,4544,4551,4552,4551,4552,0,0,0,0,0,0,0,0,0,0,0,0,437,438,0,0,4221,0,0,0,0,0,0,0,0,0,0,0,0,0,0,429,430,429,430,429,430,429,430,4535,4536,0,4221,4221,4221,4221,4221,0,0,0,4221,4221,0,4989,0,0,4069,4069,4069,4069,4069,4069,4069,4069,4069,4069,4069,4069,4069,4069,4069,4069,4069,4069,4069,4069,
0,0,0,0,0,0,0,0,0,0,0,0,0,0,0,0,4543,4544,4551,4552,4535,4536,4535,4536,0,0,0,0,0,0,0,0,0,0,0,0,421,422,0,0,4221,0,0,0,0,0,0,0,0,0,0,0,0,0,0,437,438,437,438,437,438,437,438,4543,4544,0,0,0,0,0,4221,4221,4221,4221,4221,0,0,4989,0,0,4069,4069,4069,4069,4069,4069,4069,4069,4069,4069,4069,4069,4069,4069,4069,4069,4069,4069,4069,4069,
0,0,0,0,0,0,0,0,0,0,0,0,0,0,0,0,4551,4552,4535,4536,4543,4544,4543,4544,0,0,0,0,0,0,0,0,0,0,0,0,429,430,0,0,4221,4221,0,0,0,0,0,0,0,0,0,0,0,0,0,0,0,0,0,0,0,0,0,4551,4552,0,0,0,0,0,0,0,0,0,0,0,5063,4989,0,0,4069,4069,4069,4069,4069,4069,4069,4069,4069,4069,4069,4069,4069,4069,4069,4069,4069,4069,4069,4069,
0,0,0,0,0,0,0,0,0,0,0,0,0,0,0,0,0,0,4543,4544,4551,4552,4551,4552,0,0,0,0,0,0,0,0,0,0,0,0,437,438,0,0,0,0,4221,4221,4221,4221,4221,0,0,0,0,0,0,0,0,0,0,0,0,0,0,0,0,0,0,5003,4999,4999,4999,4999,4999,4999,4999,4999,4999,4999,4999,5000,0,0,4069,4069,4069,4069,4069,4069,4069,4069,4069,4069,4069,4069,4069,4069,4069,4069,4069,4069,4069,4069,
0,0,0,0,0,0,0,0,0,0,0,0,0,0,0,0,0,0,4551,4552,4535,4536,4535,4536,24403,24404,24404,24404,24404,24404,24404,24404,24404,24404,24404,24405,421,422,0,0,0,0,0,0,0,0,4221,4221,4221,4221,4221,4221,4221,4221,4221,4221,4221,0,0,0,0,0,0,0,0,4989,0,0,0,0,0,0,0,0,0,0,0,0,0,0,4069,4069,4069,4069,4069,4069,4069,4069,4069,4069,4069,4069,4069,4069,4069,4069,4069,4069,4069,4069,
0,0,0,0,0,0,0,0,0,0,0,0,0,0,0,0,0,0,4535,4536,4543,4544,4543,4544,24411,0,0,0,0,0,0,0,0,0,0,0,429,430,0,0,0,0,0,0,0,0,0,0,0,0,0,0,0,0,0,0,0,4221,4221,4221,0,0,0,0,0,4989,0,0,0,0,0,0,0,0,0,0,0,0,0,0,4069,4069,4069,4069,4069,4069,4069,4069,4069,4069,4069,4069,4069,4069,4069,4069,4069,4069,4069,4069,
0,0,0,0,0,0,0,0,0,0,0,0,0,0,0,0,0,0,4543,4544,4551,4552,4551,4552,24411,0,0,0,0,0,0,0,0,0,0,0,437,438,0,0,0,0,0,0,0,0,0,0,0,0,0,0,0,0,0,0,0,0,0,4221,4221,0,0,0,0,4989,0,0,0,0,0,0,0,0,0,0,0,0,0,0,4069,4069,4069,4069,4069,4069,4069,4069,4069,4069,4069,4069,4069,4069,4069,4069,4069,4069,4069,4069,
0,0,0,0,0,0,0,0,0,0,0,0,0,0,0,0,0,0,4551,4552,4535,4536,4535,4536,24411,0,0,0,0,0,0,0,0,0,0,0,421,422,0,0,0,0,0,0,0,0,421,422,421,422,421,422,421,422,0,0,0,0,0,0,4221,4221,0,0,0,4989,0,0,0,0,0,0,0,0,0,0,0,0,0,0,4069,4069,4069,4069,4069,4069,4069,4069,4069,4069,4069,4069,4069,4069,4069,4069,4069,4069,4069,4069,
0,0,0,0,0,0,0,0,0,0,0,0,0,0,0,0,0,0,0,0,4543,4544,4543,4544,24411,0,0,0,0,0,0,0,0,0,0,0,429,430,0,0,0,0,0,0,0,0,429,430,429,430,429,430,429,430,0,0,0,0,0,0,0,4221,0,0,0,4989,0,0,0,0,0,0,0,0,0,0,0,0,0,0,4069,4069,4069,4069,4069,4069,4069,4069,4069,4069,4069,4069,4069,4069,4069,4069,4069,4069,4069,4069,
0,0,0,0,0,0,0,0,0,0,0,0,0,0,0,0,0,0,0,0,4551,4552,4551,4552,24411,0,0,0,0,0,0,0,0,0,0,0,437,438,0,0,0,0,0,0,0,0,437,438,437,438,437,438,437,438,0,0,0,0,0,0,0,4221,0,0,0,4989,0,0,0,0,0,0,0,0,0,0,0,0,0,0,4069,23485,23486,23487,4069,4069,4069,4069,4069,4069,4069,4069,4069,4069,4069,4069,4069,4069,4069,4069,
0,0,0,0,0,0,0,0,0,0,0,0,0,0,0,0,0,0,0,0,4535,4536,4535,4536,24411,0,0,0,0,0,0,0,0,0,0,0,421,422,0,0,0,0,0,0,0,0,0,0,0,0,0,0,0,0,0,0,0,0,0,0,0,4221,0,0,0,4989,0,0,0,0,0,0,0,0,0,0,0,0,0,0,4069,23503,23504,23505,4069,4069,4069,4069,4069,4069,4069,4069,4069,4069,4069,4069,4069,4069,4069,4069,
0,0,0,0,0,0,0,0,0,0,0,0,0,0,0,0,0,0,0,0,4543,4544,4543,4544,24411,0,0,0,0,0,0,0,0,0,0,0,429,430,0,0,0,0,0,0,0,0,0,0,0,0,0,0,0,0,0,0,0,0,0,0,0,4221,0,0,0,4989,0,0,0,0,0,0,0,0,0,0,0,0,0,0,4069,23503,23504,23505,4069,4069,4069,4069,4069,4069,4069,4069,4069,4069,4069,4069,4069,4069,4069,4069,
0,0,0,0,0,0,0,0,0,0,0,0,0,0,0,0,0,0,0,0,4551,4552,4551,4552,24411,0,0,0,0,0,0,0,0,0,0,24413,437,438,0,0,0,0,0,0,0,0,0,0,0,0,0,0,0,0,0,0,0,0,0,0,4221,4221,0,0,0,4989,0,0,0,0,0,0,0,0,0,0,0,0,0,0,4069,23521,23522,23523,4069,4069,4069,4069,4069,4069,4069,4069,4069,4069,4069,4069,4069,4069,4069,4069,
0,0,0,0,0,0,0,0,0,0,0,0,0,0,0,0,0,0,0,0,4535,4536,4535,4536,24411,0,0,0,0,0,0,24316,0,0,0,24413,421,422,0,0,0,0,0,0,0,0,0,0,0,0,0,0,0,0,0,0,0,0,4221,4221,4221,0,0,0,0,4989,0,0,0,0,0,0,0,0,0,0,0,0,0,0,4069,4069,4069,4069,4069,4069,4069,4069,4069,4069,4069,4069,4069,4069,4069,4069,4069,4069,4069,4069,
0,0,0,0,0,0,0,0,0,0,0,0,0,0,0,0,0,0,0,0,4543,4544,4543,4544,24411,0,0,0,0,0,0,0,0,0,0,24413,429,430,0,0,0,0,4221,4221,4221,4221,4221,4221,4221,4221,4221,4221,4221,4221,4221,4221,4221,4221,4221,0,0,0,0,0,0,4989,0,0,0,0,0,0,0,0,0,0,0,0,0,0,4069,4069,4069,4069,4069,4069,4069,4069,4069,4069,4069,4069,4069,4069,4069,4069,4069,4069,4069,4069,
0,0,0,0,0,0,0,0,0,0,0,0,0,0,0,0,0,0,0,0,4551,4552,4551,4552,24411,0,0,0,0,24316,0,0,0,0,0,24413,437,438,0,0,0,4221,4221,0,0,0,0,0,0,0,0,0,0,0,0,0,0,0,0,0,0,0,0,0,0,4989,0,0,0,0,0,0,0,0,0,0,0,0,0,0,4069,4069,4069,4069,4069,4069,4069,4069,4069,4069,4069,4069,4069,4069,4069,4069,4069,4069,4069,4069,
0,0,0,0,0,0,0,0,0,0,0,0,0,0,0,0,0,0,0,0,4535,4536,4535,4536,24411,0,0,0,0,0,0,0,0,0,0,24413,421,422,0,0,0,4221,0,0,0,0,0,0,0,0,0,0,0,421,422,421,422,421,422,421,422,421,422,421,422,0,4989,0,0,0,0,0,0,0,0,0,0,0,0,0,4069,4069,4069,4069,4069,4069,4069,4069,4069,4069,4069,4069,4069,4069,4069,4069,4069,4069,4069,4069,
0,0,0,0,0,0,0,0,0,0,0,0,0,0,0,0,0,0,0,0,4543,4544,4543,4544,24419,24420,24420,24420,24420,24316,24420,24420,24420,24420,24420,24421,429,430,0,0,0,4221,0,0,0,0,0,0,0,0,0,0,0,429,430,429,430,429,430,429,430,429,430,429,430,0,4989,0,0,0,0,0,0,0,0,0,0,0,0,0,4069,4069,4069,4069,4069,4069,4069,4069,4069,4069,4069,4069,4069,4069,4069,4069,4069,4069,4069,4069,
0,0,0,0,0,0,0,0,0,0,0,0,0,0,0,0,0,4535,4536,0,4551,4552,4551,4552,0,0,0,0,0,0,0,0,0,0,0,0,437,438,0,0,0,4221,0,0,0,0,0,0,0,0,0,0,0,437,438,437,438,437,438,437,438,437,438,437,438,0,4989,0,0,0,0,0,0,0,0,0,0,0,0,0,4069,4069,4069,4069,4069,4069,4069,4069,4069,4069,4069,4069,4069,4069,4069,4069,4069,4069,4069,4069,
0,0,0,0,0,0,0,0,0,0,0,0,0,0,0,0,0,4543,4544,0,4535,4536,4535,4536,0,0,0,0,0,0,0,0,0,0,0,0,421,422,0,0,0,4221,4221,0,0,0,0,0,0,0,0,0,0,0,0,0,0,0,0,0,0,0,0,4535,4536,0,4989,0,0,0,0,0,0,0,0,0,0,0,0,0,4069,4069,4069,4069,4069,4069,4069,4069,4069,4069,4069,4069,4069,4069,4069,4069,4979,4980,4980,4983,
0,0,0,0,0,0,0,0,0,0,0,0,0,0,0,0,0,4551,4552,0,4543,4544,4543,4544,0,0,0,0,0,0,0,0,0,0,0,0,429,430,0,0,0,0,4221,4221,4221,4221,4221,4221,4221,4221,4221,4221,4221,0,0,0,0,0,0,0,0,0,0,4543,4544,5003,5000,0,0,0,0,0,0,0,0,0,0,0,0,0,4069,4069,4069,4069,4069,4069,4069,4069,4069,4069,4069,4069,4069,4069,4069,4069,4987,4983,4982,4983,
0,0,0,0,0,0,0,0,0,0,0,0,0,0,0,0,0,0,0,0,4551,4552,4551,4552,0,0,0,0,0,0,0,0,0,0,0,0,437,438,0,0,0,0,0,0,0,0,0,0,0,0,0,0,0,4221,4221,4221,4221,4221,4221,4221,0,0,0,4551,4552,4989,0,0,0,0,0,0,0,0,0,0,0,0,0,0,4069,4069,4069,4069,4069,4069,4069,4069,4069,4069,4069,4069,4069,4069,4069,4069,4987,4988,4990,4982,
0,0,0,0,0,0,0,0,0,0,0,0,0,0,0,0,0,4535,4536,0,4535,4536,4535,4536,0,0,0,0,0,0,0,0,0,0,0,0,421,422,0,0,0,0,0,0,0,0,0,0,0,0,0,0,0,0,0,0,0,0,0,4221,0,0,0,4535,4536,4989,0,0,0,0,0,0,0,0,0,0,0,0,0,0,4069,4069,4069,4069,4069,4069,4069,4069,4069,4069,4069,4069,4069,4069,4069,4069,4987,4988,4990,4990,
0,0,0,0,0,0,0,0,0,0,0,0,0,0,0,0,0,4543,4544,0,4543,4544,4543,4544,0,0,0,0,0,0,0,0,0,0,0,0,429,430,0,0,0,0,0,0,0,0,0,0,0,0,0,0,0,0,0,0,0,0,0,4221,0,0,0,4543,4544,4989,0,0,0,0,0,0,0,0,0,0,0,0,0,0,4069,4069,4069,4069,4069,4069,4069,4069,4069,4069,4069,4069,4069,4069,4069,4069,4987,4988,4990,4990,
18556,0,0,0,0,0,0,0,0,0,0,0,0,0,0,0,0,4551,4552,0,4551,4552,4551,4552,0,0,0,0,0,0,0,0,0,0,0,0,437,438,0,0,0,0,421,422,421,422,421,422,421,422,421,422,0,0,0,0,0,0,0,4221,0,0,0,4551,4552,5003,0,0,0,0,0,0,0,0,0,0,0,0,0,0,4069,4069,4069,4069,4069,4069,4069,4069,4069,4069,4069,4069,4069,4069,4069,4979,4988,4988,4990,4990,
18564,0,0,0,0,0,0,0,0,0,0,0,0,0,0,0,4990,4535,4536,0,4535,4536,4535,4536,0,0,0,0,0,0,0,0,0,0,0,0,421,422,0,0,0,0,429,430,429,430,429,430,429,430,429,430,0,0,0,0,0,0,0,4221,0,0,0,4535,4536,5011,4980,4980,4980,4980,4980,4980,4980,4980,4980,4980,4980,4980,4980,4980,4980,4980,4980,4980,4980,4980,4980,4980,4980,4980,4980,4980,4980,4980,4980,4983,4983,4988,4983,4983,
0,0,0,0,0,0,0,0,0,0,0,0,0,0,0,0,4990,4543,4544,0,4543,4544,4543,4544,0,0,0,0,0,0,0,0,0,0,0,0,429,430,0,0,0,0,437,438,437,438,437,438,437,438,437,438,0,0,0,0,0,0,0,4221,0,0,0,4543,4544,4535,4536,4535,4536,4535,4536,4535,4536,4535,4536,4535,4536,4535,4536,4535,4536,4535,4536,4535,4536,4535,4536,4535,4536,4535,4536,4535,4536,4535,4536,4535,4536,4535,4536,4535,
0,0,0,0,0,0,0,0,0,0,0,0,0,0,0,4990,0,4551,4552,0,4551,4552,4551,4552,0,0,0,0,0,0,0,0,0,0,0,0,437,438,0,0,0,0,0,0,0,0,0,0,0,0,0,0,0,0,0,4221,4221,4221,4221,4221,4221,4221,4221,4551,4552,4543,4544,4543,4544,4543,4544,4543,4544,4543,4544,4543,4544,4543,4544,4543,4544,4543,4544,4543,4544,4543,4544,4543,4544,4543,4544,4543,4544,4543,4544,4543,4544,4543,4544,4543,
0,0,0,0,0,0,0,0,0,0,0,0,0,0,0,4535,4536,0,0,0,4535,4536,4535,4536,0,0,0,0,0,0,0,0,0,0,0,0,421,422,0,0,0,0,0,0,0,4221,4221,4221,4221,4221,4221,4221,4221,4221,4221,0,0,4221,4221,0,0,0,4221,4221,4221,4551,4552,4551,4552,4551,4552,4551,4552,4551,4552,4551,4552,4551,4552,4551,4552,4551,4552,4551,4552,4551,4552,4551,4552,4551,4552,4551,4552,4551,4552,4551,4552,4551,4552,4551,
0,0,0,0,0,0,0,0,0,0,0,0,0,0,4990,4543,4544,4535,4536,0,4543,4544,4543,4544,0,0,0,0,0,0,0,0,0,0,0,0,429,430,0,0,4221,4221,4221,4221,4221,4221,0,0,0,0,0,0,4221,4221,4221,4221,4221,4221,0,0,0,0,0,0,4221,4221,0,0,0,0,0,0,0,0,0,0,0,0,0,0,0,0,0,0,0,0,0,0,0,0,0,0,0,0,0,0,4221,4221,4221,0,
0,0,0,0,0,0,0,0,0,0,0,0,4535,4536,0,4551,4552,4543,4544,0,4551,4552,4551,4552,0,0,0,0,0,0,0,0,0,0,0,0,437,438,0,0,0,0,0,0,0,4221,4221,4221,4221,4221,4221,4221,0,0,0,0,0,0,0,0,0,0,0,0,0,4221,4221,4221,0,0,0,0,0,0,0,0,0,0,0,0,0,0,0,0,0,0,0,0,0,0,0,0,0,4221,4221,4221,0,0,0,0,
0,0,0,0,0,0,0,0,0,0,0,0,4543,4544,0,0,0,4551,4552,0,4535,4536,4535,4536,0,0,0,0,0,0,0,0,0,0,0,0,421,422,421,422,421,422,421,422,421,422,421,422,421,422,421,422,421,422,421,422,421,422,0,0,0,0,0,0,0,0,0,0,4221,4221,4221,0,0,0,0,0,0,0,0,0,0,0,0,0,0,0,0,0,0,0,0,4221,4221,0,0,0,0,0,0,0,
20150,20151,0,0,0,0,0,0,0,0,4535,4536,4551,4552,0,4535,4536,0,4535,4536,4543,4544,4543,4544,0,0,0,0,0,0,0,0,0,0,0,0,429,430,429,430,429,430,429,430,429,430,429,430,429,430,429,430,429,430,429,430,429,430,0,0,0,0,0,0,0,0,0,0,0,0,4221,4221,4221,4221,4221,4221,4221,4221,0,0,0,0,0,0,0,0,0,4221,4221,4221,4221,4221,0,0,0,0,0,0,0,0,
20158,20159,0,0,0,0,0,0,0,0,4543,4544,4535,4536,0,4543,4544,0,4543,4544,4551,4552,4551,4552,0,0,0,0,0,0,0,0,0,0,0,0,437,438,437,438,437,438,437,438,437,438,437,438,437,438,437,438,437,438,437,438,437,438,0,0,0,0,0,0,0,0,0,0,0,0,0,0,0,0,0,0,0,4221,4221,4221,4221,4221,4221,4221,4221,4221,4221,4221,0,0,0,0,0,0,0,0,0,0,0,0,
20166,20167,0,0,0,0,0,0,4535,4536,4551,4552,4543,4544,0,4551,4552,0,4551,4552,4535,4536,4535,4536,0,0,0,0,0,0,0,0,0,0,0,0,0,0,0,0,0,24323,24324,24325,0,0,0,0,0,0,0,0,0,0,0,4535,4536,0,0,0,0,0,4535,4536,0,0,0,0,0,0,0,0,0,0,0,0,0,0,0,0,0,0,0,0,0,0,0,0,0,0,0,0,0,0,0,0,0,0,4535,4536,
20174,20175,0,0,0,0,0,0,4543,4544,0,0,4551,4552,4535,4536,0,5010,0,0,4543,4544,4543,4544,0,0,0,0,0,0,0,0,0,0,0,0,0,0,0,0,0,24331,24332,24333,0,0,0,0,0,0,0,0,0,0,0,4543,4544,0,0,0,0,0,4543,4544,0,0,0,0,0,0,0,0,0,0,0,0,0,0,0,0,0,0,0,0,0,0,0,0,0,0,0,0,0,0,0,0,0,0,4543,4544,
20180,20183,0,0,0,0,4535,4536,4551,4552,0,4535,4536,0,4543,4544,5010,0,0,0,4551,4552,4551,4552,0,0,0,0,0,0,0,0,0,0,0,0,0,0,0,0,0,24339,24340,24341,0,0,0,0,0,0,0,0,0,0,0,4551,4552,0,0,0,0,0,4551,4552,0,0,0,0,0,0,0,0,0,0,0,0,0,0,0,0,0,0,0,0,0,0,0,0,0,0,0,0,0,0,0,0,0,0,4551,4552,
0,0,0,0,4535,4536,4543,4544,0,0,0,4543,4544,0,4551,4552,5010,0,0,0,4535,4536,4535,4536,0,0,0,0,0,0,0,0,0,0,0,0,0,0,0,0,0,0,0,0,0,0,0,0,0,0,0,24323,24324,24325,0,0,0,0,4535,4536,4535,4536,4535,4536,4535,4536,4535,4536,4535,4536,4535,4536,4535,4536,4535,4536,4535,4536,4535,4536,4535,4536,4535,4536,4535,4536,4535,4536,4535,4536,4535,4536,4535,4536,4535,4536,4535,4536,4535,4536,
0,0,4535,4536,4543,4544,4551,4552,0,0,0,4551,4552,0,5010,5010,0,0,0,0,4543,4544,4543,4544,0,0,0,0,0,0,0,0,0,0,0,0,0,0,0,0,0,0,24323,24324,24325,0,0,0,0,0,0,24331,24332,24333,0,0,0,0,4543,4544,4543,4544,4543,4544,4543,4544,4543,4544,4543,4544,4543,4544,4543,4544,4543,4544,4543,4544,4543,4544,4543,4544,4543,4544,4543,4544,4543,4544,4543,4544,4543,4544,4543,4544,4543,4544,4543,4544,4543,4544,
4535,4536,4543,4544,4551,4552,0,0,0,0,4535,4536,0,5010,0,5187,5188,0,0,0,4551,4552,4551,4552,0,0,0,0,0,0,0,0,0,0,0,0,0,0,0,0,0,0,24331,24332,24333,0,0,0,0,0,0,24339,24340,24341,0,0,0,0,4551,4552,4551,4552,4551,4552,4551,4552,4551,4552,4551,4552,4551,4552,4551,4552,4551,4552,4551,4552,4551,4552,4551,4552,4551,4552,4551,4552,4551,4552,4551,4552,4551,4552,4551,4552,4551,4552,4551,4552,4551,4552,
4543,4544,4551,4552,0,0,0,0,4535,4536,4543,4544,0,5010,0,5195,5196,5197,0,0,4535,4536,4535,4536,0,0,0,0,0,0,0,0,0,0,0,0,0,0,0,0,0,0,24339,24340,24341,0,0,0,0,0,0,0,0,0,0,0,0,0,0,0,0,0,0,0,0,0,4535,4536,4535,4536,4535,4536,4535,4536,4535,4536,4535,4536,4535,4536,4535,4536,4535,4536,4535,4536,4535,4536,4535,4536,4535,4536,4535,4536,4535,4536,4535,4536,4535,4536,
4551,4552,0,0,0,0,0,0,4543,4544,4551,4552,5010,0,0,5203,5204,5205,0,0,4543,4544,4543,4544,0,0,0,0,0,0,0,0,0,0,0,0,0,0,0,0,0,0,0,0,0,0,0,0,0,0,0,0,0,0,0,0,0,0,0,0,0,0,0,0,0,0,4543,4544,4543,4544,4543,4544,4543,4544,4543,4544,4543,4544,4543,4544,4543,4544,4543,4544,4543,4544,4543,4544,4543,4544,4543,4544,4543,4544,4543,4544,4543,4544,4543,4544,
4590,0,0,0,0,4982,4983,0,4551,4552,0,0,0,0,0,0,0,0,0,0,4551,4552,4551,4552,0,0,0,0,0,0,0,0,0,0,0,0,0,0,0,0,0,0,0,0,0,0,24323,24324,24325,0,0,0,0,0,0,0,0,0,0,0,0,0,0,0,0,0,4551,4552,4551,4552,4551,4552,4551,4552,4551,4552,4551,4552,4551,4552,4551,4552,4551,4552,4551,4552,4551,4552,4551,4552,4551,4552,4551,4552,4551,4552,4551,4552,4551,4552,
4590,0,0,0,0,4991,4991,4991,4991,0,0,0,5187,5188,0,0,0,0,0,0,0,0,0,0,0,0,0,0,0,0,0,0,0,0,0,0,0,0,0,0,0,0,0,0,0,0,24331,24332,24333,0,0,0,0,0,0,0,0,0,0,0,0,0,0,0,0,0,4535,4536,4535,4536,4535,4536,4535,4536,4535,4536,4535,4536,4535,4536,4535,4536,4535,4536,4535,4536,4535,4536,4535,4536,4535,4536,4535,4536,4535,4536,4535,4536,4535,4536,
4535,4536,4535,4536,4535,4536,4535,4536,4535,4536,0,0,5195,5196,5197,0,0,0,0,0,0,0,0,0,0,0,0,0,0,0,0,0,0,0,0,0,0,0,0,0,0,0,0,0,0,0,24339,24340,24341,0,0,0,0,0,0,0,0,0,0,0,0,0,0,0,0,0,4543,4544,4543,4544,4543,4544,4543,4544,4543,4544,4543,4544,4543,4544,4543,4544,4543,4544,4543,4544,4543,4544,4543,4544,4543,4544,4543,4544,4543,4544,4543,4544,4543,4544,
4543,4544,4543,4544,4543,4544,4543,4544,4543,4544,0,0,5203,5204,5205,0,0,0,0,0,0,0,0,0,0,0,0,0,0,0,0,0,0,0,0,0,0,0,0,0,0,0,0,0,0,0,0,0,0,0,0,0,0,0,0,0,0,0,0,0,0,0,0,0,0,0,4551,4552,4551,4552,4551,4552,4551,4552,4551,4552,4551,4552,4551,4552,4551,4552,4551,4552,4551,4552,4551,4552,4551,4552,4551,4552,4551,4552,4551,4552,4551,4552,4551,4552,
4551,4552,4551,4552,4551,4552,4551,4552,4551,4552,18377,0,0,0,0,5069,0,0,0,0,0,0,0,0,0,0,0,0,0,0,0,0,0,0,0,0,0,0,0,0,0,0,0,0,0,0,0,0,0,0,0,0,0,0,0,0,0,0,0,0,0,0,0,0,0,0,0,0,0,0,0,0,0,0,0,0,0,0,0,0,0,0,0,0,0,0,0,0,0,0,0,0,0,0,0,0,0,0,0,0,
15076,5010,15076,15076,15076,15076,15076,15076,15076,15076,18385,0,0,0,0,0,0,0,0,0,0,0,0,0,0,0,0,0,0,0,0,0,0,0,0,0,0,0,0,0,0,0,0,0,0,0,0,0,0,0,0,0,0,0,0,0,0,0,0,0,0,0,0,0,0,0,0,0,0,0,0,0,0,0,0,0,0,0,0,0,0,0,0,0,0,0,0,0,0,0,0,0,0,0,0,0,0,0,0,0,
15076,15076,5010,15076,15076,15076,15076,15076,15076,15076,18393,0,0,0,0,0,0,0,0,0,0,0,0,0,0,0,0,0,0,0,0,0,0,0,0,0,0,0,0,0,0,0,0,0,0,0,0,0,0,0,0,0,0,0,0,0,0,0,0,0,0,0,0,0,0,0,0,0,0,0,0,0,0,0,0,0,0,0,0,0,0,0,0,0,0,0,0,0,0,0,0,0,0,0,0,0,0,0,4535,4536,
15076,15076,5010,15076,15076,15076,15076,15076,15076,15076,15077,0,0,0,0,0,0,0,0,0,0,0,0,0,0,0,0,0,0,0,0,0,0,0,0,0,0,0,0,0,0,0,0,0,0,0,0,0,0,0,0,0,0,0,0,0,0,0,0,0,0,0,0,0,0,0,0,0,0,0,0,0,0,0,0,0,0,0,0,0,0,0,0,0,0,0,0,0,0,0,0,0,0,0,0,5069,0,0,4543,4544,
15076,15076,5060,15076,15076,15076,15076,15076,15076,15076,15077,0,0,0,0,0,0,0,0,0,0,0,0,0,0,0,0,0,0,0,0,0,0,0,0,0,0,0,0,0,0,0,0,0,0,0,0,0,0,0,0,0,0,0,0,0,0,0,0,0,0,0,0,0,0,0,0,0,0,0,0,0,0,0,0,0,0,0,0,0,0,0,0,0,0,0,0,0,0,0,0,0,0,0,0,0,0,0,4551,4552,
15076,15076,5010,15076,15076,15076,15076,15076,15076,15076,15077,0,4535,4536,4535,4536,4535,4536,4535,4536,4535,4536,4535,4536,4535,4536,4535,4536,4535,4536,4535,4536,4535,4536,4535,4536,4535,4536,4535,4536,4535,4536,4535,4536,4535,4536,0,0,0,0,0,0,4535,4536,4535,4536,4535,4536,4535,4536,4535,4536,4535,4536,4535,4536,4535,4536,4535,4536,4535,4536,4535,4536,4535,4536,4535,4536,4535,4536,4535,4536,4535,4536,4535,4536,4535,4536,4535,4536,4535,4536,4535,4536,4535,4536,4535,4536,4535,4536,
15076,5010,15076,15076,15076,15076,15076,15076,15076,15076,15077,0,4543,4544,4543,4544,4543,4544,4543,4544,4543,4544,4543,4544,4543,4544,4543,4544,4543,4544,4543,4544,4543,4544,4543,4544,4543,4544,4543,4544,4543,4544,4543,4544,4543,4544,0,0,0,0,0,0,4543,4544,4543,4544,4543,4544,4543,4544,4543,4544,4543,4544,4543,4544,4543,4544,4543,4544,4543,4544,4543,4544,4543,4544,4543,4544,4543,4544,4543,4544,4543,4544,4543,4544,4543,4544,4543,4544,4543,4544,4543,4544,4543,4544,4543,4544,4543,4544,
4991,5003,15084,15084,15084,15084,15084,15084,15084,15084,15085,0,4551,4552,4551,4552,4551,4552,4551,4552,4551,4552,4551,4552,4551,4552,4551,4552,4551,4552,4551,4552,4551,4552,4551,4552,4551,4552,4551,4552,4551,4552,4551,4552,4551,4552,0,0,0,0,0,0,4551,4552,4551,4552,4551,4552,4551,4552,4551,4552,4551,4552,4551,4552,4551,4552,4551,4552,4551,4552,4551,4552,4551,4552,4551,4552,4551,4552,4551,4552,4551,4552,4551,4552,4551,4552,4551,4552,4551,4552,4551,4552,4551,4552,4551,4552,4551,4552,
4988,4992,4535,4536,4535,4536,4535,4536,4535,4536,4535,4536,4535,4536,4535,4536,4535,4536,4535,4536,4535,4536,4535,4536,4535,4536,4535,4536,4535,4536,4535,4536,4535,4536,4535,4536,4535,4536,4535,4536,4535,4536,4535,4536,4535,4536,0,0,0,0,0,0,4535,4536,4535,4536,4535,4536,4535,4536,4535,4536,4535,4536,4535,4536,4535,4536,4535,4536,4535,4536,4535,4536,4535,4536,4535,4536,4535,4536,4535,4536,4535,4536,4535,4536,4535,4536,4535,4536,4535,4536,4535,4536,4535,4536,4535,4536,4535,4536,
4988,4989,4543,4544,4543,4544,4543,4544,4543,4544,4543,4544,4543,4544,4543,4544,4543,4544,4543,4544,4543,4544,4543,4544,4543,4544,4543,4544,4543,4544,4543,4544,4543,4544,4543,4544,4543,4544,4543,4544,4543,4544,4543,4544,4543,4544,0,0,0,0,0,0,4543,4544,4543,4544,4543,4544,4543,4544,4543,4544,4543,4544,4543,4544,4543,4544,4543,4544,4543,4544,4543,4544,4543,4544,4543,4544,4543,4544,4543,4544,4543,4544,4543,4544,4543,4544,4543,4544,4543,4544,4543,4544,4543,4544,4543,4544,4543,4544,
4988,4989,4551,4552,4551,4552,4551,4552,4551,4552,4551,4552,4551,4552,4551,4552,4551,4552,4551,4552,4551,4552,4551,4552,4551,4552,4551,4552,4551,4552,4551,4552,4551,4552,4551,4552,4551,4552,4551,4552,4551,4552,4551,4552,4551,4552,0,0,0,0,0,0,4551,4552,4551,4552,4551,4552,4551,4552,4551,4552,4551,4552,4551,4552,4551,4552,4551,4552,4551,4552,4551,4552,4551,4552,4551,4552,4551,4552,4551,4552,4551,4552,4551,4552,4551,4552,4551,4552,4551,4552,4551,4552,4551,4552,4551,4552,4551,4552,
4988,4989,4535,4536,4535,4536,4535,4536,4535,4536,4535,4536,4535,4536,4535,4536,4535,4536,4535,4536,4535,4536,4535,4536,4535,4536,4535,4536,4535,4536,4535,4536,4535,4536,4535,4536,4535,4536,4535,4536,4535,4536,4535,4536,4535,4536,0,0,0,0,0,0,4535,4536,4535,4536,4535,4536,4535,4536,4535,4536,4535,4536,4535,4536,4535,4536,4535,4536,4535,4536,4535,4536,4535,4536,4535,4536,4535,4536,4535,4536,4535,4536,4535,4536,4535,4536,4535,4536,4535,4536,4535,4536,4535,4536,4535,4536,4535,4536,
4988,4989,4543,4544,4543,4544,4543,4544,4543,4544,4543,4544,4543,4544,4543,4544,4543,4544,4543,4544,4543,4544,4543,4544,4543,4544,4543,4544,4543,4544,4543,4544,4543,4544,4543,4544,4543,4544,4543,4544,4543,4544,4543,4544,4543,4544,0,0,0,0,0,0,4543,4544,4543,4544,4543,4544,4543,4544,4543,4544,4543,4544,4543,4544,4543,4544,4543,4544,4543,4544,4543,4544,4543,4544,4543,4544,4543,4544,4543,4544,4543,4544,4543,4544,4543,4544,4543,4544,4543,4544,4543,4544,4543,4544,4543,4544,4543,4544,
4988,4989,4551,4552,4551,4552,4551,4552,4551,4552,4551,4552,4551,4552,4551,4552,4551,4552,4551,4552,4551,4552,4551,4552,4551,4552,4551,4552,4551,4552,4551,4552,4551,4552,4551,4552,4551,4552,4551,4552,4551,4552,4551,4552,4551,4552,0,0,0,0,0,0,4551,4552,4551,4552,4551,4552,4551,4552,4551,4552,4551,4552,4551,4552,4551,4552,4551,4552,4551,4552,4551,4552,4551,4552,4551,4552,4551,4552,4551,4552,4551,4552,4551,4552,4551,4552,4551,4552,4551,4552,4551,4552,4551,4552,4551,4552,4551,4552,
4988,4989,4535,4536,4535,4536,4535,4536,4535,4536,4535,4536,4535,4536,4535,4536,4535,4536,4535,4536,4535,4536,4535,4536,4535,4536,4535,4536,4535,4536,4535,4536,4535,4536,4535,4536,4535,4536,4535,4536,4535,4536,4535,4536,4535,4536,0,0,0,0,0,0,4535,4536,4535,4536,4535,4536,4535,4536,4535,4536,4535,4536,4535,4536,4535,4536,4535,4536,4535,4536,4535,4536,4535,4536,4535,4536,4535,4536,4535,4536,4535,4536,4535,4536,4535,4536,4535,4536,4535,4536,4535,4536,4535,4536,4535,4536,4535,4536,
4988,4989,4543,4544,4543,4544,4543,4544,4543,4544,4543,4544,4543,4544,4543,4544,4543,4544,4543,4544,4543,4544,4543,4544,4543,4544,4543,4544,4543,4544,4543,4544,4543,4544,4543,4544,4543,4544,4543,4544,4543,4544,4543,4544,4543,4544,0,0,0,0,0,0,4543,4544,4543,4544,4543,4544,4543,4544,4543,4544,4543,4544,4543,4544,4543,4544,4543,4544,4543,4544,4543,4544,4543,4544,4543,4544,4543,4544,4543,4544,4543,4544,4543,4544,4543,4544,4543,4544,4543,4544,4543,4544,4543,4544,4543,4544,4543,4544,
4988,4989,4551,4552,4551,4552,4551,4552,4551,4552,4551,4552,4551,4552,4551,4552,4551,4552,4551,4552,4551,4552,4551,4552,4551,4552,4551,4552,4551,4552,4551,4552,4551,4552,4551,4552,4551,4552,4551,4552,4551,4552,4551,4552,4551,4552,6147,0,0,0,0,6147,4551,4552,4551,4552,4551,4552,4551,4552,4551,4552,4551,4552,4551,4552,4551,4552,4551,4552,4551,4552,4551,4552,4551,4552,4551,4552,4551,4552,4551,4552,4551,4552,4551,4552,4551,4552,4551,4552,4551,4552,4551,4552,4551,4552,4551,4552,4551,4552,
4988,4989,4535,4536,4535,4536,4535,4536,4535,4536,4535,4536,4535,4536,4535,4536,4535,4536,4535,4536,4535,4536,4535,4536,4535,4536,4535,4536,4535,4536,4535,4536,4535,4536,4535,4536,4535,4536,4535,4536,4535,4536,4535,4536,4535,4536,6155,7013,7014,7014,7015,6155,4535,4536,4535,4536,4535,4536,4535,4536,4535,4536,4535,4536,4535,4536,4535,4536,4535,4536,4535,4536,4535,4536,4535,4536,4535,4536,4535,4536,4535,4536,4535,4536,4535,4536,4535,4536,4535,4536,4535,4536,4535,4536,4535,4536,4535,4536,4535,4536,
4988,4989,4543,4544,4543,4544,4543,4544,4543,4544,4543,4544,4543,4544,4543,4544,4543,4544,4543,4544,4543,4544,4543,4544,4543,4544,4543,4544,4543,4544,4543,4544,4543,4544,4543,4544,4543,4544,4543,4544,4543,4544,4543,4544,4543,4544,7027,7028,7029,7030,7031,7033,4543,4544,4543,4544,4543,4544,4543,4544,4543,4544,4543,4544,4543,4544,4543,4544,4543,4544,4543,4544,4543,4544,4543,4544,4543,4544,4543,4544,4543,4544,4543,4544,4543,4544,4543,4544,4543,4544,4543,4544,4543,4544,4543,4544,4543,4544,4543,4544,
4988,4989,4551,4552,4551,4552,4551,4552,4551,4552,4551,4552,4551,4552,4551,4552,4551,4552,4551,4552,4551,4552,4551,4552,4551,4552,4551,4552,4551,4552,4551,4552,4551,4552,4551,4552,4551,4552,4551,4552,4551,4552,4551,4552,4551,4552,7035,7028,7029,7030,7031,7041,4551,4552,4551,4552,4551,4552,4551,4552,4551,4552,4551,4552,4551,4552,4551,4552,4551,4552,4551,4552,4551,4552,4551,4552,4551,4552,4551,4552,4551,4552,4551,4552,4551,4552,4551,4552,4551,4552,4551,4552,4551,4552,4551,4552,4551,4552,4551,4552,
4988,4989,4535,4536,4535,4536,4535,4536,4535,4536,4535,4536,4535,4536,4535,4536,4535,4536,4535,4536,4535,4536,4535,4536,4535,4536,4535,4536,4535,4536,4535,4536,4535,4536,4535,4536,4535,4536,4535,4536,4535,4536,4535,4536,4535,4536,6147,7099,7102,7102,7101,6147,4535,4536,4535,4536,4535,4536,4535,4536,4535,4536,4535,4536,4535,4536,4535,4536,4535,4536,4535,4536,4535,4536,4535,4536,4535,4536,4535,4536,4535,4536,4535,4536,4535,4536,4535,4536,4535,4536,4535,4536,4535,4536,4535,4536,4535,4536,4535,4536,
4988,4989,4543,4544,4543,4544,4543,4544,4543,4544,4543,4544,4543,4544,4543,4544,4543,4544,4543,4544,4543,4544,4543,4544,4543,4544,4543,4544,4543,4544,4543,4544,4543,4544,4543,4544,4543,4544,4543,4544,4543,4544,4543,4544,4543,4544,6155,7107,7110,7110,7109,6155,4543,4544,4543,4544,4543,4544,4543,4544,4543,4544,4543,4544,4543,4544,4543,4544,4543,4544,4543,4544,4543,4544,4543,4544,4543,4544,4543,4544,4543,4544,4543,4544,4543,4544,4543,4544,4543,4544,4543,4544,4543,4544,4543,4544,4543,4544,4543,4544,
5010,4989,4551,4552,4551,4552,4551,4552,4551,4552,4551,4552,4551,4552,4551,4552,4551,4552,4551,4552,4551,4552,4551,4552,4551,4552,4551,4552,4551,4552,4551,4552,4551,4552,4551,4552,4551,4552,4551,4552,4551,4552,4551,4552,4551,4552,0,7115,7116,7116,7117,0,4551,4552,4551,4552,4551,4552,4551,4552,4551,4552,4551,4552,4551,4552,4551,4552,4551,4552,4551,4552,4551,4552,4551,4552,4551,4552,4551,4552,4551,4552,4551,4552,4551,4552,4551,4552,4551,4552,4551,4552,4551,4552,4551,4552,4551,4552,4551,4552
</data>
 </layer>
 <layer id="4" name="sopra_testa" width="100" height="147">
  <data encoding="csv">
0,0,0,0,0,0,0,0,0,0,0,0,0,0,0,0,0,0,0,0,0,0,0,0,0,0,0,0,0,0,0,0,0,0,0,0,0,0,0,0,0,0,0,0,0,0,0,0,0,0,0,0,0,0,0,0,0,0,0,0,0,0,0,0,0,0,0,0,0,0,0,0,0,0,0,0,0,0,0,0,0,0,0,0,0,0,0,0,0,0,0,0,0,0,0,0,0,0,0,0,
0,0,0,0,0,0,0,0,0,0,0,0,0,0,0,0,0,0,0,0,0,0,0,0,0,0,0,0,0,0,0,0,0,0,0,0,0,0,0,0,0,0,0,0,0,0,0,0,0,0,0,0,0,0,0,0,0,0,0,0,0,0,0,0,0,0,0,0,0,0,0,0,0,0,0,0,0,0,0,0,0,0,0,0,0,0,0,0,0,0,0,0,0,0,0,0,0,0,0,0,
0,0,0,0,0,0,0,0,0,0,0,0,0,0,0,0,0,0,0,0,0,0,0,0,0,0,0,0,0,0,0,0,0,0,0,0,0,0,0,0,0,0,0,0,0,0,0,0,0,0,0,0,0,0,0,0,0,0,0,0,0,0,0,0,0,0,0,0,0,0,0,0,0,0,0,0,0,0,0,0,0,0,0,0,0,0,0,0,0,0,0,0,0,0,0,0,0,0,0,0,
0,0,0,0,0,0,0,0,0,0,0,0,0,0,0,0,0,0,0,0,0,0,0,0,0,0,0,0,0,0,0,0,0,0,0,0,0,0,0,0,0,0,0,0,0,0,0,0,0,0,0,0,0,0,0,0,0,0,0,0,0,0,0,0,0,0,0,0,0,0,0,0,0,0,0,0,0,0,0,0,0,0,0,0,0,0,0,0,0,0,0,0,0,0,0,0,0,0,0,0,
0,0,0,0,0,0,0,0,0,0,0,0,0,0,0,0,0,0,0,0,0,0,0,0,0,0,0,0,0,0,0,0,0,0,0,0,0,0,0,0,0,0,0,0,0,0,0,0,0,0,0,0,0,0,0,0,0,0,0,0,0,0,0,0,0,0,0,0,0,0,0,0,0,0,0,0,0,0,0,0,0,0,0,0,0,0,0,0,0,0,0,0,0,0,0,0,0,0,0,0,
0,0,0,0,0,0,0,0,0,0,0,0,0,0,0,0,0,0,0,0,0,0,0,0,0,0,0,0,0,0,0,0,0,0,0,0,0,0,0,0,0,0,0,0,0,0,0,0,0,0,0,0,0,0,0,0,0,0,0,0,0,0,0,0,0,0,0,0,0,0,0,0,0,0,0,0,0,0,0,0,0,0,0,0,0,0,0,0,0,0,0,0,0,0,0,0,0,0,0,0,
0,0,0,0,0,0,0,0,0,0,0,0,0,0,0,0,0,0,0,0,0,0,0,0,0,0,0,0,0,0,0,0,0,0,0,0,0,0,0,0,0,0,0,0,0,0,0,0,0,0,0,0,0,0,0,0,0,0,0,0,0,0,0,0,0,0,0,0,0,0,0,0,0,0,0,0,0,0,0,0,0,0,0,0,0,0,0,0,0,0,0,0,0,0,0,0,0,0,0,0,
0,0,0,0,0,0,0,0,0,0,0,0,0,0,0,0,0,0,0,0,0,0,0,0,0,0,0,0,0,0,0,0,0,0,0,0,0,0,0,0,0,0,0,0,0,0,0,0,0,0,0,0,0,0,0,0,0,0,0,0,0,0,0,0,0,0,0,0,0,0,0,0,0,0,0,0,0,0,0,0,0,0,0,0,0,0,0,0,0,0,0,0,0,0,0,0,0,0,0,0,
0,0,0,0,0,0,0,0,0,0,0,0,0,0,0,0,0,0,0,0,0,0,0,0,0,0,0,0,0,0,0,0,0,0,0,0,0,0,0,0,0,0,0,0,0,0,0,0,0,0,0,0,0,0,0,0,0,0,0,0,0,0,0,0,0,0,0,0,0,0,0,0,0,0,0,0,0,0,0,0,0,0,0,0,0,0,0,0,0,0,0,0,0,0,0,0,0,0,0,0,
0,0,0,0,0,0,0,0,0,0,0,0,0,0,0,0,0,0,0,0,0,0,0,0,0,0,0,0,0,0,0,0,0,0,0,0,0,0,0,0,0,0,0,0,0,0,0,0,0,0,0,0,0,0,0,0,0,0,0,0,0,0,0,0,0,0,0,0,0,0,0,0,0,0,0,0,0,0,0,0,0,0,0,0,0,0,0,0,0,0,0,0,0,0,0,0,0,0,0,0,
0,0,0,0,0,0,0,0,0,0,0,0,0,0,0,0,0,0,0,0,0,0,0,0,0,0,0,0,0,0,0,0,0,0,0,0,0,0,0,0,0,0,0,0,0,0,0,0,0,0,0,0,0,0,0,0,0,0,0,0,0,0,0,0,0,0,0,0,0,0,0,0,0,0,0,0,0,0,0,0,0,0,0,0,0,0,0,0,0,0,0,0,0,0,0,0,0,0,0,0,
0,0,0,0,0,0,0,0,0,0,0,0,0,0,0,0,0,0,0,0,0,0,0,0,0,0,0,0,0,0,0,0,0,0,0,0,0,0,0,0,0,0,0,0,0,0,0,0,0,0,0,0,0,0,0,0,0,0,0,0,0,0,0,0,0,0,0,0,0,0,0,0,0,0,0,0,0,0,0,0,0,0,0,0,0,0,0,0,0,0,0,0,0,0,0,0,0,0,0,0,
0,0,0,0,0,0,0,0,0,0,0,0,0,0,0,0,0,0,0,0,0,0,0,0,0,0,0,0,0,0,0,0,0,0,0,0,0,0,0,0,0,0,0,0,0,0,0,0,0,0,0,0,0,0,0,0,0,0,0,0,0,0,0,0,0,0,0,0,0,0,0,0,0,0,0,0,0,0,0,0,0,0,0,0,0,0,0,0,0,0,0,0,0,0,0,0,0,0,0,0,
0,0,0,0,0,0,0,0,0,0,0,0,0,0,0,0,0,0,0,0,0,0,0,0,0,0,0,0,0,0,0,0,0,0,0,0,0,0,0,0,0,0,0,0,0,0,0,0,0,0,0,0,0,0,0,0,0,0,0,0,0,0,0,0,0,0,0,0,0,0,0,0,0,0,0,0,0,0,0,0,0,0,0,0,0,0,0,0,0,0,0,0,0,0,0,0,0,0,0,0,
0,0,0,0,0,0,0,0,0,0,0,0,0,0,0,0,0,0,0,0,0,0,0,0,0,0,0,0,0,0,0,0,0,0,0,0,0,0,0,0,0,0,0,0,0,0,0,0,0,0,0,0,0,0,0,0,0,0,0,0,0,0,0,0,0,0,0,0,0,0,0,0,0,0,0,0,0,0,0,0,0,0,0,0,0,0,0,0,0,0,0,0,0,0,0,0,0,0,0,0,
0,0,0,0,0,0,0,0,0,0,0,0,0,0,0,0,0,0,0,0,0,0,0,0,0,0,0,0,0,0,0,0,0,0,0,0,0,0,0,0,0,0,0,0,0,0,0,0,0,0,0,0,0,0,0,0,0,0,0,0,0,0,0,0,0,0,0,0,0,0,0,0,0,0,0,0,0,0,0,0,0,0,0,0,0,0,0,0,0,0,0,0,0,0,0,0,0,0,0,0,
0,0,0,0,0,0,0,0,0,0,0,0,0,0,0,0,0,0,0,0,0,0,0,0,0,0,0,0,0,0,0,0,0,0,0,0,0,0,0,0,0,0,0,0,0,0,0,0,0,0,0,0,0,0,0,0,0,0,0,0,0,0,0,0,0,0,0,0,0,0,0,0,0,0,0,0,0,0,0,0,0,0,0,0,0,0,0,0,0,0,0,0,0,0,0,0,0,0,0,0,
0,0,0,0,0,0,0,0,0,0,0,0,0,0,0,0,0,0,0,0,0,0,0,0,0,0,0,0,0,0,0,0,0,0,0,0,0,0,0,0,0,0,0,0,0,0,0,0,0,0,0,0,0,0,0,0,0,0,0,0,0,0,0,0,0,0,0,0,0,0,0,0,0,0,0,0,0,0,0,0,0,0,0,0,0,0,0,0,0,0,0,0,0,0,0,0,0,0,0,0,
0,0,0,0,0,0,0,0,0,0,0,0,0,0,0,0,0,0,0,0,0,0,0,0,0,0,0,0,0,0,0,0,0,0,0,0,0,0,0,0,0,0,0,0,0,0,0,0,0,0,0,0,0,0,0,0,0,0,0,0,0,0,0,0,0,0,0,0,0,0,0,0,0,0,0,0,0,0,0,0,0,0,0,0,0,0,0,0,0,0,0,0,0,0,0,0,0,0,0,0,
0,0,0,0,0,0,0,0,0,0,0,0,0,0,0,0,0,0,0,0,0,0,0,0,0,0,0,0,0,0,0,0,0,0,0,0,0,0,0,0,0,0,0,0,0,0,0,0,0,0,0,0,0,0,0,0,0,0,0,0,0,0,0,0,0,0,0,0,0,0,0,0,0,0,0,0,0,0,0,0,0,0,0,0,0,0,0,0,0,0,0,0,0,0,0,0,0,0,0,0,
0,0,0,0,0,0,0,0,0,0,0,0,0,0,0,0,0,0,0,0,0,0,0,0,0,0,0,0,0,0,0,0,0,0,0,0,0,0,0,0,0,0,0,0,0,0,0,0,0,0,0,0,0,0,0,0,0,0,0,0,0,0,0,0,0,0,0,0,0,0,0,0,0,0,0,0,0,0,0,0,0,0,0,0,0,0,0,0,0,0,0,0,0,0,0,0,0,0,0,0,
0,0,0,0,0,0,0,0,0,0,0,0,0,0,0,0,0,0,0,0,0,0,0,0,0,0,0,0,0,0,0,0,0,0,0,0,0,0,0,0,0,0,0,0,0,0,0,0,0,0,0,0,0,0,0,0,0,0,0,0,0,0,0,0,0,0,0,0,0,0,0,0,0,0,0,0,0,0,0,0,0,0,0,0,0,0,0,0,0,0,0,0,0,0,0,0,0,0,0,0,
0,0,0,0,0,0,0,0,0,0,0,0,0,0,0,0,0,0,0,0,0,0,0,0,0,0,0,0,0,0,0,0,0,0,0,0,0,0,0,0,0,0,0,0,0,0,0,0,0,0,0,0,0,0,0,0,0,0,0,0,0,0,0,0,0,0,0,0,0,0,0,0,0,0,0,0,0,0,0,0,0,0,0,0,0,0,0,0,0,0,0,0,0,0,0,0,0,0,0,0,
0,0,0,0,0,0,0,0,0,0,0,0,0,0,0,0,0,0,0,0,0,0,0,0,0,0,0,0,0,0,0,0,0,0,0,0,0,0,0,0,0,0,0,0,0,0,0,0,0,0,0,0,0,0,0,0,0,0,0,0,0,0,0,0,0,0,0,0,0,0,0,0,0,0,0,0,0,0,0,0,0,0,0,0,0,0,0,0,0,0,0,0,0,0,0,0,0,0,0,0,
0,0,0,0,0,0,0,0,0,0,0,0,0,0,0,0,0,0,0,0,0,0,0,0,0,0,0,0,0,0,0,0,0,0,0,0,0,0,0,0,0,0,0,0,0,0,0,0,0,0,0,0,0,0,0,0,0,0,0,0,0,0,0,0,0,0,0,0,0,0,0,0,0,0,0,0,0,0,0,0,0,0,0,0,0,0,0,0,0,0,0,0,0,0,0,0,0,0,0,0,
0,0,0,0,0,0,0,0,0,0,0,0,0,0,0,0,0,0,0,0,0,0,0,0,0,0,0,0,0,0,0,0,0,0,0,0,0,0,0,0,0,0,0,0,0,0,0,0,0,0,0,0,0,0,0,0,0,0,0,0,0,0,0,0,0,0,0,0,0,0,0,0,0,0,0,0,0,0,0,0,0,0,0,0,0,0,0,0,0,0,0,0,0,0,0,0,0,0,0,0,
0,0,0,0,0,0,0,0,0,0,0,0,0,0,0,0,0,0,0,0,0,0,0,0,0,0,0,0,0,0,0,0,0,0,0,0,0,0,0,0,0,0,0,0,0,0,0,0,0,0,0,0,0,0,0,0,0,0,0,0,0,0,0,0,0,0,0,0,0,0,0,0,0,0,0,0,0,0,0,0,0,0,0,0,0,0,0,0,0,0,0,0,0,0,0,0,0,0,0,0,
0,0,0,0,0,0,0,0,0,0,0,0,0,0,0,0,0,0,0,0,0,0,0,0,0,0,0,0,0,0,0,0,0,0,0,0,0,0,0,0,0,0,0,0,0,0,0,0,0,0,0,0,0,0,0,0,0,0,0,0,0,0,0,0,0,0,0,0,0,0,0,0,0,0,0,0,0,0,0,0,0,0,0,0,0,0,0,0,0,0,0,0,0,0,0,0,0,0,0,0,
0,0,0,0,0,0,0,0,0,0,0,0,0,0,0,0,0,0,0,0,0,0,0,0,0,0,0,0,0,0,0,0,0,0,0,0,0,0,0,0,0,0,0,0,0,0,0,0,0,0,0,0,0,0,0,0,0,0,0,0,0,0,0,0,0,0,0,0,0,0,0,0,0,0,0,0,0,0,0,0,0,0,0,0,0,0,0,0,0,0,0,0,0,0,0,0,0,0,0,0,
0,0,0,0,0,0,0,0,0,0,0,0,0,0,0,0,0,0,0,0,0,0,0,0,0,0,0,0,0,0,0,0,0,0,0,0,0,0,0,0,0,0,0,0,0,0,0,0,0,0,0,0,0,0,0,0,0,0,0,0,0,0,0,0,0,0,0,0,0,0,0,0,0,0,0,0,0,0,0,0,0,0,0,0,0,0,0,0,0,0,0,0,0,0,0,0,0,0,0,0,
0,0,0,0,0,0,0,0,0,0,0,0,0,0,0,0,0,0,0,0,0,0,0,0,0,0,0,0,0,0,0,0,0,0,0,0,0,0,0,0,0,0,0,0,0,0,0,0,0,0,0,0,0,0,0,0,0,0,0,0,0,0,0,0,0,0,0,0,0,0,0,0,0,0,0,0,0,0,0,0,0,0,0,0,0,0,0,0,0,0,0,0,0,0,0,0,0,0,0,0,
0,0,0,0,0,0,0,0,0,0,0,0,0,0,0,0,0,0,0,0,0,0,0,0,0,0,0,0,0,0,0,0,0,0,0,0,0,0,0,0,0,0,0,0,0,0,0,0,0,0,0,0,0,0,0,0,0,0,0,0,0,0,0,0,0,0,0,0,0,0,0,0,0,0,0,0,0,0,0,0,0,0,0,0,0,0,0,0,0,0,0,0,0,0,0,0,0,0,0,0,
0,0,0,0,0,0,0,0,0,0,0,0,0,0,0,0,0,0,0,0,0,0,0,0,0,0,0,0,0,0,0,0,0,0,0,0,0,0,0,0,0,0,0,0,0,0,0,0,0,0,0,0,0,0,0,0,0,0,0,0,0,0,0,0,0,0,0,0,0,0,0,0,0,0,0,0,0,0,0,0,0,0,0,0,0,0,0,0,0,0,0,0,0,0,0,0,0,0,0,0,
0,0,0,0,0,0,0,0,0,0,0,0,0,0,0,0,0,0,0,0,0,0,0,0,0,0,0,0,0,0,0,0,0,0,0,0,0,0,0,0,0,0,0,0,0,0,0,0,0,0,0,0,0,0,0,0,0,0,0,0,0,0,0,0,0,0,0,0,0,0,0,0,0,0,0,0,0,0,0,0,0,0,0,0,0,0,0,0,0,0,0,0,0,0,0,0,0,0,0,0,
0,0,0,0,0,0,0,0,0,0,0,0,0,0,0,0,0,0,0,0,0,0,0,0,0,0,0,0,0,0,0,0,0,0,0,0,0,0,0,0,0,0,0,0,0,0,0,0,0,0,0,0,0,0,0,0,0,0,0,0,0,0,0,0,0,0,0,0,0,0,0,0,0,0,0,0,0,0,0,0,0,0,0,0,0,0,0,0,0,0,0,0,0,0,0,0,0,0,0,0,
0,0,0,0,0,0,0,0,0,0,0,0,0,0,0,0,0,0,0,0,0,0,0,0,0,0,0,0,0,0,0,0,0,0,0,0,0,0,0,0,0,0,0,0,0,0,0,0,0,0,0,0,0,0,0,0,0,0,0,0,0,0,0,0,0,0,0,0,0,0,0,0,0,0,0,0,0,0,0,0,0,0,0,0,0,0,0,0,0,0,0,0,0,0,0,0,0,0,0,0,
0,0,0,0,0,0,0,0,0,0,0,0,0,0,0,0,0,0,0,0,0,0,0,0,0,0,0,0,0,0,0,0,0,0,0,0,0,0,0,0,0,0,0,0,0,0,0,0,0,0,0,0,0,0,0,0,0,0,0,0,0,0,0,0,0,0,0,0,0,0,0,0,0,0,0,0,0,0,0,0,0,0,0,0,0,0,0,0,0,0,0,0,0,0,0,0,0,0,0,0,
0,0,0,0,0,0,0,0,0,0,0,0,0,0,0,0,0,0,0,0,0,0,0,0,0,0,0,0,0,0,0,0,0,0,0,0,0,0,0,0,0,0,0,0,0,0,0,0,0,0,0,0,0,0,0,0,0,0,0,0,0,0,0,0,0,0,0,0,0,0,0,0,0,0,0,0,0,0,0,0,0,0,0,0,0,0,0,0,0,0,0,0,0,0,0,0,0,0,0,0,
0,0,0,0,0,0,0,0,0,0,0,0,0,0,0,0,0,0,0,0,0,0,0,0,0,0,0,0,0,0,0,0,0,0,0,0,0,0,0,0,0,0,0,0,0,0,0,0,0,0,0,0,0,0,0,0,0,0,0,0,0,0,0,0,0,0,0,0,0,0,0,0,0,0,0,0,0,0,0,0,0,0,0,0,0,0,0,0,0,0,0,0,0,0,0,0,0,0,0,0,
0,0,0,0,0,0,0,0,0,0,0,0,0,0,0,0,0,0,0,0,0,0,0,0,0,0,0,0,0,0,0,0,0,0,0,0,0,0,0,0,0,0,0,0,0,0,0,0,0,0,0,0,0,0,0,0,0,0,0,0,0,0,0,0,0,0,0,0,0,0,0,0,0,0,0,0,0,0,0,0,0,0,0,0,0,0,0,0,0,0,0,0,0,0,0,0,0,0,0,0,
0,0,0,0,0,0,0,0,0,0,0,0,0,0,0,0,0,0,0,0,0,0,0,0,0,0,0,0,0,0,0,0,0,0,0,0,0,0,0,0,0,0,0,0,0,0,0,0,0,0,0,0,0,0,0,0,0,0,0,0,0,0,0,0,0,0,0,0,0,0,0,0,0,0,0,0,0,0,0,0,0,0,0,0,0,0,0,0,0,0,0,0,0,0,0,0,0,0,0,0,
0,0,0,0,0,0,0,0,0,0,0,0,0,0,0,0,0,0,0,0,0,0,0,0,0,0,0,0,0,0,0,0,0,0,0,0,0,0,0,0,0,0,0,0,0,0,0,0,0,0,0,0,0,0,0,0,0,0,0,0,0,0,0,0,0,0,0,0,0,0,0,0,0,0,0,0,0,0,0,0,0,0,0,0,0,0,0,0,0,0,0,0,0,0,0,0,0,0,0,0,
0,0,0,0,0,0,0,0,0,0,0,0,0,0,0,0,0,0,0,0,0,0,0,0,0,0,0,0,0,0,0,0,0,0,0,0,0,0,0,0,0,0,0,0,0,0,0,0,0,0,0,0,0,0,0,0,0,0,0,0,0,0,0,0,0,0,0,0,0,0,0,0,0,0,0,0,0,0,0,0,0,0,0,0,0,0,0,0,0,0,0,0,0,0,0,0,0,0,0,0,
0,0,0,0,0,0,0,0,0,0,0,0,0,0,0,0,0,0,0,0,0,0,0,0,0,0,0,0,0,0,0,0,0,0,0,0,0,0,0,0,0,0,0,0,0,0,0,0,0,0,0,0,0,0,0,0,0,0,0,0,0,0,0,0,0,0,0,0,0,0,0,0,0,0,0,0,0,0,0,0,0,0,0,0,0,0,0,0,0,0,0,0,0,0,0,0,0,0,0,0,
0,0,0,0,0,0,0,0,0,0,0,0,0,0,0,0,0,0,0,0,0,0,0,0,0,0,0,0,0,0,0,0,0,0,0,0,0,0,0,0,0,0,0,0,0,0,0,0,0,0,0,0,0,0,0,0,0,0,0,0,0,0,0,0,0,0,0,0,0,0,0,0,0,0,0,0,0,0,0,0,0,0,0,0,0,0,0,0,0,0,0,0,0,0,0,0,0,0,0,0,
0,0,0,0,0,0,0,0,0,0,0,0,0,0,0,0,0,0,0,0,0,0,0,0,0,0,0,0,0,0,0,0,0,0,0,0,0,0,0,0,0,0,0,0,0,0,0,0,0,0,0,0,0,0,0,0,0,0,0,0,0,0,0,0,0,0,0,0,0,0,0,0,0,0,0,0,0,0,0,0,0,0,0,0,0,0,0,0,0,0,0,0,0,0,0,0,0,0,0,0,
0,0,0,0,0,0,0,0,0,0,0,0,0,0,0,0,0,0,0,0,0,0,0,0,0,0,0,0,0,0,0,0,0,0,0,0,0,0,0,0,0,0,0,0,0,0,0,0,0,0,0,0,0,0,0,0,0,0,0,0,0,0,0,0,0,0,0,0,0,0,0,0,0,0,0,0,0,0,0,0,0,0,0,0,0,0,0,0,0,0,0,0,0,0,0,0,0,0,0,0,
0,0,0,0,0,0,0,0,0,0,0,0,0,0,0,0,0,0,0,0,0,0,0,0,0,0,0,0,0,0,0,0,0,0,0,0,0,0,0,0,0,0,0,0,0,0,0,0,0,0,0,0,0,0,0,0,0,0,0,0,0,0,0,0,0,0,0,0,0,0,0,0,0,0,0,0,0,0,0,0,0,0,0,0,0,0,0,0,0,0,0,0,0,0,0,0,0,0,0,0,
0,0,0,0,0,0,0,0,0,0,0,0,0,0,0,0,0,0,0,0,0,0,0,0,0,0,0,0,0,0,0,0,0,0,0,0,0,0,0,0,0,0,0,0,0,0,0,0,0,0,0,0,0,0,0,0,0,0,0,0,0,0,0,0,0,0,0,0,0,0,0,0,0,0,0,0,0,0,0,0,0,0,0,0,0,0,0,0,0,0,0,0,0,0,0,0,0,0,0,0,
0,0,0,0,0,0,0,0,0,0,0,0,0,0,0,0,0,0,0,0,0,0,0,0,0,0,0,0,0,0,0,0,0,0,0,0,0,0,0,0,0,0,0,0,0,0,0,0,0,0,0,0,0,0,0,0,0,0,0,0,0,0,0,0,0,0,0,0,0,0,0,0,0,0,0,0,0,0,0,0,0,0,0,0,0,0,0,0,0,0,0,0,0,0,0,0,0,0,0,0,
0,0,0,0,0,0,0,0,0,0,0,0,0,0,0,0,0,0,0,0,0,0,0,0,0,0,0,0,0,0,0,0,0,0,0,0,0,0,0,0,0,0,0,0,0,0,0,0,0,0,0,0,0,0,0,0,0,0,0,0,0,0,0,0,0,0,0,0,0,0,0,0,0,0,0,0,0,0,0,0,0,0,0,0,0,0,0,0,0,0,0,0,0,0,0,0,0,0,0,0,
0,0,0,0,0,0,0,0,0,0,0,0,0,0,0,0,0,0,0,0,0,0,0,0,0,0,0,0,0,0,0,0,0,0,0,0,0,0,0,0,0,0,0,0,0,0,0,0,0,0,0,0,0,0,0,0,0,0,0,0,0,0,0,0,0,0,0,0,0,0,0,0,0,0,0,0,0,0,0,0,0,0,0,0,0,0,0,0,0,0,0,0,0,0,0,0,0,0,0,0,
0,0,0,0,0,0,0,0,0,0,0,0,0,0,0,0,0,0,0,0,0,0,0,0,0,0,0,0,0,0,0,0,0,0,0,0,0,0,0,0,0,0,0,0,0,0,0,0,0,0,0,0,0,0,0,0,0,0,0,0,0,0,0,0,0,0,0,0,0,0,0,0,0,0,0,0,0,0,0,0,0,0,0,0,0,0,0,0,0,0,0,0,0,0,0,0,0,0,0,0,
0,0,0,0,0,0,0,0,0,0,0,0,0,0,0,0,0,0,0,0,0,0,0,0,0,0,0,0,0,0,0,0,0,0,0,0,0,0,0,0,0,0,0,0,0,0,0,0,0,0,0,0,0,0,0,0,0,0,0,0,0,0,0,0,0,0,0,0,0,0,0,0,0,0,0,0,0,0,0,0,0,0,0,0,0,0,0,0,0,0,0,0,0,0,0,0,0,0,0,0,
0,0,0,0,0,0,0,0,0,0,0,0,0,0,0,0,0,0,0,0,0,0,0,0,0,0,0,0,0,0,0,0,0,0,0,0,0,0,0,0,0,0,0,0,0,0,0,0,0,0,0,0,0,0,0,0,0,0,0,0,0,0,0,0,0,0,0,0,0,0,0,0,0,0,0,0,0,0,0,0,0,0,0,0,0,0,0,0,0,0,0,0,0,0,0,0,0,0,0,0,
0,0,0,0,0,0,0,0,0,0,0,0,0,0,0,0,0,0,0,0,0,0,0,0,0,0,0,0,0,0,0,0,0,0,0,0,0,0,0,0,0,0,0,0,0,0,0,0,0,0,0,0,0,0,0,0,0,0,0,0,0,0,0,0,0,0,0,0,0,0,0,0,0,0,0,0,0,0,0,0,0,0,0,0,0,0,0,0,0,0,0,0,0,0,0,0,0,0,0,0,
0,0,0,0,0,0,0,0,0,0,0,0,0,0,0,0,0,0,0,0,0,0,0,0,0,0,0,0,0,0,0,0,0,0,0,0,0,0,0,0,0,0,0,0,0,0,0,0,0,0,0,0,0,0,0,0,0,0,0,0,0,0,0,0,0,0,0,0,0,0,0,0,0,0,0,0,0,0,0,0,0,0,0,0,0,0,0,0,0,0,0,0,0,0,0,0,0,0,0,0,
0,0,0,0,0,0,0,0,0,0,0,0,0,0,0,0,0,0,0,0,0,0,0,0,0,0,0,0,0,0,0,0,0,0,0,0,0,0,0,0,0,0,0,0,0,0,0,0,0,0,0,0,0,0,0,0,0,0,0,0,0,0,0,0,0,0,0,0,0,0,0,0,0,0,0,0,0,0,0,0,0,0,0,0,0,0,0,0,0,0,0,0,0,0,0,0,0,0,0,0,
0,0,0,0,0,0,0,0,0,0,0,0,0,0,0,0,0,0,0,0,0,0,0,0,0,0,0,0,0,0,0,0,0,0,0,0,0,0,0,0,0,0,0,0,0,0,0,0,0,0,0,0,0,0,0,0,0,0,0,0,0,0,0,0,0,0,0,0,0,0,0,0,0,0,0,0,0,0,0,0,0,0,0,0,0,0,0,0,0,0,0,0,0,0,0,0,0,0,0,0,
0,0,0,0,0,0,0,0,0,0,0,0,0,0,0,0,0,0,0,0,0,0,0,0,0,0,0,0,0,0,0,0,0,0,0,0,0,0,0,0,0,0,0,0,0,0,0,0,0,0,0,0,0,0,0,0,0,0,0,0,0,0,0,0,0,0,0,0,0,0,0,0,0,0,0,0,0,0,0,0,0,0,0,0,0,0,0,0,0,0,0,0,0,0,0,0,0,0,0,0,
0,0,0,0,0,0,0,0,0,0,0,0,0,0,0,0,0,0,0,0,0,0,0,0,0,0,0,0,0,0,0,0,0,0,0,0,0,0,0,0,0,0,0,0,0,0,0,0,0,0,0,0,0,0,0,0,0,0,0,0,0,0,0,0,0,0,0,0,0,0,0,0,0,0,0,0,0,0,0,0,0,0,0,0,0,0,0,0,0,0,0,0,0,0,0,0,0,0,0,0,
0,0,0,0,0,0,0,0,0,0,0,0,0,0,0,0,0,0,0,0,0,0,0,0,0,0,0,0,0,0,0,0,0,0,0,0,0,0,0,0,0,0,0,0,0,0,0,0,0,0,0,0,0,0,0,0,0,0,0,0,0,0,0,0,0,0,0,0,0,0,0,0,0,0,0,0,0,0,0,0,0,0,0,0,0,0,0,0,0,0,0,0,0,0,0,0,0,0,0,0,
0,0,0,0,0,0,0,0,0,0,0,0,0,0,0,0,0,0,0,0,0,0,0,0,0,0,0,0,0,0,0,0,0,0,0,0,0,0,0,0,0,0,0,0,0,0,0,0,0,0,0,0,0,0,0,0,0,0,0,0,0,0,0,0,0,0,0,0,0,0,0,0,0,0,0,0,0,0,0,0,0,0,0,0,0,0,0,0,0,0,0,0,0,0,0,0,0,0,0,0,
0,0,0,0,0,0,0,0,0,0,0,0,0,0,0,0,0,0,0,0,0,0,0,0,0,0,0,0,0,0,0,0,0,0,0,0,0,0,0,0,0,0,0,0,0,0,0,0,0,0,0,0,0,0,0,0,0,0,0,0,0,0,0,0,0,0,0,0,0,0,0,0,0,0,0,0,0,0,0,0,0,0,0,0,0,0,0,0,0,0,0,0,0,0,0,0,0,0,0,0,
0,0,0,0,0,0,0,0,0,0,0,0,0,0,0,0,0,0,0,0,0,0,0,0,0,0,0,0,0,0,0,0,0,0,0,0,0,0,0,0,0,0,0,0,0,0,0,0,0,0,0,0,0,0,0,0,0,0,0,0,0,0,0,0,0,0,0,0,0,0,0,0,0,0,0,0,0,0,0,0,0,0,0,0,0,0,0,0,0,0,0,0,0,0,0,0,0,0,0,0,
0,0,0,0,0,0,0,0,0,0,0,0,0,0,0,0,0,0,0,0,0,0,0,0,0,0,0,0,0,0,0,0,0,0,0,0,0,0,0,0,0,0,0,0,0,0,0,0,0,0,0,0,0,0,0,0,0,0,0,0,0,0,0,0,0,0,0,0,0,0,0,0,0,0,0,0,0,0,0,0,0,0,0,0,0,0,0,0,0,0,0,0,0,0,0,0,0,0,0,0,
0,0,0,0,0,0,0,0,0,0,0,0,0,0,0,0,0,0,0,0,0,0,0,0,0,0,0,0,0,0,0,0,0,0,0,0,0,0,0,0,0,0,0,0,0,0,0,0,0,0,0,0,0,0,0,0,0,0,0,0,0,0,0,0,0,0,0,0,0,0,0,0,0,0,0,0,0,0,0,0,0,0,0,0,0,0,0,0,0,0,0,0,0,0,0,0,0,0,0,0,
0,0,0,0,0,0,0,0,0,0,0,0,0,0,0,0,0,0,0,0,0,0,0,0,0,0,0,0,0,0,0,0,0,0,0,0,0,0,0,0,0,0,0,0,0,0,0,0,0,0,0,0,0,0,0,0,0,0,0,0,0,0,0,0,0,0,0,0,0,0,0,0,0,0,0,0,0,0,0,0,0,0,0,0,0,0,0,0,0,0,0,0,0,0,0,0,0,0,0,0,
0,0,0,0,0,0,0,0,0,0,0,0,0,0,0,0,0,0,0,0,0,0,0,0,0,0,0,0,0,0,0,0,0,0,0,0,0,0,0,0,0,0,0,0,0,0,0,0,0,0,0,0,0,0,0,0,0,0,0,0,0,0,0,0,0,0,0,0,0,0,0,0,0,0,0,0,0,0,0,0,0,0,0,0,0,0,0,0,0,0,0,0,0,0,0,0,0,0,0,0,
0,0,0,0,0,0,0,0,0,0,0,0,0,0,0,0,0,0,0,0,0,0,0,0,0,0,0,0,0,0,0,0,0,0,0,0,0,0,0,0,0,0,0,0,0,0,0,0,0,0,0,0,0,0,0,0,0,0,0,0,0,0,0,0,0,0,0,0,0,0,0,0,0,0,0,0,0,0,0,0,0,0,0,0,0,0,0,0,0,0,0,0,0,0,0,0,0,0,0,0,
0,0,0,0,0,0,0,0,0,0,0,0,0,0,0,0,0,0,0,0,0,0,0,0,0,0,0,0,0,0,0,0,0,0,0,0,0,0,0,0,0,0,0,0,0,0,0,0,0,0,0,0,0,0,0,0,0,0,0,0,0,0,0,0,0,0,0,0,0,0,0,0,0,0,0,0,0,0,0,0,0,0,0,0,0,0,0,0,0,0,0,0,0,0,0,0,0,0,0,0,
0,0,0,0,0,0,0,0,0,0,0,0,0,0,0,0,0,0,0,0,0,0,0,0,0,0,0,0,0,0,0,0,0,0,0,0,0,0,0,0,0,0,0,0,0,0,0,0,0,0,0,0,0,0,0,0,0,0,0,0,0,0,0,0,0,0,0,0,0,0,0,0,0,0,0,0,0,0,0,0,0,0,0,0,0,0,0,0,0,0,0,0,0,0,0,0,0,0,0,0,
0,0,0,0,0,0,0,0,0,0,0,0,0,0,0,0,0,0,0,0,0,0,0,0,0,0,0,0,0,0,0,0,0,0,0,0,0,0,0,0,0,0,0,0,0,0,0,0,0,0,0,0,0,0,0,0,0,0,0,0,0,0,0,0,0,0,0,0,0,0,0,0,0,0,0,0,0,0,0,0,0,0,0,0,0,0,0,0,0,0,0,0,0,0,0,0,0,0,0,0,
0,0,0,0,0,0,0,0,0,0,0,0,0,0,0,0,0,0,0,0,0,0,0,0,0,0,0,0,0,0,0,0,0,0,0,0,0,0,0,0,0,0,0,0,0,0,0,0,0,0,0,0,0,0,0,0,0,0,0,0,0,0,0,0,0,0,0,0,0,0,0,0,0,0,0,0,0,0,0,0,0,0,0,0,0,0,0,0,0,0,0,0,0,0,0,0,0,0,0,0,
0,0,0,0,0,0,0,0,0,0,0,0,0,0,0,0,0,0,0,0,0,0,0,0,0,0,0,0,0,0,0,0,0,0,0,0,0,0,0,0,0,0,0,0,0,0,0,0,0,0,0,0,0,0,0,0,0,0,0,0,0,0,0,0,0,0,0,0,0,0,0,0,0,0,0,0,0,0,0,0,0,0,0,0,0,0,0,0,0,0,0,0,0,0,0,0,0,0,0,0,
0,0,0,0,0,0,0,0,0,0,0,0,0,0,0,0,0,0,0,0,0,0,0,0,0,0,0,0,0,0,0,0,0,0,0,0,0,0,0,0,0,0,0,0,0,0,0,0,0,0,0,0,0,0,0,0,0,0,0,0,0,0,0,0,0,0,0,0,0,0,0,0,0,0,0,0,0,0,0,0,0,0,0,0,0,0,0,0,0,0,0,0,0,0,0,0,0,0,0,0,
0,0,0,0,0,0,0,0,0,0,0,0,0,0,0,0,0,0,0,0,0,0,0,0,0,0,0,0,0,0,0,0,0,0,0,0,0,0,0,0,0,0,0,0,0,0,0,0,0,0,0,0,0,0,0,0,0,0,0,0,0,0,0,0,0,0,0,0,0,0,0,0,0,0,0,0,0,0,0,0,0,0,0,0,0,0,0,0,0,0,0,0,0,0,0,0,0,0,0,0,
0,0,0,0,0,0,0,0,0,0,0,0,0,0,0,0,0,0,0,0,0,0,0,0,0,0,0,0,0,0,0,0,0,0,0,0,0,0,0,0,0,0,0,0,0,0,0,0,0,0,0,0,0,0,0,0,0,0,0,0,0,0,0,0,0,0,0,0,0,0,0,0,0,0,0,0,0,0,0,0,0,0,0,0,0,0,0,0,0,0,0,0,0,0,0,0,0,0,0,0,
0,0,0,0,0,0,0,0,0,0,0,0,0,0,0,0,0,0,0,0,0,0,0,0,0,0,0,0,0,0,0,0,0,0,0,0,0,0,0,0,0,0,0,0,0,0,0,0,0,0,0,0,0,0,0,0,0,0,0,0,0,0,0,0,0,0,0,0,0,0,0,0,0,0,0,0,0,0,0,0,0,0,0,0,0,0,0,0,0,0,0,0,0,0,0,0,0,0,0,0,
0,0,0,0,0,0,0,0,0,0,0,0,0,0,0,0,0,0,0,0,0,0,0,0,0,0,0,0,0,0,0,0,0,0,0,0,0,0,0,0,0,0,0,0,0,0,0,0,0,0,0,0,0,0,0,0,0,0,0,0,0,0,0,0,0,0,0,0,0,0,0,0,0,0,0,0,0,0,0,0,0,0,0,0,0,0,0,0,0,0,0,0,0,0,0,0,0,0,0,0,
0,0,0,0,0,0,0,0,0,0,0,0,0,0,0,0,0,0,0,0,0,0,0,0,0,0,0,0,0,0,0,0,0,0,0,0,0,0,0,0,0,0,0,0,0,0,0,0,0,0,0,0,0,0,0,0,0,0,0,0,0,0,0,0,0,0,0,0,0,0,0,0,0,0,0,0,0,0,0,0,0,0,0,0,0,0,0,0,0,0,0,0,0,0,0,0,0,0,0,0,
0,0,0,0,0,0,0,0,0,0,0,0,0,0,0,0,0,0,0,0,0,0,0,0,0,0,0,0,0,0,0,0,0,0,0,0,0,0,0,0,0,0,0,0,0,0,0,0,0,0,0,0,0,0,0,0,0,0,0,0,0,0,0,0,0,0,0,0,0,0,0,0,0,0,0,0,0,0,0,0,0,0,0,0,0,0,0,0,0,0,0,0,0,0,0,0,0,0,0,0,
0,0,0,0,0,0,0,0,0,0,0,0,0,0,0,0,0,0,0,0,0,0,0,0,0,0,0,0,0,0,0,0,0,0,0,0,0,0,0,0,0,0,0,0,0,0,0,0,0,0,0,0,0,0,0,0,0,0,0,0,0,0,0,0,0,0,0,0,0,0,0,0,0,0,0,0,0,0,0,0,0,0,0,0,0,0,0,0,0,0,0,0,0,0,0,0,0,0,0,0,
0,0,0,0,0,0,0,0,0,0,0,0,0,0,0,0,0,0,0,0,0,0,0,0,0,0,0,0,0,0,0,0,0,0,0,0,0,0,0,0,0,0,0,0,0,0,0,0,0,0,0,0,0,0,0,0,0,0,0,0,0,0,0,0,0,0,0,0,0,0,0,0,0,0,0,0,0,0,0,0,0,0,0,0,0,0,0,0,0,0,0,0,0,0,0,0,0,0,0,0,
0,0,0,0,0,0,0,0,0,0,0,0,0,0,0,0,0,0,0,0,0,0,0,0,0,0,0,0,0,0,0,0,0,0,0,0,0,0,0,0,0,0,0,0,0,0,0,0,0,0,0,0,0,0,0,0,0,0,0,0,0,0,0,0,0,0,0,0,0,0,0,0,0,0,0,0,0,0,0,0,0,0,0,0,0,0,0,0,0,0,0,0,0,0,0,0,0,0,0,0,
0,0,0,0,0,0,0,0,0,0,0,0,0,0,0,0,0,0,0,0,0,0,0,0,0,0,0,0,0,0,0,0,0,0,0,0,0,0,0,0,0,0,0,0,0,0,0,0,0,0,0,0,0,0,0,0,0,0,0,0,0,0,0,0,0,0,0,0,0,0,0,0,0,0,0,0,0,0,0,0,0,0,0,0,0,0,0,0,0,0,0,0,0,0,0,0,0,0,0,0,
0,0,0,0,0,0,0,0,0,0,0,0,0,0,0,0,0,0,0,0,0,0,0,0,0,0,0,0,0,0,0,0,0,0,0,0,0,0,0,0,0,0,0,0,0,0,0,0,0,0,0,0,0,0,0,0,0,0,0,0,0,0,0,0,0,0,0,0,0,0,0,0,0,0,0,0,0,0,0,0,0,0,0,0,0,0,0,0,0,0,0,0,0,0,0,0,0,0,0,0,
0,0,0,0,0,0,0,0,0,0,0,0,0,0,0,0,0,0,0,0,0,0,0,0,0,0,0,0,0,0,0,0,0,0,0,0,0,0,0,0,0,0,0,0,0,0,0,0,0,0,0,0,0,0,0,0,0,0,0,0,0,0,0,0,0,0,0,0,0,0,0,0,0,0,0,0,0,0,0,0,0,0,0,0,0,0,0,0,0,0,0,0,0,0,0,0,0,0,0,0,
0,0,0,0,0,0,0,0,0,0,0,0,0,0,0,0,0,0,0,0,0,0,0,0,0,0,0,0,0,0,0,0,0,0,0,0,0,0,0,0,0,0,0,0,0,0,0,0,0,0,0,0,0,0,0,0,0,0,0,0,0,0,0,0,0,0,0,0,0,0,0,0,0,0,0,0,0,0,0,0,0,0,0,0,0,0,0,0,0,0,0,0,0,0,0,0,0,0,0,0,
0,0,0,0,0,0,0,0,0,0,0,0,0,0,0,0,0,0,0,0,0,0,0,0,0,0,0,0,0,0,0,0,0,0,0,0,0,0,0,0,0,0,0,0,0,0,0,0,0,0,0,0,0,0,0,0,0,0,0,0,0,0,0,0,0,0,0,0,0,0,0,0,0,0,0,0,0,0,0,0,0,0,15151,0,0,0,0,0,0,0,0,0,0,0,0,0,0,0,0,0,
0,0,0,0,0,0,0,0,0,0,0,0,0,0,0,0,0,0,0,0,0,0,0,0,0,0,0,0,0,0,0,0,0,0,0,0,0,0,0,0,0,0,0,0,0,0,0,0,0,0,0,0,0,0,0,0,0,0,0,0,0,0,0,0,0,0,0,0,0,0,0,0,0,0,0,0,0,0,0,0,0,0,0,0,0,0,0,0,0,0,0,0,0,0,0,0,0,0,0,0,
0,0,0,0,0,0,0,0,0,0,0,0,0,0,0,0,0,0,0,0,0,0,0,0,0,0,0,0,0,0,0,0,0,0,0,0,0,0,0,0,0,0,0,0,0,0,0,0,0,0,0,0,0,0,0,0,0,0,0,0,0,0,0,0,0,0,0,0,0,0,0,0,0,0,0,0,0,0,0,0,0,0,0,0,0,0,0,0,0,0,0,0,0,0,0,0,0,0,0,0,
0,0,0,0,0,0,0,0,0,0,0,0,0,0,0,0,0,0,0,0,0,0,0,0,0,0,0,0,0,0,0,0,0,0,0,0,0,0,0,0,0,0,0,0,0,0,0,0,0,0,0,0,0,0,0,0,0,0,0,0,0,0,0,0,0,0,0,0,0,0,0,0,0,0,0,0,0,0,0,0,0,0,0,0,0,0,0,0,0,0,0,0,0,0,0,0,0,0,0,0,
0,0,0,0,0,0,0,0,0,0,0,0,0,0,0,0,0,0,0,0,0,0,0,0,0,0,0,0,0,0,0,0,0,0,0,0,0,0,0,0,0,0,0,0,0,0,0,0,0,0,0,0,0,0,0,0,0,0,0,0,0,0,0,0,0,0,0,0,0,0,0,0,0,0,0,0,0,0,0,0,0,0,0,0,0,0,0,0,0,0,0,0,0,0,0,0,0,0,0,0,
0,0,0,0,0,0,0,0,0,0,0,0,0,0,0,0,0,0,0,0,0,0,0,0,0,0,0,0,0,0,0,0,0,0,0,0,0,0,0,0,0,0,0,0,0,0,0,0,0,0,0,0,0,0,0,0,0,0,0,0,0,0,0,0,0,0,0,0,0,0,0,0,0,0,0,0,0,0,0,0,0,0,0,0,0,0,0,0,0,0,0,0,0,0,0,0,0,0,0,0,
0,0,0,0,0,0,0,0,0,0,0,0,0,0,0,0,0,0,0,0,0,0,0,0,0,0,0,0,0,0,0,0,0,0,0,0,0,0,0,0,0,0,0,0,0,0,0,0,0,0,0,0,0,0,0,0,0,0,0,0,0,0,0,0,0,0,0,0,0,0,0,0,0,0,0,0,0,0,0,0,0,0,0,0,0,0,0,0,0,0,0,0,0,0,0,0,0,0,0,0,
0,0,0,0,0,0,0,0,0,0,0,0,0,0,0,0,0,0,0,0,0,0,0,0,0,0,0,0,0,0,0,0,0,0,0,0,0,0,0,0,0,0,0,0,0,0,0,0,0,0,0,0,0,0,0,0,0,0,0,0,0,0,0,0,0,0,0,0,0,0,0,0,0,0,0,0,0,0,0,0,0,0,0,0,0,0,0,0,0,0,0,0,0,0,0,0,0,0,0,0,
0,0,0,0,0,0,0,0,0,0,0,0,0,0,0,0,0,0,0,0,0,0,0,0,0,0,0,0,0,0,0,0,0,0,0,0,0,0,0,0,0,0,0,0,0,0,0,0,0,0,0,0,0,0,0,0,0,0,0,0,0,0,0,0,0,0,0,0,0,0,0,0,0,0,0,0,0,0,0,0,0,0,0,0,0,0,0,0,0,0,0,0,0,0,0,0,0,0,0,0,
0,0,0,0,0,0,0,0,0,0,0,0,0,0,0,0,0,0,0,0,0,0,0,0,0,0,0,0,0,0,0,0,0,0,0,0,0,0,0,0,0,0,0,0,0,0,0,0,0,0,0,0,0,0,0,0,0,0,0,0,0,0,0,0,0,0,0,0,0,0,0,0,0,0,0,0,0,0,0,0,0,0,0,0,0,0,0,0,0,0,0,0,0,0,0,0,0,0,0,0,
0,0,0,0,0,0,0,0,0,0,0,0,0,0,0,0,0,0,0,0,0,0,0,0,0,0,0,0,0,0,0,0,0,0,0,0,0,0,0,0,0,0,0,0,0,0,0,0,0,0,0,0,0,0,0,0,0,0,0,0,0,0,0,0,0,0,0,0,0,0,0,0,0,0,0,0,0,0,0,0,0,0,0,0,0,0,0,0,0,0,0,0,0,0,0,0,0,0,0,0,
0,0,0,0,0,0,0,0,0,0,0,0,0,0,0,0,0,0,0,0,0,0,0,0,0,0,0,0,0,0,0,0,0,0,0,0,0,0,0,0,0,0,0,0,0,0,0,0,0,0,0,0,0,0,0,0,0,0,0,0,0,0,0,0,0,0,0,0,0,0,0,0,0,0,0,0,0,0,0,0,0,0,0,0,0,0,0,0,0,0,0,0,0,0,0,0,0,0,0,0,
0,0,0,0,0,0,0,0,0,0,0,0,0,0,0,0,0,0,0,0,0,0,0,0,0,0,0,0,0,0,0,0,0,0,0,0,0,0,0,0,0,0,0,0,0,0,0,0,0,0,0,0,0,0,0,0,0,0,0,0,0,0,0,0,0,0,0,0,0,0,0,0,0,0,0,0,0,0,0,0,0,0,0,0,0,0,0,0,0,0,0,0,0,0,0,0,0,0,0,0,
0,0,0,0,0,0,0,0,0,0,0,0,0,0,0,0,0,0,0,0,0,0,0,0,0,0,0,0,0,0,0,0,0,0,0,0,0,0,0,0,0,0,0,0,0,0,0,0,0,0,0,0,0,0,0,0,0,0,0,0,0,0,0,0,0,0,0,0,0,0,0,0,0,0,0,0,0,0,0,0,0,0,0,0,0,0,0,0,0,0,0,0,0,0,0,0,0,0,0,0,
0,0,0,0,0,0,0,0,0,0,0,0,0,0,0,0,0,0,0,0,0,0,0,0,0,0,0,0,0,0,0,0,0,0,0,0,0,0,0,0,0,0,0,0,0,0,0,0,0,0,0,0,0,0,0,0,0,0,0,0,0,0,0,0,0,0,0,0,0,0,0,0,0,0,0,0,0,0,0,0,0,0,0,0,0,0,0,0,0,0,0,0,0,0,0,0,0,0,0,0,
0,0,0,0,0,0,0,0,0,0,0,0,0,0,0,0,0,0,0,0,0,0,0,0,0,0,0,0,0,0,0,0,0,0,0,0,0,0,0,0,0,0,0,0,0,0,0,0,0,0,0,0,0,0,0,0,0,0,0,0,0,0,0,0,0,0,0,0,0,0,0,0,0,0,0,0,0,0,0,0,0,0,0,0,0,0,0,0,0,0,0,0,0,0,0,0,0,0,0,0,
0,0,0,0,0,0,0,0,0,0,0,0,0,0,0,0,0,0,0,0,0,0,0,0,0,0,0,0,0,0,0,0,0,0,0,0,0,0,0,0,0,0,0,0,0,0,0,0,0,0,0,0,0,0,0,0,0,0,0,0,0,0,0,0,0,0,0,0,0,0,0,0,0,0,0,0,0,0,0,0,0,0,0,0,0,0,0,0,0,0,0,0,0,0,0,0,0,0,0,0,
0,0,0,0,0,0,0,0,0,0,0,0,0,0,0,0,0,0,0,0,0,0,0,0,0,0,0,0,0,0,0,0,0,0,0,0,0,0,0,0,0,0,0,0,0,0,0,0,0,0,0,0,0,0,0,0,0,0,0,0,0,0,0,0,0,0,0,0,0,0,0,0,0,0,0,0,0,0,0,0,0,0,0,0,0,0,0,0,0,0,0,0,0,0,0,0,0,0,0,0,
0,0,0,0,0,0,0,0,0,0,0,0,0,0,0,0,0,0,0,0,0,0,0,0,0,0,0,0,0,0,0,0,0,0,0,0,0,0,0,0,0,0,0,0,0,0,0,0,0,0,0,0,0,0,0,0,0,0,0,0,0,0,0,0,0,0,0,0,0,0,0,0,0,0,0,0,0,0,0,0,0,0,0,0,0,0,0,0,0,0,0,0,0,0,0,0,0,0,0,0,
0,0,0,0,0,0,0,0,0,0,0,0,0,0,0,0,0,0,0,0,0,0,0,0,0,0,0,0,0,0,0,0,0,0,0,0,0,0,0,0,0,0,0,0,0,0,0,0,0,0,0,0,0,0,0,0,0,0,0,0,0,0,0,0,0,0,0,0,0,0,0,0,0,0,0,0,0,0,0,0,0,0,0,0,0,0,0,0,0,0,0,0,0,0,0,0,0,0,0,0,
0,0,0,0,0,0,0,0,0,0,0,0,0,0,0,0,0,0,0,0,0,0,0,0,0,0,0,0,0,0,0,0,0,0,0,0,0,0,0,0,0,0,0,0,0,0,0,0,0,0,0,0,0,0,0,0,0,0,0,0,0,0,0,0,0,0,0,0,0,0,0,0,0,0,0,0,0,0,0,0,0,0,0,0,0,0,0,0,0,0,0,0,0,0,0,0,0,0,0,0,
0,0,0,0,0,0,0,0,0,0,0,0,0,0,0,0,0,0,0,0,0,0,0,0,0,0,0,0,0,0,0,0,0,0,0,0,0,0,0,0,0,0,0,0,0,0,0,0,0,0,0,0,0,0,0,0,0,0,0,0,0,0,0,0,0,0,0,0,0,0,0,0,0,0,0,0,0,0,0,0,0,0,0,0,0,0,0,0,0,0,0,0,0,0,0,0,0,0,0,0,
0,0,0,0,0,0,0,0,0,0,0,0,0,0,0,0,0,0,0,0,0,0,0,0,0,0,0,0,0,0,0,0,0,0,0,0,0,0,0,0,0,0,0,0,0,0,0,0,0,0,0,0,0,0,0,0,0,0,0,0,0,0,0,0,0,0,0,0,0,0,0,0,0,0,0,0,0,0,0,0,0,0,0,0,0,0,0,0,0,0,0,0,0,0,0,0,0,0,0,0,
0,0,0,0,0,0,0,0,0,0,0,0,0,0,0,0,0,0,0,0,0,0,0,0,0,0,0,0,0,0,0,0,0,0,0,0,0,0,0,0,0,0,0,0,0,0,0,0,0,0,0,0,0,0,0,0,0,0,0,0,0,0,0,0,0,0,0,0,0,0,0,0,0,0,0,0,0,0,0,0,0,0,0,0,0,0,0,0,0,0,0,0,0,0,0,0,0,0,0,0,
0,0,0,0,0,0,0,0,0,0,0,0,0,0,0,0,0,0,0,0,0,0,0,0,0,0,0,0,0,0,0,0,0,0,0,0,0,0,0,0,0,0,0,0,0,0,0,0,0,0,0,0,0,0,0,0,0,0,0,0,0,0,0,0,0,0,0,0,0,0,0,0,0,0,0,0,0,0,0,0,0,0,0,0,0,0,0,0,0,0,0,0,0,0,0,0,0,0,0,0,
0,0,0,0,0,0,0,0,0,0,0,0,0,0,0,0,0,0,0,0,0,0,0,0,0,0,0,0,0,0,0,0,0,0,0,0,0,0,0,0,0,0,0,0,0,0,0,0,0,0,0,0,0,0,0,0,0,0,0,0,0,0,0,0,0,0,0,0,0,0,0,0,0,0,0,0,0,0,0,0,0,0,0,0,0,0,0,0,0,0,0,0,0,0,0,0,0,0,0,0,
0,0,0,0,0,0,0,0,0,0,0,0,0,0,0,0,0,0,0,0,0,0,0,0,0,0,0,0,0,0,0,0,0,0,0,0,0,0,0,0,0,0,0,0,0,0,0,0,0,0,0,0,0,0,0,0,0,0,0,0,0,0,0,0,0,0,0,0,0,0,0,0,0,0,0,0,0,0,0,0,0,0,0,0,0,0,0,0,0,0,0,0,0,0,0,0,0,0,0,0,
0,0,0,0,0,0,0,0,0,0,0,0,0,0,0,0,0,0,0,0,0,0,0,0,0,0,0,0,0,0,0,0,0,0,0,0,0,0,0,0,0,0,0,0,0,0,0,0,0,0,0,0,0,0,0,0,0,0,0,0,0,0,0,0,0,0,0,0,0,0,0,0,0,0,0,0,0,0,0,0,0,0,0,0,0,0,0,0,0,0,0,0,0,0,0,0,0,0,0,0,
0,0,0,0,0,0,0,0,0,0,0,0,0,0,0,0,0,0,0,0,0,0,0,0,0,0,0,0,0,0,0,0,0,0,0,0,0,0,0,0,0,0,0,0,0,0,0,0,0,0,0,0,0,0,0,0,0,0,0,0,0,0,0,0,0,0,0,0,0,0,0,0,0,0,0,0,0,0,0,0,0,0,0,0,0,0,0,0,0,0,0,0,0,0,0,0,0,0,0,0,
0,0,0,0,0,0,0,0,0,0,0,0,0,0,0,0,0,0,0,0,0,0,0,0,0,0,0,0,0,0,0,0,0,0,0,0,0,0,0,0,0,0,0,0,0,0,0,0,0,0,0,0,0,0,0,0,0,0,0,0,0,0,0,0,0,0,0,0,0,0,0,0,0,0,0,0,0,0,0,0,0,0,0,0,0,0,0,0,0,0,0,0,0,0,0,0,0,0,0,0,
0,0,0,0,0,0,0,0,0,0,0,0,0,0,0,0,0,0,0,0,0,0,0,0,0,0,0,0,0,0,0,0,0,0,0,0,0,0,0,0,0,0,0,0,0,0,0,0,0,0,0,0,0,0,0,0,0,0,0,0,0,0,0,0,0,0,0,0,0,0,0,0,0,0,0,0,0,0,0,0,0,0,0,0,0,0,0,0,0,0,0,0,0,0,0,0,0,0,0,0,
0,0,0,0,0,0,0,0,0,0,0,0,0,0,0,0,0,0,0,0,0,0,0,0,0,0,0,0,0,0,0,0,0,0,0,0,0,0,0,0,0,0,0,0,0,0,0,0,0,0,0,0,0,0,0,0,0,0,0,0,0,0,0,0,0,0,0,0,0,0,0,0,0,0,0,0,0,0,0,0,0,0,0,0,0,0,0,0,0,0,0,0,0,0,0,0,0,0,0,0,
0,0,0,0,0,0,0,0,0,0,0,0,0,0,0,0,0,0,0,0,0,0,0,0,0,0,0,0,0,0,0,0,0,0,0,0,0,0,0,0,0,0,0,0,0,0,0,0,0,0,0,0,0,0,0,0,0,0,0,0,0,0,0,0,0,0,0,0,0,0,0,0,0,0,0,0,0,0,0,0,0,0,0,0,0,0,0,0,0,0,0,0,0,0,0,0,0,0,0,0,
0,0,0,0,0,0,0,0,0,0,0,0,0,0,0,0,0,0,0,0,0,0,0,0,0,0,0,0,0,0,0,0,0,0,0,0,0,0,0,0,0,0,0,0,0,0,0,0,0,0,0,0,0,0,0,0,0,0,0,0,0,0,0,0,0,0,0,0,0,0,0,0,0,0,0,0,0,0,0,0,0,0,0,0,0,0,0,0,0,0,0,0,0,0,0,0,0,0,0,0,
0,0,0,0,0,0,0,0,0,0,0,0,0,0,0,0,0,0,0,0,0,0,0,0,0,0,0,0,0,0,0,0,0,0,0,0,0,0,0,0,0,0,0,0,0,0,0,0,0,0,0,0,0,0,0,0,0,0,0,0,0,0,0,0,0,0,0,0,0,0,0,0,0,0,0,0,0,0,0,0,0,0,0,0,0,0,0,0,0,0,0,0,0,0,0,0,0,0,0,0,
0,0,0,0,0,0,0,0,0,0,0,0,0,0,0,0,0,0,0,0,0,0,0,0,0,0,0,0,0,0,0,0,0,0,0,0,0,0,0,0,0,0,0,0,0,0,0,0,0,0,0,0,0,0,0,0,0,0,0,0,0,0,0,0,0,0,0,0,0,0,0,0,0,0,0,0,0,0,0,0,0,0,0,0,0,0,0,0,0,0,0,0,0,0,0,0,0,0,0,0,
0,0,0,0,0,0,0,0,0,0,0,0,0,0,0,0,0,0,0,0,0,0,0,0,0,0,0,0,0,0,0,0,0,0,0,0,0,0,0,0,0,0,0,0,0,0,0,0,0,0,0,0,0,0,0,0,0,0,0,0,0,0,0,0,0,0,0,0,0,0,0,0,0,0,0,0,0,0,0,0,0,0,0,0,0,0,0,0,0,0,0,0,0,0,0,0,0,0,0,0,
0,0,0,0,0,0,0,0,0,0,0,0,0,0,0,0,0,0,0,0,0,0,0,0,0,0,0,0,0,0,0,0,0,0,0,0,0,0,0,0,0,0,0,0,0,0,0,0,0,0,0,0,0,0,0,0,0,0,0,0,0,0,0,0,0,0,0,0,0,0,0,0,0,0,0,0,0,0,0,0,0,0,0,0,0,0,0,0,0,0,0,0,0,0,0,0,0,0,0,0,
0,0,0,0,0,0,0,0,0,0,0,0,0,0,0,0,0,0,0,0,0,0,0,0,0,0,0,0,0,0,0,0,0,0,0,0,0,0,0,0,0,0,0,0,0,0,0,0,0,0,0,0,0,0,0,0,0,0,0,0,0,0,0,0,0,0,0,0,0,0,0,0,0,0,0,0,0,0,0,0,0,0,0,0,0,0,0,0,0,0,0,0,0,0,0,0,0,0,0,0,
0,0,0,0,0,0,0,0,0,0,0,0,0,0,0,0,0,0,0,0,0,0,0,0,0,0,0,0,0,0,0,0,0,0,0,0,0,0,0,0,0,0,0,0,0,0,0,0,0,0,0,0,0,0,0,0,0,0,0,0,0,0,0,0,0,0,0,0,0,0,0,0,0,0,0,0,0,0,0,0,0,0,0,0,0,0,0,0,0,0,0,0,0,0,0,0,0,0,0,0,
0,0,0,0,0,0,0,0,0,0,0,0,0,0,0,0,0,0,0,0,0,0,0,0,0,0,0,0,0,0,0,0,0,0,0,0,0,0,0,0,0,0,0,0,0,0,0,0,0,0,0,0,0,0,0,0,0,0,0,0,0,0,0,0,0,0,0,0,0,0,0,0,0,0,0,0,0,0,0,0,0,0,0,0,0,0,0,0,0,0,0,0,0,0,0,0,0,0,0,0,
0,0,0,0,0,0,0,0,0,0,0,0,0,0,0,0,0,0,0,0,0,0,0,0,0,0,0,0,0,0,0,0,0,0,0,0,0,0,0,0,0,0,0,0,0,0,0,0,0,0,0,0,0,0,0,0,0,0,0,0,0,0,0,0,0,0,0,0,0,0,0,0,0,0,0,0,0,0,0,0,0,0,0,0,0,0,0,0,0,0,0,0,0,0,0,0,0,0,0,0,
0,0,0,0,0,0,0,0,0,0,0,0,0,0,0,0,0,0,0,0,0,0,0,0,0,0,0,0,0,0,0,0,0,0,0,0,0,0,0,0,0,0,0,0,0,0,0,0,0,0,0,0,0,0,0,0,0,0,0,0,0,0,0,0,0,0,0,0,0,0,0,0,0,0,0,0,0,0,0,0,0,0,0,0,0,0,0,0,0,0,0,0,0,0,0,0,0,0,0,0,
0,0,0,0,0,0,0,0,0,0,0,0,0,0,0,0,0,0,0,0,0,0,0,0,0,0,0,0,0,0,0,0,0,0,0,0,0,0,0,0,0,0,0,0,0,0,0,0,0,0,0,0,0,0,0,0,0,0,0,0,0,0,0,0,0,0,0,0,0,0,0,0,0,0,0,0,0,0,0,0,0,0,0,0,0,0,0,0,0,0,0,0,0,0,0,0,0,0,0,0,
0,0,0,0,0,0,0,0,0,0,0,0,0,0,0,0,0,0,0,0,0,0,0,0,0,0,0,0,0,0,0,0,0,0,0,0,0,0,0,0,0,0,0,0,0,0,0,0,0,0,0,0,0,0,0,0,0,0,0,0,0,0,0,0,0,0,0,0,0,0,0,0,0,0,0,0,0,0,0,0,0,0,0,0,0,0,0,0,0,0,0,0,0,0,0,0,0,0,0,0,
0,0,0,0,0,0,0,0,0,0,0,0,0,0,0,0,0,0,0,0,0,0,0,0,0,0,0,0,0,0,0,0,0,0,0,0,0,0,0,0,0,0,0,0,0,0,0,0,0,0,0,0,0,0,0,0,0,0,0,0,0,0,0,0,0,0,0,0,0,0,0,0,0,0,0,0,0,0,0,0,0,0,0,0,0,0,0,0,0,0,0,0,0,0,0,0,0,0,0,0,
0,0,0,0,0,0,0,0,0,0,0,0,0,0,0,0,0,0,0,0,0,0,0,0,0,0,0,0,0,0,0,0,0,0,0,0,0,0,0,0,0,0,0,0,0,0,0,0,0,0,0,0,0,0,0,0,0,0,0,0,0,0,0,0,0,0,0,0,0,0,0,0,0,0,0,0,0,0,0,0,0,0,0,0,0,0,0,0,0,0,0,0,0,0,0,0,0,0,0,0,
0,0,0,0,0,0,0,0,0,0,0,0,0,0,0,0,0,0,0,0,0,0,0,0,0,0,0,0,0,0,0,0,0,0,0,0,0,0,0,0,0,0,0,0,0,0,0,0,0,0,0,0,0,0,0,0,0,0,0,0,0,0,0,0,0,0,0,0,0,0,0,0,0,0,0,0,0,0,0,0,0,0,0,0,0,0,0,0,0,0,0,0,0,0,0,0,0,0,0,0,
0,0,0,0,0,0,0,0,0,0,0,0,0,0,0,0,0,0,0,0,0,0,0,0,0,0,0,0,0,0,0,0,0,0,0,0,0,0,0,0,0,0,0,0,0,0,0,0,0,0,0,0,0,0,0,0,0,0,0,0,0,0,0,0,0,0,0,0,0,0,0,0,0,0,0,0,0,0,0,0,0,0,0,0,0,0,0,0,0,0,0,0,0,0,0,0,0,0,0,0,
0,0,0,0,0,0,0,0,0,0,0,0,0,0,0,0,0,0,0,0,0,0,0,0,0,0,0,0,0,0,0,0,0,0,0,0,0,0,0,0,0,0,0,0,0,0,0,0,0,0,0,0,0,0,0,0,0,0,0,0,0,0,0,0,0,0,0,0,0,0,0,0,0,0,0,0,0,0,0,0,0,0,0,0,0,0,0,0,0,0,0,0,0,0,0,0,0,0,0,0,
0,0,0,0,0,0,0,0,0,0,0,0,0,0,0,0,0,0,0,0,0,0,0,0,0,0,0,0,0,0,0,0,0,0,0,0,0,0,0,0,0,0,0,0,0,0,0,0,0,0,0,0,0,0,0,0,0,0,0,0,0,0,0,0,0,0,0,0,0,0,0,0,0,0,0,0,0,0,0,0,0,0,0,0,0,0,0,0,0,0,0,0,0,0,0,0,0,0,0,0,
0,0,0,0,0,0,0,0,0,0,0,0,0,0,0,0,0,0,0,0,0,0,0,0,0,0,0,0,0,0,0,0,0,0,0,0,0,0,0,0,0,0,0,0,0,0,0,0,0,0,0,0,0,0,0,0,0,0,0,0,0,0,0,0,0,0,0,0,0,0,0,0,0,0,0,0,0,0,0,0,0,0,0,0,0,0,0,0,0,0,0,0,0,0,0,0,0,0,0,0,
0,0,0,0,0,0,0,0,0,0,0,0,0,0,0,0,0,0,0,0,0,0,0,0,0,0,0,0,0,0,0,0,0,0,0,0,0,0,0,0,0,0,0,0,0,0,0,0,0,0,0,0,0,0,0,0,0,0,0,0,0,0,0,0,0,0,0,0,0,0,0,0,0,0,0,0,0,0,0,0,0,0,0,0,0,0,0,0,0,0,0,0,0,0,0,0,0,0,0,0,
0,0,0,0,0,0,0,0,0,0,0,0,0,0,0,0,0,0,0,0,0,0,0,0,0,0,0,0,0,0,0,0,0,0,0,0,0,0,0,0,0,0,0,0,0,0,0,0,0,0,0,0,0,0,0,0,0,0,0,0,0,0,0,0,0,0,0,0,0,0,0,0,0,0,0,0,0,0,0,0,0,0,0,0,0,0,0,0,0,0,0,0,0,0,0,0,0,0,0,0,
0,0,0,0,0,0,0,0,0,0,0,0,0,0,0,0,0,0,0,0,0,0,0,0,0,0,0,0,0,0,0,0,0,0,0,0,0,0,0,0,0,0,0,0,0,0,0,0,0,0,0,0,0,0,0,0,0,0,0,0,0,0,0,0,0,0,0,0,0,0,0,0,0,0,0,0,0,0,0,0,0,0,0,0,0,0,0,0,0,0,0,0,0,0,0,0,0,0,0,0,
0,0,0,0,0,0,0,0,0,0,0,0,0,0,0,0,0,0,0,0,0,0,0,0,0,0,0,0,0,0,0,0,0,0,0,0,0,0,0,0,0,0,0,0,0,0,0,0,0,0,0,0,0,0,0,0,0,0,0,0,0,0,0,0,0,0,0,0,0,0,0,0,0,0,0,0,0,0,0,0,0,0,0,0,0,0,0,0,0,0,0,0,0,0,0,0,0,0,0,0,
0,0,0,0,0,0,0,0,0,0,0,0,0,0,0,0,0,0,0,0,0,0,0,0,0,0,0,0,0,0,0,0,0,0,0,0,0,0,0,0,0,0,0,0,0,0,0,0,0,0,0,0,0,0,0,0,0,0,0,0,0,0,0,0,0,0,0,0,0,0,0,0,0,0,0,0,0,0,0,0,0,0,0,0,0,0,0,0,0,0,0,0,0,0,0,0,0,0,0,0,
0,0,0,0,0,0,0,0,0,0,0,0,0,0,0,0,0,0,0,0,0,0,0,0,0,0,0,0,0,0,0,0,0,0,0,0,0,0,0,0,0,0,0,0,0,0,0,0,0,0,0,0,0,0,0,0,0,0,0,0,0,0,0,0,0,0,0,0,0,0,0,0,0,0,0,0,0,0,0,0,0,0,0,0,0,0,0,0,0,0,0,0,0,0,0,0,0,0,0,0
</data>
 </layer>
 <objectgroup id="7" name="collisioni">
 <object id="31" x="1.33333333333333" y="1029.33333333333" width="2025.33333333333" height="153.333333333333"/>
 <object id="32" x="2032" y="1025.33333333333" width="848.5" height="28"/>
 <object id="33" x="2957.33333333333" y="1286.66666666667" width="237.333333333333" height="826.666666666667"/>
 <object id="34" x="2702.66666666667" y="2086.66666666667" width="497.333333333333" height="82.6666666666667"/>
 <object id="35" x="2628" y="2180" width="46.6666666666665" height="49.3333333333333"/>
 <object id="36" x="2690.66666666667" y="2145.33333333333" width="21.3333333333335" height="261.333333333333"/>
 <object id="37" x="2644" y="2266.66666666667" width="29.333333333333" height="49.3333333333335"/>
 <object id="38" x="2577.33333333333" y="2298.66666666667" width="29.3333333333335" height="53.3333333333335"/>
 <object id="39" x="2258.66666666667" y="2309.33333333333" width="69.3333333333335" height="69.3333333333333"/>
 <object id="40" x="2164" y="2157.33333333333" width="69.333333333333" height="73.3333333333333"/>
 <object id="41" x="2636" y="1869.33333333333" width="69.333333333333" height="73.3333333333334"/>
 <object id="42" x="2700" y="1608" width="78.6666666666665" height="78.6666666666666"/>
 <object id="43" x="2381.33333333333" y="1352" width="94.666666666667" height="733.333333333333"/>
 <object id="44" x="2496" y="1357.33333333333" width="66.6666666666665" height="29.3333333333333"/>
 <object id="45" x="2613.33333333333" y="1293.33333333333" width="46.666666666667" height="61.3333333333333"/>
 <object id="46" x="2784" y="1622.66666666667" width="162.666666666667" height="8"/>
 <object id="47" x="2764" y="1882.66666666667" width="184" height="6.66666666666663"/>
 <object id="48" x="2245.33333333333" y="1366.66666666667" width="130.666666666667" height="21.3333333333334"/>
 <object id="49" x="2156" y="1358.66666666667" width="62.6666666666665" height="64"/>
 <object id="50" x="1038.66666666667" y="1230.66666666667" width="860" height="61.3333333333333"/>
 <object id="51" x="1037.33333333333" y="1274.66666666667" width="32" height="496"/>
 <object id="52" x="841.333333333333" y="1201.33333333333" width="46.6666666666667" height="576"/>
 <object id="53" x="10.6666666666667" y="1757.33333333333" width="34.6666666666667" height="41.3333333333334"/>
 <object id="54" x="81.3333333333333" y="1746.66666666667" width="25.3333333333333" height="49.3333333333334"/>
 <object id="55" x="52" y="1852" width="24" height="40"/>
 <object id="56" x="106.666666666667" y="1877.33333333333" width="36" height="50.6666666666667"/>
 <object id="57" x="110.666666666667" y="1985.33333333333" width="29.3333333333333" height="30.6666666666667"/>
 <object id="58" x="208" y="1988" width="150.666666666667" height="26.6666666666666"/>
 <object id="59" x="206.666666666667" y="2094.66666666667" width="160" height="122.666666666667"/>
 <object id="60" x="384" y="2225.33333333333" width="117.333333333333" height="26.6666666666667"/>
 <object id="61" x="533.333333333333" y="2250.66666666667" width="22.6666666666667" height="280"/>
 <object id="62" x="606.666666666667" y="2330.66666666667" width="12" height="386.666666666667"/>
 <object id="63" x="665.333333333333" y="2466.66666666667" width="57.3333333333334" height="425.333333333333"/>
 <object id="64" x="660" y="2905.33333333333" width="78.6666666666666" height="732"/>
 <object id="65" x="664" y="3633.33333333333" width="70.6666666666666" height="206.666666666667"/>
 <object id="66" x="5.6666666666667" y="3933.33333333333" width="305.333333333333" height="55.666666666667"/>
 <object id="68" x="684" y="1968" width="64" height="56"/>
 <object id="69" x="1373.33333333333" y="2018.66666666667" width="25.3333333333333" height="205.333333333333"/>
 <object id="70" x="1385.33333333333" y="2220" width="656" height="2.66666666666652"/>
 <object id="71" x="2036" y="1709.33333333333" width="10.6666666666665" height="516"/>
 <object id="72" x="1382.66666666667" y="1526.66666666667" width="620" height="185.333333333333"/>
 <object id="73" x="2004" y="1712" width="36" height="8"/>
 <object id="74" x="1382.66666666667" y="1701.33333333333" width="12" height="236"/>
 <object id="75" x="1413.33333333333" y="1764" width="78.6666666666667" height="128"/>
 <object id="76" x="1420" y="2046.66666666667" width="70.6666666666665" height="132"/>
 <object id="77" x="1645.33333333333" y="2009.33333333333" width="58.6666666666667" height="149.333333333333"/>
 <object id="78" x="1906.66666666667" y="2061.33333333333" width="64" height="125.333333333333"/>
 <object id="79" x="1767.91666666667" y="1759.08333333333" width="138.666666666667" height="93.3333333333334"/>
 <object id="80" x="1158.66666666667" y="2264" width="45.3333333333335" height="1301.33333333333"/>
 <object id="81" x="1170.66666666667" y="3518.66666666667" width="658.666666666667" height="49.3333333333335"/>
 <object id="82" x="1221.33333333333" y="2268" width="812" height="44"/>
 <object id="83" x="1769.33333333333" y="2514.66666666667" width="236" height="26.6666666666667"/>
 <object id="84" x="2025.33333333333" y="2538.66666666667" width="37.3333333333333" height="42.6666666666667"/>
 <object id="85" x="1490.66666666667" y="2772" width="217.333333333333" height="25.3333333333333"/>
 <object id="86" x="1710.66666666667" y="3052" width="346.666666666667" height="21.333333333333"/>
 <object id="87" x="2024" y="3118.66666666667" width="40" height="252"/>
 <object id="88" x="2096" y="3360" width="1114.66666666667" height="28"/>
 <object id="89" x="1768" y="3614.66666666667" width="37.3333333333333" height="48"/>
 <object id="90" x="1993.33333333333" y="3618.66666666667" width="29.3333333333333" height="46.6666666666665"/>
 <object id="91" x="1868" y="3702.66666666667" width="1328" height="64"/>
 <object id="92" x="2137.33333333333" y="3757.33333333333" width="1058.66666666667" height="169.333333333333"/>
 <object id="93" x="3156" y="3612" width="57.333333333333" height="72"/>
 <object id="95" x="387.333333333333" y="4168.66666666666" width="1072" height="38.666666666667"/>
 <object id="96" x="1361.33333333333" y="3312" width="284" height="37.333333333333"/>
 <object id="97" x="2586.66666666667" y="2413.33333333333" width="130.666666666667" height="8"/>
 <object id="98" x="2482.66666666667" y="2444" width="93.3333333333335" height="2.66666666666652"/>
 <object id="99" x="2476" y="2444" width="9.33333333333303" height="170.666666666667"/>
 <object id="100" x="2093.33333333333" y="2606.66666666667" width="384" height="4"/>
 <object id="101" x="2093.33333333333" y="2605.33333333333" width="6.66666666666697" height="404"/>
 <object id="102" x="2113.33333333333" y="3012" width="22.666666666667" height="134.666666666667"/>
 <object id="103" x="2086.66666666667" y="3137.33333333333" width="14.6666666666665" height="181.333333333333"/>
 <object id="104" x="2097.33333333333" y="3305.33333333333" width="1100" height="10.666666666667"/>
 <object id="105" x="12" y="3848" width="4" height="14"/>
 <object id="106" x="11" y="3877" width="7" height="16"/>
 <object id="107" x="415" y="3743" width="19" height="48"/>
 <object id="108" x="385" y="3813" width="13" height="12"/>
 <object id="109" x="396" y="3911" width="76" height="45"/>
 <object id="110" x="496" y="3785" width="74" height="45"/>
 <object id="111" x="448" y="3707" width="51" height="30"/>
 <object id="112" x="517" y="3634" width="14" height="68"/>
 <object id="113" x="548" y="3584" width="17" height="55"/>
 <object id="114" x="40" y="4222" width="16" height="476"/>
 <object id="115" x="-6" y="4686" width="44" height="12"/>
 <object id="184" x="42.6666666666667" y="1929.33333333333" width="12" height="74.6666666666667"/>
 <object id="185" x="54.6666666666667" y="1992" width="29.3333333333333" height="8"/>
 <object id="186" x="74.6666666666667" y="1986.66666666667" height="70.6666666666665"/>
 <object id="187" x="86.6666666666667" y="2060" width="29.3333333333333" height="16"/>
 <object id="188" x="104" y="2062.66666666667" width="4" height="57.3333333333335"/>
 <object id="189" x="106.666666666667" y="2120" width="65.3333333333333" height="4"/>
 <object id="190" x="170.666666666667" y="2122.66666666667" width="5.33333333333334" height="130.666666666667"/>
 <object id="191" x="172" y="2250.66666666667" width="76" height="6.66666666666652"/>
 <object id="192" x="238.666666666667" y="2245.33333333333" width="1.33333333333334" height="49.3333333333335"/>
 <object id="193" x="240" y="2280" width="26.6666666666666" height="1.33333333333303"/>
 <object id="194" x="270.666666666667" y="2278.66666666667" width="2.66666666666669" height="46.6666666666665"/>
 <object id="195" x="273.333333333333" y="2320" width="37.3333333333333" height="6.66666666666652"/>
 <object id="196" x="306.666666666667" y="2312" width="1.33333333333337" height="65.333333333333"/>
 <object id="197" x="308" y="2376" width="29.3333333333333" height="9.33333333333303"/>
 <object id="198" x="334.666666666667" y="2381.33333333333" width="9.33333333333337" height="34.666666666667"/>
 <object id="199" x="340" y="2416" width="26.6666666666666" height="2.66666666666652"/>
 <object id="200" x="365.333333333333" y="2408" width="5.33333333333331" height="66.6666666666665"/>
 <object id="201" x="365.333333333333" y="2466.66666666667" width="36" height="4"/>
 <object id="202" x="402.666666666667" y="2462.66666666667" width="5.33333333333337" height="76"/>
 <object id="203" x="425.333333333333" y="2421.33333333333" width="80" height="161.333333333333"/>
 <object id="204" x="493.333333333333" y="2534.66666666667" width="17.3333333333333" height="133.333333333333"/>
 <object id="205" x="500" y="2628" width="104" height="49.333333333333"/>
 <object id="206" x="561.333333333333" y="2662.66666666667" width="80" height="116"/>
 <object id="207" x="621.333333333333" y="2756" width="45.3333333333334" height="592"/>
 <object id="208" x="584" y="3009.33333333333" width="62.6666666666666" height="578.666666666667"/>
 <object id="209" x="561.333333333333" y="3077.33333333333" width="26.6666666666667" height="496"/>
 <object id="210" x="528" y="3298.66666666667" width="21.3333333333333" height="289.333333333333"/>
 <object id="211" x="12" y="3789.33333333333" width="78.6666666666667" height="44"/>
 <object id="212" x="81.3333333333333" y="3766.66666666667" width="76" height="42.6666666666665"/>
 <object id="213" x="142.666666666667" y="3732" width="105.333333333333" height="64"/>
 <object id="214" x="214.666666666667" y="3705.33333333333" width="110.666666666667" height="68"/>
 <object id="215" x="277.333333333333" y="3642.66666666667" width="120" height="80"/>
 <object id="216" x="333.333333333333" y="3565.33333333333"/>
 <object id="217" x="333.333333333333" y="3565.33333333333"/>
 <object id="218" x="330.666666666667" y="3557.33333333333" width="93.3333333333334" height="102.666666666667"/>
 <object id="219" x="357.333333333333" y="3526.66666666667" width="145.333333333333" height="101.333333333333"/>
 <object id="220" x="418.666666666667" y="3456" width="92" height="110.666666666667"/>
 <object id="221" x="462.666666666667" y="3437.33333333333" width="89.3333333333334" height="80"/>
 <object id="222" x="502.666666666667" y="3368" width="94.6666666666666" height="102.666666666667"/>
 <object id="223" x="13.3333333333333" y="3806.66666666667" width="293.333333333333" height="137.333333333333"/>
 <object id="242" x="2878" y="6" width="324" height="658"/>
 <object id="243" x="2061" y="739.666666666667" width="813" height="291.333333333333"/>
 <object id="244" x="1670.66833333333" y="4169.99998333333" width="1535.99666666667" height="38.6667"/>
 <object id="245" x="1477" y="4493" width="26" height="213"/>
 <object id="246" x="1507" y="4520" width="154" height="179"/>
 <object id="247" x="1636" y="4496" width="15" height="48"/>
 <object id="248" x="1672" y="4162" width="53" height="531"/>
 <object id="249" x="1406" y="4152" width="53" height="553"/>
 <object id="252" x="2056.16666666667" y="405.000166666667" width="813" height="291.333"/>
 <object id="253" x="2288.16666666667" y="599.666833333333" width="554.333333333333" height="291.333"/>
 <object id="254" x="3025.5" y="658.3335" width="161" height="431.333"/>
 <object id="255" x="69.3333333333333" y="4201.99998333333" width="267.333333333333" height="16.6666999999998"/>
 <object id="256" x="328.3335" y="4063.66665" width="13.9996666666667" height="146.666699999999"/>
 <object id="257" x="329.00015" y="3826.6665" width="13.9997" height="146.667"/>
 <object id="258" x="3148" y="4048" width="44" height="136"/>
 <object id="260" name="acqua_lago di nemi" type="albero_taglio" x="2725.48733333333" y="2182.14" width="462.358666666667" height="907.72">
  <properties>
   <property name="id" value="acqua_lago di nemi"/>
   <property name="type" value="acqua surf"/>
  </properties>
 </object>
 <object id="261" name="acqua_lago di nemi" type="albero_taglio" x="2154.15383333333" y="2924.80666666667" width="905.025666666666" height="358.386666666667">
  <properties>
   <property name="id" value="acqua_lago di nemi"/>
   <property name="type" value="acqua surf"/>
  </properties>
 </object>
 <object id="262" name="acqua_lago di nemi" type="albero_taglio" x="2122.15366666667" y="2632.8065" width="454.359333333333" height="358.387">
  <properties>
   <property name="id" value="acqua_lago di nemi"/>
   <property name="type" value="acqua surf"/>
  </properties>
 </object>
 <object id="263" name="acqua_lago di nemi" type="albero_taglio" x="2502.15383333333" y="2479.47316666667" width="454.359" height="295.720333333333">
  <properties>
   <property name="id" value="acqua_lago di nemi"/>
   <property name="type" value="acqua surf"/>
  </properties>
 </object>
 <object id="264" name="acqua_lago di nemi" type="albero_taglio" x="2603.48716666667" y="2452.14" width="454.359" height="295.72">
  <properties>
   <property name="id" value="acqua_lago di nemi"/>
   <property name="type" value="acqua surf"/>
  </properties>
 </object>
 <object id="265" name="acqua_lago di nemi" type="albero_taglio" x="2710.15383333333" y="2706.80666666667" width="454.359" height="295.72">
  <properties>
   <property name="id" value="acqua_lago di nemi"/>
   <property name="type" value="acqua surf"/>
  </properties>
 </object>
 <object id="266" name="acqua_lago di nemi" type="albero_taglio" x="2116.8205" y="3186.80666666667" width="406.359" height="94.386666666667">
  <properties>
   <property name="id" value="acqua_lago di nemi"/>
   <property name="type" value="acqua surf"/>
  </properties>
 </object>
 <object id="267" x="2951.33333333333" y="1092" width="50.666666666667" height="20"/>
 <object id="268" x="2956.66666666667" y="1096.66666666667" width="10" height="48"/>
 <object id="270" x="2982" y="1146.66666666667" width="219.333333333333" height="18.6666666666667"/>
 <object id="271" x="2984.66666666667" y="1210.66666666667" width="216" height="58"/>
 <object id="272" x="3002" y="1166" width="194.666666666667" height="47.3333333333333"/>
 <object id="273" x="44" y="3992" width="14.5" height="38"/>
 <object id="274" x="74" y="4041.5" width="12.5" height="44.5"/>
 <object id="275" x="74" y="4138.5" width="12" height="17.5"/>
 <object id="276" x="42" y="4167.5" width="17" height="18.5"/>
 <object id="277" x="553" y="2147" width="77.5" height="58"/>
 <object id="278" x="424" y="2055.5" width="82.5" height="52"/>
 <object id="280" x="1314" y="3578" width="84" height="106"/>
 <object id="281" x="1346" y="3722" width="86" height="86"/>
 <object id="282" x="1488" y="3844" width="62" height="84"/>
 <object id="283" x="1642" y="3684" width="80" height="84"/>
 <object id="288" x="1767.25" y="1846.75" width="52.25" height="37.5"/>
 <object id="289" x="1855.5" y="1847.5" width="56.375" height="37.375"/>
 <object id="291" x="2915.5" y="1159.75" width="21.5" height="12.25"/>
 <object id="292" x="2884.75" y="1190.5" width="22" height="16.5"/>
 <object id="293" x="2889.5" y="1262.5" width="16.75" height="41"/>
 <object id="294" x="2903.25" y="1287.75" width="38.5" height="10.25"/>
</objectgroup>
 <objectgroup id="6" name="eventi">
 <object id="6" name="cartello_fine" type="cartello" x="2783.33333333333" y="1057.33333333333" width="32" height="32">
  <properties>
   <property name="testo" value="Via dei Laghi - verso Rocca di papa"/>
  </properties>
 </object>
 <object id="7" name="npc_guaritore_laghi" type="npc" x="1701.58333333333" y="1831.95833333333" width="22" height="16">
  <properties>
   <property name="azione" value="cura_squadra"/>
   <property name="id" value="npc_guaritore_laghi"/>
  </properties>
 </object>
 <object id="8" name="trainer_1" type="trainer" x="2872" y="1449.33333333333" width="32" height="32">
  <properties>
   <property name="direzione" value="sud"/>
   <property name="id" value="via_laghi_trainer_1"/>
   <property name="movimento" value="fisso"/>
  </properties>
 </object>
 <object id="9" name="trainer_2" type="trainer" x="869.333333333333" y="2250.66666666667" width="32" height="32">
  <properties>
   <property name="direzione" value="sud"/>
   <property name="id" value="via_laghi_trainer_2"/>
   <property name="movimento" value="fisso"/>
  </properties>
 </object>
 <object id="10" name="trainer_3" type="trainer" x="1006" y="2727" width="32" height="32">
  <properties>
   <property name="direzione" value="ns"/>
   <property name="id" value="via_laghi_trainer_3"/>
   <property name="pattuglia" value="true"/>
   <property name="movimento" value="fisso"/>
  </properties>
 </object>
 <object id="11" name="trainer_4" type="trainer" x="1440" y="2880" width="32" height="32">
  <properties>
   <property name="direzione" value="eo"/>
   <property name="id" value="via_laghi_trainer_4"/>
   <property name="pattuglia" value="true"/>
   <property name="movimento" value="fisso"/>
  </properties>
 </object>
 <object id="12" name="trainer_5" type="trainer" x="1664" y="3136" width="32" height="32">
  <properties>
   <property name="direzione" value="ns"/>
   <property name="id" value="via_laghi_trainer_5"/>
   <property name="pattuglia" value="true"/>
   <property name="movimento" value="fisso"/>
  </properties>
 </object>
 <object id="13" name="trainer_6" type="trainer" x="1444" y="3682.66666666667" width="32" height="32">
  <properties>
   <property name="direzione" value="sud"/>
   <property name="id" value="via_laghi_trainer_6"/>
   <property name="movimento" value="random"/>
  </properties>
 </object>
 <object id="14" name="trainer_7" type="trainer" x="1483" y="2459.33333333333" width="32" height="32">
  <properties>
   <property name="direzione" value="sud"/>
   <property name="id" value="via_laghi_trainer_7"/>
   <property name="movimento" value="random"/>
  </properties>
 </object>
 <object id="15" name="trainer_8" type="trainer" x="977.333333333333" y="1320" width="32" height="32">
  <properties>
   <property name="direzione" value="ovest"/>
   <property name="id" value="via_laghi_trainer_8"/>
   <property name="movimento" value="random"/>
  </properties>
 </object>
 <object id="16" name="oggetto_1" type="oggetto" x="2690.66666666667" y="1824" width="32" height="32">
  <properties>
   <property name="id" value="via_laghi_oggetto_1"/>
  </properties>
 </object>
 <object id="17" name="oggetto_2" type="oggetto" x="1308" y="2494.66666666667" width="32" height="32">
  <properties>
   <property name="id" value="via_laghi_oggetto_2"/>
  </properties>
 </object>
 <object id="18" name="oggetto_3" type="oggetto" x="1987.66666666667" y="1737.33333333333" width="23" height="19">
  <properties>
   <property name="id" value="via_laghi_oggetto_3"/>
  </properties>
 </object>
 <object id="19" name="oggetto_4" type="oggetto" x="1600" y="3264" width="32" height="32">
  <properties>
   <property name="id" value="via_laghi_oggetto_4"/>
  </properties>
 </object>
 <object id="20" name="oggetto_5" type="oggetto" x="157.333333333333" y="2080" width="32" height="32">
  <properties>
   <property name="id" value="via_laghi_oggetto_5"/>
  </properties>
 </object>
 <object id="21" name="oggetto_6" type="oggetto" x="2432" y="2556" width="32" height="32">
  <properties>
   <property name="id" value="via_laghi_oggetto_6"/>
  </properties>
 </object>
 <object id="22" name="oggetto_7" type="oggetto" x="2622.66666666667" y="2845.33333333333" width="32" height="32">
  <properties>
   <property name="id" value="via_laghi_oggetto_7"/>
  </properties>
 </object>
 <object id="23" name="oggetto_8" type="oggetto" x="1956" y="1225.33333333334" width="24.6666666666665" height="18.6666666666665">
  <properties>
   <property name="id" value="via_laghi_oggetto_8"/>
  </properties>
 </object>
 <object id="24" name="oggetto_9" type="oggetto" x="1856" y="3520" width="32" height="32">
  <properties>
   <property name="id" value="via_laghi_oggetto_9"/>
  </properties>
 </object>
 <object id="25" name="oggetto_7" type="oggetto" x="922.666666666667" y="1245.33333333333" width="32" height="32">
  <properties>
   <property name="id" value="via_laghi_oggetto_7"/>
  </properties>
 </object>
 <object id="28" name="cartello_inizio" type="cartello" x="483.500018333334" y="3973.33666666667" width="22.5" height="21.25">
  <properties>
   <property name="testo" value="Via dei Laghi - verso Monte Porzio Catone"/>
  </properties>
 </object>
 <object id="30" name="cartello_inizio" type="cartello" x="3039.33335166666" y="4062.67" width="32" height="32">
  <properties>
   <property name="testo" value="Via dei Laghi - verso nemi"/>
  </properties>
 </object>
 <object id="117" name="acqua_lago di albano_surf" type="acqua_surf" x="5.71733333333339" y="1949.277" width="23.232" height="1300.11266666667">
  <properties>
   <property name="id" value="acqua_lago di albano_surf"/>
   <property name="type" value="acqua surf"/>
  </properties>
 </object>
 <object id="118" name="acqua_lago di albano_surf" type="acqua_surf" x="7.05066666666666" y="3344.61166666667" width="103.232" height="161.443333333333">
  <properties>
   <property name="id" value="acqua_lago di albano_surf"/>
   <property name="type" value="acqua surf"/>
  </properties>
 </object>
 <object id="119" name="acqua_lago di albano_surf" type="acqua_surf" x="79.0506666666667" y="3519.2785" width="103.232" height="161.443">
  <properties>
   <property name="id" value="acqua_lago di albano_surf"/>
   <property name="type" value="acqua surf"/>
  </properties>
 </object>
 <object id="120" name="acqua_lago di albano_surf" type="acqua_surf" x="4.38400000000001" y="3684.61183333333" width="101.898666666667" height="76.1096666666672">
  <properties>
   <property name="id" value="acqua_lago di albano_surf"/>
   <property name="type" value="acqua surf"/>
  </properties>
 </object>
 <object id="121" name="acqua_lago di albano_surf" type="acqua_surf" x="42.3838333333333" y="2519.27848333333" width="336.565666666667" height="789.443033333334">
  <properties>
   <property name="id" value="acqua_lago di albano_surf"/>
   <property name="type" value="acqua surf"/>
  </properties>
 </object>
 <object id="122" name="acqua_lago di albano_surf" type="acqua_surf" x="87.7170000000001" y="2742.61183333333" width="248.566" height="789.443">
  <properties>
   <property name="id" value="acqua_lago di albano_surf"/>
   <property name="type" value="acqua surf"/>
  </properties>
 </object>
 <object id="123" name="acqua_lago di albano_surf" type="acqua_surf" x="530.383666666667" y="2785.2785" width="65.8993333333334" height="82.7763333333335">
  <properties>
   <property name="id" value="acqua_lago di albano_surf"/>
   <property name="type" value="acqua surf"/>
  </properties>
 </object>
 <object id="124" name="acqua_lago di albano_surf" type="acqua_surf" x="535.05035" y="2887.94518333333" width="65.8993" height="82.7763">
  <properties>
   <property name="id" value="acqua_lago di albano_surf"/>
   <property name="type" value="acqua surf"/>
  </properties>
 </object>
 <object id="125" name="acqua_lago di albano_surf" type="acqua_surf" x="444.383683333333" y="2974.61185" width="65.8993" height="82.7763">
  <properties>
   <property name="id" value="acqua_lago di albano_surf"/>
   <property name="type" value="acqua surf"/>
  </properties>
 </object>
 <object id="126" name="acqua_lago di albano_surf" type="acqua_surf" x="388.383683333333" y="2613.27851666667" width="65.8993" height="82.7763">
  <properties>
   <property name="id" value="acqua_lago di albano_surf"/>
   <property name="type" value="acqua surf"/>
  </properties>
 </object>
 <object id="127" name="acqua_lago di albano_surf" type="acqua_surf" x="475.05035" y="2693.27851666667" width="65.8993" height="82.7763">
  <properties>
   <property name="id" value="acqua_lago di albano_surf"/>
   <property name="type" value="acqua surf"/>
  </properties>
 </object>
 <object id="128" name="acqua_lago di albano_surf" type="acqua_surf" x="392.383683333333" y="2693.27851666667" width="65.8993" height="82.7763">
  <properties>
   <property name="id" value="acqua_lago di albano_surf"/>
   <property name="type" value="acqua surf"/>
  </properties>
 </object>
 <object id="129" name="acqua_lago di albano_surf" type="acqua_surf" x="457.717016666667" y="2766.61185" width="65.8993" height="82.7763">
  <properties>
   <property name="id" value="acqua_lago di albano_surf"/>
   <property name="type" value="acqua surf"/>
  </properties>
 </object>
 <object id="130" name="acqua_lago di albano_surf" type="acqua_surf" x="381.717016666667" y="2778.61185" width="65.8993" height="82.7763">
  <properties>
   <property name="id" value="acqua_lago di albano_surf"/>
   <property name="type" value="acqua surf"/>
  </properties>
 </object>
 <object id="131" name="acqua_lago di albano_surf" type="acqua_surf" x="465.717016666667" y="2825.27851666667" width="65.8993" height="82.7763">
  <properties>
   <property name="id" value="acqua_lago di albano_surf"/>
   <property name="type" value="acqua surf"/>
  </properties>
 </object>
 <object id="132" name="acqua_lago di albano_surf" type="acqua_surf" x="407.05035" y="2870.61185" width="65.8993" height="82.7763">
  <properties>
   <property name="id" value="acqua_lago di albano_surf"/>
   <property name="type" value="acqua surf"/>
  </properties>
 </object>
 <object id="133" name="acqua_lago di albano_surf" type="acqua_surf" x="395.05035" y="2871.94518333333" width="65.8993" height="82.7763">
  <properties>
   <property name="id" value="acqua_lago di albano_surf"/>
   <property name="type" value="acqua surf"/>
  </properties>
 </object>
 <object id="134" name="acqua_lago di albano_surf" type="acqua_surf" x="363.05035" y="2894.61185" width="65.8993" height="82.7763">
  <properties>
   <property name="id" value="acqua_lago di albano_surf"/>
   <property name="type" value="acqua surf"/>
  </properties>
 </object>
 <object id="135" name="acqua_lago di albano_surf" type="acqua_surf" x="379.05035" y="3047.94518333333" width="65.8993" height="82.7763">
  <properties>
   <property name="id" value="acqua_lago di albano_surf"/>
   <property name="type" value="acqua surf"/>
  </properties>
 </object>
 <object id="136" name="acqua_lago di albano_surf" type="acqua_surf" x="369.717016666667" y="3070.61185" width="65.8993" height="82.7763">
  <properties>
   <property name="id" value="acqua_lago di albano_surf"/>
   <property name="type" value="acqua surf"/>
  </properties>
 </object>
 <object id="137" name="acqua_lago di albano_surf" type="acqua_surf" x="369.717016666667" y="3165.27851666667" width="65.8993" height="82.7763">
  <properties>
   <property name="id" value="acqua_lago di albano_surf"/>
   <property name="type" value="acqua surf"/>
  </properties>
 </object>
 <object id="138" name="acqua_lago di albano_surf" type="acqua_surf" x="371.05035" y="3237.27851666667" width="65.8993" height="82.7763">
  <properties>
   <property name="id" value="acqua_lago di albano_surf"/>
   <property name="type" value="acqua surf"/>
  </properties>
 </object>
 <object id="139" name="acqua_lago di albano_surf" type="acqua_surf" x="367.05035" y="3277.27851666667" width="65.8993" height="82.7763">
  <properties>
   <property name="id" value="acqua_lago di albano_surf"/>
   <property name="type" value="acqua surf"/>
  </properties>
 </object>
 <object id="140" name="acqua_lago di albano_surf" type="acqua_surf" x="351.05035" y="3309.27851666667" width="65.8993" height="82.7763">
  <properties>
   <property name="id" value="acqua_lago di albano_surf"/>
   <property name="type" value="acqua surf"/>
  </properties>
 </object>
 <object id="141" name="acqua_lago di albano_surf" type="acqua_surf" x="333.717016666667" y="3379.94518333333" width="65.8993" height="82.7763">
  <properties>
   <property name="id" value="acqua_lago di albano_surf"/>
   <property name="type" value="acqua surf"/>
  </properties>
 </object>
 <object id="142" name="acqua_lago di albano_surf" type="acqua_surf" x="329.717016666667" y="3411.94518333333" width="65.8993" height="82.7763">
  <properties>
   <property name="id" value="acqua_lago di albano_surf"/>
   <property name="type" value="acqua surf"/>
  </properties>
 </object>
 <object id="143" name="acqua_lago di albano_surf" type="acqua_surf" x="392.383683333333" y="3365.27851666667" width="65.8993" height="82.7763">
  <properties>
   <property name="id" value="acqua_lago di albano_surf"/>
   <property name="type" value="acqua surf"/>
  </properties>
 </object>
 <object id="144" name="acqua_lago di albano_surf" type="acqua_surf" x="439.05035" y="3299.94518333333" width="65.8993" height="82.7763">
  <properties>
   <property name="id" value="acqua_lago di albano_surf"/>
   <property name="type" value="acqua surf"/>
  </properties>
 </object>
 <object id="145" name="acqua_lago di albano_surf" type="acqua_surf" x="452.383683333333" y="3239.94518333333" width="65.8993" height="82.7763">
  <properties>
   <property name="id" value="acqua_lago di albano_surf"/>
   <property name="type" value="acqua surf"/>
  </properties>
 </object>
 <object id="146" name="acqua_lago di albano_surf" type="acqua_surf" x="449.717016666667" y="3097.27851666667" width="65.8993" height="82.7763">
  <properties>
   <property name="id" value="acqua_lago di albano_surf"/>
   <property name="type" value="acqua surf"/>
  </properties>
 </object>
 <object id="147" name="acqua_lago di albano_surf" type="acqua_surf" x="448.383683333333" y="3031.94518333333" width="65.8993" height="82.7763">
  <properties>
   <property name="id" value="acqua_lago di albano_surf"/>
   <property name="type" value="acqua surf"/>
  </properties>
 </object>
 <object id="148" name="acqua_lago di albano_surf" type="acqua_surf" x="461.717016666667" y="2965.27851666667" width="65.8993" height="82.7763">
  <properties>
   <property name="id" value="acqua_lago di albano_surf"/>
   <property name="type" value="acqua surf"/>
  </properties>
 </object>
 <object id="149" name="acqua_lago di albano_surf" type="acqua_surf" x="501.717016666667" y="2918.61185" width="65.8993" height="82.7763">
  <properties>
   <property name="id" value="acqua_lago di albano_surf"/>
   <property name="type" value="acqua surf"/>
  </properties>
 </object>
 <object id="150" name="acqua_lago di albano_surf" type="acqua_surf" x="508.383683333333" y="2918.61185" width="65.8993" height="82.7763">
  <properties>
   <property name="id" value="acqua_lago di albano_surf"/>
   <property name="type" value="acqua surf"/>
  </properties>
 </object>
 <object id="151" name="acqua_lago di albano_surf" type="acqua_surf" x="489.717016666667" y="2971.94518333333" width="65.8993" height="82.7763">
  <properties>
   <property name="id" value="acqua_lago di albano_surf"/>
   <property name="type" value="acqua surf"/>
  </properties>
 </object>
 <object id="152" name="acqua_lago di albano_surf" type="acqua_surf" x="435.05035" y="3107.94518333333" width="65.8993" height="82.7763">
  <properties>
   <property name="id" value="acqua_lago di albano_surf"/>
   <property name="type" value="acqua surf"/>
  </properties>
 </object>
 <object id="153" name="acqua_lago di albano_surf" type="acqua_surf" x="453.717016666667" y="3178.61185" width="65.8993" height="82.7763">
  <properties>
   <property name="id" value="acqua_lago di albano_surf"/>
   <property name="type" value="acqua surf"/>
  </properties>
 </object>
 <object id="154" name="acqua_lago di albano_surf" type="acqua_surf" x="455.05035" y="3287.94518333333" width="65.8993" height="82.7763">
  <properties>
   <property name="id" value="acqua_lago di albano_surf"/>
   <property name="type" value="acqua surf"/>
  </properties>
 </object>
 <object id="155" name="acqua_lago di albano_surf" type="acqua_surf" x="451.05035" y="3341.27851666667" width="65.8993" height="82.7763">
  <properties>
   <property name="id" value="acqua_lago di albano_surf"/>
   <property name="type" value="acqua surf"/>
  </properties>
 </object>
 <object id="156" name="acqua_lago di albano_surf" type="acqua_surf" x="481.717016666667" y="3067.94518333333" width="65.8993" height="82.7763">
  <properties>
   <property name="id" value="acqua_lago di albano_surf"/>
   <property name="type" value="acqua surf"/>
  </properties>
 </object>
 <object id="157" name="acqua_lago di albano_surf" type="acqua_surf" x="24.3836833333333" y="2087.94518333333" width="65.8993" height="82.7763">
  <properties>
   <property name="id" value="acqua_lago di albano_surf"/>
   <property name="type" value="acqua surf"/>
  </properties>
 </object>
 <object id="158" name="acqua_lago di albano_surf" type="acqua_surf" x="95.05035" y="2146.61185" width="65.8993" height="82.7763">
  <properties>
   <property name="id" value="acqua_lago di albano_surf"/>
   <property name="type" value="acqua surf"/>
  </properties>
 </object>
 <object id="159" name="acqua_lago di albano_surf" type="acqua_surf" x="32.3836833333333" y="2167.94518333333" width="65.8993" height="82.7763">
  <properties>
   <property name="id" value="acqua_lago di albano_surf"/>
   <property name="type" value="acqua surf"/>
  </properties>
 </object>
 <object id="160" name="acqua_lago di albano_surf" type="acqua_surf" x="21.7170166666667" y="2263.94518333333" width="65.8993" height="82.7763">
  <properties>
   <property name="id" value="acqua_lago di albano_surf"/>
   <property name="type" value="acqua surf"/>
  </properties>
 </object>
 <object id="161" name="acqua_lago di albano_surf" type="acqua_surf" x="21.7170166666667" y="2322.61185" width="65.8993" height="82.7763">
  <properties>
   <property name="id" value="acqua_lago di albano_surf"/>
   <property name="type" value="acqua surf"/>
  </properties>
 </object>
 <object id="162" name="acqua_lago di albano_surf" type="acqua_surf" x="19.05035" y="2403.94518333333" width="65.8993" height="82.7763">
  <properties>
   <property name="id" value="acqua_lago di albano_surf"/>
   <property name="type" value="acqua surf"/>
  </properties>
 </object>
 <object id="163" name="acqua_lago di albano_surf" type="acqua_surf" x="16.3836833333334" y="2454.61185" width="65.8993" height="82.7763">
  <properties>
   <property name="id" value="acqua_lago di albano_surf"/>
   <property name="type" value="acqua surf"/>
  </properties>
 </object>
 <object id="164" name="acqua_lago di albano_surf" type="acqua_surf" x="91.05035" y="2478.61185" width="65.8993" height="82.7763">
  <properties>
   <property name="id" value="acqua_lago di albano_surf"/>
   <property name="type" value="acqua surf"/>
  </properties>
 </object>
 <object id="165" name="acqua_lago di albano_surf" type="acqua_surf" x="90.3836833333333" y="2385.27851666667" width="65.8993" height="82.7763">
  <properties>
   <property name="id" value="acqua_lago di albano_surf"/>
   <property name="type" value="acqua surf"/>
  </properties>
 </object>
 <object id="166" name="acqua_lago di albano_surf" type="acqua_surf" x="93.7170166666666" y="2301.27851666667" width="65.8993" height="82.7763">
  <properties>
   <property name="id" value="acqua_lago di albano_surf"/>
   <property name="type" value="acqua surf"/>
  </properties>
 </object>
 <object id="167" name="acqua_lago di albano_surf" type="acqua_surf" x="96.3836833333333" y="2251.94518333333" width="65.8993" height="82.7763">
  <properties>
   <property name="id" value="acqua_lago di albano_surf"/>
   <property name="type" value="acqua surf"/>
  </properties>
 </object>
 <object id="168" name="acqua_lago di albano_surf" type="acqua_surf" x="96.3836833333333" y="2211.94518333333" width="65.8993" height="82.7763">
  <properties>
   <property name="id" value="acqua_lago di albano_surf"/>
   <property name="type" value="acqua surf"/>
  </properties>
 </object>
 <object id="169" name="acqua_lago di albano_surf" type="acqua_surf" x="155.05035" y="2286.61185" width="65.8993" height="82.7763">
  <properties>
   <property name="id" value="acqua_lago di albano_surf"/>
   <property name="type" value="acqua surf"/>
  </properties>
 </object>
 <object id="170" name="acqua_lago di albano_surf" type="acqua_surf" x="159.05035" y="2337.27851666667" width="65.8993" height="82.7763">
  <properties>
   <property name="id" value="acqua_lago di albano_surf"/>
   <property name="type" value="acqua surf"/>
  </properties>
 </object>
 <object id="171" name="acqua_lago di albano_surf" type="acqua_surf" x="157.717016666667" y="2382.61185" width="65.8993" height="82.7763">
  <properties>
   <property name="id" value="acqua_lago di albano_surf"/>
   <property name="type" value="acqua surf"/>
  </properties>
 </object>
 <object id="172" name="acqua_lago di albano_surf" type="acqua_surf" x="156.383683333333" y="2447.94518333333" width="65.8993" height="82.7763">
  <properties>
   <property name="id" value="acqua_lago di albano_surf"/>
   <property name="type" value="acqua surf"/>
  </properties>
 </object>
 <object id="173" name="acqua_lago di albano_surf" type="acqua_surf" x="228.383683333333" y="2343.94518333333" width="65.8993" height="82.7763">
  <properties>
   <property name="id" value="acqua_lago di albano_surf"/>
   <property name="type" value="acqua surf"/>
  </properties>
 </object>
 <object id="174" name="acqua_lago di albano_surf" type="acqua_surf" x="231.05035" y="2394.61185" width="65.8993" height="82.7763">
  <properties>
   <property name="id" value="acqua_lago di albano_surf"/>
   <property name="type" value="acqua surf"/>
  </properties>
 </object>
 <object id="175" name="acqua_lago di albano_surf" type="acqua_surf" x="220.383683333333" y="2438.61185" width="65.8993" height="82.7763">
  <properties>
   <property name="id" value="acqua_lago di albano_surf"/>
   <property name="type" value="acqua surf"/>
  </properties>
 </object>
 <object id="176" name="acqua_lago di albano_surf" type="acqua_surf" x="219.05035" y="2462.61185" width="65.8993" height="82.7763">
  <properties>
   <property name="id" value="acqua_lago di albano_surf"/>
   <property name="type" value="acqua surf"/>
  </properties>
 </object>
 <object id="177" name="acqua_lago di albano_surf" type="acqua_surf" x="287.05035" y="2458.61185" width="65.8993" height="82.7763">
  <properties>
   <property name="id" value="acqua_lago di albano_surf"/>
   <property name="type" value="acqua surf"/>
  </properties>
 </object>
 <object id="178" name="acqua_lago di albano_surf" type="acqua_surf" x="273.717016666667" y="2411.94518333333" width="65.8993" height="82.7763">
  <properties>
   <property name="id" value="acqua_lago di albano_surf"/>
   <property name="type" value="acqua surf"/>
  </properties>
 </object>
 <object id="179" name="acqua_lago di albano_surf" type="acqua_surf" x="359.05035" y="2563.94518333333" width="65.8993" height="82.7763">
  <properties>
   <property name="id" value="acqua_lago di albano_surf"/>
   <property name="type" value="acqua surf"/>
  </properties>
 </object>
 <object id="180" name="acqua_lago di albano_surf" type="acqua_surf" x="177.717016666667" y="3518.61185" width="73.8993" height="164.109633333333">
  <properties>
   <property name="id" value="acqua_lago di albano_surf"/>
   <property name="type" value="acqua surf"/>
  </properties>
 </object>
 <object id="181" name="acqua_lago di albano_surf" type="acqua_surf" x="252.383683333333" y="3518.61185" width="65.8993" height="82.7763">
  <properties>
   <property name="id" value="acqua_lago di albano_surf"/>
   <property name="type" value="acqua surf"/>
  </properties>
 </object>
 <object id="182" name="acqua_lago di albano_surf" type="acqua_surf" x="111.05035" y="3615.94518333333" width="65.8993" height="82.7763">
  <properties>
   <property name="id" value="acqua_lago di albano_surf"/>
   <property name="type" value="acqua surf"/>
  </properties>
 </object>
 <object id="183" name="acqua_lago di albano_surf" type="acqua_surf" x="-0.94965000000002" y="2013.27851666667" width="65.8993" height="82.7763">
  <properties>
   <property name="id" value="acqua_lago di albano_surf"/>
   <property name="type" value="acqua surf"/>
  </properties>
 </object>
 <object id="224" name="trainer_9" type="trainer" x="902" y="1541" width="32" height="32">
  <properties>
   <property name="direzione" value="est"/>
   <property name="id" value="via_laghi_trainer_9"/>
   <property name="movimento" value="fisso"/>
  </properties>
 </object>
 <object id="226" name="trainer_11" type="trainer" x="2050" y="2150" width="32" height="32">
  <properties>
   <property name="direzione" value="eo"/>
   <property name="id" value="via_laghi_trainer_11"/>
   <property name="pattuglia" value="true"/>
   <property name="movimento" value="fisso"/>
  </properties>
 </object>
 <object id="227" name="trainer_12" type="trainer" x="2503.33333333333" y="1710.66666666667" width="32" height="32">
  <properties>
   <property name="direzione" value="ns"/>
   <property name="id" value="via_laghi_trainer_12"/>
   <property name="pattuglia" value="true"/>
   <property name="movimento" value="fisso"/>
  </properties>
 </object>
 <object id="228" name="trainer_13" type="trainer" x="2600" y="2450" width="32" height="32">
  <properties>
   <property name="direzione" value="sud"/>
   <property name="id" value="via_laghi_trainer_13"/>
   <property name="movimento" value="random"/>
  </properties>
 </object>
 <object id="229" name="trainer_14" type="trainer" x="2200" y="2750" width="32" height="32">
  <properties>
   <property name="direzione" value="sud"/>
   <property name="id" value="via_laghi_trainer_14"/>
   <property name="movimento" value="random"/>
  </properties>
 </object>
 <object id="230" name="trainer_15" type="trainer" x="1908" y="2972" width="32" height="32">
  <properties>
   <property name="direzione" value="sud"/>
   <property name="id" value="via_laghi_trainer_15"/>
   <property name="movimento" value="random"/>
  </properties>
 </object>
 <object id="231" name="trainer_16" type="trainer" x="1478" y="3250" width="32" height="32">
  <properties>
   <property name="direzione" value="est"/>
   <property name="id" value="via_laghi_trainer_16"/>
   <property name="movimento" value="fisso"/>
  </properties>
 </object>
 <object id="232" name="trainer_17" type="trainer" x="1300" y="3450" width="32" height="32">
  <properties>
   <property name="direzione" value="sud"/>
   <property name="id" value="via_laghi_trainer_17"/>
   <property name="movimento" value="fisso"/>
  </properties>
 </object>
 <object id="233" name="trainer_18" type="trainer" x="769" y="3835" width="32" height="32">
  <properties>
   <property name="direzione" value="sud"/>
   <property name="id" value="via_laghi_trainer_18"/>
   <property name="movimento" value="fisso"/>
  </properties>
 </object>
 <object id="234" name="trainer_19" type="trainer" x="800" y="3200" width="32" height="32">
  <properties>
   <property name="direzione" value="sud"/>
   <property name="id" value="via_laghi_trainer_19"/>
   <property name="movimento" value="fisso"/>
  </properties>
 </object>
 <object id="235" name="trainer_20" type="trainer" x="874.666666666667" y="2837.66666666667" width="32" height="32">
  <properties>
   <property name="direzione" value="eo"/>
   <property name="id" value="via_laghi_trainer_20"/>
   <property name="pattuglia" value="true"/>
   <property name="movimento" value="fisso"/>
  </properties>
 </object>
 <object id="236" name="trainer_21" type="trainer" x="600" y="2000" width="32" height="32">
  <properties>
   <property name="direzione" value="ns"/>
   <property name="id" value="via_laghi_trainer_21"/>
   <property name="pattuglia" value="true"/>
   <property name="movimento" value="fisso"/>
  </properties>
 </object>
 <object id="237" name="trainer_22" type="trainer" x="1200" y="1750" width="32" height="32">
  <properties>
   <property name="direzione" value="sud"/>
   <property name="id" value="via_laghi_trainer_22"/>
   <property name="movimento" value="random"/>
  </properties>
 </object>
 <object id="238" name="trainer_23" type="trainer" x="1850" y="3900" width="32" height="32">
  <properties>
   <property name="direzione" value="sud"/>
   <property name="id" value="via_laghi_trainer_23"/>
   <property name="movimento" value="random"/>
  </properties>
 </object>
 <object id="240" name="spawn_da_tunnel roccioso" type="spawn" x="2888.50351666667" y="712.262" width="11.3333333333335" height="15.3333333333334">
  <properties>
   <property name="id" value="da_tunnel roccioso"/>
  </properties>
 </object>
 <object id="241" name="warp_tunnel roccioso" type="warp" x="2849.40185532929" y="706.999941172472" width="16.5063" height="18.6713224301956">
  <properties>
   <property name="destinazione" value="tunnel_roccioso_1f"/>
   <property name="spawn_id" value="da_via dei laghi"/>
  </properties>
 </object>
 <object id="250" name="warp_Percorso 7" type="warp" x="1538.41351666667" y="4521.99533333333" width="16.5063" height="62.676">
  <properties>
   <property name="destinazione" value="Percorso 7"/>
   <property name="spawn_id" value="da via dei laghi"/>
  </properties>
 </object>
 <object id="251" name="spawn_da_percorso 7" type="spawn" x="1553.33333333333" y="4458.66666666667" width="32" height="32">
  <properties>
   <property name="id" value="da_percorso 7"/>
  </properties>
 </object>
 <object id="259" name="guardia_via_dei_laghi_p7" type="npc" x="1538" y="4490">
  <properties>
   <property name="condizione" value="medaglie &gt;= 5"/>
   <property name="direzione" value="sud"/>
   <property name="gate" value="true"/>
   <property name="id" value="guardia_via_dei_laghi_p7"/>
   <property name="type" value="npc"/>
  </properties>
  <point/>
 </object>
 <object id="260" name="warp_percorso_12" type="warp" x="2961.91666666667" y="1217.33333333333" width="14.083333333333" height="32">
  <properties>
   <property name="destinazione" value="percorso_12"/>
   <property name="spawn_id" value="da_via_dei_laghi"/>
   <property name="type" value="warp"/>
  </properties>
 </object>
 <object id="261" name="spawn" type="spawn" x="2911.41666666667" y="1215.83333333333" width="32" height="32">
  <properties>
   <property name="id" value="da_percorso_12"/>
   <property name="type" value="spawn"/>
  </properties>
 </object>
 <object id="262" name="npc_gate_percorso_12" type="npc" x="2883.66666666667" y="1221.83333333333" width="24.5" height="19.75">
  <properties>
   <property name="condizione" value="medaglie&gt;=8"/>
   <property name="gate" value="true"/>
   <property name="id" value="npc_gate_percorso_12"/>
   <property name="type" value="npc"/>
  </properties>
 </object>
 <object id="279" name="masso_p5_1" type="masso" x="73.0283999999999" y="4105.857" width="17.9432" height="20.286">
  <properties>
   <property name="id" value="masso_p5_1"/>
   <property name="type" value="masso"/>
  </properties>
 </object>
 <object id="284" name="npc_gigante_dormiente_laghi" x="2889" y="744">
  <properties>
   <property name="direzione" value="nord"/>
   <property name="id" value="npc_gigante_dormiente_laghi"/>
   <property name="type" value="npc"/>
  </properties>
  <point/>
 </object>
 <object id="286" name="warp_ristorante_laghi" type="warp" x="1827" y="1861.91666666667" width="24.5" height="15.5">
  <properties>
   <property name="destinazione" value="ristorante_laghi_1f"/>
   <property name="spawn_id" value="da fuori"/>
   <property name="type" value="warp"/>
  </properties>
 </object>
 <object id="287" name="spawn" type="spawn" x="1827.5" y="1889.75" width="22.75" height="17.875">
  <properties>
   <property name="id" value="da_ristorante_laghi"/>
   <property name="type" value="spawn"/>
  </properties>
 </object>
 <object id="288" name="trainer" x="1671" y="1833.66666666667" width="21.3333333333335" height="19">
  <properties>
   <property name="direzione" value="ns"/>
   <property name="id" value="famiglia_laghi_1"/>
   <property name="sprite" value="YOUNGSTER"/>
   <property name="type" value="trainer"/>
   <property name="vista" value="5"/>
   <property name="pattuglia" value="true"/>
   <property name="movimento" value="fisso"/>
  </properties>
 </object>
 <object id="289" name="npc" x="1890" y="1830" width="32" height="32">
  <properties>
   <property name="direzione" value="ovest"/>
   <property name="id" value="guaritore_laghi"/>
   <property name="type" value="npc"/>
  </properties>
 </object>
 <object id="290" name="trainer_10" type="trainer" x="2592" y="1384" width="32" height="32">
  <properties>
   <property name="direzione" value="ns"/>
   <property name="id" value="via_laghi_trainer_10"/>
   <property name="pattuglia" value="true"/>
   <property name="movimento" value="fisso"/>
  </properties>
 </object>
</objectgroup>
</map>
