{
 "compressionlevel": -1,
 "width": 12,
 "height": 9,
 "tilewidth": 32,
 "tileheight": 32,
 "infinite": false,
 "orientation": "orthogonal",
 "renderorder": "right-down",
 "type": "map",
 "version": "1.10",
 "tiledversion": "1.11.0",
 "nextlayerid": 6,
 "nextobjectid": 48,
 "tilesets": [
  {
   "firstgid": 1,
   "image": "lilycove_motel_2f_tileset.png",
   "imagewidth": 512,
   "imageheight": 160,
   "columns": 16,
   "tilecount": 66,
   "tilewidth": 32,
   "tileheight": 32,
   "name": "lilycove_motel_2f_tileset",
   "margin": 0,
   "spacing": 0
  }
 ],
 "layers": [
  {
   "id": 1,
   "name": "ground",
   "type": "tilelayer",
   "width": 12,
   "height": 9,
   "data": [
    1,
    3,
    5,
    7,
    9,
    11,
    11,
    9,
    13,
    15,
    17,
    19,
    21,
    23,
    25,
    27,
    29,
    31,
    31,
    29,
    33,
    35,
    37,
    39,
    41,
    43,
    43,
    43,
    43,
    43,
    43,
    43,
    45,
    47,
    49,
    51,
    43,
    53,
    55,
    57,
    59,
    53,
    53,
    59,
    55,
    61,
    59,
    53,
    43,
    59,
    63,
    65,
    59,
    53,
    53,
    59,
    63,
    65,
    59,
    53,
    43,
    53,
    53,
    53,
    53,
    53,
    53,
    53,
    53,
    53,
    53,
    53,
    43,
    59,
    55,
    61,
    59,
    53,
    53,
    53,
    55,
    57,
    53,
    53,
    43,
    59,
    63,
    65,
    59,
    53,
    53,
    59,
    63,
    65,
    53,
    53,
    43,
    53,
    53,
    53,
    53,
    53,
    53,
    53,
    53,
    53,
    53,
    53
   ],
   "opacity": 1,
   "visible": true,
   "x": 0,
   "y": 0
  },
  {
   "id": 2,
   "name": "deco_sotto",
   "type": "tilelayer",
   "width": 12,
   "height": 9,
   "data": [
    0,
    0,
    6,
    0,
    0,
    0,
    0,
    0,
    0,
    0,
    0,
    0,
    0,
    24,
    26,
    28,
    0,
    32,
    32,
    0,
    0,
    0,
    0,
    0,
    0,
    44,
    44,
    44,
    44,
    44,
    44,
    44,
    0,
    0,
    0,
    0,
    44,
    54,
    0,
    0,
    0,
    54,
    54,
    0,
    0,
    0,
    0,
    54,
    44,
    0,
    0,
    0,
    0,
    54,
    54,
    0,
    0,
    0,
    0,
    54,
    44,
    54,
    54,
    54,
    54,
    54,
    54,
    54,
    54,
    54,
    54,
    54,
    44,
    0,
    0,
    0,
    0,
    54,
    54,
    54,
    0,
    0,
    54,
    54,
    44,
    0,
    0,
    0,
    0,
    54,
    54,
    0,
    0,
    0,
    54,
    54,
    44,
    54,
    54,
    54,
    54,
    54,
    54,
    54,
    54,
    54,
    54,
    54
   ],
   "opacity": 1,
   "visible": true,
   "x": 0,
   "y": 0
  },
  {
   "id": 3,
   "name": "sopra_testa",
   "type": "tilelayer",
   "width": 12,
   "height": 9,
   "data": [
    2,
    4,
    0,
    8,
    10,
    12,
    12,
    10,
    14,
    16,
    18,
    20,
    22,
    0,
    0,
    0,
    30,
    0,
    0,
    30,
    34,
    36,
    38,
    40,
    42,
    0,
    0,
    0,
    0,
    0,
    0,
    0,
    46,
    48,
    50,
    52,
    0,
    0,
    56,
    58,
    60,
    0,
    0,
    60,
    56,
    62,
    60,
    0,
    0,
    60,
    64,
    66,
    60,
    0,
    0,
    60,
    64,
    66,
    60,
    0,
    0,
    0,
    0,
    0,
    0,
    0,
    0,
    0,
    0,
    0,
    0,
    0,
    0,
    60,
    56,
    62,
    60,
    0,
    0,
    0,
    56,
    58,
    0,
    0,
    0,
    60,
    64,
    66,
    60,
    0,
    0,
    60,
    64,
    66,
    0,
    0,
    0,
    0,
    0,
    0,
    0,
    0,
    0,
    0,
    0,
    0,
    0,
    0
   ],
   "opacity": 1,
   "visible": true,
   "x": 0,
   "y": 0
  },
  {
   "id": 4,
   "name": "collisioni",
   "type": "objectgroup",
   "opacity": 1,
   "visible": true,
   "x": 0,
   "y": 0,
   "objects": [
    {
     "id": 1000,
     "name": "",
     "type": "",
     "x": 0,
     "y": 0,
     "width": 32,
     "height": 32,
     "rotation": 0,
     "visible": true,
     "properties": []
    },
    {
     "id": 1001,
     "name": "",
     "type": "",
     "x": 32,
     "y": 0,
     "width": 32,
     "height": 32,
     "rotation": 0,
     "visible": true,
     "properties": []
    },
    {
     "id": 1002,
     "name": "",
     "type": "",
     "x": 64,
     "y": 0,
     "width": 32,
     "height": 32,
     "rotation": 0,
     "visible": true,
     "properties": []
    },
    {
     "id": 1003,
     "name": "",
     "type": "",
     "x": 96,
     "y": 0,
     "width": 32,
     "height": 32,
     "rotation": 0,
     "visible": true,
     "properties": []
    },
    {
     "id": 1004,
     "name": "",
     "type": "",
     "x": 128,
     "y": 0,
     "width": 32,
     "height": 32,
     "rotation": 0,
     "visible": true,
     "properties": []
    },
    {
     "id": 1005,
     "name": "",
     "type": "",
     "x": 160,
     "y": 0,
     "width": 32,
     "height": 32,
     "rotation": 0,
     "visible": true,
     "properties": []
    },
    {
     "id": 1006,
     "name": "",
     "type": "",
     "x": 192,
     "y": 0,
     "width": 32,
     "height": 32,
     "rotation": 0,
     "visible": true,
     "properties": []
    },
    {
     "id": 1007,
     "name": "",
     "type": "",
     "x": 224,
     "y": 0,
     "width": 32,
     "height": 32,
     "rotation": 0,
     "visible": true,
     "properties": []
    },
    {
     "id": 1008,
     "name": "",
     "type": "",
     "x": 256,
     "y": 0,
     "width": 32,
     "height": 32,
     "rotation": 0,
     "visible": true,
     "properties": []
    },
    {
     "id": 1009,
     "name": "",
     "type": "",
     "x": 288,
     "y": 0,
     "width": 32,
     "height": 32,
     "rotation": 0,
     "visible": true,
     "properties": []
    },
    {
     "id": 1010,
     "name": "",
     "type": "",
     "x": 320,
     "y": 0,
     "width": 32,
     "height": 32,
     "rotation": 0,
     "visible": true,
     "properties": []
    },
    {
     "id": 1011,
     "name": "",
     "type": "",
     "x": 352,
     "y": 0,
     "width": 32,
     "height": 32,
     "rotation": 0,
     "visible": true,
     "properties": []
    },
    {
     "id": 1012,
     "name": "",
     "type": "",
     "x": 0,
     "y": 32,
     "width": 32,
     "height": 32,
     "rotation": 0,
     "visible": true,
     "properties": []
    },
    {
     "id": 1013,
     "name": "",
     "type": "",
     "x": 32,
     "y": 32,
     "width": 32,
     "height": 32,
     "rotation": 0,
     "visible": true,
     "properties": []
    },
    {
     "id": 1014,
     "name": "",
     "type": "",
     "x": 96,
     "y": 32,
     "width": 32,
     "height": 32,
     "rotation": 0,
     "visible": true,
     "properties": []
    },
    {
     "id": 1015,
     "name": "",
     "type": "",
     "x": 128,
     "y": 32,
     "width": 32,
     "height": 32,
     "rotation": 0,
     "visible": true,
     "properties": []
    },
    {
     "id": 1016,
     "name": "",
     "type": "",
     "x": 160,
     "y": 32,
     "width": 32,
     "height": 32,
     "rotation": 0,
     "visible": true,
     "properties": []
    },
    {
     "id": 1017,
     "name": "",
     "type": "",
     "x": 192,
     "y": 32,
     "width": 32,
     "height": 32,
     "rotation": 0,
     "visible": true,
     "properties": []
    },
    {
     "id": 1018,
     "name": "",
     "type": "",
     "x": 224,
     "y": 32,
     "width": 32,
     "height": 32,
     "rotation": 0,
     "visible": true,
     "properties": []
    },
    {
     "id": 1019,
     "name": "",
     "type": "",
     "x": 256,
     "y": 32,
     "width": 32,
     "height": 32,
     "rotation": 0,
     "visible": true,
     "properties": []
    },
    {
     "id": 1020,
     "name": "",
     "type": "",
     "x": 288,
     "y": 32,
     "width": 32,
     "height": 32,
     "rotation": 0,
     "visible": true,
     "properties": []
    },
    {
     "id": 1021,
     "name": "",
     "type": "",
     "x": 320,
     "y": 32,
     "width": 32,
     "height": 32,
     "rotation": 0,
     "visible": true,
     "properties": []
    },
    {
     "id": 1022,
     "name": "",
     "type": "",
     "x": 352,
     "y": 32,
     "width": 32,
     "height": 32,
     "rotation": 0,
     "visible": true,
     "properties": []
    },
    {
     "id": 1023,
     "name": "",
     "type": "",
     "x": 64,
     "y": 96,
     "width": 32,
     "height": 32,
     "rotation": 0,
     "visible": true,
     "properties": []
    },
    {
     "id": 1024,
     "name": "",
     "type": "",
     "x": 96,
     "y": 96,
     "width": 32,
     "height": 32,
     "rotation": 0,
     "visible": true,
     "properties": []
    },
    {
     "id": 1025,
     "name": "",
     "type": "",
     "x": 256,
     "y": 96,
     "width": 32,
     "height": 32,
     "rotation": 0,
     "visible": true,
     "properties": []
    },
    {
     "id": 1026,
     "name": "",
     "type": "",
     "x": 288,
     "y": 96,
     "width": 32,
     "height": 32,
     "rotation": 0,
     "visible": true,
     "properties": []
    },
    {
     "id": 1027,
     "name": "",
     "type": "",
     "x": 64,
     "y": 128,
     "width": 32,
     "height": 32,
     "rotation": 0,
     "visible": true,
     "properties": []
    },
    {
     "id": 1028,
     "name": "",
     "type": "",
     "x": 96,
     "y": 128,
     "width": 32,
     "height": 32,
     "rotation": 0,
     "visible": true,
     "properties": []
    },
    {
     "id": 1029,
     "name": "",
     "type": "",
     "x": 256,
     "y": 128,
     "width": 32,
     "height": 32,
     "rotation": 0,
     "visible": true,
     "properties": []
    },
    {
     "id": 1030,
     "name": "",
     "type": "",
     "x": 288,
     "y": 128,
     "width": 32,
     "height": 32,
     "rotation": 0,
     "visible": true,
     "properties": []
    },
    {
     "id": 1031,
     "name": "",
     "type": "",
     "x": 64,
     "y": 192,
     "width": 32,
     "height": 32,
     "rotation": 0,
     "visible": true,
     "properties": []
    },
    {
     "id": 1032,
     "name": "",
     "type": "",
     "x": 96,
     "y": 192,
     "width": 32,
     "height": 32,
     "rotation": 0,
     "visible": true,
     "properties": []
    },
    {
     "id": 1033,
     "name": "",
     "type": "",
     "x": 256,
     "y": 192,
     "width": 32,
     "height": 32,
     "rotation": 0,
     "visible": true,
     "properties": []
    },
    {
     "id": 1034,
     "name": "",
     "type": "",
     "x": 288,
     "y": 192,
     "width": 32,
     "height": 32,
     "rotation": 0,
     "visible": true,
     "properties": []
    },
    {
     "id": 1035,
     "name": "",
     "type": "",
     "x": 64,
     "y": 224,
     "width": 32,
     "height": 32,
     "rotation": 0,
     "visible": true,
     "properties": []
    },
    {
     "id": 1036,
     "name": "",
     "type": "",
     "x": 96,
     "y": 224,
     "width": 32,
     "height": 32,
     "rotation": 0,
     "visible": true,
     "properties": []
    },
    {
     "id": 1037,
     "name": "",
     "type": "",
     "x": 256,
     "y": 224,
     "width": 32,
     "height": 32,
     "rotation": 0,
     "visible": true,
     "properties": []
    },
    {
     "id": 1038,
     "name": "",
     "type": "",
     "x": 288,
     "y": 224,
     "width": 32,
     "height": 32,
     "rotation": 0,
     "visible": true,
     "properties": []
    }
   ]
  },
  {
   "id": 5,
   "name": "eventi",
   "type": "objectgroup",
   "opacity": 1,
   "visible": true,
   "x": 0,
   "y": 0,
   "objects": [
    {
     "id": 1,
     "name": "npc_lilycove_motel_2f_1",
     "type": "",
     "point": true,
     "x": 144,
     "y": 224,
     "width": 0,
     "height": 0,
     "rotation": 0,
     "visible": true,
     "properties": [
      {
       "name": "type",
       "type": "string",
       "value": "npc"
      },
      {
       "name": "id",
       "type": "string",
       "value": "npc_lilycove_motel_2f_1"
      },
      {
       "name": "nota_origine",
       "type": "string",
       "value": "OBJ_EVENT_GFX_MAN_3"
      }
     ]
    },
    {
     "id": 2,
     "name": "npc_lilycove_motel_2f_2",
     "type": "",
     "point": true,
     "x": 48,
     "y": 160,
     "width": 0,
     "height": 0,
     "rotation": 0,
     "visible": true,
     "properties": [
      {
       "name": "type",
       "type": "string",
       "value": "npc"
      },
      {
       "name": "id",
       "type": "string",
       "value": "npc_lilycove_motel_2f_2"
      },
      {
       "name": "nota_origine",
       "type": "string",
       "value": "OBJ_EVENT_GFX_SCIENTIST_1"
      }
     ]
    },
    {
     "id": 3,
     "name": "npc_lilycove_motel_2f_3",
     "type": "",
     "point": true,
     "x": 240,
     "y": 256,
     "width": 0,
     "height": 0,
     "rotation": 0,
     "visible": true,
     "properties": [
      {
       "name": "type",
       "type": "string",
       "value": "npc"
      },
      {
       "name": "id",
       "type": "string",
       "value": "npc_lilycove_motel_2f_3"
      },
      {
       "name": "nota_origine",
       "type": "string",
       "value": "OBJ_EVENT_GFX_FAT_MAN"
      }
     ]
    },
    {
     "id": 4,
     "name": "npc_lilycove_motel_2f_4",
     "type": "",
     "point": true,
     "x": 336,
     "y": 128,
     "width": 0,
     "height": 0,
     "rotation": 0,
     "visible": true,
     "properties": [
      {
       "name": "type",
       "type": "string",
       "value": "npc"
      },
      {
       "name": "id",
       "type": "string",
       "value": "npc_lilycove_motel_2f_4"
      },
      {
       "name": "nota_origine",
       "type": "string",
       "value": "OBJ_EVENT_GFX_MAN_4"
      }
     ]
    },
    {
     "id": 5,
     "name": "npc_lilycove_motel_2f_5",
     "type": "",
     "point": true,
     "x": 240,
     "y": 128,
     "width": 0,
     "height": 0,
     "rotation": 0,
     "visible": true,
     "properties": [
      {
       "name": "type",
       "type": "string",
       "value": "npc"
      },
      {
       "name": "id",
       "type": "string",
       "value": "npc_lilycove_motel_2f_5"
      },
      {
       "name": "nota_origine",
       "type": "string",
       "value": "OBJ_EVENT_GFX_GAMEBOY_KID"
      }
     ]
    },
    {
     "id": 6,
     "name": "npc_lilycove_motel_2f_6",
     "type": "",
     "point": true,
     "x": 144,
     "y": 160,
     "width": 0,
     "height": 0,
     "rotation": 0,
     "visible": true,
     "properties": [
      {
       "name": "type",
       "type": "string",
       "value": "npc"
      },
      {
       "name": "id",
       "type": "string",
       "value": "npc_lilycove_motel_2f_6"
      },
      {
       "name": "nota_origine",
       "type": "string",
       "value": "OBJ_EVENT_GFX_WOMAN_2"
      }
     ]
    },
    {
     "id": 7,
     "name": "npc_lilycove_motel_2f_7",
     "type": "",
     "point": true,
     "x": 48,
     "y": 256,
     "width": 0,
     "height": 0,
     "rotation": 0,
     "visible": true,
     "properties": [
      {
       "name": "type",
       "type": "string",
       "value": "npc"
      },
      {
       "name": "id",
       "type": "string",
       "value": "npc_lilycove_motel_2f_7"
      },
      {
       "name": "nota_origine",
       "type": "string",
       "value": "OBJ_EVENT_GFX_SCOTT"
      }
     ]
    },
    {
     "id": 8,
     "name": "uscita_1",
     "type": "",
     "x": 64,
     "y": 32,
     "width": 32,
     "height": 32,
     "rotation": 0,
     "visible": true,
     "properties": [
      {
       "name": "type",
       "type": "string",
       "value": "uscita"
      },
      {
       "name": "nota_origine",
       "type": "string",
       "value": "verso MAP_LILYCOVE_CITY_COVE_LILY_MOTEL_1F (da ricollegare a una tua mappa)"
      }
     ]
    }
   ]
  }
 ]
}