{
 "compressionlevel": -1,
 "width": 49,
 "height": 40,
 "tilewidth": 32,
 "tileheight": 32,
 "infinite": false,
 "orientation": "orthogonal",
 "renderorder": "right-down",
 "type": "map",
 "version": "1.10",
 "tiledversion": "1.11.0",
 "nextlayerid": 6,
 "nextobjectid": 1005,
 "tilesets": [
  {
   "firstgid": 1,
   "image": "powerplant_tileset.png",
   "imagewidth": 512,
   "imageheight": 544,
   "columns": 16,
   "tilecount": 258,
   "tilewidth": 32,
   "tileheight": 32,
   "name": "powerplant_tileset",
   "margin": 0,
   "spacing": 0
  }
 ],
 "layers": [
  {
   "id": 1,
   "name": "ground",
   "type": "tilelayer",
   "width": 49,
   "height": 40,
   "data": [
    1,
    3,
    5,
    5,
    5,
    5,
    5,
    5,
    5,
    7,
    9,
    3,
    5,
    5,
    5,
    5,
    5,
    5,
    5,
    7,
    9,
    3,
    5,
    5,
    5,
    5,
    5,
    5,
    5,
    5,
    5,
    5,
    7,
    9,
    3,
    5,
    5,
    5,
    5,
    5,
    5,
    5,
    5,
    5,
    5,
    5,
    5,
    7,
    11,
    13,
    15,
    17,
    19,
    21,
    21,
    21,
    23,
    25,
    27,
    29,
    15,
    17,
    19,
    21,
    21,
    21,
    23,
    25,
    27,
    29,
    15,
    17,
    19,
    21,
    21,
    21,
    21,
    21,
    21,
    23,
    25,
    27,
    29,
    15,
    17,
    19,
    21,
    21,
    21,
    21,
    21,
    21,
    21,
    21,
    23,
    25,
    27,
    31,
    33,
    35,
    37,
    39,
    39,
    39,
    39,
    39,
    41,
    43,
    45,
    35,
    37,
    39,
    39,
    39,
    39,
    39,
    41,
    43,
    47,
    35,
    37,
    39,
    39,
    39,
    39,
    39,
    39,
    39,
    39,
    41,
    43,
    47,
    35,
    37,
    39,
    39,
    39,
    39,
    39,
    39,
    39,
    39,
    39,
    39,
    41,
    43,
    49,
    33,
    51,
    53,
    53,
    55,
    55,
    55,
    55,
    55,
    57,
    59,
    51,
    53,
    53,
    55,
    55,
    55,
    55,
    55,
    57,
    47,
    51,
    53,
    53,
    53,
    53,
    53,
    53,
    53,
    53,
    53,
    53,
    57,
    47,
    51,
    55,
    55,
    55,
    61,
    61,
    61,
    61,
    61,
    61,
    55,
    55,
    55,
    57,
    49,
    33,
    63,
    65,
    65,
    65,
    65,
    65,
    67,
    67,
    65,
    69,
    63,
    65,
    65,
    65,
    65,
    65,
    67,
    67,
    67,
    47,
    63,
    65,
    65,
    65,
    65,
    65,
    65,
    65,
    65,
    65,
    65,
    65,
    47,
    71,
    67,
    67,
    67,
    73,
    73,
    73,
    73,
    73,
    73,
    67,
    65,
    67,
    67,
    49,
    33,
    63,
    65,
    65,
    65,
    65,
    65,
    65,
    65,
    65,
    53,
    75,
    65,
    65,
    65,
    65,
    65,
    65,
    67,
    67,
    77,
    79,
    81,
    65,
    65,
    83,
    79,
    79,
    79,
    79,
    85,
    65,
    65,
    47,
    71,
    67,
    65,
    65,
    87,
    73,
    73,
    73,
    87,
    87,
    67,
    65,
    65,
    67,
    49,
    33,
    63,
    65,
    65,
    65,
    65,
    65,
    65,
    65,
    65,
    89,
    79,
    79,
    81,
    65,
    65,
    83,
    79,
    79,
    79,
    91,
    21,
    93,
    63,
    65,
    95,
    21,
    21,
    97,
    99,
    47,
    63,
    65,
    47,
    71,
    65,
    65,
    65,
    67,
    87,
    87,
    87,
    67,
    67,
    65,
    65,
    65,
    67,
    49,
    101,
    79,
    79,
    81,
    65,
    65,
    83,
    79,
    79,
    79,
    91,
    21,
    21,
    93,
    63,
    65,
    95,
    103,
    21,
    21,
    47,
    39,
    105,
    63,
    65,
    107,
    39,
    39,
    109,
    111,
    47,
    63,
    65,
    47,
    71,
    67,
    67,
    65,
    67,
    67,
    67,
    67,
    65,
    65,
    65,
    65,
    65,
    67,
    49,
    113,
    21,
    103,
    93,
    63,
    65,
    95,
    21,
    21,
    21,
    47,
    39,
    39,
    105,
    63,
    65,
    107,
    115,
    39,
    39,
    47,
    117,
    53,
    75,
    65,
    53,
    53,
    55,
    55,
    55,
    47,
    63,
    65,
    47,
    71,
    67,
    67,
    65,
    65,
    67,
    67,
    65,
    65,
    65,
    65,
    65,
    65,
    67,
    49,
    119,
    39,
    115,
    105,
    121,
    123,
    107,
    125,
    127,
    129,
    47,
    55,
    55,
    53,
    75,
    65,
    53,
    55,
    55,
    55,
    45,
    63,
    65,
    65,
    65,
    65,
    65,
    65,
    67,
    67,
    47,
    63,
    65,
    47,
    71,
    65,
    65,
    65,
    65,
    67,
    67,
    65,
    67,
    67,
    67,
    131,
    131,
    131,
    49,
    133,
    135,
    137,
    139,
    141,
    123,
    139,
    143,
    145,
    147,
    47,
    71,
    67,
    65,
    65,
    65,
    65,
    65,
    67,
    67,
    59,
    63,
    65,
    65,
    65,
    65,
    65,
    65,
    65,
    67,
    47,
    63,
    65,
    47,
    63,
    65,
    65,
    65,
    65,
    67,
    65,
    65,
    67,
    67,
    67,
    73,
    73,
    73,
    49,
    149,
    151,
    137,
    123,
    123,
    123,
    123,
    153,
    155,
    157,
    47,
    71,
    67,
    67,
    65,
    65,
    65,
    65,
    65,
    65,
    69,
    63,
    65,
    65,
    65,
    65,
    65,
    65,
    65,
    65,
    47,
    63,
    65,
    47,
    63,
    65,
    65,
    65,
    65,
    65,
    65,
    65,
    65,
    67,
    67,
    87,
    87,
    87,
    49,
    159,
    161,
    137,
    123,
    123,
    123,
    123,
    163,
    165,
    167,
    47,
    71,
    65,
    67,
    65,
    65,
    65,
    65,
    65,
    65,
    53,
    75,
    65,
    65,
    65,
    65,
    65,
    65,
    65,
    65,
    47,
    63,
    65,
    47,
    63,
    65,
    65,
    65,
    65,
    65,
    65,
    65,
    65,
    65,
    65,
    67,
    67,
    67,
    49,
    169,
    79,
    79,
    79,
    79,
    79,
    79,
    79,
    79,
    79,
    171,
    79,
    79,
    79,
    79,
    79,
    79,
    79,
    79,
    79,
    173,
    79,
    81,
    65,
    65,
    83,
    79,
    79,
    79,
    79,
    91,
    63,
    65,
    175,
    79,
    79,
    79,
    79,
    81,
    65,
    65,
    83,
    79,
    79,
    79,
    79,
    79,
    79,
    177,
    33,
    179,
    181,
    21,
    21,
    21,
    21,
    21,
    97,
    99,
    45,
    179,
    181,
    21,
    21,
    21,
    21,
    21,
    97,
    99,
    47,
    21,
    93,
    63,
    65,
    95,
    103,
    21,
    21,
    183,
    47,
    63,
    65,
    95,
    21,
    21,
    21,
    103,
    93,
    63,
    65,
    95,
    21,
    21,
    21,
    21,
    97,
    99,
    49,
    33,
    185,
    187,
    39,
    39,
    39,
    39,
    39,
    109,
    111,
    59,
    185,
    187,
    39,
    39,
    39,
    39,
    39,
    109,
    111,
    47,
    39,
    105,
    63,
    65,
    107,
    115,
    189,
    191,
    193,
    47,
    63,
    65,
    107,
    39,
    39,
    39,
    115,
    105,
    63,
    65,
    107,
    39,
    39,
    39,
    39,
    109,
    111,
    49,
    33,
    55,
    55,
    55,
    55,
    53,
    53,
    53,
    53,
    53,
    69,
    117,
    53,
    53,
    53,
    53,
    55,
    55,
    55,
    55,
    47,
    117,
    53,
    75,
    65,
    53,
    53,
    195,
    197,
    199,
    47,
    63,
    65,
    53,
    53,
    53,
    53,
    53,
    53,
    75,
    65,
    53,
    53,
    53,
    53,
    53,
    53,
    53,
    49,
    33,
    71,
    67,
    65,
    65,
    65,
    65,
    65,
    65,
    65,
    53,
    75,
    65,
    65,
    65,
    65,
    65,
    65,
    67,
    67,
    47,
    63,
    65,
    65,
    65,
    65,
    65,
    65,
    65,
    65,
    47,
    63,
    65,
    65,
    65,
    65,
    65,
    65,
    65,
    65,
    65,
    65,
    65,
    65,
    65,
    65,
    65,
    65,
    49,
    33,
    71,
    65,
    65,
    65,
    65,
    65,
    65,
    65,
    65,
    65,
    65,
    65,
    65,
    65,
    65,
    65,
    65,
    65,
    67,
    77,
    79,
    79,
    79,
    79,
    79,
    79,
    79,
    79,
    79,
    201,
    79,
    79,
    79,
    79,
    79,
    79,
    79,
    79,
    79,
    79,
    79,
    79,
    79,
    85,
    65,
    65,
    65,
    49,
    203,
    79,
    79,
    79,
    81,
    65,
    65,
    65,
    65,
    65,
    205,
    65,
    65,
    65,
    65,
    65,
    65,
    65,
    65,
    67,
    45,
    179,
    181,
    21,
    21,
    21,
    21,
    21,
    21,
    21,
    21,
    21,
    21,
    21,
    21,
    21,
    21,
    21,
    21,
    21,
    21,
    21,
    97,
    99,
    47,
    63,
    65,
    65,
    49,
    33,
    21,
    21,
    21,
    93,
    63,
    65,
    65,
    65,
    65,
    47,
    71,
    67,
    67,
    65,
    65,
    65,
    65,
    65,
    65,
    59,
    185,
    187,
    39,
    39,
    39,
    39,
    39,
    39,
    39,
    39,
    39,
    39,
    39,
    39,
    39,
    39,
    39,
    39,
    39,
    39,
    39,
    109,
    111,
    47,
    63,
    65,
    65,
    49,
    33,
    189,
    39,
    39,
    105,
    63,
    65,
    65,
    65,
    65,
    47,
    71,
    67,
    67,
    65,
    65,
    65,
    65,
    65,
    65,
    69,
    55,
    55,
    55,
    61,
    61,
    53,
    61,
    61,
    61,
    61,
    61,
    61,
    61,
    61,
    61,
    61,
    61,
    61,
    61,
    53,
    53,
    53,
    53,
    47,
    63,
    65,
    65,
    49,
    33,
    195,
    53,
    53,
    53,
    75,
    65,
    65,
    65,
    65,
    47,
    71,
    65,
    65,
    65,
    65,
    65,
    65,
    65,
    65,
    53,
    75,
    65,
    67,
    73,
    73,
    131,
    73,
    73,
    73,
    73,
    73,
    73,
    73,
    73,
    73,
    73,
    73,
    73,
    73,
    65,
    65,
    65,
    65,
    47,
    63,
    65,
    65,
    49,
    33,
    63,
    65,
    65,
    83,
    79,
    79,
    79,
    79,
    79,
    91,
    63,
    65,
    65,
    83,
    79,
    79,
    79,
    79,
    79,
    85,
    65,
    65,
    67,
    87,
    87,
    87,
    87,
    87,
    87,
    87,
    87,
    87,
    87,
    87,
    87,
    87,
    87,
    87,
    87,
    67,
    67,
    65,
    65,
    47,
    63,
    65,
    65,
    49,
    33,
    63,
    65,
    65,
    95,
    21,
    21,
    21,
    21,
    21,
    47,
    63,
    65,
    65,
    95,
    103,
    21,
    21,
    21,
    21,
    47,
    63,
    65,
    65,
    65,
    65,
    65,
    131,
    131,
    131,
    131,
    131,
    131,
    131,
    131,
    131,
    65,
    65,
    65,
    65,
    65,
    65,
    65,
    65,
    47,
    63,
    65,
    65,
    49,
    33,
    63,
    65,
    65,
    107,
    191,
    191,
    39,
    39,
    39,
    47,
    63,
    65,
    65,
    107,
    115,
    39,
    39,
    189,
    191,
    47,
    63,
    65,
    65,
    65,
    67,
    67,
    87,
    87,
    87,
    87,
    87,
    87,
    87,
    87,
    87,
    67,
    67,
    67,
    67,
    67,
    65,
    65,
    65,
    47,
    63,
    65,
    65,
    49,
    33,
    63,
    65,
    65,
    53,
    197,
    197,
    55,
    55,
    55,
    47,
    63,
    65,
    65,
    53,
    53,
    53,
    53,
    195,
    197,
    47,
    63,
    65,
    65,
    65,
    65,
    65,
    65,
    65,
    65,
    65,
    65,
    65,
    65,
    65,
    65,
    65,
    65,
    65,
    65,
    65,
    65,
    65,
    65,
    47,
    63,
    65,
    65,
    49,
    33,
    63,
    65,
    65,
    65,
    65,
    65,
    65,
    67,
    67,
    47,
    63,
    65,
    65,
    65,
    65,
    65,
    65,
    65,
    65,
    77,
    79,
    79,
    79,
    79,
    79,
    79,
    79,
    79,
    79,
    79,
    79,
    79,
    79,
    79,
    79,
    79,
    79,
    79,
    79,
    79,
    79,
    79,
    79,
    207,
    63,
    65,
    65,
    49,
    203,
    79,
    79,
    79,
    79,
    81,
    65,
    65,
    83,
    79,
    171,
    79,
    79,
    79,
    79,
    79,
    81,
    65,
    65,
    65,
    45,
    21,
    21,
    21,
    21,
    21,
    21,
    21,
    21,
    21,
    21,
    21,
    21,
    21,
    21,
    21,
    21,
    21,
    21,
    21,
    21,
    21,
    21,
    21,
    93,
    63,
    65,
    65,
    49,
    33,
    21,
    21,
    21,
    103,
    93,
    63,
    65,
    95,
    21,
    47,
    21,
    21,
    21,
    21,
    103,
    93,
    63,
    65,
    65,
    59,
    39,
    39,
    39,
    39,
    39,
    39,
    39,
    39,
    39,
    39,
    39,
    39,
    39,
    39,
    39,
    39,
    39,
    39,
    39,
    39,
    39,
    39,
    39,
    105,
    63,
    65,
    67,
    49,
    33,
    39,
    39,
    39,
    115,
    105,
    63,
    65,
    107,
    39,
    47,
    39,
    39,
    39,
    39,
    115,
    105,
    63,
    65,
    65,
    69,
    117,
    53,
    53,
    53,
    53,
    53,
    53,
    53,
    55,
    55,
    55,
    55,
    53,
    53,
    53,
    53,
    53,
    53,
    55,
    53,
    53,
    53,
    53,
    53,
    75,
    65,
    67,
    49,
    33,
    117,
    53,
    53,
    53,
    53,
    75,
    65,
    53,
    53,
    47,
    55,
    55,
    53,
    53,
    53,
    53,
    75,
    65,
    65,
    53,
    75,
    65,
    65,
    67,
    67,
    65,
    65,
    65,
    65,
    67,
    65,
    65,
    65,
    65,
    67,
    67,
    65,
    65,
    65,
    65,
    65,
    65,
    65,
    65,
    65,
    67,
    67,
    49,
    33,
    63,
    65,
    65,
    65,
    65,
    65,
    65,
    65,
    65,
    47,
    63,
    65,
    65,
    65,
    65,
    65,
    65,
    65,
    65,
    65,
    65,
    65,
    65,
    67,
    67,
    65,
    65,
    65,
    65,
    65,
    65,
    65,
    65,
    67,
    67,
    67,
    65,
    65,
    67,
    67,
    67,
    67,
    67,
    67,
    67,
    67,
    67,
    49,
    33,
    71,
    65,
    65,
    65,
    65,
    65,
    65,
    67,
    67,
    77,
    79,
    79,
    81,
    65,
    65,
    83,
    79,
    79,
    79,
    79,
    79,
    79,
    79,
    79,
    79,
    79,
    79,
    79,
    79,
    79,
    79,
    173,
    79,
    79,
    81,
    67,
    67,
    65,
    83,
    79,
    79,
    79,
    79,
    79,
    79,
    79,
    79,
    177,
    33,
    71,
    67,
    65,
    65,
    65,
    65,
    65,
    67,
    67,
    47,
    21,
    21,
    93,
    63,
    65,
    95,
    103,
    21,
    21,
    21,
    21,
    21,
    21,
    21,
    21,
    21,
    183,
    21,
    21,
    21,
    21,
    47,
    21,
    21,
    93,
    63,
    67,
    65,
    95,
    103,
    21,
    21,
    21,
    21,
    21,
    21,
    21,
    49,
    33,
    71,
    67,
    65,
    65,
    65,
    65,
    65,
    67,
    67,
    47,
    39,
    39,
    105,
    63,
    65,
    107,
    115,
    191,
    39,
    39,
    39,
    39,
    39,
    39,
    39,
    189,
    193,
    209,
    211,
    213,
    39,
    47,
    39,
    39,
    105,
    63,
    65,
    65,
    107,
    115,
    39,
    191,
    189,
    215,
    215,
    39,
    39,
    49,
    33,
    71,
    65,
    65,
    65,
    65,
    65,
    65,
    65,
    67,
    47,
    55,
    55,
    53,
    75,
    65,
    53,
    53,
    197,
    55,
    55,
    55,
    55,
    53,
    53,
    53,
    195,
    199,
    217,
    219,
    221,
    55,
    47,
    117,
    61,
    61,
    75,
    65,
    131,
    61,
    61,
    53,
    197,
    195,
    73,
    73,
    55,
    55,
    49,
    33,
    63,
    65,
    137,
    137,
    137,
    137,
    137,
    65,
    65,
    47,
    71,
    65,
    65,
    65,
    65,
    65,
    65,
    67,
    67,
    67,
    67,
    65,
    65,
    65,
    65,
    65,
    65,
    223,
    225,
    227,
    67,
    47,
    63,
    87,
    87,
    65,
    65,
    87,
    87,
    87,
    65,
    65,
    65,
    87,
    87,
    65,
    65,
    49,
    33,
    63,
    65,
    137,
    229,
    231,
    233,
    137,
    65,
    65,
    47,
    63,
    65,
    65,
    65,
    65,
    65,
    65,
    65,
    65,
    65,
    65,
    65,
    65,
    65,
    65,
    65,
    65,
    235,
    237,
    239,
    65,
    47,
    63,
    65,
    65,
    65,
    65,
    65,
    65,
    65,
    65,
    65,
    65,
    65,
    65,
    65,
    65,
    49,
    241,
    243,
    243,
    245,
    247,
    249,
    251,
    253,
    243,
    243,
    255,
    243,
    243,
    243,
    243,
    243,
    243,
    243,
    243,
    243,
    243,
    243,
    243,
    243,
    243,
    243,
    243,
    243,
    243,
    243,
    243,
    243,
    255,
    243,
    243,
    243,
    243,
    243,
    243,
    243,
    243,
    243,
    243,
    243,
    243,
    243,
    243,
    243,
    257
   ],
   "opacity": 1,
   "visible": true,
   "x": 0,
   "y": 0
  },
  {
   "id": 2,
   "name": "deco_sotto",
   "type": "tilelayer",
   "width": 49,
   "height": 40,
   "data": [
    2,
    4,
    6,
    6,
    6,
    6,
    6,
    6,
    6,
    8,
    10,
    4,
    6,
    6,
    6,
    6,
    6,
    6,
    6,
    8,
    10,
    4,
    6,
    6,
    6,
    6,
    6,
    6,
    6,
    6,
    6,
    6,
    8,
    10,
    4,
    6,
    6,
    6,
    6,
    6,
    6,
    6,
    6,
    6,
    6,
    6,
    6,
    8,
    12,
    14,
    16,
    18,
    20,
    22,
    22,
    22,
    24,
    26,
    28,
    30,
    16,
    18,
    20,
    22,
    22,
    22,
    24,
    26,
    28,
    30,
    16,
    18,
    20,
    22,
    22,
    22,
    22,
    22,
    22,
    24,
    26,
    28,
    30,
    16,
    18,
    20,
    22,
    22,
    22,
    22,
    22,
    22,
    22,
    22,
    24,
    26,
    28,
    32,
    34,
    36,
    38,
    40,
    40,
    40,
    40,
    40,
    42,
    44,
    46,
    36,
    38,
    40,
    40,
    40,
    40,
    40,
    42,
    44,
    48,
    36,
    38,
    40,
    40,
    40,
    40,
    40,
    40,
    40,
    40,
    42,
    44,
    48,
    36,
    38,
    40,
    40,
    40,
    40,
    40,
    40,
    40,
    40,
    40,
    40,
    42,
    44,
    50,
    34,
    52,
    54,
    54,
    0,
    0,
    0,
    0,
    0,
    58,
    60,
    52,
    54,
    54,
    0,
    0,
    0,
    0,
    0,
    58,
    48,
    52,
    54,
    54,
    54,
    54,
    54,
    54,
    54,
    54,
    54,
    54,
    58,
    48,
    52,
    0,
    0,
    0,
    62,
    62,
    62,
    62,
    62,
    62,
    0,
    0,
    0,
    58,
    50,
    34,
    64,
    66,
    66,
    66,
    66,
    66,
    0,
    0,
    66,
    70,
    64,
    66,
    66,
    66,
    66,
    66,
    0,
    0,
    0,
    48,
    64,
    66,
    66,
    66,
    66,
    66,
    66,
    66,
    66,
    66,
    66,
    66,
    48,
    0,
    0,
    0,
    0,
    0,
    0,
    0,
    0,
    0,
    0,
    0,
    66,
    0,
    0,
    50,
    34,
    64,
    66,
    66,
    66,
    66,
    66,
    66,
    66,
    66,
    54,
    76,
    66,
    66,
    66,
    66,
    66,
    66,
    0,
    0,
    78,
    80,
    82,
    66,
    66,
    84,
    80,
    80,
    80,
    80,
    86,
    66,
    66,
    48,
    0,
    0,
    66,
    66,
    0,
    0,
    0,
    0,
    0,
    0,
    0,
    66,
    66,
    0,
    50,
    34,
    64,
    66,
    66,
    66,
    66,
    66,
    66,
    66,
    66,
    90,
    80,
    80,
    82,
    66,
    66,
    84,
    80,
    80,
    80,
    92,
    22,
    94,
    64,
    66,
    96,
    22,
    22,
    98,
    100,
    48,
    64,
    66,
    48,
    0,
    66,
    66,
    66,
    0,
    0,
    0,
    0,
    0,
    0,
    66,
    66,
    66,
    0,
    50,
    102,
    80,
    80,
    82,
    66,
    66,
    84,
    80,
    80,
    80,
    92,
    22,
    22,
    94,
    64,
    66,
    96,
    104,
    22,
    22,
    48,
    40,
    106,
    64,
    66,
    108,
    40,
    40,
    110,
    112,
    48,
    64,
    66,
    48,
    0,
    0,
    0,
    66,
    0,
    0,
    0,
    0,
    66,
    66,
    66,
    66,
    66,
    0,
    50,
    114,
    22,
    104,
    94,
    64,
    66,
    96,
    22,
    22,
    22,
    48,
    40,
    40,
    106,
    64,
    66,
    108,
    116,
    40,
    40,
    48,
    118,
    54,
    76,
    66,
    54,
    54,
    0,
    0,
    0,
    48,
    64,
    66,
    48,
    0,
    0,
    0,
    66,
    66,
    0,
    0,
    66,
    66,
    66,
    66,
    66,
    66,
    0,
    50,
    120,
    40,
    116,
    106,
    0,
    124,
    108,
    126,
    128,
    130,
    48,
    0,
    0,
    54,
    76,
    66,
    54,
    0,
    0,
    0,
    46,
    64,
    66,
    66,
    66,
    66,
    66,
    66,
    0,
    0,
    48,
    64,
    66,
    48,
    0,
    66,
    66,
    66,
    66,
    0,
    0,
    66,
    0,
    0,
    0,
    132,
    132,
    132,
    50,
    0,
    0,
    138,
    140,
    142,
    124,
    140,
    0,
    0,
    0,
    48,
    0,
    0,
    66,
    66,
    66,
    66,
    66,
    0,
    0,
    60,
    64,
    66,
    66,
    66,
    66,
    66,
    66,
    66,
    0,
    48,
    64,
    66,
    48,
    64,
    66,
    66,
    66,
    66,
    0,
    66,
    66,
    0,
    0,
    0,
    0,
    0,
    0,
    50,
    0,
    0,
    138,
    124,
    124,
    124,
    124,
    0,
    0,
    0,
    48,
    0,
    0,
    0,
    66,
    66,
    66,
    66,
    66,
    66,
    70,
    64,
    66,
    66,
    66,
    66,
    66,
    66,
    66,
    66,
    48,
    64,
    66,
    48,
    64,
    66,
    66,
    66,
    66,
    66,
    66,
    66,
    66,
    0,
    0,
    0,
    0,
    0,
    50,
    0,
    0,
    138,
    124,
    124,
    124,
    124,
    0,
    0,
    0,
    48,
    0,
    66,
    0,
    66,
    66,
    66,
    66,
    66,
    66,
    54,
    76,
    66,
    66,
    66,
    66,
    66,
    66,
    66,
    66,
    48,
    64,
    66,
    48,
    64,
    66,
    66,
    66,
    66,
    66,
    66,
    66,
    66,
    66,
    66,
    0,
    0,
    0,
    50,
    170,
    80,
    80,
    80,
    80,
    80,
    80,
    80,
    80,
    80,
    172,
    80,
    80,
    80,
    80,
    80,
    80,
    80,
    80,
    80,
    174,
    80,
    82,
    66,
    66,
    84,
    80,
    80,
    80,
    80,
    92,
    64,
    66,
    176,
    80,
    80,
    80,
    80,
    82,
    66,
    66,
    84,
    80,
    80,
    80,
    80,
    80,
    80,
    178,
    34,
    180,
    182,
    22,
    22,
    22,
    22,
    22,
    98,
    100,
    46,
    180,
    182,
    22,
    22,
    22,
    22,
    22,
    98,
    100,
    48,
    22,
    94,
    64,
    66,
    96,
    104,
    22,
    22,
    0,
    48,
    64,
    66,
    96,
    22,
    22,
    22,
    104,
    94,
    64,
    66,
    96,
    22,
    22,
    22,
    22,
    98,
    100,
    50,
    34,
    186,
    188,
    40,
    40,
    40,
    40,
    40,
    110,
    112,
    60,
    186,
    188,
    40,
    40,
    40,
    40,
    40,
    110,
    112,
    48,
    40,
    106,
    64,
    66,
    108,
    116,
    0,
    0,
    0,
    48,
    64,
    66,
    108,
    40,
    40,
    40,
    116,
    106,
    64,
    66,
    108,
    40,
    40,
    40,
    40,
    110,
    112,
    50,
    34,
    0,
    0,
    0,
    0,
    54,
    54,
    54,
    54,
    54,
    70,
    118,
    54,
    54,
    54,
    54,
    0,
    0,
    0,
    0,
    48,
    118,
    54,
    76,
    66,
    54,
    54,
    0,
    0,
    0,
    48,
    64,
    66,
    54,
    54,
    54,
    54,
    54,
    54,
    76,
    66,
    54,
    54,
    54,
    54,
    54,
    54,
    54,
    50,
    34,
    0,
    0,
    66,
    66,
    66,
    66,
    66,
    66,
    66,
    54,
    76,
    66,
    66,
    66,
    66,
    66,
    66,
    0,
    0,
    48,
    64,
    66,
    66,
    66,
    66,
    66,
    66,
    66,
    66,
    48,
    64,
    66,
    66,
    66,
    66,
    66,
    66,
    66,
    66,
    66,
    66,
    66,
    66,
    66,
    66,
    66,
    66,
    50,
    34,
    0,
    66,
    66,
    66,
    66,
    66,
    66,
    66,
    66,
    66,
    66,
    66,
    66,
    66,
    66,
    66,
    66,
    66,
    0,
    78,
    80,
    80,
    80,
    80,
    80,
    80,
    80,
    80,
    80,
    202,
    80,
    80,
    80,
    80,
    80,
    80,
    80,
    80,
    80,
    80,
    80,
    80,
    80,
    86,
    66,
    66,
    66,
    50,
    204,
    80,
    80,
    80,
    82,
    66,
    66,
    66,
    66,
    66,
    206,
    66,
    66,
    66,
    66,
    66,
    66,
    66,
    66,
    0,
    46,
    180,
    182,
    22,
    22,
    22,
    22,
    22,
    22,
    22,
    22,
    22,
    22,
    22,
    22,
    22,
    22,
    22,
    22,
    22,
    22,
    22,
    98,
    100,
    48,
    64,
    66,
    66,
    50,
    34,
    22,
    22,
    22,
    94,
    64,
    66,
    66,
    66,
    66,
    48,
    0,
    0,
    0,
    66,
    66,
    66,
    66,
    66,
    66,
    60,
    186,
    188,
    40,
    40,
    40,
    40,
    40,
    40,
    40,
    40,
    40,
    40,
    40,
    40,
    40,
    40,
    40,
    40,
    40,
    40,
    40,
    110,
    112,
    48,
    64,
    66,
    66,
    50,
    34,
    0,
    40,
    40,
    106,
    64,
    66,
    66,
    66,
    66,
    48,
    0,
    0,
    0,
    66,
    66,
    66,
    66,
    66,
    66,
    70,
    0,
    0,
    0,
    62,
    62,
    54,
    62,
    62,
    62,
    62,
    62,
    62,
    62,
    62,
    62,
    62,
    62,
    62,
    62,
    54,
    54,
    54,
    54,
    48,
    64,
    66,
    66,
    50,
    34,
    0,
    54,
    54,
    54,
    76,
    66,
    66,
    66,
    66,
    48,
    0,
    66,
    66,
    66,
    66,
    66,
    66,
    66,
    66,
    54,
    76,
    66,
    0,
    0,
    0,
    132,
    0,
    0,
    0,
    0,
    0,
    0,
    0,
    0,
    0,
    0,
    0,
    0,
    0,
    66,
    66,
    66,
    66,
    48,
    64,
    66,
    66,
    50,
    34,
    64,
    66,
    66,
    84,
    80,
    80,
    80,
    80,
    80,
    92,
    64,
    66,
    66,
    84,
    80,
    80,
    80,
    80,
    80,
    86,
    66,
    66,
    0,
    0,
    0,
    0,
    0,
    0,
    0,
    0,
    0,
    0,
    0,
    0,
    0,
    0,
    0,
    0,
    0,
    0,
    0,
    66,
    66,
    48,
    64,
    66,
    66,
    50,
    34,
    64,
    66,
    66,
    96,
    22,
    22,
    22,
    22,
    22,
    48,
    64,
    66,
    66,
    96,
    104,
    22,
    22,
    22,
    22,
    48,
    64,
    66,
    66,
    66,
    66,
    66,
    132,
    132,
    132,
    132,
    132,
    132,
    132,
    132,
    132,
    66,
    66,
    66,
    66,
    66,
    66,
    66,
    66,
    48,
    64,
    66,
    66,
    50,
    34,
    64,
    66,
    66,
    108,
    0,
    0,
    40,
    40,
    40,
    48,
    64,
    66,
    66,
    108,
    116,
    40,
    40,
    0,
    0,
    48,
    64,
    66,
    66,
    66,
    0,
    0,
    0,
    0,
    0,
    0,
    0,
    0,
    0,
    0,
    0,
    0,
    0,
    0,
    0,
    0,
    66,
    66,
    66,
    48,
    64,
    66,
    66,
    50,
    34,
    64,
    66,
    66,
    54,
    0,
    0,
    0,
    0,
    0,
    48,
    64,
    66,
    66,
    54,
    54,
    54,
    54,
    0,
    0,
    48,
    64,
    66,
    66,
    66,
    66,
    66,
    66,
    66,
    66,
    66,
    66,
    66,
    66,
    66,
    66,
    66,
    66,
    66,
    66,
    66,
    66,
    66,
    66,
    48,
    64,
    66,
    66,
    50,
    34,
    64,
    66,
    66,
    66,
    66,
    66,
    66,
    0,
    0,
    48,
    64,
    66,
    66,
    66,
    66,
    66,
    66,
    66,
    66,
    78,
    80,
    80,
    80,
    80,
    80,
    80,
    80,
    80,
    80,
    80,
    80,
    80,
    80,
    80,
    80,
    80,
    80,
    80,
    80,
    80,
    80,
    80,
    80,
    208,
    64,
    66,
    66,
    50,
    204,
    80,
    80,
    80,
    80,
    82,
    66,
    66,
    84,
    80,
    172,
    80,
    80,
    80,
    80,
    80,
    82,
    66,
    66,
    66,
    46,
    22,
    22,
    22,
    22,
    22,
    22,
    22,
    22,
    22,
    22,
    22,
    22,
    22,
    22,
    22,
    22,
    22,
    22,
    22,
    22,
    22,
    22,
    22,
    94,
    64,
    66,
    66,
    50,
    34,
    22,
    22,
    22,
    104,
    94,
    64,
    66,
    96,
    22,
    48,
    22,
    22,
    22,
    22,
    104,
    94,
    64,
    66,
    66,
    60,
    40,
    40,
    40,
    40,
    40,
    40,
    40,
    40,
    40,
    40,
    40,
    40,
    40,
    40,
    40,
    40,
    40,
    40,
    40,
    40,
    40,
    40,
    40,
    106,
    64,
    66,
    0,
    50,
    34,
    40,
    40,
    40,
    116,
    106,
    64,
    66,
    108,
    40,
    48,
    40,
    40,
    40,
    40,
    116,
    106,
    64,
    66,
    66,
    70,
    118,
    54,
    54,
    54,
    54,
    54,
    54,
    54,
    0,
    0,
    0,
    0,
    54,
    54,
    54,
    54,
    54,
    54,
    0,
    54,
    54,
    54,
    54,
    54,
    76,
    66,
    0,
    50,
    34,
    118,
    54,
    54,
    54,
    54,
    76,
    66,
    54,
    54,
    48,
    0,
    0,
    54,
    54,
    54,
    54,
    76,
    66,
    66,
    54,
    76,
    66,
    66,
    0,
    0,
    66,
    66,
    66,
    66,
    0,
    66,
    66,
    66,
    66,
    0,
    0,
    66,
    66,
    66,
    66,
    66,
    66,
    66,
    66,
    66,
    0,
    0,
    50,
    34,
    64,
    66,
    66,
    66,
    66,
    66,
    66,
    66,
    66,
    48,
    64,
    66,
    66,
    66,
    66,
    66,
    66,
    66,
    66,
    66,
    66,
    66,
    66,
    0,
    0,
    66,
    66,
    66,
    66,
    66,
    66,
    66,
    66,
    0,
    0,
    0,
    66,
    66,
    0,
    0,
    0,
    0,
    0,
    0,
    0,
    0,
    0,
    50,
    34,
    0,
    66,
    66,
    66,
    66,
    66,
    66,
    0,
    0,
    78,
    80,
    80,
    82,
    66,
    66,
    84,
    80,
    80,
    80,
    80,
    80,
    80,
    80,
    80,
    80,
    80,
    80,
    80,
    80,
    80,
    80,
    174,
    80,
    80,
    82,
    0,
    0,
    66,
    84,
    80,
    80,
    80,
    80,
    80,
    80,
    80,
    80,
    178,
    34,
    0,
    0,
    66,
    66,
    66,
    66,
    66,
    0,
    0,
    48,
    22,
    22,
    94,
    64,
    66,
    96,
    104,
    22,
    22,
    22,
    22,
    22,
    22,
    22,
    22,
    22,
    0,
    22,
    22,
    22,
    22,
    48,
    22,
    22,
    94,
    64,
    0,
    66,
    96,
    104,
    22,
    22,
    22,
    22,
    22,
    22,
    22,
    50,
    34,
    0,
    0,
    66,
    66,
    66,
    66,
    66,
    0,
    0,
    48,
    40,
    40,
    106,
    64,
    66,
    108,
    116,
    0,
    40,
    40,
    40,
    40,
    40,
    40,
    40,
    0,
    0,
    210,
    212,
    214,
    40,
    48,
    40,
    40,
    106,
    64,
    66,
    66,
    108,
    116,
    40,
    0,
    0,
    0,
    0,
    40,
    40,
    50,
    34,
    0,
    66,
    66,
    66,
    66,
    66,
    66,
    66,
    0,
    48,
    0,
    0,
    54,
    76,
    66,
    54,
    54,
    0,
    0,
    0,
    0,
    0,
    54,
    54,
    54,
    0,
    0,
    0,
    0,
    0,
    0,
    48,
    118,
    62,
    62,
    76,
    66,
    132,
    62,
    62,
    54,
    0,
    0,
    0,
    0,
    0,
    0,
    50,
    34,
    64,
    66,
    138,
    138,
    138,
    138,
    138,
    66,
    66,
    48,
    0,
    66,
    66,
    66,
    66,
    66,
    66,
    0,
    0,
    0,
    0,
    66,
    66,
    66,
    66,
    66,
    66,
    0,
    0,
    0,
    0,
    48,
    64,
    0,
    0,
    66,
    66,
    0,
    0,
    0,
    66,
    66,
    66,
    0,
    0,
    66,
    66,
    50,
    34,
    64,
    66,
    138,
    0,
    0,
    0,
    138,
    66,
    66,
    48,
    64,
    66,
    66,
    66,
    66,
    66,
    66,
    66,
    66,
    66,
    66,
    66,
    66,
    66,
    66,
    66,
    66,
    0,
    0,
    0,
    66,
    48,
    64,
    66,
    66,
    66,
    66,
    66,
    66,
    66,
    66,
    66,
    66,
    66,
    66,
    66,
    66,
    50,
    242,
    244,
    244,
    246,
    0,
    0,
    0,
    254,
    244,
    244,
    256,
    244,
    244,
    244,
    244,
    244,
    244,
    244,
    244,
    244,
    244,
    244,
    244,
    244,
    244,
    244,
    244,
    244,
    244,
    244,
    244,
    244,
    256,
    244,
    244,
    244,
    244,
    244,
    244,
    244,
    244,
    244,
    244,
    244,
    244,
    244,
    244,
    244,
    258
   ],
   "opacity": 1,
   "visible": true,
   "x": 0,
   "y": 0
  },
  {
   "id": 3,
   "name": "sopra_testa",
   "type": "tilelayer",
   "width": 49,
   "height": 40,
   "data": [
    0,
    0,
    0,
    0,
    0,
    0,
    0,
    0,
    0,
    0,
    0,
    0,
    0,
    0,
    0,
    0,
    0,
    0,
    0,
    0,
    0,
    0,
    0,
    0,
    0,
    0,
    0,
    0,
    0,
    0,
    0,
    0,
    0,
    0,
    0,
    0,
    0,
    0,
    0,
    0,
    0,
    0,
    0,
    0,
    0,
    0,
    0,
    0,
    0,
    0,
    0,
    0,
    0,
    0,
    0,
    0,
    0,
    0,
    0,
    0,
    0,
    0,
    0,
    0,
    0,
    0,
    0,
    0,
    0,
    0,
    0,
    0,
    0,
    0,
    0,
    0,
    0,
    0,
    0,
    0,
    0,
    0,
    0,
    0,
    0,
    0,
    0,
    0,
    0,
    0,
    0,
    0,
    0,
    0,
    0,
    0,
    0,
    0,
    0,
    0,
    0,
    0,
    0,
    0,
    0,
    0,
    0,
    0,
    0,
    0,
    0,
    0,
    0,
    0,
    0,
    0,
    0,
    0,
    0,
    0,
    0,
    0,
    0,
    0,
    0,
    0,
    0,
    0,
    0,
    0,
    0,
    0,
    0,
    0,
    0,
    0,
    0,
    0,
    0,
    0,
    0,
    0,
    0,
    0,
    0,
    0,
    0,
    0,
    0,
    0,
    0,
    56,
    56,
    56,
    56,
    56,
    0,
    0,
    0,
    0,
    0,
    56,
    56,
    56,
    56,
    56,
    0,
    0,
    0,
    0,
    0,
    0,
    0,
    0,
    0,
    0,
    0,
    0,
    0,
    0,
    0,
    0,
    56,
    56,
    56,
    0,
    0,
    0,
    0,
    0,
    0,
    56,
    56,
    56,
    0,
    0,
    0,
    0,
    0,
    0,
    0,
    0,
    0,
    68,
    68,
    0,
    0,
    0,
    0,
    0,
    0,
    0,
    0,
    68,
    68,
    68,
    0,
    0,
    0,
    0,
    0,
    0,
    0,
    0,
    0,
    0,
    0,
    0,
    0,
    0,
    72,
    68,
    68,
    68,
    74,
    74,
    74,
    74,
    74,
    74,
    68,
    0,
    68,
    68,
    0,
    0,
    0,
    0,
    0,
    0,
    0,
    0,
    0,
    0,
    0,
    0,
    0,
    0,
    0,
    0,
    0,
    0,
    0,
    68,
    68,
    0,
    0,
    0,
    0,
    0,
    0,
    0,
    0,
    0,
    0,
    0,
    0,
    0,
    0,
    72,
    68,
    0,
    0,
    88,
    74,
    74,
    74,
    88,
    88,
    68,
    0,
    0,
    68,
    0,
    0,
    0,
    0,
    0,
    0,
    0,
    0,
    0,
    0,
    0,
    0,
    0,
    0,
    0,
    0,
    0,
    0,
    0,
    0,
    0,
    0,
    0,
    0,
    0,
    0,
    0,
    0,
    0,
    0,
    0,
    0,
    0,
    0,
    0,
    72,
    0,
    0,
    0,
    68,
    88,
    88,
    88,
    68,
    68,
    0,
    0,
    0,
    68,
    0,
    0,
    0,
    0,
    0,
    0,
    0,
    0,
    0,
    0,
    0,
    0,
    0,
    0,
    0,
    0,
    0,
    0,
    0,
    0,
    0,
    0,
    0,
    0,
    0,
    0,
    0,
    0,
    0,
    0,
    0,
    0,
    0,
    0,
    0,
    72,
    68,
    68,
    0,
    68,
    68,
    68,
    68,
    0,
    0,
    0,
    0,
    0,
    68,
    0,
    0,
    0,
    0,
    0,
    0,
    0,
    0,
    0,
    0,
    0,
    0,
    0,
    0,
    0,
    0,
    0,
    0,
    0,
    0,
    0,
    0,
    0,
    0,
    0,
    0,
    0,
    0,
    56,
    56,
    56,
    0,
    0,
    0,
    0,
    72,
    68,
    68,
    0,
    0,
    68,
    68,
    0,
    0,
    0,
    0,
    0,
    0,
    68,
    0,
    0,
    0,
    0,
    0,
    122,
    0,
    0,
    0,
    0,
    0,
    0,
    56,
    56,
    0,
    0,
    0,
    0,
    56,
    56,
    56,
    0,
    0,
    0,
    0,
    0,
    0,
    0,
    0,
    68,
    68,
    0,
    0,
    0,
    0,
    72,
    0,
    0,
    0,
    0,
    68,
    68,
    0,
    68,
    68,
    68,
    0,
    0,
    0,
    0,
    134,
    136,
    0,
    0,
    0,
    0,
    0,
    144,
    146,
    148,
    0,
    72,
    68,
    0,
    0,
    0,
    0,
    0,
    68,
    68,
    0,
    0,
    0,
    0,
    0,
    0,
    0,
    0,
    0,
    68,
    0,
    0,
    0,
    0,
    0,
    0,
    0,
    0,
    0,
    68,
    0,
    0,
    68,
    68,
    68,
    74,
    74,
    74,
    0,
    150,
    152,
    0,
    0,
    0,
    0,
    0,
    154,
    156,
    158,
    0,
    72,
    68,
    68,
    0,
    0,
    0,
    0,
    0,
    0,
    0,
    0,
    0,
    0,
    0,
    0,
    0,
    0,
    0,
    0,
    0,
    0,
    0,
    0,
    0,
    0,
    0,
    0,
    0,
    0,
    0,
    0,
    0,
    68,
    68,
    88,
    88,
    88,
    0,
    160,
    162,
    0,
    0,
    0,
    0,
    0,
    164,
    166,
    168,
    0,
    72,
    0,
    68,
    0,
    0,
    0,
    0,
    0,
    0,
    0,
    0,
    0,
    0,
    0,
    0,
    0,
    0,
    0,
    0,
    0,
    0,
    0,
    0,
    0,
    0,
    0,
    0,
    0,
    0,
    0,
    0,
    0,
    0,
    0,
    68,
    68,
    68,
    0,
    0,
    0,
    0,
    0,
    0,
    0,
    0,
    0,
    0,
    0,
    0,
    0,
    0,
    0,
    0,
    0,
    0,
    0,
    0,
    0,
    0,
    0,
    0,
    0,
    0,
    0,
    0,
    0,
    0,
    0,
    0,
    0,
    0,
    0,
    0,
    0,
    0,
    0,
    0,
    0,
    0,
    0,
    0,
    0,
    0,
    0,
    0,
    0,
    0,
    0,
    0,
    0,
    0,
    0,
    0,
    0,
    0,
    0,
    0,
    0,
    0,
    0,
    0,
    0,
    0,
    0,
    0,
    0,
    0,
    0,
    0,
    0,
    0,
    0,
    0,
    0,
    0,
    0,
    184,
    0,
    0,
    0,
    0,
    0,
    0,
    0,
    0,
    0,
    0,
    0,
    0,
    0,
    0,
    0,
    0,
    0,
    0,
    0,
    0,
    0,
    0,
    0,
    0,
    0,
    0,
    0,
    0,
    0,
    0,
    0,
    0,
    0,
    0,
    0,
    0,
    0,
    0,
    0,
    0,
    0,
    0,
    0,
    0,
    0,
    0,
    190,
    192,
    194,
    0,
    0,
    0,
    0,
    0,
    0,
    0,
    0,
    0,
    0,
    0,
    0,
    0,
    0,
    0,
    0,
    0,
    0,
    0,
    0,
    56,
    56,
    56,
    56,
    0,
    0,
    0,
    0,
    0,
    0,
    0,
    0,
    0,
    0,
    0,
    56,
    56,
    56,
    56,
    0,
    0,
    0,
    0,
    0,
    0,
    0,
    196,
    198,
    200,
    0,
    0,
    0,
    0,
    0,
    0,
    0,
    0,
    0,
    0,
    0,
    0,
    0,
    0,
    0,
    0,
    0,
    0,
    0,
    0,
    72,
    68,
    0,
    0,
    0,
    0,
    0,
    0,
    0,
    0,
    0,
    0,
    0,
    0,
    0,
    0,
    0,
    68,
    68,
    0,
    0,
    0,
    0,
    0,
    0,
    0,
    0,
    0,
    0,
    0,
    0,
    0,
    0,
    0,
    0,
    0,
    0,
    0,
    0,
    0,
    0,
    0,
    0,
    0,
    0,
    0,
    0,
    0,
    0,
    72,
    0,
    0,
    0,
    0,
    0,
    0,
    0,
    0,
    0,
    0,
    0,
    0,
    0,
    0,
    0,
    0,
    0,
    68,
    0,
    0,
    0,
    0,
    0,
    0,
    0,
    0,
    0,
    0,
    0,
    0,
    0,
    0,
    0,
    0,
    0,
    0,
    0,
    0,
    0,
    0,
    0,
    0,
    0,
    0,
    0,
    0,
    0,
    0,
    0,
    0,
    0,
    0,
    0,
    0,
    0,
    0,
    0,
    0,
    0,
    0,
    0,
    0,
    0,
    0,
    0,
    0,
    68,
    0,
    0,
    0,
    0,
    0,
    0,
    0,
    0,
    0,
    0,
    0,
    0,
    0,
    0,
    0,
    0,
    0,
    0,
    0,
    0,
    0,
    0,
    0,
    0,
    0,
    0,
    0,
    0,
    0,
    0,
    0,
    0,
    0,
    0,
    0,
    0,
    0,
    0,
    0,
    0,
    72,
    68,
    68,
    0,
    0,
    0,
    0,
    0,
    0,
    0,
    0,
    0,
    0,
    0,
    0,
    0,
    0,
    0,
    0,
    0,
    0,
    0,
    0,
    0,
    0,
    0,
    0,
    0,
    0,
    0,
    0,
    0,
    0,
    0,
    0,
    0,
    0,
    0,
    0,
    190,
    0,
    0,
    0,
    0,
    0,
    0,
    0,
    0,
    0,
    72,
    68,
    68,
    0,
    0,
    0,
    0,
    0,
    0,
    0,
    56,
    56,
    56,
    0,
    0,
    0,
    0,
    0,
    0,
    0,
    0,
    0,
    0,
    0,
    0,
    0,
    0,
    0,
    0,
    0,
    0,
    0,
    0,
    0,
    0,
    0,
    0,
    0,
    0,
    196,
    0,
    0,
    0,
    0,
    0,
    0,
    0,
    0,
    0,
    72,
    0,
    0,
    0,
    0,
    0,
    0,
    0,
    0,
    0,
    0,
    0,
    68,
    74,
    74,
    0,
    74,
    74,
    74,
    74,
    74,
    74,
    74,
    74,
    74,
    74,
    74,
    74,
    74,
    0,
    0,
    0,
    0,
    0,
    0,
    0,
    0,
    0,
    0,
    0,
    0,
    0,
    0,
    0,
    0,
    0,
    0,
    0,
    0,
    0,
    0,
    0,
    0,
    0,
    0,
    0,
    0,
    0,
    0,
    0,
    0,
    68,
    88,
    88,
    88,
    88,
    88,
    88,
    88,
    88,
    88,
    88,
    88,
    88,
    88,
    88,
    88,
    88,
    68,
    68,
    0,
    0,
    0,
    0,
    0,
    0,
    0,
    0,
    0,
    0,
    0,
    0,
    0,
    0,
    0,
    0,
    0,
    0,
    0,
    0,
    0,
    0,
    0,
    0,
    0,
    0,
    0,
    0,
    0,
    0,
    0,
    0,
    0,
    0,
    0,
    0,
    0,
    0,
    0,
    0,
    0,
    0,
    0,
    0,
    0,
    0,
    0,
    0,
    0,
    0,
    0,
    0,
    0,
    0,
    0,
    0,
    0,
    0,
    0,
    0,
    0,
    192,
    192,
    0,
    0,
    0,
    0,
    0,
    0,
    0,
    0,
    0,
    0,
    0,
    190,
    192,
    0,
    0,
    0,
    0,
    0,
    68,
    68,
    88,
    88,
    88,
    88,
    88,
    88,
    88,
    88,
    88,
    68,
    68,
    68,
    68,
    68,
    0,
    0,
    0,
    0,
    0,
    0,
    0,
    0,
    0,
    0,
    0,
    0,
    0,
    198,
    198,
    56,
    56,
    56,
    0,
    0,
    0,
    0,
    0,
    0,
    0,
    0,
    196,
    198,
    0,
    0,
    0,
    0,
    0,
    0,
    0,
    0,
    0,
    0,
    0,
    0,
    0,
    0,
    0,
    0,
    0,
    0,
    0,
    0,
    0,
    0,
    0,
    0,
    0,
    0,
    0,
    0,
    0,
    0,
    0,
    0,
    0,
    0,
    0,
    0,
    0,
    68,
    68,
    0,
    0,
    0,
    0,
    0,
    0,
    0,
    0,
    0,
    0,
    0,
    0,
    0,
    0,
    0,
    0,
    0,
    0,
    0,
    0,
    0,
    0,
    0,
    0,
    0,
    0,
    0,
    0,
    0,
    0,
    0,
    0,
    0,
    0,
    0,
    0,
    0,
    0,
    0,
    0,
    0,
    0,
    0,
    0,
    0,
    0,
    0,
    0,
    0,
    0,
    0,
    0,
    0,
    0,
    0,
    0,
    0,
    0,
    0,
    0,
    0,
    0,
    0,
    0,
    0,
    0,
    0,
    0,
    0,
    0,
    0,
    0,
    0,
    0,
    0,
    0,
    0,
    0,
    0,
    0,
    0,
    0,
    0,
    0,
    0,
    0,
    0,
    0,
    0,
    0,
    0,
    0,
    0,
    0,
    0,
    0,
    0,
    0,
    0,
    0,
    0,
    0,
    0,
    0,
    0,
    0,
    0,
    0,
    0,
    0,
    0,
    0,
    0,
    0,
    0,
    0,
    0,
    0,
    0,
    0,
    0,
    0,
    0,
    0,
    0,
    0,
    0,
    0,
    0,
    0,
    0,
    0,
    0,
    0,
    0,
    68,
    0,
    0,
    0,
    0,
    0,
    0,
    0,
    0,
    0,
    0,
    0,
    0,
    0,
    0,
    0,
    0,
    0,
    0,
    0,
    0,
    0,
    0,
    0,
    0,
    0,
    0,
    0,
    0,
    0,
    0,
    56,
    56,
    56,
    56,
    0,
    0,
    0,
    0,
    0,
    0,
    56,
    0,
    0,
    0,
    0,
    0,
    0,
    0,
    68,
    0,
    0,
    0,
    0,
    0,
    0,
    0,
    0,
    0,
    0,
    0,
    0,
    56,
    56,
    0,
    0,
    0,
    0,
    0,
    0,
    0,
    0,
    0,
    0,
    0,
    68,
    68,
    0,
    0,
    0,
    0,
    68,
    0,
    0,
    0,
    0,
    68,
    68,
    0,
    0,
    0,
    0,
    0,
    0,
    0,
    0,
    0,
    68,
    68,
    0,
    0,
    0,
    0,
    0,
    0,
    0,
    0,
    0,
    0,
    0,
    0,
    0,
    0,
    0,
    0,
    0,
    0,
    0,
    0,
    0,
    0,
    0,
    0,
    0,
    68,
    68,
    0,
    0,
    0,
    0,
    0,
    0,
    0,
    0,
    68,
    68,
    68,
    0,
    0,
    68,
    68,
    68,
    68,
    68,
    68,
    68,
    68,
    68,
    0,
    0,
    72,
    0,
    0,
    0,
    0,
    0,
    0,
    68,
    68,
    0,
    0,
    0,
    0,
    0,
    0,
    0,
    0,
    0,
    0,
    0,
    0,
    0,
    0,
    0,
    0,
    0,
    0,
    0,
    0,
    0,
    0,
    0,
    0,
    0,
    0,
    68,
    68,
    0,
    0,
    0,
    0,
    0,
    0,
    0,
    0,
    0,
    0,
    0,
    0,
    72,
    68,
    0,
    0,
    0,
    0,
    0,
    68,
    68,
    0,
    0,
    0,
    0,
    0,
    0,
    0,
    0,
    0,
    0,
    0,
    0,
    0,
    0,
    0,
    0,
    0,
    184,
    0,
    0,
    0,
    0,
    0,
    0,
    0,
    0,
    0,
    68,
    0,
    0,
    0,
    0,
    0,
    0,
    0,
    0,
    0,
    0,
    0,
    0,
    72,
    68,
    0,
    0,
    0,
    0,
    0,
    68,
    68,
    0,
    0,
    0,
    0,
    0,
    0,
    0,
    0,
    192,
    0,
    0,
    0,
    0,
    0,
    0,
    0,
    190,
    194,
    0,
    0,
    0,
    0,
    0,
    0,
    0,
    0,
    0,
    0,
    0,
    0,
    0,
    0,
    192,
    190,
    216,
    216,
    0,
    0,
    0,
    0,
    72,
    0,
    0,
    0,
    0,
    0,
    0,
    0,
    68,
    0,
    56,
    56,
    0,
    0,
    0,
    0,
    0,
    198,
    56,
    56,
    56,
    56,
    0,
    0,
    0,
    196,
    200,
    218,
    220,
    222,
    56,
    0,
    0,
    0,
    0,
    0,
    0,
    0,
    0,
    0,
    0,
    198,
    196,
    74,
    74,
    56,
    56,
    0,
    0,
    0,
    0,
    0,
    0,
    0,
    0,
    0,
    0,
    0,
    0,
    72,
    0,
    0,
    0,
    0,
    0,
    0,
    68,
    68,
    68,
    68,
    0,
    0,
    0,
    0,
    0,
    0,
    224,
    226,
    228,
    68,
    0,
    0,
    88,
    88,
    0,
    0,
    88,
    88,
    88,
    0,
    0,
    0,
    88,
    88,
    0,
    0,
    0,
    0,
    0,
    0,
    0,
    230,
    232,
    234,
    0,
    0,
    0,
    0,
    0,
    0,
    0,
    0,
    0,
    0,
    0,
    0,
    0,
    0,
    0,
    0,
    0,
    0,
    0,
    0,
    0,
    236,
    238,
    240,
    0,
    0,
    0,
    0,
    0,
    0,
    0,
    0,
    0,
    0,
    0,
    0,
    0,
    0,
    0,
    0,
    0,
    0,
    0,
    0,
    0,
    0,
    248,
    250,
    252,
    0,
    0,
    0,
    0,
    0,
    0,
    0,
    0,
    0,
    0,
    0,
    0,
    0,
    0,
    0,
    0,
    0,
    0,
    0,
    0,
    0,
    0,
    0,
    0,
    0,
    0,
    0,
    0,
    0,
    0,
    0,
    0,
    0,
    0,
    0,
    0,
    0,
    0,
    0,
    0,
    0,
    0
   ],
   "opacity": 1,
   "visible": true,
   "x": 0,
   "y": 0
  },
  {
   "id": 4,
   "name": "collisioni",
   "type": "objectgroup",
   "opacity": 1,
   "visible": true,
   "x": 0,
   "y": 0,
   "objects": [
    {
     "id": 1000,
     "name": "",
     "type": "",
     "x": 0,
     "y": 0,
     "width": 32,
     "height": 32,
     "rotation": 0,
     "visible": true,
     "properties": []
    },
    {
     "id": 1001,
     "name": "",
     "type": "",
     "x": 32,
     "y": 0,
     "width": 32,
     "height": 32,
     "rotation": 0,
     "visible": true,
     "properties": []
    },
    {
     "id": 1002,
     "name": "",
     "type": "",
     "x": 64,
     "y": 0,
     "width": 32,
     "height": 32,
     "rotation": 0,
     "visible": true,
     "properties": []
    },
    {
     "id": 1003,
     "name": "",
     "type": "",
     "x": 96,
     "y": 0,
     "width": 32,
     "height": 32,
     "rotation": 0,
     "visible": true,
     "properties": []
    },
    {
     "id": 1004,
     "name": "",
     "type": "",
     "x": 128,
     "y": 0,
     "width": 32,
     "height": 32,
     "rotation": 0,
     "visible": true,
     "properties": []
    },
    {
     "id": 1005,
     "name": "",
     "type": "",
     "x": 160,
     "y": 0,
     "width": 32,
     "height": 32,
     "rotation": 0,
     "visible": true,
     "properties": []
    },
    {
     "id": 1006,
     "name": "",
     "type": "",
     "x": 192,
     "y": 0,
     "width": 32,
     "height": 32,
     "rotation": 0,
     "visible": true,
     "properties": []
    },
    {
     "id": 1007,
     "name": "",
     "type": "",
     "x": 224,
     "y": 0,
     "width": 32,
     "height": 32,
     "rotation": 0,
     "visible": true,
     "properties": []
    },
    {
     "id": 1008,
     "name": "",
     "type": "",
     "x": 256,
     "y": 0,
     "width": 32,
     "height": 32,
     "rotation": 0,
     "visible": true,
     "properties": []
    },
    {
     "id": 1009,
     "name": "",
     "type": "",
     "x": 288,
     "y": 0,
     "width": 32,
     "height": 32,
     "rotation": 0,
     "visible": true,
     "properties": []
    },
    {
     "id": 1010,
     "name": "",
     "type": "",
     "x": 320,
     "y": 0,
     "width": 32,
     "height": 32,
     "rotation": 0,
     "visible": true,
     "properties": []
    },
    {
     "id": 1011,
     "name": "",
     "type": "",
     "x": 352,
     "y": 0,
     "width": 32,
     "height": 32,
     "rotation": 0,
     "visible": true,
     "properties": []
    },
    {
     "id": 1012,
     "name": "",
     "type": "",
     "x": 384,
     "y": 0,
     "width": 32,
     "height": 32,
     "rotation": 0,
     "visible": true,
     "properties": []
    },
    {
     "id": 1013,
     "name": "",
     "type": "",
     "x": 416,
     "y": 0,
     "width": 32,
     "height": 32,
     "rotation": 0,
     "visible": true,
     "properties": []
    },
    {
     "id": 1014,
     "name": "",
     "type": "",
     "x": 448,
     "y": 0,
     "width": 32,
     "height": 32,
     "rotation": 0,
     "visible": true,
     "properties": []
    },
    {
     "id": 1015,
     "name": "",
     "type": "",
     "x": 480,
     "y": 0,
     "width": 32,
     "height": 32,
     "rotation": 0,
     "visible": true,
     "properties": []
    },
    {
     "id": 1016,
     "name": "",
     "type": "",
     "x": 512,
     "y": 0,
     "width": 32,
     "height": 32,
     "rotation": 0,
     "visible": true,
     "properties": []
    },
    {
     "id": 1017,
     "name": "",
     "type": "",
     "x": 544,
     "y": 0,
     "width": 32,
     "height": 32,
     "rotation": 0,
     "visible": true,
     "properties": []
    },
    {
     "id": 1018,
     "name": "",
     "type": "",
     "x": 576,
     "y": 0,
     "width": 32,
     "height": 32,
     "rotation": 0,
     "visible": true,
     "properties": []
    },
    {
     "id": 1019,
     "name": "",
     "type": "",
     "x": 608,
     "y": 0,
     "width": 32,
     "height": 32,
     "rotation": 0,
     "visible": true,
     "properties": []
    },
    {
     "id": 1020,
     "name": "",
     "type": "",
     "x": 640,
     "y": 0,
     "width": 32,
     "height": 32,
     "rotation": 0,
     "visible": true,
     "properties": []
    },
    {
     "id": 1021,
     "name": "",
     "type": "",
     "x": 672,
     "y": 0,
     "width": 32,
     "height": 32,
     "rotation": 0,
     "visible": true,
     "properties": []
    },
    {
     "id": 1022,
     "name": "",
     "type": "",
     "x": 704,
     "y": 0,
     "width": 32,
     "height": 32,
     "rotation": 0,
     "visible": true,
     "properties": []
    },
    {
     "id": 1023,
     "name": "",
     "type": "",
     "x": 736,
     "y": 0,
     "width": 32,
     "height": 32,
     "rotation": 0,
     "visible": true,
     "properties": []
    },
    {
     "id": 1024,
     "name": "",
     "type": "",
     "x": 768,
     "y": 0,
     "width": 32,
     "height": 32,
     "rotation": 0,
     "visible": true,
     "properties": []
    },
    {
     "id": 1025,
     "name": "",
     "type": "",
     "x": 800,
     "y": 0,
     "width": 32,
     "height": 32,
     "rotation": 0,
     "visible": true,
     "properties": []
    },
    {
     "id": 1026,
     "name": "",
     "type": "",
     "x": 832,
     "y": 0,
     "width": 32,
     "height": 32,
     "rotation": 0,
     "visible": true,
     "properties": []
    },
    {
     "id": 1027,
     "name": "",
     "type": "",
     "x": 864,
     "y": 0,
     "width": 32,
     "height": 32,
     "rotation": 0,
     "visible": true,
     "properties": []
    },
    {
     "id": 1028,
     "name": "",
     "type": "",
     "x": 896,
     "y": 0,
     "width": 32,
     "height": 32,
     "rotation": 0,
     "visible": true,
     "properties": []
    },
    {
     "id": 1029,
     "name": "",
     "type": "",
     "x": 928,
     "y": 0,
     "width": 32,
     "height": 32,
     "rotation": 0,
     "visible": true,
     "properties": []
    },
    {
     "id": 1030,
     "name": "",
     "type": "",
     "x": 960,
     "y": 0,
     "width": 32,
     "height": 32,
     "rotation": 0,
     "visible": true,
     "properties": []
    },
    {
     "id": 1031,
     "name": "",
     "type": "",
     "x": 992,
     "y": 0,
     "width": 32,
     "height": 32,
     "rotation": 0,
     "visible": true,
     "properties": []
    },
    {
     "id": 1032,
     "name": "",
     "type": "",
     "x": 1024,
     "y": 0,
     "width": 32,
     "height": 32,
     "rotation": 0,
     "visible": true,
     "properties": []
    },
    {
     "id": 1033,
     "name": "",
     "type": "",
     "x": 1056,
     "y": 0,
     "width": 32,
     "height": 32,
     "rotation": 0,
     "visible": true,
     "properties": []
    },
    {
     "id": 1034,
     "name": "",
     "type": "",
     "x": 1088,
     "y": 0,
     "width": 32,
     "height": 32,
     "rotation": 0,
     "visible": true,
     "properties": []
    },
    {
     "id": 1035,
     "name": "",
     "type": "",
     "x": 1120,
     "y": 0,
     "width": 32,
     "height": 32,
     "rotation": 0,
     "visible": true,
     "properties": []
    },
    {
     "id": 1036,
     "name": "",
     "type": "",
     "x": 1152,
     "y": 0,
     "width": 32,
     "height": 32,
     "rotation": 0,
     "visible": true,
     "properties": []
    },
    {
     "id": 1037,
     "name": "",
     "type": "",
     "x": 1184,
     "y": 0,
     "width": 32,
     "height": 32,
     "rotation": 0,
     "visible": true,
     "properties": []
    },
    {
     "id": 1038,
     "name": "",
     "type": "",
     "x": 1216,
     "y": 0,
     "width": 32,
     "height": 32,
     "rotation": 0,
     "visible": true,
     "properties": []
    },
    {
     "id": 1039,
     "name": "",
     "type": "",
     "x": 1248,
     "y": 0,
     "width": 32,
     "height": 32,
     "rotation": 0,
     "visible": true,
     "properties": []
    },
    {
     "id": 1040,
     "name": "",
     "type": "",
     "x": 1280,
     "y": 0,
     "width": 32,
     "height": 32,
     "rotation": 0,
     "visible": true,
     "properties": []
    },
    {
     "id": 1041,
     "name": "",
     "type": "",
     "x": 1312,
     "y": 0,
     "width": 32,
     "height": 32,
     "rotation": 0,
     "visible": true,
     "properties": []
    },
    {
     "id": 1042,
     "name": "",
     "type": "",
     "x": 1344,
     "y": 0,
     "width": 32,
     "height": 32,
     "rotation": 0,
     "visible": true,
     "properties": []
    },
    {
     "id": 1043,
     "name": "",
     "type": "",
     "x": 1376,
     "y": 0,
     "width": 32,
     "height": 32,
     "rotation": 0,
     "visible": true,
     "properties": []
    },
    {
     "id": 1044,
     "name": "",
     "type": "",
     "x": 1408,
     "y": 0,
     "width": 32,
     "height": 32,
     "rotation": 0,
     "visible": true,
     "properties": []
    },
    {
     "id": 1045,
     "name": "",
     "type": "",
     "x": 1440,
     "y": 0,
     "width": 32,
     "height": 32,
     "rotation": 0,
     "visible": true,
     "properties": []
    },
    {
     "id": 1046,
     "name": "",
     "type": "",
     "x": 1472,
     "y": 0,
     "width": 32,
     "height": 32,
     "rotation": 0,
     "visible": true,
     "properties": []
    },
    {
     "id": 1047,
     "name": "",
     "type": "",
     "x": 1504,
     "y": 0,
     "width": 32,
     "height": 32,
     "rotation": 0,
     "visible": true,
     "properties": []
    },
    {
     "id": 1048,
     "name": "",
     "type": "",
     "x": 1536,
     "y": 0,
     "width": 32,
     "height": 32,
     "rotation": 0,
     "visible": true,
     "properties": []
    },
    {
     "id": 1049,
     "name": "",
     "type": "",
     "x": 0,
     "y": 32,
     "width": 32,
     "height": 32,
     "rotation": 0,
     "visible": true,
     "properties": []
    },
    {
     "id": 1050,
     "name": "",
     "type": "",
     "x": 32,
     "y": 32,
     "width": 32,
     "height": 32,
     "rotation": 0,
     "visible": true,
     "properties": []
    },
    {
     "id": 1051,
     "name": "",
     "type": "",
     "x": 64,
     "y": 32,
     "width": 32,
     "height": 32,
     "rotation": 0,
     "visible": true,
     "properties": []
    },
    {
     "id": 1052,
     "name": "",
     "type": "",
     "x": 96,
     "y": 32,
     "width": 32,
     "height": 32,
     "rotation": 0,
     "visible": true,
     "properties": []
    },
    {
     "id": 1053,
     "name": "",
     "type": "",
     "x": 128,
     "y": 32,
     "width": 32,
     "height": 32,
     "rotation": 0,
     "visible": true,
     "properties": []
    },
    {
     "id": 1054,
     "name": "",
     "type": "",
     "x": 160,
     "y": 32,
     "width": 32,
     "height": 32,
     "rotation": 0,
     "visible": true,
     "properties": []
    },
    {
     "id": 1055,
     "name": "",
     "type": "",
     "x": 192,
     "y": 32,
     "width": 32,
     "height": 32,
     "rotation": 0,
     "visible": true,
     "properties": []
    },
    {
     "id": 1056,
     "name": "",
     "type": "",
     "x": 224,
     "y": 32,
     "width": 32,
     "height": 32,
     "rotation": 0,
     "visible": true,
     "properties": []
    },
    {
     "id": 1057,
     "name": "",
     "type": "",
     "x": 256,
     "y": 32,
     "width": 32,
     "height": 32,
     "rotation": 0,
     "visible": true,
     "properties": []
    },
    {
     "id": 1058,
     "name": "",
     "type": "",
     "x": 288,
     "y": 32,
     "width": 32,
     "height": 32,
     "rotation": 0,
     "visible": true,
     "properties": []
    },
    {
     "id": 1059,
     "name": "",
     "type": "",
     "x": 320,
     "y": 32,
     "width": 32,
     "height": 32,
     "rotation": 0,
     "visible": true,
     "properties": []
    },
    {
     "id": 1060,
     "name": "",
     "type": "",
     "x": 352,
     "y": 32,
     "width": 32,
     "height": 32,
     "rotation": 0,
     "visible": true,
     "properties": []
    },
    {
     "id": 1061,
     "name": "",
     "type": "",
     "x": 384,
     "y": 32,
     "width": 32,
     "height": 32,
     "rotation": 0,
     "visible": true,
     "properties": []
    },
    {
     "id": 1062,
     "name": "",
     "type": "",
     "x": 416,
     "y": 32,
     "width": 32,
     "height": 32,
     "rotation": 0,
     "visible": true,
     "properties": []
    },
    {
     "id": 1063,
     "name": "",
     "type": "",
     "x": 448,
     "y": 32,
     "width": 32,
     "height": 32,
     "rotation": 0,
     "visible": true,
     "properties": []
    },
    {
     "id": 1064,
     "name": "",
     "type": "",
     "x": 480,
     "y": 32,
     "width": 32,
     "height": 32,
     "rotation": 0,
     "visible": true,
     "properties": []
    },
    {
     "id": 1065,
     "name": "",
     "type": "",
     "x": 512,
     "y": 32,
     "width": 32,
     "height": 32,
     "rotation": 0,
     "visible": true,
     "properties": []
    },
    {
     "id": 1066,
     "name": "",
     "type": "",
     "x": 544,
     "y": 32,
     "width": 32,
     "height": 32,
     "rotation": 0,
     "visible": true,
     "properties": []
    },
    {
     "id": 1067,
     "name": "",
     "type": "",
     "x": 576,
     "y": 32,
     "width": 32,
     "height": 32,
     "rotation": 0,
     "visible": true,
     "properties": []
    },
    {
     "id": 1068,
     "name": "",
     "type": "",
     "x": 608,
     "y": 32,
     "width": 32,
     "height": 32,
     "rotation": 0,
     "visible": true,
     "properties": []
    },
    {
     "id": 1069,
     "name": "",
     "type": "",
     "x": 640,
     "y": 32,
     "width": 32,
     "height": 32,
     "rotation": 0,
     "visible": true,
     "properties": []
    },
    {
     "id": 1070,
     "name": "",
     "type": "",
     "x": 672,
     "y": 32,
     "width": 32,
     "height": 32,
     "rotation": 0,
     "visible": true,
     "properties": []
    },
    {
     "id": 1071,
     "name": "",
     "type": "",
     "x": 704,
     "y": 32,
     "width": 32,
     "height": 32,
     "rotation": 0,
     "visible": true,
     "properties": []
    },
    {
     "id": 1072,
     "name": "",
     "type": "",
     "x": 736,
     "y": 32,
     "width": 32,
     "height": 32,
     "rotation": 0,
     "visible": true,
     "properties": []
    },
    {
     "id": 1073,
     "name": "",
     "type": "",
     "x": 768,
     "y": 32,
     "width": 32,
     "height": 32,
     "rotation": 0,
     "visible": true,
     "properties": []
    },
    {
     "id": 1074,
     "name": "",
     "type": "",
     "x": 800,
     "y": 32,
     "width": 32,
     "height": 32,
     "rotation": 0,
     "visible": true,
     "properties": []
    },
    {
     "id": 1075,
     "name": "",
     "type": "",
     "x": 832,
     "y": 32,
     "width": 32,
     "height": 32,
     "rotation": 0,
     "visible": true,
     "properties": []
    },
    {
     "id": 1076,
     "name": "",
     "type": "",
     "x": 864,
     "y": 32,
     "width": 32,
     "height": 32,
     "rotation": 0,
     "visible": true,
     "properties": []
    },
    {
     "id": 1077,
     "name": "",
     "type": "",
     "x": 896,
     "y": 32,
     "width": 32,
     "height": 32,
     "rotation": 0,
     "visible": true,
     "properties": []
    },
    {
     "id": 1078,
     "name": "",
     "type": "",
     "x": 928,
     "y": 32,
     "width": 32,
     "height": 32,
     "rotation": 0,
     "visible": true,
     "properties": []
    },
    {
     "id": 1079,
     "name": "",
     "type": "",
     "x": 960,
     "y": 32,
     "width": 32,
     "height": 32,
     "rotation": 0,
     "visible": true,
     "properties": []
    },
    {
     "id": 1080,
     "name": "",
     "type": "",
     "x": 992,
     "y": 32,
     "width": 32,
     "height": 32,
     "rotation": 0,
     "visible": true,
     "properties": []
    },
    {
     "id": 1081,
     "name": "",
     "type": "",
     "x": 1024,
     "y": 32,
     "width": 32,
     "height": 32,
     "rotation": 0,
     "visible": true,
     "properties": []
    },
    {
     "id": 1082,
     "name": "",
     "type": "",
     "x": 1056,
     "y": 32,
     "width": 32,
     "height": 32,
     "rotation": 0,
     "visible": true,
     "properties": []
    },
    {
     "id": 1083,
     "name": "",
     "type": "",
     "x": 1088,
     "y": 32,
     "width": 32,
     "height": 32,
     "rotation": 0,
     "visible": true,
     "properties": []
    },
    {
     "id": 1084,
     "name": "",
     "type": "",
     "x": 1120,
     "y": 32,
     "width": 32,
     "height": 32,
     "rotation": 0,
     "visible": true,
     "properties": []
    },
    {
     "id": 1085,
     "name": "",
     "type": "",
     "x": 1152,
     "y": 32,
     "width": 32,
     "height": 32,
     "rotation": 0,
     "visible": true,
     "properties": []
    },
    {
     "id": 1086,
     "name": "",
     "type": "",
     "x": 1184,
     "y": 32,
     "width": 32,
     "height": 32,
     "rotation": 0,
     "visible": true,
     "properties": []
    },
    {
     "id": 1087,
     "name": "",
     "type": "",
     "x": 1216,
     "y": 32,
     "width": 32,
     "height": 32,
     "rotation": 0,
     "visible": true,
     "properties": []
    },
    {
     "id": 1088,
     "name": "",
     "type": "",
     "x": 1248,
     "y": 32,
     "width": 32,
     "height": 32,
     "rotation": 0,
     "visible": true,
     "properties": []
    },
    {
     "id": 1089,
     "name": "",
     "type": "",
     "x": 1280,
     "y": 32,
     "width": 32,
     "height": 32,
     "rotation": 0,
     "visible": true,
     "properties": []
    },
    {
     "id": 1090,
     "name": "",
     "type": "",
     "x": 1312,
     "y": 32,
     "width": 32,
     "height": 32,
     "rotation": 0,
     "visible": true,
     "properties": []
    },
    {
     "id": 1091,
     "name": "",
     "type": "",
     "x": 1344,
     "y": 32,
     "width": 32,
     "height": 32,
     "rotation": 0,
     "visible": true,
     "properties": []
    },
    {
     "id": 1092,
     "name": "",
     "type": "",
     "x": 1376,
     "y": 32,
     "width": 32,
     "height": 32,
     "rotation": 0,
     "visible": true,
     "properties": []
    },
    {
     "id": 1093,
     "name": "",
     "type": "",
     "x": 1408,
     "y": 32,
     "width": 32,
     "height": 32,
     "rotation": 0,
     "visible": true,
     "properties": []
    },
    {
     "id": 1094,
     "name": "",
     "type": "",
     "x": 1440,
     "y": 32,
     "width": 32,
     "height": 32,
     "rotation": 0,
     "visible": true,
     "properties": []
    },
    {
     "id": 1095,
     "name": "",
     "type": "",
     "x": 1472,
     "y": 32,
     "width": 32,
     "height": 32,
     "rotation": 0,
     "visible": true,
     "properties": []
    },
    {
     "id": 1096,
     "name": "",
     "type": "",
     "x": 1504,
     "y": 32,
     "width": 32,
     "height": 32,
     "rotation": 0,
     "visible": true,
     "properties": []
    },
    {
     "id": 1097,
     "name": "",
     "type": "",
     "x": 1536,
     "y": 32,
     "width": 32,
     "height": 32,
     "rotation": 0,
     "visible": true,
     "properties": []
    },
    {
     "id": 1098,
     "name": "",
     "type": "",
     "x": 0,
     "y": 64,
     "width": 32,
     "height": 32,
     "rotation": 0,
     "visible": true,
     "properties": []
    },
    {
     "id": 1099,
     "name": "",
     "type": "",
     "x": 32,
     "y": 64,
     "width": 32,
     "height": 32,
     "rotation": 0,
     "visible": true,
     "properties": []
    },
    {
     "id": 1100,
     "name": "",
     "type": "",
     "x": 64,
     "y": 64,
     "width": 32,
     "height": 32,
     "rotation": 0,
     "visible": true,
     "properties": []
    },
    {
     "id": 1101,
     "name": "",
     "type": "",
     "x": 96,
     "y": 64,
     "width": 32,
     "height": 32,
     "rotation": 0,
     "visible": true,
     "properties": []
    },
    {
     "id": 1102,
     "name": "",
     "type": "",
     "x": 128,
     "y": 64,
     "width": 32,
     "height": 32,
     "rotation": 0,
     "visible": true,
     "properties": []
    },
    {
     "id": 1103,
     "name": "",
     "type": "",
     "x": 160,
     "y": 64,
     "width": 32,
     "height": 32,
     "rotation": 0,
     "visible": true,
     "properties": []
    },
    {
     "id": 1104,
     "name": "",
     "type": "",
     "x": 192,
     "y": 64,
     "width": 32,
     "height": 32,
     "rotation": 0,
     "visible": true,
     "properties": []
    },
    {
     "id": 1105,
     "name": "",
     "type": "",
     "x": 224,
     "y": 64,
     "width": 32,
     "height": 32,
     "rotation": 0,
     "visible": true,
     "properties": []
    },
    {
     "id": 1106,
     "name": "",
     "type": "",
     "x": 256,
     "y": 64,
     "width": 32,
     "height": 32,
     "rotation": 0,
     "visible": true,
     "properties": []
    },
    {
     "id": 1107,
     "name": "",
     "type": "",
     "x": 288,
     "y": 64,
     "width": 32,
     "height": 32,
     "rotation": 0,
     "visible": true,
     "properties": []
    },
    {
     "id": 1108,
     "name": "",
     "type": "",
     "x": 320,
     "y": 64,
     "width": 32,
     "height": 32,
     "rotation": 0,
     "visible": true,
     "properties": []
    },
    {
     "id": 1109,
     "name": "",
     "type": "",
     "x": 352,
     "y": 64,
     "width": 32,
     "height": 32,
     "rotation": 0,
     "visible": true,
     "properties": []
    },
    {
     "id": 1110,
     "name": "",
     "type": "",
     "x": 384,
     "y": 64,
     "width": 32,
     "height": 32,
     "rotation": 0,
     "visible": true,
     "properties": []
    },
    {
     "id": 1111,
     "name": "",
     "type": "",
     "x": 416,
     "y": 64,
     "width": 32,
     "height": 32,
     "rotation": 0,
     "visible": true,
     "properties": []
    },
    {
     "id": 1112,
     "name": "",
     "type": "",
     "x": 448,
     "y": 64,
     "width": 32,
     "height": 32,
     "rotation": 0,
     "visible": true,
     "properties": []
    },
    {
     "id": 1113,
     "name": "",
     "type": "",
     "x": 480,
     "y": 64,
     "width": 32,
     "height": 32,
     "rotation": 0,
     "visible": true,
     "properties": []
    },
    {
     "id": 1114,
     "name": "",
     "type": "",
     "x": 512,
     "y": 64,
     "width": 32,
     "height": 32,
     "rotation": 0,
     "visible": true,
     "properties": []
    },
    {
     "id": 1115,
     "name": "",
     "type": "",
     "x": 544,
     "y": 64,
     "width": 32,
     "height": 32,
     "rotation": 0,
     "visible": true,
     "properties": []
    },
    {
     "id": 1116,
     "name": "",
     "type": "",
     "x": 576,
     "y": 64,
     "width": 32,
     "height": 32,
     "rotation": 0,
     "visible": true,
     "properties": []
    },
    {
     "id": 1117,
     "name": "",
     "type": "",
     "x": 608,
     "y": 64,
     "width": 32,
     "height": 32,
     "rotation": 0,
     "visible": true,
     "properties": []
    },
    {
     "id": 1118,
     "name": "",
     "type": "",
     "x": 640,
     "y": 64,
     "width": 32,
     "height": 32,
     "rotation": 0,
     "visible": true,
     "properties": []
    },
    {
     "id": 1119,
     "name": "",
     "type": "",
     "x": 672,
     "y": 64,
     "width": 32,
     "height": 32,
     "rotation": 0,
     "visible": true,
     "properties": []
    },
    {
     "id": 1120,
     "name": "",
     "type": "",
     "x": 704,
     "y": 64,
     "width": 32,
     "height": 32,
     "rotation": 0,
     "visible": true,
     "properties": []
    },
    {
     "id": 1121,
     "name": "",
     "type": "",
     "x": 736,
     "y": 64,
     "width": 32,
     "height": 32,
     "rotation": 0,
     "visible": true,
     "properties": []
    },
    {
     "id": 1122,
     "name": "",
     "type": "",
     "x": 768,
     "y": 64,
     "width": 32,
     "height": 32,
     "rotation": 0,
     "visible": true,
     "properties": []
    },
    {
     "id": 1123,
     "name": "",
     "type": "",
     "x": 800,
     "y": 64,
     "width": 32,
     "height": 32,
     "rotation": 0,
     "visible": true,
     "properties": []
    },
    {
     "id": 1124,
     "name": "",
     "type": "",
     "x": 832,
     "y": 64,
     "width": 32,
     "height": 32,
     "rotation": 0,
     "visible": true,
     "properties": []
    },
    {
     "id": 1125,
     "name": "",
     "type": "",
     "x": 864,
     "y": 64,
     "width": 32,
     "height": 32,
     "rotation": 0,
     "visible": true,
     "properties": []
    },
    {
     "id": 1126,
     "name": "",
     "type": "",
     "x": 896,
     "y": 64,
     "width": 32,
     "height": 32,
     "rotation": 0,
     "visible": true,
     "properties": []
    },
    {
     "id": 1127,
     "name": "",
     "type": "",
     "x": 928,
     "y": 64,
     "width": 32,
     "height": 32,
     "rotation": 0,
     "visible": true,
     "properties": []
    },
    {
     "id": 1128,
     "name": "",
     "type": "",
     "x": 960,
     "y": 64,
     "width": 32,
     "height": 32,
     "rotation": 0,
     "visible": true,
     "properties": []
    },
    {
     "id": 1129,
     "name": "",
     "type": "",
     "x": 992,
     "y": 64,
     "width": 32,
     "height": 32,
     "rotation": 0,
     "visible": true,
     "properties": []
    },
    {
     "id": 1130,
     "name": "",
     "type": "",
     "x": 1024,
     "y": 64,
     "width": 32,
     "height": 32,
     "rotation": 0,
     "visible": true,
     "properties": []
    },
    {
     "id": 1131,
     "name": "",
     "type": "",
     "x": 1056,
     "y": 64,
     "width": 32,
     "height": 32,
     "rotation": 0,
     "visible": true,
     "properties": []
    },
    {
     "id": 1132,
     "name": "",
     "type": "",
     "x": 1088,
     "y": 64,
     "width": 32,
     "height": 32,
     "rotation": 0,
     "visible": true,
     "properties": []
    },
    {
     "id": 1133,
     "name": "",
     "type": "",
     "x": 1120,
     "y": 64,
     "width": 32,
     "height": 32,
     "rotation": 0,
     "visible": true,
     "properties": []
    },
    {
     "id": 1134,
     "name": "",
     "type": "",
     "x": 1152,
     "y": 64,
     "width": 32,
     "height": 32,
     "rotation": 0,
     "visible": true,
     "properties": []
    },
    {
     "id": 1135,
     "name": "",
     "type": "",
     "x": 1184,
     "y": 64,
     "width": 32,
     "height": 32,
     "rotation": 0,
     "visible": true,
     "properties": []
    },
    {
     "id": 1136,
     "name": "",
     "type": "",
     "x": 1216,
     "y": 64,
     "width": 32,
     "height": 32,
     "rotation": 0,
     "visible": true,
     "properties": []
    },
    {
     "id": 1137,
     "name": "",
     "type": "",
     "x": 1248,
     "y": 64,
     "width": 32,
     "height": 32,
     "rotation": 0,
     "visible": true,
     "properties": []
    },
    {
     "id": 1138,
     "name": "",
     "type": "",
     "x": 1280,
     "y": 64,
     "width": 32,
     "height": 32,
     "rotation": 0,
     "visible": true,
     "properties": []
    },
    {
     "id": 1139,
     "name": "",
     "type": "",
     "x": 1312,
     "y": 64,
     "width": 32,
     "height": 32,
     "rotation": 0,
     "visible": true,
     "properties": []
    },
    {
     "id": 1140,
     "name": "",
     "type": "",
     "x": 1344,
     "y": 64,
     "width": 32,
     "height": 32,
     "rotation": 0,
     "visible": true,
     "properties": []
    },
    {
     "id": 1141,
     "name": "",
     "type": "",
     "x": 1376,
     "y": 64,
     "width": 32,
     "height": 32,
     "rotation": 0,
     "visible": true,
     "properties": []
    },
    {
     "id": 1142,
     "name": "",
     "type": "",
     "x": 1408,
     "y": 64,
     "width": 32,
     "height": 32,
     "rotation": 0,
     "visible": true,
     "properties": []
    },
    {
     "id": 1143,
     "name": "",
     "type": "",
     "x": 1440,
     "y": 64,
     "width": 32,
     "height": 32,
     "rotation": 0,
     "visible": true,
     "properties": []
    },
    {
     "id": 1144,
     "name": "",
     "type": "",
     "x": 1472,
     "y": 64,
     "width": 32,
     "height": 32,
     "rotation": 0,
     "visible": true,
     "properties": []
    },
    {
     "id": 1145,
     "name": "",
     "type": "",
     "x": 1504,
     "y": 64,
     "width": 32,
     "height": 32,
     "rotation": 0,
     "visible": true,
     "properties": []
    },
    {
     "id": 1146,
     "name": "",
     "type": "",
     "x": 1536,
     "y": 64,
     "width": 32,
     "height": 32,
     "rotation": 0,
     "visible": true,
     "properties": []
    },
    {
     "id": 1147,
     "name": "",
     "type": "",
     "x": 0,
     "y": 96,
     "width": 32,
     "height": 32,
     "rotation": 0,
     "visible": true,
     "properties": []
    },
    {
     "id": 1148,
     "name": "",
     "type": "",
     "x": 128,
     "y": 96,
     "width": 32,
     "height": 32,
     "rotation": 0,
     "visible": true,
     "properties": []
    },
    {
     "id": 1149,
     "name": "",
     "type": "",
     "x": 160,
     "y": 96,
     "width": 32,
     "height": 32,
     "rotation": 0,
     "visible": true,
     "properties": []
    },
    {
     "id": 1150,
     "name": "",
     "type": "",
     "x": 192,
     "y": 96,
     "width": 32,
     "height": 32,
     "rotation": 0,
     "visible": true,
     "properties": []
    },
    {
     "id": 1151,
     "name": "",
     "type": "",
     "x": 224,
     "y": 96,
     "width": 32,
     "height": 32,
     "rotation": 0,
     "visible": true,
     "properties": []
    },
    {
     "id": 1152,
     "name": "",
     "type": "",
     "x": 256,
     "y": 96,
     "width": 32,
     "height": 32,
     "rotation": 0,
     "visible": true,
     "properties": []
    },
    {
     "id": 1153,
     "name": "",
     "type": "",
     "x": 320,
     "y": 96,
     "width": 32,
     "height": 32,
     "rotation": 0,
     "visible": true,
     "properties": []
    },
    {
     "id": 1154,
     "name": "",
     "type": "",
     "x": 448,
     "y": 96,
     "width": 32,
     "height": 32,
     "rotation": 0,
     "visible": true,
     "properties": []
    },
    {
     "id": 1155,
     "name": "",
     "type": "",
     "x": 480,
     "y": 96,
     "width": 32,
     "height": 32,
     "rotation": 0,
     "visible": true,
     "properties": []
    },
    {
     "id": 1156,
     "name": "",
     "type": "",
     "x": 512,
     "y": 96,
     "width": 32,
     "height": 32,
     "rotation": 0,
     "visible": true,
     "properties": []
    },
    {
     "id": 1157,
     "name": "",
     "type": "",
     "x": 544,
     "y": 96,
     "width": 32,
     "height": 32,
     "rotation": 0,
     "visible": true,
     "properties": []
    },
    {
     "id": 1158,
     "name": "",
     "type": "",
     "x": 576,
     "y": 96,
     "width": 32,
     "height": 32,
     "rotation": 0,
     "visible": true,
     "properties": []
    },
    {
     "id": 1159,
     "name": "",
     "type": "",
     "x": 608,
     "y": 96,
     "width": 32,
     "height": 32,
     "rotation": 0,
     "visible": true,
     "properties": []
    },
    {
     "id": 1160,
     "name": "",
     "type": "",
     "x": 640,
     "y": 96,
     "width": 32,
     "height": 32,
     "rotation": 0,
     "visible": true,
     "properties": []
    },
    {
     "id": 1161,
     "name": "",
     "type": "",
     "x": 1056,
     "y": 96,
     "width": 32,
     "height": 32,
     "rotation": 0,
     "visible": true,
     "properties": []
    },
    {
     "id": 1162,
     "name": "",
     "type": "",
     "x": 1088,
     "y": 96,
     "width": 32,
     "height": 32,
     "rotation": 0,
     "visible": true,
     "properties": []
    },
    {
     "id": 1163,
     "name": "",
     "type": "",
     "x": 1120,
     "y": 96,
     "width": 32,
     "height": 32,
     "rotation": 0,
     "visible": true,
     "properties": []
    },
    {
     "id": 1164,
     "name": "",
     "type": "",
     "x": 1152,
     "y": 96,
     "width": 32,
     "height": 32,
     "rotation": 0,
     "visible": true,
     "properties": []
    },
    {
     "id": 1165,
     "name": "",
     "type": "",
     "x": 1184,
     "y": 96,
     "width": 32,
     "height": 32,
     "rotation": 0,
     "visible": true,
     "properties": []
    },
    {
     "id": 1166,
     "name": "",
     "type": "",
     "x": 1408,
     "y": 96,
     "width": 32,
     "height": 32,
     "rotation": 0,
     "visible": true,
     "properties": []
    },
    {
     "id": 1167,
     "name": "",
     "type": "",
     "x": 1440,
     "y": 96,
     "width": 32,
     "height": 32,
     "rotation": 0,
     "visible": true,
     "properties": []
    },
    {
     "id": 1168,
     "name": "",
     "type": "",
     "x": 1472,
     "y": 96,
     "width": 32,
     "height": 32,
     "rotation": 0,
     "visible": true,
     "properties": []
    },
    {
     "id": 1169,
     "name": "",
     "type": "",
     "x": 1504,
     "y": 96,
     "width": 32,
     "height": 32,
     "rotation": 0,
     "visible": true,
     "properties": []
    },
    {
     "id": 1170,
     "name": "",
     "type": "",
     "x": 1536,
     "y": 96,
     "width": 32,
     "height": 32,
     "rotation": 0,
     "visible": true,
     "properties": []
    },
    {
     "id": 1171,
     "name": "",
     "type": "",
     "x": 0,
     "y": 128,
     "width": 32,
     "height": 32,
     "rotation": 0,
     "visible": true,
     "properties": []
    },
    {
     "id": 1172,
     "name": "",
     "type": "",
     "x": 224,
     "y": 128,
     "width": 32,
     "height": 32,
     "rotation": 0,
     "visible": true,
     "properties": []
    },
    {
     "id": 1173,
     "name": "",
     "type": "",
     "x": 256,
     "y": 128,
     "width": 32,
     "height": 32,
     "rotation": 0,
     "visible": true,
     "properties": []
    },
    {
     "id": 1174,
     "name": "",
     "type": "",
     "x": 320,
     "y": 128,
     "width": 32,
     "height": 32,
     "rotation": 0,
     "visible": true,
     "properties": []
    },
    {
     "id": 1175,
     "name": "",
     "type": "",
     "x": 544,
     "y": 128,
     "width": 32,
     "height": 32,
     "rotation": 0,
     "visible": true,
     "properties": []
    },
    {
     "id": 1176,
     "name": "",
     "type": "",
     "x": 576,
     "y": 128,
     "width": 32,
     "height": 32,
     "rotation": 0,
     "visible": true,
     "properties": []
    },
    {
     "id": 1177,
     "name": "",
     "type": "",
     "x": 608,
     "y": 128,
     "width": 32,
     "height": 32,
     "rotation": 0,
     "visible": true,
     "properties": []
    },
    {
     "id": 1178,
     "name": "",
     "type": "",
     "x": 640,
     "y": 128,
     "width": 32,
     "height": 32,
     "rotation": 0,
     "visible": true,
     "properties": []
    },
    {
     "id": 1179,
     "name": "",
     "type": "",
     "x": 1056,
     "y": 128,
     "width": 32,
     "height": 32,
     "rotation": 0,
     "visible": true,
     "properties": []
    },
    {
     "id": 1180,
     "name": "",
     "type": "",
     "x": 1088,
     "y": 128,
     "width": 32,
     "height": 32,
     "rotation": 0,
     "visible": true,
     "properties": []
    },
    {
     "id": 1181,
     "name": "",
     "type": "",
     "x": 1120,
     "y": 128,
     "width": 32,
     "height": 32,
     "rotation": 0,
     "visible": true,
     "properties": []
    },
    {
     "id": 1182,
     "name": "",
     "type": "",
     "x": 1152,
     "y": 128,
     "width": 32,
     "height": 32,
     "rotation": 0,
     "visible": true,
     "properties": []
    },
    {
     "id": 1183,
     "name": "",
     "type": "",
     "x": 1184,
     "y": 128,
     "width": 32,
     "height": 32,
     "rotation": 0,
     "visible": true,
     "properties": []
    },
    {
     "id": 1184,
     "name": "",
     "type": "",
     "x": 1216,
     "y": 128,
     "width": 32,
     "height": 32,
     "rotation": 0,
     "visible": true,
     "properties": []
    },
    {
     "id": 1185,
     "name": "",
     "type": "",
     "x": 1248,
     "y": 128,
     "width": 32,
     "height": 32,
     "rotation": 0,
     "visible": true,
     "properties": []
    },
    {
     "id": 1186,
     "name": "",
     "type": "",
     "x": 1280,
     "y": 128,
     "width": 32,
     "height": 32,
     "rotation": 0,
     "visible": true,
     "properties": []
    },
    {
     "id": 1187,
     "name": "",
     "type": "",
     "x": 1312,
     "y": 128,
     "width": 32,
     "height": 32,
     "rotation": 0,
     "visible": true,
     "properties": []
    },
    {
     "id": 1188,
     "name": "",
     "type": "",
     "x": 1344,
     "y": 128,
     "width": 32,
     "height": 32,
     "rotation": 0,
     "visible": true,
     "properties": []
    },
    {
     "id": 1189,
     "name": "",
     "type": "",
     "x": 1376,
     "y": 128,
     "width": 32,
     "height": 32,
     "rotation": 0,
     "visible": true,
     "properties": []
    },
    {
     "id": 1190,
     "name": "",
     "type": "",
     "x": 1408,
     "y": 128,
     "width": 32,
     "height": 32,
     "rotation": 0,
     "visible": true,
     "properties": []
    },
    {
     "id": 1191,
     "name": "",
     "type": "",
     "x": 1472,
     "y": 128,
     "width": 32,
     "height": 32,
     "rotation": 0,
     "visible": true,
     "properties": []
    },
    {
     "id": 1192,
     "name": "",
     "type": "",
     "x": 1504,
     "y": 128,
     "width": 32,
     "height": 32,
     "rotation": 0,
     "visible": true,
     "properties": []
    },
    {
     "id": 1193,
     "name": "",
     "type": "",
     "x": 1536,
     "y": 128,
     "width": 32,
     "height": 32,
     "rotation": 0,
     "visible": true,
     "properties": []
    },
    {
     "id": 1194,
     "name": "",
     "type": "",
     "x": 0,
     "y": 160,
     "width": 32,
     "height": 32,
     "rotation": 0,
     "visible": true,
     "properties": []
    },
    {
     "id": 1195,
     "name": "",
     "type": "",
     "x": 576,
     "y": 160,
     "width": 32,
     "height": 32,
     "rotation": 0,
     "visible": true,
     "properties": []
    },
    {
     "id": 1196,
     "name": "",
     "type": "",
     "x": 608,
     "y": 160,
     "width": 32,
     "height": 32,
     "rotation": 0,
     "visible": true,
     "properties": []
    },
    {
     "id": 1197,
     "name": "",
     "type": "",
     "x": 640,
     "y": 160,
     "width": 32,
     "height": 32,
     "rotation": 0,
     "visible": true,
     "properties": []
    },
    {
     "id": 1198,
     "name": "",
     "type": "",
     "x": 1056,
     "y": 160,
     "width": 32,
     "height": 32,
     "rotation": 0,
     "visible": true,
     "properties": []
    },
    {
     "id": 1199,
     "name": "",
     "type": "",
     "x": 1088,
     "y": 160,
     "width": 32,
     "height": 32,
     "rotation": 0,
     "visible": true,
     "properties": []
    },
    {
     "id": 1200,
     "name": "",
     "type": "",
     "x": 1120,
     "y": 160,
     "width": 32,
     "height": 32,
     "rotation": 0,
     "visible": true,
     "properties": []
    },
    {
     "id": 1201,
     "name": "",
     "type": "",
     "x": 1216,
     "y": 160,
     "width": 32,
     "height": 32,
     "rotation": 0,
     "visible": true,
     "properties": []
    },
    {
     "id": 1202,
     "name": "",
     "type": "",
     "x": 1248,
     "y": 160,
     "width": 32,
     "height": 32,
     "rotation": 0,
     "visible": true,
     "properties": []
    },
    {
     "id": 1203,
     "name": "",
     "type": "",
     "x": 1280,
     "y": 160,
     "width": 32,
     "height": 32,
     "rotation": 0,
     "visible": true,
     "properties": []
    },
    {
     "id": 1204,
     "name": "",
     "type": "",
     "x": 1312,
     "y": 160,
     "width": 32,
     "height": 32,
     "rotation": 0,
     "visible": true,
     "properties": []
    },
    {
     "id": 1205,
     "name": "",
     "type": "",
     "x": 1344,
     "y": 160,
     "width": 32,
     "height": 32,
     "rotation": 0,
     "visible": true,
     "properties": []
    },
    {
     "id": 1206,
     "name": "",
     "type": "",
     "x": 1376,
     "y": 160,
     "width": 32,
     "height": 32,
     "rotation": 0,
     "visible": true,
     "properties": []
    },
    {
     "id": 1207,
     "name": "",
     "type": "",
     "x": 1408,
     "y": 160,
     "width": 32,
     "height": 32,
     "rotation": 0,
     "visible": true,
     "properties": []
    },
    {
     "id": 1208,
     "name": "",
     "type": "",
     "x": 1504,
     "y": 160,
     "width": 32,
     "height": 32,
     "rotation": 0,
     "visible": true,
     "properties": []
    },
    {
     "id": 1209,
     "name": "",
     "type": "",
     "x": 1536,
     "y": 160,
     "width": 32,
     "height": 32,
     "rotation": 0,
     "visible": true,
     "properties": []
    },
    {
     "id": 1210,
     "name": "",
     "type": "",
     "x": 0,
     "y": 192,
     "width": 32,
     "height": 32,
     "rotation": 0,
     "visible": true,
     "properties": []
    },
    {
     "id": 1211,
     "name": "",
     "type": "",
     "x": 576,
     "y": 192,
     "width": 32,
     "height": 32,
     "rotation": 0,
     "visible": true,
     "properties": []
    },
    {
     "id": 1212,
     "name": "",
     "type": "",
     "x": 608,
     "y": 192,
     "width": 32,
     "height": 32,
     "rotation": 0,
     "visible": true,
     "properties": []
    },
    {
     "id": 1213,
     "name": "",
     "type": "",
     "x": 640,
     "y": 192,
     "width": 32,
     "height": 32,
     "rotation": 0,
     "visible": true,
     "properties": []
    },
    {
     "id": 1214,
     "name": "",
     "type": "",
     "x": 672,
     "y": 192,
     "width": 32,
     "height": 32,
     "rotation": 0,
     "visible": true,
     "properties": []
    },
    {
     "id": 1215,
     "name": "",
     "type": "",
     "x": 704,
     "y": 192,
     "width": 32,
     "height": 32,
     "rotation": 0,
     "visible": true,
     "properties": []
    },
    {
     "id": 1216,
     "name": "",
     "type": "",
     "x": 800,
     "y": 192,
     "width": 32,
     "height": 32,
     "rotation": 0,
     "visible": true,
     "properties": []
    },
    {
     "id": 1217,
     "name": "",
     "type": "",
     "x": 832,
     "y": 192,
     "width": 32,
     "height": 32,
     "rotation": 0,
     "visible": true,
     "properties": []
    },
    {
     "id": 1218,
     "name": "",
     "type": "",
     "x": 864,
     "y": 192,
     "width": 32,
     "height": 32,
     "rotation": 0,
     "visible": true,
     "properties": []
    },
    {
     "id": 1219,
     "name": "",
     "type": "",
     "x": 896,
     "y": 192,
     "width": 32,
     "height": 32,
     "rotation": 0,
     "visible": true,
     "properties": []
    },
    {
     "id": 1220,
     "name": "",
     "type": "",
     "x": 928,
     "y": 192,
     "width": 32,
     "height": 32,
     "rotation": 0,
     "visible": true,
     "properties": []
    },
    {
     "id": 1221,
     "name": "",
     "type": "",
     "x": 960,
     "y": 192,
     "width": 32,
     "height": 32,
     "rotation": 0,
     "visible": true,
     "properties": []
    },
    {
     "id": 1222,
     "name": "",
     "type": "",
     "x": 1056,
     "y": 192,
     "width": 32,
     "height": 32,
     "rotation": 0,
     "visible": true,
     "properties": []
    },
    {
     "id": 1223,
     "name": "",
     "type": "",
     "x": 1088,
     "y": 192,
     "width": 32,
     "height": 32,
     "rotation": 0,
     "visible": true,
     "properties": []
    },
    {
     "id": 1224,
     "name": "",
     "type": "",
     "x": 1216,
     "y": 192,
     "width": 32,
     "height": 32,
     "rotation": 0,
     "visible": true,
     "properties": []
    },
    {
     "id": 1225,
     "name": "",
     "type": "",
     "x": 1248,
     "y": 192,
     "width": 32,
     "height": 32,
     "rotation": 0,
     "visible": true,
     "properties": []
    },
    {
     "id": 1226,
     "name": "",
     "type": "",
     "x": 1280,
     "y": 192,
     "width": 32,
     "height": 32,
     "rotation": 0,
     "visible": true,
     "properties": []
    },
    {
     "id": 1227,
     "name": "",
     "type": "",
     "x": 1312,
     "y": 192,
     "width": 32,
     "height": 32,
     "rotation": 0,
     "visible": true,
     "properties": []
    },
    {
     "id": 1228,
     "name": "",
     "type": "",
     "x": 1344,
     "y": 192,
     "width": 32,
     "height": 32,
     "rotation": 0,
     "visible": true,
     "properties": []
    },
    {
     "id": 1229,
     "name": "",
     "type": "",
     "x": 1376,
     "y": 192,
     "width": 32,
     "height": 32,
     "rotation": 0,
     "visible": true,
     "properties": []
    },
    {
     "id": 1230,
     "name": "",
     "type": "",
     "x": 1504,
     "y": 192,
     "width": 32,
     "height": 32,
     "rotation": 0,
     "visible": true,
     "properties": []
    },
    {
     "id": 1231,
     "name": "",
     "type": "",
     "x": 1536,
     "y": 192,
     "width": 32,
     "height": 32,
     "rotation": 0,
     "visible": true,
     "properties": []
    },
    {
     "id": 1232,
     "name": "",
     "type": "",
     "x": 0,
     "y": 224,
     "width": 32,
     "height": 32,
     "rotation": 0,
     "visible": true,
     "properties": []
    },
    {
     "id": 1233,
     "name": "",
     "type": "",
     "x": 320,
     "y": 224,
     "width": 32,
     "height": 32,
     "rotation": 0,
     "visible": true,
     "properties": []
    },
    {
     "id": 1234,
     "name": "",
     "type": "",
     "x": 352,
     "y": 224,
     "width": 32,
     "height": 32,
     "rotation": 0,
     "visible": true,
     "properties": []
    },
    {
     "id": 1235,
     "name": "",
     "type": "",
     "x": 384,
     "y": 224,
     "width": 32,
     "height": 32,
     "rotation": 0,
     "visible": true,
     "properties": []
    },
    {
     "id": 1236,
     "name": "",
     "type": "",
     "x": 416,
     "y": 224,
     "width": 32,
     "height": 32,
     "rotation": 0,
     "visible": true,
     "properties": []
    },
    {
     "id": 1237,
     "name": "",
     "type": "",
     "x": 512,
     "y": 224,
     "width": 32,
     "height": 32,
     "rotation": 0,
     "visible": true,
     "properties": []
    },
    {
     "id": 1238,
     "name": "",
     "type": "",
     "x": 544,
     "y": 224,
     "width": 32,
     "height": 32,
     "rotation": 0,
     "visible": true,
     "properties": []
    },
    {
     "id": 1239,
     "name": "",
     "type": "",
     "x": 576,
     "y": 224,
     "width": 32,
     "height": 32,
     "rotation": 0,
     "visible": true,
     "properties": []
    },
    {
     "id": 1240,
     "name": "",
     "type": "",
     "x": 608,
     "y": 224,
     "width": 32,
     "height": 32,
     "rotation": 0,
     "visible": true,
     "properties": []
    },
    {
     "id": 1241,
     "name": "",
     "type": "",
     "x": 640,
     "y": 224,
     "width": 32,
     "height": 32,
     "rotation": 0,
     "visible": true,
     "properties": []
    },
    {
     "id": 1242,
     "name": "",
     "type": "",
     "x": 672,
     "y": 224,
     "width": 32,
     "height": 32,
     "rotation": 0,
     "visible": true,
     "properties": []
    },
    {
     "id": 1243,
     "name": "",
     "type": "",
     "x": 704,
     "y": 224,
     "width": 32,
     "height": 32,
     "rotation": 0,
     "visible": true,
     "properties": []
    },
    {
     "id": 1244,
     "name": "",
     "type": "",
     "x": 800,
     "y": 224,
     "width": 32,
     "height": 32,
     "rotation": 0,
     "visible": true,
     "properties": []
    },
    {
     "id": 1245,
     "name": "",
     "type": "",
     "x": 832,
     "y": 224,
     "width": 32,
     "height": 32,
     "rotation": 0,
     "visible": true,
     "properties": []
    },
    {
     "id": 1246,
     "name": "",
     "type": "",
     "x": 864,
     "y": 224,
     "width": 32,
     "height": 32,
     "rotation": 0,
     "visible": true,
     "properties": []
    },
    {
     "id": 1247,
     "name": "",
     "type": "",
     "x": 896,
     "y": 224,
     "width": 32,
     "height": 32,
     "rotation": 0,
     "visible": true,
     "properties": []
    },
    {
     "id": 1248,
     "name": "",
     "type": "",
     "x": 928,
     "y": 224,
     "width": 32,
     "height": 32,
     "rotation": 0,
     "visible": true,
     "properties": []
    },
    {
     "id": 1249,
     "name": "",
     "type": "",
     "x": 960,
     "y": 224,
     "width": 32,
     "height": 32,
     "rotation": 0,
     "visible": true,
     "properties": []
    },
    {
     "id": 1250,
     "name": "",
     "type": "",
     "x": 1056,
     "y": 224,
     "width": 32,
     "height": 32,
     "rotation": 0,
     "visible": true,
     "properties": []
    },
    {
     "id": 1251,
     "name": "",
     "type": "",
     "x": 1088,
     "y": 224,
     "width": 32,
     "height": 32,
     "rotation": 0,
     "visible": true,
     "properties": []
    },
    {
     "id": 1252,
     "name": "",
     "type": "",
     "x": 1120,
     "y": 224,
     "width": 32,
     "height": 32,
     "rotation": 0,
     "visible": true,
     "properties": []
    },
    {
     "id": 1253,
     "name": "",
     "type": "",
     "x": 1152,
     "y": 224,
     "width": 32,
     "height": 32,
     "rotation": 0,
     "visible": true,
     "properties": []
    },
    {
     "id": 1254,
     "name": "",
     "type": "",
     "x": 1216,
     "y": 224,
     "width": 32,
     "height": 32,
     "rotation": 0,
     "visible": true,
     "properties": []
    },
    {
     "id": 1255,
     "name": "",
     "type": "",
     "x": 1248,
     "y": 224,
     "width": 32,
     "height": 32,
     "rotation": 0,
     "visible": true,
     "properties": []
    },
    {
     "id": 1256,
     "name": "",
     "type": "",
     "x": 1280,
     "y": 224,
     "width": 32,
     "height": 32,
     "rotation": 0,
     "visible": true,
     "properties": []
    },
    {
     "id": 1257,
     "name": "",
     "type": "",
     "x": 1312,
     "y": 224,
     "width": 32,
     "height": 32,
     "rotation": 0,
     "visible": true,
     "properties": []
    },
    {
     "id": 1258,
     "name": "",
     "type": "",
     "x": 1504,
     "y": 224,
     "width": 32,
     "height": 32,
     "rotation": 0,
     "visible": true,
     "properties": []
    },
    {
     "id": 1259,
     "name": "",
     "type": "",
     "x": 1536,
     "y": 224,
     "width": 32,
     "height": 32,
     "rotation": 0,
     "visible": true,
     "properties": []
    },
    {
     "id": 1260,
     "name": "",
     "type": "",
     "x": 0,
     "y": 256,
     "width": 32,
     "height": 32,
     "rotation": 0,
     "visible": true,
     "properties": []
    },
    {
     "id": 1261,
     "name": "",
     "type": "",
     "x": 32,
     "y": 256,
     "width": 32,
     "height": 32,
     "rotation": 0,
     "visible": true,
     "properties": []
    },
    {
     "id": 1262,
     "name": "",
     "type": "",
     "x": 64,
     "y": 256,
     "width": 32,
     "height": 32,
     "rotation": 0,
     "visible": true,
     "properties": []
    },
    {
     "id": 1263,
     "name": "",
     "type": "",
     "x": 96,
     "y": 256,
     "width": 32,
     "height": 32,
     "rotation": 0,
     "visible": true,
     "properties": []
    },
    {
     "id": 1264,
     "name": "",
     "type": "",
     "x": 192,
     "y": 256,
     "width": 32,
     "height": 32,
     "rotation": 0,
     "visible": true,
     "properties": []
    },
    {
     "id": 1265,
     "name": "",
     "type": "",
     "x": 224,
     "y": 256,
     "width": 32,
     "height": 32,
     "rotation": 0,
     "visible": true,
     "properties": []
    },
    {
     "id": 1266,
     "name": "",
     "type": "",
     "x": 256,
     "y": 256,
     "width": 32,
     "height": 32,
     "rotation": 0,
     "visible": true,
     "properties": []
    },
    {
     "id": 1267,
     "name": "",
     "type": "",
     "x": 288,
     "y": 256,
     "width": 32,
     "height": 32,
     "rotation": 0,
     "visible": true,
     "properties": []
    },
    {
     "id": 1268,
     "name": "",
     "type": "",
     "x": 320,
     "y": 256,
     "width": 32,
     "height": 32,
     "rotation": 0,
     "visible": true,
     "properties": []
    },
    {
     "id": 1269,
     "name": "",
     "type": "",
     "x": 352,
     "y": 256,
     "width": 32,
     "height": 32,
     "rotation": 0,
     "visible": true,
     "properties": []
    },
    {
     "id": 1270,
     "name": "",
     "type": "",
     "x": 384,
     "y": 256,
     "width": 32,
     "height": 32,
     "rotation": 0,
     "visible": true,
     "properties": []
    },
    {
     "id": 1271,
     "name": "",
     "type": "",
     "x": 416,
     "y": 256,
     "width": 32,
     "height": 32,
     "rotation": 0,
     "visible": true,
     "properties": []
    },
    {
     "id": 1272,
     "name": "",
     "type": "",
     "x": 512,
     "y": 256,
     "width": 32,
     "height": 32,
     "rotation": 0,
     "visible": true,
     "properties": []
    },
    {
     "id": 1273,
     "name": "",
     "type": "",
     "x": 544,
     "y": 256,
     "width": 32,
     "height": 32,
     "rotation": 0,
     "visible": true,
     "properties": []
    },
    {
     "id": 1274,
     "name": "",
     "type": "",
     "x": 576,
     "y": 256,
     "width": 32,
     "height": 32,
     "rotation": 0,
     "visible": true,
     "properties": []
    },
    {
     "id": 1275,
     "name": "",
     "type": "",
     "x": 608,
     "y": 256,
     "width": 32,
     "height": 32,
     "rotation": 0,
     "visible": true,
     "properties": []
    },
    {
     "id": 1276,
     "name": "",
     "type": "",
     "x": 640,
     "y": 256,
     "width": 32,
     "height": 32,
     "rotation": 0,
     "visible": true,
     "properties": []
    },
    {
     "id": 1277,
     "name": "",
     "type": "",
     "x": 864,
     "y": 256,
     "width": 32,
     "height": 32,
     "rotation": 0,
     "visible": true,
     "properties": []
    },
    {
     "id": 1278,
     "name": "",
     "type": "",
     "x": 896,
     "y": 256,
     "width": 32,
     "height": 32,
     "rotation": 0,
     "visible": true,
     "properties": []
    },
    {
     "id": 1279,
     "name": "",
     "type": "",
     "x": 928,
     "y": 256,
     "width": 32,
     "height": 32,
     "rotation": 0,
     "visible": true,
     "properties": []
    },
    {
     "id": 1280,
     "name": "",
     "type": "",
     "x": 960,
     "y": 256,
     "width": 32,
     "height": 32,
     "rotation": 0,
     "visible": true,
     "properties": []
    },
    {
     "id": 1281,
     "name": "",
     "type": "",
     "x": 1056,
     "y": 256,
     "width": 32,
     "height": 32,
     "rotation": 0,
     "visible": true,
     "properties": []
    },
    {
     "id": 1282,
     "name": "",
     "type": "",
     "x": 1088,
     "y": 256,
     "width": 32,
     "height": 32,
     "rotation": 0,
     "visible": true,
     "properties": []
    },
    {
     "id": 1283,
     "name": "",
     "type": "",
     "x": 1120,
     "y": 256,
     "width": 32,
     "height": 32,
     "rotation": 0,
     "visible": true,
     "properties": []
    },
    {
     "id": 1284,
     "name": "",
     "type": "",
     "x": 1152,
     "y": 256,
     "width": 32,
     "height": 32,
     "rotation": 0,
     "visible": true,
     "properties": []
    },
    {
     "id": 1285,
     "name": "",
     "type": "",
     "x": 1248,
     "y": 256,
     "width": 32,
     "height": 32,
     "rotation": 0,
     "visible": true,
     "properties": []
    },
    {
     "id": 1286,
     "name": "",
     "type": "",
     "x": 1280,
     "y": 256,
     "width": 32,
     "height": 32,
     "rotation": 0,
     "visible": true,
     "properties": []
    },
    {
     "id": 1287,
     "name": "",
     "type": "",
     "x": 1504,
     "y": 256,
     "width": 32,
     "height": 32,
     "rotation": 0,
     "visible": true,
     "properties": []
    },
    {
     "id": 1288,
     "name": "",
     "type": "",
     "x": 1536,
     "y": 256,
     "width": 32,
     "height": 32,
     "rotation": 0,
     "visible": true,
     "properties": []
    },
    {
     "id": 1289,
     "name": "",
     "type": "",
     "x": 0,
     "y": 288,
     "width": 32,
     "height": 32,
     "rotation": 0,
     "visible": true,
     "properties": []
    },
    {
     "id": 1290,
     "name": "",
     "type": "",
     "x": 32,
     "y": 288,
     "width": 32,
     "height": 32,
     "rotation": 0,
     "visible": true,
     "properties": []
    },
    {
     "id": 1291,
     "name": "",
     "type": "",
     "x": 64,
     "y": 288,
     "width": 32,
     "height": 32,
     "rotation": 0,
     "visible": true,
     "properties": []
    },
    {
     "id": 1292,
     "name": "",
     "type": "",
     "x": 96,
     "y": 288,
     "width": 32,
     "height": 32,
     "rotation": 0,
     "visible": true,
     "properties": []
    },
    {
     "id": 1293,
     "name": "",
     "type": "",
     "x": 192,
     "y": 288,
     "width": 32,
     "height": 32,
     "rotation": 0,
     "visible": true,
     "properties": []
    },
    {
     "id": 1294,
     "name": "",
     "type": "",
     "x": 224,
     "y": 288,
     "width": 32,
     "height": 32,
     "rotation": 0,
     "visible": true,
     "properties": []
    },
    {
     "id": 1295,
     "name": "",
     "type": "",
     "x": 256,
     "y": 288,
     "width": 32,
     "height": 32,
     "rotation": 0,
     "visible": true,
     "properties": []
    },
    {
     "id": 1296,
     "name": "",
     "type": "",
     "x": 288,
     "y": 288,
     "width": 32,
     "height": 32,
     "rotation": 0,
     "visible": true,
     "properties": []
    },
    {
     "id": 1297,
     "name": "",
     "type": "",
     "x": 320,
     "y": 288,
     "width": 32,
     "height": 32,
     "rotation": 0,
     "visible": true,
     "properties": []
    },
    {
     "id": 1298,
     "name": "",
     "type": "",
     "x": 352,
     "y": 288,
     "width": 32,
     "height": 32,
     "rotation": 0,
     "visible": true,
     "properties": []
    },
    {
     "id": 1299,
     "name": "",
     "type": "",
     "x": 384,
     "y": 288,
     "width": 32,
     "height": 32,
     "rotation": 0,
     "visible": true,
     "properties": []
    },
    {
     "id": 1300,
     "name": "",
     "type": "",
     "x": 544,
     "y": 288,
     "width": 32,
     "height": 32,
     "rotation": 0,
     "visible": true,
     "properties": []
    },
    {
     "id": 1301,
     "name": "",
     "type": "",
     "x": 576,
     "y": 288,
     "width": 32,
     "height": 32,
     "rotation": 0,
     "visible": true,
     "properties": []
    },
    {
     "id": 1302,
     "name": "",
     "type": "",
     "x": 608,
     "y": 288,
     "width": 32,
     "height": 32,
     "rotation": 0,
     "visible": true,
     "properties": []
    },
    {
     "id": 1303,
     "name": "",
     "type": "",
     "x": 640,
     "y": 288,
     "width": 32,
     "height": 32,
     "rotation": 0,
     "visible": true,
     "properties": []
    },
    {
     "id": 1304,
     "name": "",
     "type": "",
     "x": 896,
     "y": 288,
     "width": 32,
     "height": 32,
     "rotation": 0,
     "visible": true,
     "properties": []
    },
    {
     "id": 1305,
     "name": "",
     "type": "",
     "x": 928,
     "y": 288,
     "width": 32,
     "height": 32,
     "rotation": 0,
     "visible": true,
     "properties": []
    },
    {
     "id": 1306,
     "name": "",
     "type": "",
     "x": 960,
     "y": 288,
     "width": 32,
     "height": 32,
     "rotation": 0,
     "visible": true,
     "properties": []
    },
    {
     "id": 1307,
     "name": "",
     "type": "",
     "x": 1056,
     "y": 288,
     "width": 32,
     "height": 32,
     "rotation": 0,
     "visible": true,
     "properties": []
    },
    {
     "id": 1308,
     "name": "",
     "type": "",
     "x": 1088,
     "y": 288,
     "width": 32,
     "height": 32,
     "rotation": 0,
     "visible": true,
     "properties": []
    },
    {
     "id": 1309,
     "name": "",
     "type": "",
     "x": 1248,
     "y": 288,
     "width": 32,
     "height": 32,
     "rotation": 0,
     "visible": true,
     "properties": []
    },
    {
     "id": 1310,
     "name": "",
     "type": "",
     "x": 1280,
     "y": 288,
     "width": 32,
     "height": 32,
     "rotation": 0,
     "visible": true,
     "properties": []
    },
    {
     "id": 1311,
     "name": "",
     "type": "",
     "x": 1344,
     "y": 288,
     "width": 32,
     "height": 32,
     "rotation": 0,
     "visible": true,
     "properties": []
    },
    {
     "id": 1312,
     "name": "",
     "type": "",
     "x": 1376,
     "y": 288,
     "width": 32,
     "height": 32,
     "rotation": 0,
     "visible": true,
     "properties": []
    },
    {
     "id": 1313,
     "name": "",
     "type": "",
     "x": 1408,
     "y": 288,
     "width": 32,
     "height": 32,
     "rotation": 0,
     "visible": true,
     "properties": []
    },
    {
     "id": 1314,
     "name": "",
     "type": "",
     "x": 1536,
     "y": 288,
     "width": 32,
     "height": 32,
     "rotation": 0,
     "visible": true,
     "properties": []
    },
    {
     "id": 1315,
     "name": "",
     "type": "",
     "x": 0,
     "y": 320,
     "width": 32,
     "height": 32,
     "rotation": 0,
     "visible": true,
     "properties": []
    },
    {
     "id": 1316,
     "name": "",
     "type": "",
     "x": 224,
     "y": 320,
     "width": 32,
     "height": 32,
     "rotation": 0,
     "visible": true,
     "properties": []
    },
    {
     "id": 1317,
     "name": "",
     "type": "",
     "x": 256,
     "y": 320,
     "width": 32,
     "height": 32,
     "rotation": 0,
     "visible": true,
     "properties": []
    },
    {
     "id": 1318,
     "name": "",
     "type": "",
     "x": 288,
     "y": 320,
     "width": 32,
     "height": 32,
     "rotation": 0,
     "visible": true,
     "properties": []
    },
    {
     "id": 1319,
     "name": "",
     "type": "",
     "x": 320,
     "y": 320,
     "width": 32,
     "height": 32,
     "rotation": 0,
     "visible": true,
     "properties": []
    },
    {
     "id": 1320,
     "name": "",
     "type": "",
     "x": 352,
     "y": 320,
     "width": 32,
     "height": 32,
     "rotation": 0,
     "visible": true,
     "properties": []
    },
    {
     "id": 1321,
     "name": "",
     "type": "",
     "x": 384,
     "y": 320,
     "width": 32,
     "height": 32,
     "rotation": 0,
     "visible": true,
     "properties": []
    },
    {
     "id": 1322,
     "name": "",
     "type": "",
     "x": 576,
     "y": 320,
     "width": 32,
     "height": 32,
     "rotation": 0,
     "visible": true,
     "properties": []
    },
    {
     "id": 1323,
     "name": "",
     "type": "",
     "x": 608,
     "y": 320,
     "width": 32,
     "height": 32,
     "rotation": 0,
     "visible": true,
     "properties": []
    },
    {
     "id": 1324,
     "name": "",
     "type": "",
     "x": 640,
     "y": 320,
     "width": 32,
     "height": 32,
     "rotation": 0,
     "visible": true,
     "properties": []
    },
    {
     "id": 1325,
     "name": "",
     "type": "",
     "x": 928,
     "y": 320,
     "width": 32,
     "height": 32,
     "rotation": 0,
     "visible": true,
     "properties": []
    },
    {
     "id": 1326,
     "name": "",
     "type": "",
     "x": 960,
     "y": 320,
     "width": 32,
     "height": 32,
     "rotation": 0,
     "visible": true,
     "properties": []
    },
    {
     "id": 1327,
     "name": "",
     "type": "",
     "x": 1056,
     "y": 320,
     "width": 32,
     "height": 32,
     "rotation": 0,
     "visible": true,
     "properties": []
    },
    {
     "id": 1328,
     "name": "",
     "type": "",
     "x": 1248,
     "y": 320,
     "width": 32,
     "height": 32,
     "rotation": 0,
     "visible": true,
     "properties": []
    },
    {
     "id": 1329,
     "name": "",
     "type": "",
     "x": 1344,
     "y": 320,
     "width": 32,
     "height": 32,
     "rotation": 0,
     "visible": true,
     "properties": []
    },
    {
     "id": 1330,
     "name": "",
     "type": "",
     "x": 1376,
     "y": 320,
     "width": 32,
     "height": 32,
     "rotation": 0,
     "visible": true,
     "properties": []
    },
    {
     "id": 1331,
     "name": "",
     "type": "",
     "x": 1408,
     "y": 320,
     "width": 32,
     "height": 32,
     "rotation": 0,
     "visible": true,
     "properties": []
    },
    {
     "id": 1332,
     "name": "",
     "type": "",
     "x": 1440,
     "y": 320,
     "width": 32,
     "height": 32,
     "rotation": 0,
     "visible": true,
     "properties": []
    },
    {
     "id": 1333,
     "name": "",
     "type": "",
     "x": 1472,
     "y": 320,
     "width": 32,
     "height": 32,
     "rotation": 0,
     "visible": true,
     "properties": []
    },
    {
     "id": 1334,
     "name": "",
     "type": "",
     "x": 1504,
     "y": 320,
     "width": 32,
     "height": 32,
     "rotation": 0,
     "visible": true,
     "properties": []
    },
    {
     "id": 1335,
     "name": "",
     "type": "",
     "x": 1536,
     "y": 320,
     "width": 32,
     "height": 32,
     "rotation": 0,
     "visible": true,
     "properties": []
    },
    {
     "id": 1336,
     "name": "",
     "type": "",
     "x": 0,
     "y": 352,
     "width": 32,
     "height": 32,
     "rotation": 0,
     "visible": true,
     "properties": []
    },
    {
     "id": 1337,
     "name": "",
     "type": "",
     "x": 224,
     "y": 352,
     "width": 32,
     "height": 32,
     "rotation": 0,
     "visible": true,
     "properties": []
    },
    {
     "id": 1338,
     "name": "",
     "type": "",
     "x": 256,
     "y": 352,
     "width": 32,
     "height": 32,
     "rotation": 0,
     "visible": true,
     "properties": []
    },
    {
     "id": 1339,
     "name": "",
     "type": "",
     "x": 288,
     "y": 352,
     "width": 32,
     "height": 32,
     "rotation": 0,
     "visible": true,
     "properties": []
    },
    {
     "id": 1340,
     "name": "",
     "type": "",
     "x": 320,
     "y": 352,
     "width": 32,
     "height": 32,
     "rotation": 0,
     "visible": true,
     "properties": []
    },
    {
     "id": 1341,
     "name": "",
     "type": "",
     "x": 352,
     "y": 352,
     "width": 32,
     "height": 32,
     "rotation": 0,
     "visible": true,
     "properties": []
    },
    {
     "id": 1342,
     "name": "",
     "type": "",
     "x": 384,
     "y": 352,
     "width": 32,
     "height": 32,
     "rotation": 0,
     "visible": true,
     "properties": []
    },
    {
     "id": 1343,
     "name": "",
     "type": "",
     "x": 416,
     "y": 352,
     "width": 32,
     "height": 32,
     "rotation": 0,
     "visible": true,
     "properties": []
    },
    {
     "id": 1344,
     "name": "",
     "type": "",
     "x": 640,
     "y": 352,
     "width": 32,
     "height": 32,
     "rotation": 0,
     "visible": true,
     "properties": []
    },
    {
     "id": 1345,
     "name": "",
     "type": "",
     "x": 960,
     "y": 352,
     "width": 32,
     "height": 32,
     "rotation": 0,
     "visible": true,
     "properties": []
    },
    {
     "id": 1346,
     "name": "",
     "type": "",
     "x": 1056,
     "y": 352,
     "width": 32,
     "height": 32,
     "rotation": 0,
     "visible": true,
     "properties": []
    },
    {
     "id": 1347,
     "name": "",
     "type": "",
     "x": 1376,
     "y": 352,
     "width": 32,
     "height": 32,
     "rotation": 0,
     "visible": true,
     "properties": []
    },
    {
     "id": 1348,
     "name": "",
     "type": "",
     "x": 1408,
     "y": 352,
     "width": 32,
     "height": 32,
     "rotation": 0,
     "visible": true,
     "properties": []
    },
    {
     "id": 1349,
     "name": "",
     "type": "",
     "x": 1440,
     "y": 352,
     "width": 32,
     "height": 32,
     "rotation": 0,
     "visible": true,
     "properties": []
    },
    {
     "id": 1350,
     "name": "",
     "type": "",
     "x": 1472,
     "y": 352,
     "width": 32,
     "height": 32,
     "rotation": 0,
     "visible": true,
     "properties": []
    },
    {
     "id": 1351,
     "name": "",
     "type": "",
     "x": 1504,
     "y": 352,
     "width": 32,
     "height": 32,
     "rotation": 0,
     "visible": true,
     "properties": []
    },
    {
     "id": 1352,
     "name": "",
     "type": "",
     "x": 1536,
     "y": 352,
     "width": 32,
     "height": 32,
     "rotation": 0,
     "visible": true,
     "properties": []
    },
    {
     "id": 1353,
     "name": "",
     "type": "",
     "x": 0,
     "y": 384,
     "width": 32,
     "height": 32,
     "rotation": 0,
     "visible": true,
     "properties": []
    },
    {
     "id": 1354,
     "name": "",
     "type": "",
     "x": 320,
     "y": 384,
     "width": 32,
     "height": 32,
     "rotation": 0,
     "visible": true,
     "properties": []
    },
    {
     "id": 1355,
     "name": "",
     "type": "",
     "x": 352,
     "y": 384,
     "width": 32,
     "height": 32,
     "rotation": 0,
     "visible": true,
     "properties": []
    },
    {
     "id": 1356,
     "name": "",
     "type": "",
     "x": 416,
     "y": 384,
     "width": 32,
     "height": 32,
     "rotation": 0,
     "visible": true,
     "properties": []
    },
    {
     "id": 1357,
     "name": "",
     "type": "",
     "x": 960,
     "y": 384,
     "width": 32,
     "height": 32,
     "rotation": 0,
     "visible": true,
     "properties": []
    },
    {
     "id": 1358,
     "name": "",
     "type": "",
     "x": 1056,
     "y": 384,
     "width": 32,
     "height": 32,
     "rotation": 0,
     "visible": true,
     "properties": []
    },
    {
     "id": 1359,
     "name": "",
     "type": "",
     "x": 1440,
     "y": 384,
     "width": 32,
     "height": 32,
     "rotation": 0,
     "visible": true,
     "properties": []
    },
    {
     "id": 1360,
     "name": "",
     "type": "",
     "x": 1472,
     "y": 384,
     "width": 32,
     "height": 32,
     "rotation": 0,
     "visible": true,
     "properties": []
    },
    {
     "id": 1361,
     "name": "",
     "type": "",
     "x": 1504,
     "y": 384,
     "width": 32,
     "height": 32,
     "rotation": 0,
     "visible": true,
     "properties": []
    },
    {
     "id": 1362,
     "name": "",
     "type": "",
     "x": 1536,
     "y": 384,
     "width": 32,
     "height": 32,
     "rotation": 0,
     "visible": true,
     "properties": []
    },
    {
     "id": 1363,
     "name": "",
     "type": "",
     "x": 0,
     "y": 416,
     "width": 32,
     "height": 32,
     "rotation": 0,
     "visible": true,
     "properties": []
    },
    {
     "id": 1364,
     "name": "",
     "type": "",
     "x": 320,
     "y": 416,
     "width": 32,
     "height": 32,
     "rotation": 0,
     "visible": true,
     "properties": []
    },
    {
     "id": 1365,
     "name": "",
     "type": "",
     "x": 352,
     "y": 416,
     "width": 32,
     "height": 32,
     "rotation": 0,
     "visible": true,
     "properties": []
    },
    {
     "id": 1366,
     "name": "",
     "type": "",
     "x": 416,
     "y": 416,
     "width": 32,
     "height": 32,
     "rotation": 0,
     "visible": true,
     "properties": []
    },
    {
     "id": 1367,
     "name": "",
     "type": "",
     "x": 960,
     "y": 416,
     "width": 32,
     "height": 32,
     "rotation": 0,
     "visible": true,
     "properties": []
    },
    {
     "id": 1368,
     "name": "",
     "type": "",
     "x": 1056,
     "y": 416,
     "width": 32,
     "height": 32,
     "rotation": 0,
     "visible": true,
     "properties": []
    },
    {
     "id": 1369,
     "name": "",
     "type": "",
     "x": 1440,
     "y": 416,
     "width": 32,
     "height": 32,
     "rotation": 0,
     "visible": true,
     "properties": []
    },
    {
     "id": 1370,
     "name": "",
     "type": "",
     "x": 1472,
     "y": 416,
     "width": 32,
     "height": 32,
     "rotation": 0,
     "visible": true,
     "properties": []
    },
    {
     "id": 1371,
     "name": "",
     "type": "",
     "x": 1504,
     "y": 416,
     "width": 32,
     "height": 32,
     "rotation": 0,
     "visible": true,
     "properties": []
    },
    {
     "id": 1372,
     "name": "",
     "type": "",
     "x": 1536,
     "y": 416,
     "width": 32,
     "height": 32,
     "rotation": 0,
     "visible": true,
     "properties": []
    },
    {
     "id": 1373,
     "name": "",
     "type": "",
     "x": 0,
     "y": 448,
     "width": 32,
     "height": 32,
     "rotation": 0,
     "visible": true,
     "properties": []
    },
    {
     "id": 1374,
     "name": "",
     "type": "",
     "x": 32,
     "y": 448,
     "width": 32,
     "height": 32,
     "rotation": 0,
     "visible": true,
     "properties": []
    },
    {
     "id": 1375,
     "name": "",
     "type": "",
     "x": 64,
     "y": 448,
     "width": 32,
     "height": 32,
     "rotation": 0,
     "visible": true,
     "properties": []
    },
    {
     "id": 1376,
     "name": "",
     "type": "",
     "x": 96,
     "y": 448,
     "width": 32,
     "height": 32,
     "rotation": 0,
     "visible": true,
     "properties": []
    },
    {
     "id": 1377,
     "name": "",
     "type": "",
     "x": 128,
     "y": 448,
     "width": 32,
     "height": 32,
     "rotation": 0,
     "visible": true,
     "properties": []
    },
    {
     "id": 1378,
     "name": "",
     "type": "",
     "x": 160,
     "y": 448,
     "width": 32,
     "height": 32,
     "rotation": 0,
     "visible": true,
     "properties": []
    },
    {
     "id": 1379,
     "name": "",
     "type": "",
     "x": 192,
     "y": 448,
     "width": 32,
     "height": 32,
     "rotation": 0,
     "visible": true,
     "properties": []
    },
    {
     "id": 1380,
     "name": "",
     "type": "",
     "x": 224,
     "y": 448,
     "width": 32,
     "height": 32,
     "rotation": 0,
     "visible": true,
     "properties": []
    },
    {
     "id": 1381,
     "name": "",
     "type": "",
     "x": 256,
     "y": 448,
     "width": 32,
     "height": 32,
     "rotation": 0,
     "visible": true,
     "properties": []
    },
    {
     "id": 1382,
     "name": "",
     "type": "",
     "x": 288,
     "y": 448,
     "width": 32,
     "height": 32,
     "rotation": 0,
     "visible": true,
     "properties": []
    },
    {
     "id": 1383,
     "name": "",
     "type": "",
     "x": 320,
     "y": 448,
     "width": 32,
     "height": 32,
     "rotation": 0,
     "visible": true,
     "properties": []
    },
    {
     "id": 1384,
     "name": "",
     "type": "",
     "x": 352,
     "y": 448,
     "width": 32,
     "height": 32,
     "rotation": 0,
     "visible": true,
     "properties": []
    },
    {
     "id": 1385,
     "name": "",
     "type": "",
     "x": 384,
     "y": 448,
     "width": 32,
     "height": 32,
     "rotation": 0,
     "visible": true,
     "properties": []
    },
    {
     "id": 1386,
     "name": "",
     "type": "",
     "x": 416,
     "y": 448,
     "width": 32,
     "height": 32,
     "rotation": 0,
     "visible": true,
     "properties": []
    },
    {
     "id": 1387,
     "name": "",
     "type": "",
     "x": 448,
     "y": 448,
     "width": 32,
     "height": 32,
     "rotation": 0,
     "visible": true,
     "properties": []
    },
    {
     "id": 1388,
     "name": "",
     "type": "",
     "x": 480,
     "y": 448,
     "width": 32,
     "height": 32,
     "rotation": 0,
     "visible": true,
     "properties": []
    },
    {
     "id": 1389,
     "name": "",
     "type": "",
     "x": 512,
     "y": 448,
     "width": 32,
     "height": 32,
     "rotation": 0,
     "visible": true,
     "properties": []
    },
    {
     "id": 1390,
     "name": "",
     "type": "",
     "x": 544,
     "y": 448,
     "width": 32,
     "height": 32,
     "rotation": 0,
     "visible": true,
     "properties": []
    },
    {
     "id": 1391,
     "name": "",
     "type": "",
     "x": 576,
     "y": 448,
     "width": 32,
     "height": 32,
     "rotation": 0,
     "visible": true,
     "properties": []
    },
    {
     "id": 1392,
     "name": "",
     "type": "",
     "x": 608,
     "y": 448,
     "width": 32,
     "height": 32,
     "rotation": 0,
     "visible": true,
     "properties": []
    },
    {
     "id": 1393,
     "name": "",
     "type": "",
     "x": 640,
     "y": 448,
     "width": 32,
     "height": 32,
     "rotation": 0,
     "visible": true,
     "properties": []
    },
    {
     "id": 1394,
     "name": "",
     "type": "",
     "x": 672,
     "y": 448,
     "width": 32,
     "height": 32,
     "rotation": 0,
     "visible": true,
     "properties": []
    },
    {
     "id": 1395,
     "name": "",
     "type": "",
     "x": 704,
     "y": 448,
     "width": 32,
     "height": 32,
     "rotation": 0,
     "visible": true,
     "properties": []
    },
    {
     "id": 1396,
     "name": "",
     "type": "",
     "x": 800,
     "y": 448,
     "width": 32,
     "height": 32,
     "rotation": 0,
     "visible": true,
     "properties": []
    },
    {
     "id": 1397,
     "name": "",
     "type": "",
     "x": 832,
     "y": 448,
     "width": 32,
     "height": 32,
     "rotation": 0,
     "visible": true,
     "properties": []
    },
    {
     "id": 1398,
     "name": "",
     "type": "",
     "x": 864,
     "y": 448,
     "width": 32,
     "height": 32,
     "rotation": 0,
     "visible": true,
     "properties": []
    },
    {
     "id": 1399,
     "name": "",
     "type": "",
     "x": 896,
     "y": 448,
     "width": 32,
     "height": 32,
     "rotation": 0,
     "visible": true,
     "properties": []
    },
    {
     "id": 1400,
     "name": "",
     "type": "",
     "x": 928,
     "y": 448,
     "width": 32,
     "height": 32,
     "rotation": 0,
     "visible": true,
     "properties": []
    },
    {
     "id": 1401,
     "name": "",
     "type": "",
     "x": 960,
     "y": 448,
     "width": 32,
     "height": 32,
     "rotation": 0,
     "visible": true,
     "properties": []
    },
    {
     "id": 1402,
     "name": "",
     "type": "",
     "x": 1056,
     "y": 448,
     "width": 32,
     "height": 32,
     "rotation": 0,
     "visible": true,
     "properties": []
    },
    {
     "id": 1403,
     "name": "",
     "type": "",
     "x": 1088,
     "y": 448,
     "width": 32,
     "height": 32,
     "rotation": 0,
     "visible": true,
     "properties": []
    },
    {
     "id": 1404,
     "name": "",
     "type": "",
     "x": 1120,
     "y": 448,
     "width": 32,
     "height": 32,
     "rotation": 0,
     "visible": true,
     "properties": []
    },
    {
     "id": 1405,
     "name": "",
     "type": "",
     "x": 1152,
     "y": 448,
     "width": 32,
     "height": 32,
     "rotation": 0,
     "visible": true,
     "properties": []
    },
    {
     "id": 1406,
     "name": "",
     "type": "",
     "x": 1184,
     "y": 448,
     "width": 32,
     "height": 32,
     "rotation": 0,
     "visible": true,
     "properties": []
    },
    {
     "id": 1407,
     "name": "",
     "type": "",
     "x": 1216,
     "y": 448,
     "width": 32,
     "height": 32,
     "rotation": 0,
     "visible": true,
     "properties": []
    },
    {
     "id": 1408,
     "name": "",
     "type": "",
     "x": 1312,
     "y": 448,
     "width": 32,
     "height": 32,
     "rotation": 0,
     "visible": true,
     "properties": []
    },
    {
     "id": 1409,
     "name": "",
     "type": "",
     "x": 1344,
     "y": 448,
     "width": 32,
     "height": 32,
     "rotation": 0,
     "visible": true,
     "properties": []
    },
    {
     "id": 1410,
     "name": "",
     "type": "",
     "x": 1376,
     "y": 448,
     "width": 32,
     "height": 32,
     "rotation": 0,
     "visible": true,
     "properties": []
    },
    {
     "id": 1411,
     "name": "",
     "type": "",
     "x": 1408,
     "y": 448,
     "width": 32,
     "height": 32,
     "rotation": 0,
     "visible": true,
     "properties": []
    },
    {
     "id": 1412,
     "name": "",
     "type": "",
     "x": 1440,
     "y": 448,
     "width": 32,
     "height": 32,
     "rotation": 0,
     "visible": true,
     "properties": []
    },
    {
     "id": 1413,
     "name": "",
     "type": "",
     "x": 1472,
     "y": 448,
     "width": 32,
     "height": 32,
     "rotation": 0,
     "visible": true,
     "properties": []
    },
    {
     "id": 1414,
     "name": "",
     "type": "",
     "x": 1504,
     "y": 448,
     "width": 32,
     "height": 32,
     "rotation": 0,
     "visible": true,
     "properties": []
    },
    {
     "id": 1415,
     "name": "",
     "type": "",
     "x": 1536,
     "y": 448,
     "width": 32,
     "height": 32,
     "rotation": 0,
     "visible": true,
     "properties": []
    },
    {
     "id": 1416,
     "name": "",
     "type": "",
     "x": 0,
     "y": 480,
     "width": 32,
     "height": 32,
     "rotation": 0,
     "visible": true,
     "properties": []
    },
    {
     "id": 1417,
     "name": "",
     "type": "",
     "x": 32,
     "y": 480,
     "width": 32,
     "height": 32,
     "rotation": 0,
     "visible": true,
     "properties": []
    },
    {
     "id": 1418,
     "name": "",
     "type": "",
     "x": 64,
     "y": 480,
     "width": 32,
     "height": 32,
     "rotation": 0,
     "visible": true,
     "properties": []
    },
    {
     "id": 1419,
     "name": "",
     "type": "",
     "x": 96,
     "y": 480,
     "width": 32,
     "height": 32,
     "rotation": 0,
     "visible": true,
     "properties": []
    },
    {
     "id": 1420,
     "name": "",
     "type": "",
     "x": 128,
     "y": 480,
     "width": 32,
     "height": 32,
     "rotation": 0,
     "visible": true,
     "properties": []
    },
    {
     "id": 1421,
     "name": "",
     "type": "",
     "x": 160,
     "y": 480,
     "width": 32,
     "height": 32,
     "rotation": 0,
     "visible": true,
     "properties": []
    },
    {
     "id": 1422,
     "name": "",
     "type": "",
     "x": 192,
     "y": 480,
     "width": 32,
     "height": 32,
     "rotation": 0,
     "visible": true,
     "properties": []
    },
    {
     "id": 1423,
     "name": "",
     "type": "",
     "x": 224,
     "y": 480,
     "width": 32,
     "height": 32,
     "rotation": 0,
     "visible": true,
     "properties": []
    },
    {
     "id": 1424,
     "name": "",
     "type": "",
     "x": 256,
     "y": 480,
     "width": 32,
     "height": 32,
     "rotation": 0,
     "visible": true,
     "properties": []
    },
    {
     "id": 1425,
     "name": "",
     "type": "",
     "x": 288,
     "y": 480,
     "width": 32,
     "height": 32,
     "rotation": 0,
     "visible": true,
     "properties": []
    },
    {
     "id": 1426,
     "name": "",
     "type": "",
     "x": 320,
     "y": 480,
     "width": 32,
     "height": 32,
     "rotation": 0,
     "visible": true,
     "properties": []
    },
    {
     "id": 1427,
     "name": "",
     "type": "",
     "x": 352,
     "y": 480,
     "width": 32,
     "height": 32,
     "rotation": 0,
     "visible": true,
     "properties": []
    },
    {
     "id": 1428,
     "name": "",
     "type": "",
     "x": 384,
     "y": 480,
     "width": 32,
     "height": 32,
     "rotation": 0,
     "visible": true,
     "properties": []
    },
    {
     "id": 1429,
     "name": "",
     "type": "",
     "x": 416,
     "y": 480,
     "width": 32,
     "height": 32,
     "rotation": 0,
     "visible": true,
     "properties": []
    },
    {
     "id": 1430,
     "name": "",
     "type": "",
     "x": 448,
     "y": 480,
     "width": 32,
     "height": 32,
     "rotation": 0,
     "visible": true,
     "properties": []
    },
    {
     "id": 1431,
     "name": "",
     "type": "",
     "x": 480,
     "y": 480,
     "width": 32,
     "height": 32,
     "rotation": 0,
     "visible": true,
     "properties": []
    },
    {
     "id": 1432,
     "name": "",
     "type": "",
     "x": 512,
     "y": 480,
     "width": 32,
     "height": 32,
     "rotation": 0,
     "visible": true,
     "properties": []
    },
    {
     "id": 1433,
     "name": "",
     "type": "",
     "x": 544,
     "y": 480,
     "width": 32,
     "height": 32,
     "rotation": 0,
     "visible": true,
     "properties": []
    },
    {
     "id": 1434,
     "name": "",
     "type": "",
     "x": 576,
     "y": 480,
     "width": 32,
     "height": 32,
     "rotation": 0,
     "visible": true,
     "properties": []
    },
    {
     "id": 1435,
     "name": "",
     "type": "",
     "x": 608,
     "y": 480,
     "width": 32,
     "height": 32,
     "rotation": 0,
     "visible": true,
     "properties": []
    },
    {
     "id": 1436,
     "name": "",
     "type": "",
     "x": 640,
     "y": 480,
     "width": 32,
     "height": 32,
     "rotation": 0,
     "visible": true,
     "properties": []
    },
    {
     "id": 1437,
     "name": "",
     "type": "",
     "x": 672,
     "y": 480,
     "width": 32,
     "height": 32,
     "rotation": 0,
     "visible": true,
     "properties": []
    },
    {
     "id": 1438,
     "name": "",
     "type": "",
     "x": 704,
     "y": 480,
     "width": 32,
     "height": 32,
     "rotation": 0,
     "visible": true,
     "properties": []
    },
    {
     "id": 1439,
     "name": "",
     "type": "",
     "x": 800,
     "y": 480,
     "width": 32,
     "height": 32,
     "rotation": 0,
     "visible": true,
     "properties": []
    },
    {
     "id": 1440,
     "name": "",
     "type": "",
     "x": 832,
     "y": 480,
     "width": 32,
     "height": 32,
     "rotation": 0,
     "visible": true,
     "properties": []
    },
    {
     "id": 1441,
     "name": "",
     "type": "",
     "x": 864,
     "y": 480,
     "width": 32,
     "height": 32,
     "rotation": 0,
     "visible": true,
     "properties": []
    },
    {
     "id": 1442,
     "name": "",
     "type": "",
     "x": 896,
     "y": 480,
     "width": 32,
     "height": 32,
     "rotation": 0,
     "visible": true,
     "properties": []
    },
    {
     "id": 1443,
     "name": "",
     "type": "",
     "x": 928,
     "y": 480,
     "width": 32,
     "height": 32,
     "rotation": 0,
     "visible": true,
     "properties": []
    },
    {
     "id": 1444,
     "name": "",
     "type": "",
     "x": 960,
     "y": 480,
     "width": 32,
     "height": 32,
     "rotation": 0,
     "visible": true,
     "properties": []
    },
    {
     "id": 1445,
     "name": "",
     "type": "",
     "x": 1056,
     "y": 480,
     "width": 32,
     "height": 32,
     "rotation": 0,
     "visible": true,
     "properties": []
    },
    {
     "id": 1446,
     "name": "",
     "type": "",
     "x": 1088,
     "y": 480,
     "width": 32,
     "height": 32,
     "rotation": 0,
     "visible": true,
     "properties": []
    },
    {
     "id": 1447,
     "name": "",
     "type": "",
     "x": 1120,
     "y": 480,
     "width": 32,
     "height": 32,
     "rotation": 0,
     "visible": true,
     "properties": []
    },
    {
     "id": 1448,
     "name": "",
     "type": "",
     "x": 1152,
     "y": 480,
     "width": 32,
     "height": 32,
     "rotation": 0,
     "visible": true,
     "properties": []
    },
    {
     "id": 1449,
     "name": "",
     "type": "",
     "x": 1184,
     "y": 480,
     "width": 32,
     "height": 32,
     "rotation": 0,
     "visible": true,
     "properties": []
    },
    {
     "id": 1450,
     "name": "",
     "type": "",
     "x": 1216,
     "y": 480,
     "width": 32,
     "height": 32,
     "rotation": 0,
     "visible": true,
     "properties": []
    },
    {
     "id": 1451,
     "name": "",
     "type": "",
     "x": 1312,
     "y": 480,
     "width": 32,
     "height": 32,
     "rotation": 0,
     "visible": true,
     "properties": []
    },
    {
     "id": 1452,
     "name": "",
     "type": "",
     "x": 1344,
     "y": 480,
     "width": 32,
     "height": 32,
     "rotation": 0,
     "visible": true,
     "properties": []
    },
    {
     "id": 1453,
     "name": "",
     "type": "",
     "x": 1376,
     "y": 480,
     "width": 32,
     "height": 32,
     "rotation": 0,
     "visible": true,
     "properties": []
    },
    {
     "id": 1454,
     "name": "",
     "type": "",
     "x": 1408,
     "y": 480,
     "width": 32,
     "height": 32,
     "rotation": 0,
     "visible": true,
     "properties": []
    },
    {
     "id": 1455,
     "name": "",
     "type": "",
     "x": 1440,
     "y": 480,
     "width": 32,
     "height": 32,
     "rotation": 0,
     "visible": true,
     "properties": []
    },
    {
     "id": 1456,
     "name": "",
     "type": "",
     "x": 1472,
     "y": 480,
     "width": 32,
     "height": 32,
     "rotation": 0,
     "visible": true,
     "properties": []
    },
    {
     "id": 1457,
     "name": "",
     "type": "",
     "x": 1504,
     "y": 480,
     "width": 32,
     "height": 32,
     "rotation": 0,
     "visible": true,
     "properties": []
    },
    {
     "id": 1458,
     "name": "",
     "type": "",
     "x": 1536,
     "y": 480,
     "width": 32,
     "height": 32,
     "rotation": 0,
     "visible": true,
     "properties": []
    },
    {
     "id": 1459,
     "name": "",
     "type": "",
     "x": 0,
     "y": 512,
     "width": 32,
     "height": 32,
     "rotation": 0,
     "visible": true,
     "properties": []
    },
    {
     "id": 1460,
     "name": "",
     "type": "",
     "x": 32,
     "y": 512,
     "width": 32,
     "height": 32,
     "rotation": 0,
     "visible": true,
     "properties": []
    },
    {
     "id": 1461,
     "name": "",
     "type": "",
     "x": 64,
     "y": 512,
     "width": 32,
     "height": 32,
     "rotation": 0,
     "visible": true,
     "properties": []
    },
    {
     "id": 1462,
     "name": "",
     "type": "",
     "x": 96,
     "y": 512,
     "width": 32,
     "height": 32,
     "rotation": 0,
     "visible": true,
     "properties": []
    },
    {
     "id": 1463,
     "name": "",
     "type": "",
     "x": 128,
     "y": 512,
     "width": 32,
     "height": 32,
     "rotation": 0,
     "visible": true,
     "properties": []
    },
    {
     "id": 1464,
     "name": "",
     "type": "",
     "x": 320,
     "y": 512,
     "width": 32,
     "height": 32,
     "rotation": 0,
     "visible": true,
     "properties": []
    },
    {
     "id": 1465,
     "name": "",
     "type": "",
     "x": 512,
     "y": 512,
     "width": 32,
     "height": 32,
     "rotation": 0,
     "visible": true,
     "properties": []
    },
    {
     "id": 1466,
     "name": "",
     "type": "",
     "x": 544,
     "y": 512,
     "width": 32,
     "height": 32,
     "rotation": 0,
     "visible": true,
     "properties": []
    },
    {
     "id": 1467,
     "name": "",
     "type": "",
     "x": 576,
     "y": 512,
     "width": 32,
     "height": 32,
     "rotation": 0,
     "visible": true,
     "properties": []
    },
    {
     "id": 1468,
     "name": "",
     "type": "",
     "x": 608,
     "y": 512,
     "width": 32,
     "height": 32,
     "rotation": 0,
     "visible": true,
     "properties": []
    },
    {
     "id": 1469,
     "name": "",
     "type": "",
     "x": 640,
     "y": 512,
     "width": 32,
     "height": 32,
     "rotation": 0,
     "visible": true,
     "properties": []
    },
    {
     "id": 1470,
     "name": "",
     "type": "",
     "x": 960,
     "y": 512,
     "width": 32,
     "height": 32,
     "rotation": 0,
     "visible": true,
     "properties": []
    },
    {
     "id": 1471,
     "name": "",
     "type": "",
     "x": 1536,
     "y": 512,
     "width": 32,
     "height": 32,
     "rotation": 0,
     "visible": true,
     "properties": []
    },
    {
     "id": 1472,
     "name": "",
     "type": "",
     "x": 0,
     "y": 544,
     "width": 32,
     "height": 32,
     "rotation": 0,
     "visible": true,
     "properties": []
    },
    {
     "id": 1473,
     "name": "",
     "type": "",
     "x": 32,
     "y": 544,
     "width": 32,
     "height": 32,
     "rotation": 0,
     "visible": true,
     "properties": []
    },
    {
     "id": 1474,
     "name": "",
     "type": "",
     "x": 64,
     "y": 544,
     "width": 32,
     "height": 32,
     "rotation": 0,
     "visible": true,
     "properties": []
    },
    {
     "id": 1475,
     "name": "",
     "type": "",
     "x": 576,
     "y": 544,
     "width": 32,
     "height": 32,
     "rotation": 0,
     "visible": true,
     "properties": []
    },
    {
     "id": 1476,
     "name": "",
     "type": "",
     "x": 608,
     "y": 544,
     "width": 32,
     "height": 32,
     "rotation": 0,
     "visible": true,
     "properties": []
    },
    {
     "id": 1477,
     "name": "",
     "type": "",
     "x": 640,
     "y": 544,
     "width": 32,
     "height": 32,
     "rotation": 0,
     "visible": true,
     "properties": []
    },
    {
     "id": 1478,
     "name": "",
     "type": "",
     "x": 960,
     "y": 544,
     "width": 32,
     "height": 32,
     "rotation": 0,
     "visible": true,
     "properties": []
    },
    {
     "id": 1479,
     "name": "",
     "type": "",
     "x": 1536,
     "y": 544,
     "width": 32,
     "height": 32,
     "rotation": 0,
     "visible": true,
     "properties": []
    },
    {
     "id": 1480,
     "name": "",
     "type": "",
     "x": 0,
     "y": 576,
     "width": 32,
     "height": 32,
     "rotation": 0,
     "visible": true,
     "properties": []
    },
    {
     "id": 1481,
     "name": "",
     "type": "",
     "x": 32,
     "y": 576,
     "width": 32,
     "height": 32,
     "rotation": 0,
     "visible": true,
     "properties": []
    },
    {
     "id": 1482,
     "name": "",
     "type": "",
     "x": 608,
     "y": 576,
     "width": 32,
     "height": 32,
     "rotation": 0,
     "visible": true,
     "properties": []
    },
    {
     "id": 1483,
     "name": "",
     "type": "",
     "x": 640,
     "y": 576,
     "width": 32,
     "height": 32,
     "rotation": 0,
     "visible": true,
     "properties": []
    },
    {
     "id": 1484,
     "name": "",
     "type": "",
     "x": 960,
     "y": 576,
     "width": 32,
     "height": 32,
     "rotation": 0,
     "visible": true,
     "properties": []
    },
    {
     "id": 1485,
     "name": "",
     "type": "",
     "x": 1536,
     "y": 576,
     "width": 32,
     "height": 32,
     "rotation": 0,
     "visible": true,
     "properties": []
    },
    {
     "id": 1486,
     "name": "",
     "type": "",
     "x": 0,
     "y": 608,
     "width": 32,
     "height": 32,
     "rotation": 0,
     "visible": true,
     "properties": []
    },
    {
     "id": 1487,
     "name": "",
     "type": "",
     "x": 32,
     "y": 608,
     "width": 32,
     "height": 32,
     "rotation": 0,
     "visible": true,
     "properties": []
    },
    {
     "id": 1488,
     "name": "",
     "type": "",
     "x": 608,
     "y": 608,
     "width": 32,
     "height": 32,
     "rotation": 0,
     "visible": true,
     "properties": []
    },
    {
     "id": 1489,
     "name": "",
     "type": "",
     "x": 640,
     "y": 608,
     "width": 32,
     "height": 32,
     "rotation": 0,
     "visible": true,
     "properties": []
    },
    {
     "id": 1490,
     "name": "",
     "type": "",
     "x": 672,
     "y": 608,
     "width": 32,
     "height": 32,
     "rotation": 0,
     "visible": true,
     "properties": []
    },
    {
     "id": 1491,
     "name": "",
     "type": "",
     "x": 704,
     "y": 608,
     "width": 32,
     "height": 32,
     "rotation": 0,
     "visible": true,
     "properties": []
    },
    {
     "id": 1492,
     "name": "",
     "type": "",
     "x": 736,
     "y": 608,
     "width": 32,
     "height": 32,
     "rotation": 0,
     "visible": true,
     "properties": []
    },
    {
     "id": 1493,
     "name": "",
     "type": "",
     "x": 768,
     "y": 608,
     "width": 32,
     "height": 32,
     "rotation": 0,
     "visible": true,
     "properties": []
    },
    {
     "id": 1494,
     "name": "",
     "type": "",
     "x": 800,
     "y": 608,
     "width": 32,
     "height": 32,
     "rotation": 0,
     "visible": true,
     "properties": []
    },
    {
     "id": 1495,
     "name": "",
     "type": "",
     "x": 832,
     "y": 608,
     "width": 32,
     "height": 32,
     "rotation": 0,
     "visible": true,
     "properties": []
    },
    {
     "id": 1496,
     "name": "",
     "type": "",
     "x": 864,
     "y": 608,
     "width": 32,
     "height": 32,
     "rotation": 0,
     "visible": true,
     "properties": []
    },
    {
     "id": 1497,
     "name": "",
     "type": "",
     "x": 896,
     "y": 608,
     "width": 32,
     "height": 32,
     "rotation": 0,
     "visible": true,
     "properties": []
    },
    {
     "id": 1498,
     "name": "",
     "type": "",
     "x": 928,
     "y": 608,
     "width": 32,
     "height": 32,
     "rotation": 0,
     "visible": true,
     "properties": []
    },
    {
     "id": 1499,
     "name": "",
     "type": "",
     "x": 960,
     "y": 608,
     "width": 32,
     "height": 32,
     "rotation": 0,
     "visible": true,
     "properties": []
    },
    {
     "id": 1500,
     "name": "",
     "type": "",
     "x": 992,
     "y": 608,
     "width": 32,
     "height": 32,
     "rotation": 0,
     "visible": true,
     "properties": []
    },
    {
     "id": 1501,
     "name": "",
     "type": "",
     "x": 1024,
     "y": 608,
     "width": 32,
     "height": 32,
     "rotation": 0,
     "visible": true,
     "properties": []
    },
    {
     "id": 1502,
     "name": "",
     "type": "",
     "x": 1056,
     "y": 608,
     "width": 32,
     "height": 32,
     "rotation": 0,
     "visible": true,
     "properties": []
    },
    {
     "id": 1503,
     "name": "",
     "type": "",
     "x": 1088,
     "y": 608,
     "width": 32,
     "height": 32,
     "rotation": 0,
     "visible": true,
     "properties": []
    },
    {
     "id": 1504,
     "name": "",
     "type": "",
     "x": 1120,
     "y": 608,
     "width": 32,
     "height": 32,
     "rotation": 0,
     "visible": true,
     "properties": []
    },
    {
     "id": 1505,
     "name": "",
     "type": "",
     "x": 1152,
     "y": 608,
     "width": 32,
     "height": 32,
     "rotation": 0,
     "visible": true,
     "properties": []
    },
    {
     "id": 1506,
     "name": "",
     "type": "",
     "x": 1184,
     "y": 608,
     "width": 32,
     "height": 32,
     "rotation": 0,
     "visible": true,
     "properties": []
    },
    {
     "id": 1507,
     "name": "",
     "type": "",
     "x": 1216,
     "y": 608,
     "width": 32,
     "height": 32,
     "rotation": 0,
     "visible": true,
     "properties": []
    },
    {
     "id": 1508,
     "name": "",
     "type": "",
     "x": 1248,
     "y": 608,
     "width": 32,
     "height": 32,
     "rotation": 0,
     "visible": true,
     "properties": []
    },
    {
     "id": 1509,
     "name": "",
     "type": "",
     "x": 1280,
     "y": 608,
     "width": 32,
     "height": 32,
     "rotation": 0,
     "visible": true,
     "properties": []
    },
    {
     "id": 1510,
     "name": "",
     "type": "",
     "x": 1312,
     "y": 608,
     "width": 32,
     "height": 32,
     "rotation": 0,
     "visible": true,
     "properties": []
    },
    {
     "id": 1511,
     "name": "",
     "type": "",
     "x": 1344,
     "y": 608,
     "width": 32,
     "height": 32,
     "rotation": 0,
     "visible": true,
     "properties": []
    },
    {
     "id": 1512,
     "name": "",
     "type": "",
     "x": 1376,
     "y": 608,
     "width": 32,
     "height": 32,
     "rotation": 0,
     "visible": true,
     "properties": []
    },
    {
     "id": 1513,
     "name": "",
     "type": "",
     "x": 1408,
     "y": 608,
     "width": 32,
     "height": 32,
     "rotation": 0,
     "visible": true,
     "properties": []
    },
    {
     "id": 1514,
     "name": "",
     "type": "",
     "x": 1536,
     "y": 608,
     "width": 32,
     "height": 32,
     "rotation": 0,
     "visible": true,
     "properties": []
    },
    {
     "id": 1515,
     "name": "",
     "type": "",
     "x": 0,
     "y": 640,
     "width": 32,
     "height": 32,
     "rotation": 0,
     "visible": true,
     "properties": []
    },
    {
     "id": 1516,
     "name": "",
     "type": "",
     "x": 32,
     "y": 640,
     "width": 32,
     "height": 32,
     "rotation": 0,
     "visible": true,
     "properties": []
    },
    {
     "id": 1517,
     "name": "",
     "type": "",
     "x": 64,
     "y": 640,
     "width": 32,
     "height": 32,
     "rotation": 0,
     "visible": true,
     "properties": []
    },
    {
     "id": 1518,
     "name": "",
     "type": "",
     "x": 96,
     "y": 640,
     "width": 32,
     "height": 32,
     "rotation": 0,
     "visible": true,
     "properties": []
    },
    {
     "id": 1519,
     "name": "",
     "type": "",
     "x": 128,
     "y": 640,
     "width": 32,
     "height": 32,
     "rotation": 0,
     "visible": true,
     "properties": []
    },
    {
     "id": 1520,
     "name": "",
     "type": "",
     "x": 320,
     "y": 640,
     "width": 32,
     "height": 32,
     "rotation": 0,
     "visible": true,
     "properties": []
    },
    {
     "id": 1521,
     "name": "",
     "type": "",
     "x": 352,
     "y": 640,
     "width": 32,
     "height": 32,
     "rotation": 0,
     "visible": true,
     "properties": []
    },
    {
     "id": 1522,
     "name": "",
     "type": "",
     "x": 384,
     "y": 640,
     "width": 32,
     "height": 32,
     "rotation": 0,
     "visible": true,
     "properties": []
    },
    {
     "id": 1523,
     "name": "",
     "type": "",
     "x": 416,
     "y": 640,
     "width": 32,
     "height": 32,
     "rotation": 0,
     "visible": true,
     "properties": []
    },
    {
     "id": 1524,
     "name": "",
     "type": "",
     "x": 640,
     "y": 640,
     "width": 32,
     "height": 32,
     "rotation": 0,
     "visible": true,
     "properties": []
    },
    {
     "id": 1525,
     "name": "",
     "type": "",
     "x": 672,
     "y": 640,
     "width": 32,
     "height": 32,
     "rotation": 0,
     "visible": true,
     "properties": []
    },
    {
     "id": 1526,
     "name": "",
     "type": "",
     "x": 704,
     "y": 640,
     "width": 32,
     "height": 32,
     "rotation": 0,
     "visible": true,
     "properties": []
    },
    {
     "id": 1527,
     "name": "",
     "type": "",
     "x": 736,
     "y": 640,
     "width": 32,
     "height": 32,
     "rotation": 0,
     "visible": true,
     "properties": []
    },
    {
     "id": 1528,
     "name": "",
     "type": "",
     "x": 768,
     "y": 640,
     "width": 32,
     "height": 32,
     "rotation": 0,
     "visible": true,
     "properties": []
    },
    {
     "id": 1529,
     "name": "",
     "type": "",
     "x": 800,
     "y": 640,
     "width": 32,
     "height": 32,
     "rotation": 0,
     "visible": true,
     "properties": []
    },
    {
     "id": 1530,
     "name": "",
     "type": "",
     "x": 832,
     "y": 640,
     "width": 32,
     "height": 32,
     "rotation": 0,
     "visible": true,
     "properties": []
    },
    {
     "id": 1531,
     "name": "",
     "type": "",
     "x": 864,
     "y": 640,
     "width": 32,
     "height": 32,
     "rotation": 0,
     "visible": true,
     "properties": []
    },
    {
     "id": 1532,
     "name": "",
     "type": "",
     "x": 896,
     "y": 640,
     "width": 32,
     "height": 32,
     "rotation": 0,
     "visible": true,
     "properties": []
    },
    {
     "id": 1533,
     "name": "",
     "type": "",
     "x": 928,
     "y": 640,
     "width": 32,
     "height": 32,
     "rotation": 0,
     "visible": true,
     "properties": []
    },
    {
     "id": 1534,
     "name": "",
     "type": "",
     "x": 960,
     "y": 640,
     "width": 32,
     "height": 32,
     "rotation": 0,
     "visible": true,
     "properties": []
    },
    {
     "id": 1535,
     "name": "",
     "type": "",
     "x": 992,
     "y": 640,
     "width": 32,
     "height": 32,
     "rotation": 0,
     "visible": true,
     "properties": []
    },
    {
     "id": 1536,
     "name": "",
     "type": "",
     "x": 1024,
     "y": 640,
     "width": 32,
     "height": 32,
     "rotation": 0,
     "visible": true,
     "properties": []
    },
    {
     "id": 1537,
     "name": "",
     "type": "",
     "x": 1056,
     "y": 640,
     "width": 32,
     "height": 32,
     "rotation": 0,
     "visible": true,
     "properties": []
    },
    {
     "id": 1538,
     "name": "",
     "type": "",
     "x": 1088,
     "y": 640,
     "width": 32,
     "height": 32,
     "rotation": 0,
     "visible": true,
     "properties": []
    },
    {
     "id": 1539,
     "name": "",
     "type": "",
     "x": 1120,
     "y": 640,
     "width": 32,
     "height": 32,
     "rotation": 0,
     "visible": true,
     "properties": []
    },
    {
     "id": 1540,
     "name": "",
     "type": "",
     "x": 1152,
     "y": 640,
     "width": 32,
     "height": 32,
     "rotation": 0,
     "visible": true,
     "properties": []
    },
    {
     "id": 1541,
     "name": "",
     "type": "",
     "x": 1184,
     "y": 640,
     "width": 32,
     "height": 32,
     "rotation": 0,
     "visible": true,
     "properties": []
    },
    {
     "id": 1542,
     "name": "",
     "type": "",
     "x": 1216,
     "y": 640,
     "width": 32,
     "height": 32,
     "rotation": 0,
     "visible": true,
     "properties": []
    },
    {
     "id": 1543,
     "name": "",
     "type": "",
     "x": 1248,
     "y": 640,
     "width": 32,
     "height": 32,
     "rotation": 0,
     "visible": true,
     "properties": []
    },
    {
     "id": 1544,
     "name": "",
     "type": "",
     "x": 1280,
     "y": 640,
     "width": 32,
     "height": 32,
     "rotation": 0,
     "visible": true,
     "properties": []
    },
    {
     "id": 1545,
     "name": "",
     "type": "",
     "x": 1312,
     "y": 640,
     "width": 32,
     "height": 32,
     "rotation": 0,
     "visible": true,
     "properties": []
    },
    {
     "id": 1546,
     "name": "",
     "type": "",
     "x": 1344,
     "y": 640,
     "width": 32,
     "height": 32,
     "rotation": 0,
     "visible": true,
     "properties": []
    },
    {
     "id": 1547,
     "name": "",
     "type": "",
     "x": 1376,
     "y": 640,
     "width": 32,
     "height": 32,
     "rotation": 0,
     "visible": true,
     "properties": []
    },
    {
     "id": 1548,
     "name": "",
     "type": "",
     "x": 1408,
     "y": 640,
     "width": 32,
     "height": 32,
     "rotation": 0,
     "visible": true,
     "properties": []
    },
    {
     "id": 1549,
     "name": "",
     "type": "",
     "x": 1536,
     "y": 640,
     "width": 32,
     "height": 32,
     "rotation": 0,
     "visible": true,
     "properties": []
    },
    {
     "id": 1550,
     "name": "",
     "type": "",
     "x": 0,
     "y": 672,
     "width": 32,
     "height": 32,
     "rotation": 0,
     "visible": true,
     "properties": []
    },
    {
     "id": 1551,
     "name": "",
     "type": "",
     "x": 32,
     "y": 672,
     "width": 32,
     "height": 32,
     "rotation": 0,
     "visible": true,
     "properties": []
    },
    {
     "id": 1552,
     "name": "",
     "type": "",
     "x": 64,
     "y": 672,
     "width": 32,
     "height": 32,
     "rotation": 0,
     "visible": true,
     "properties": []
    },
    {
     "id": 1553,
     "name": "",
     "type": "",
     "x": 96,
     "y": 672,
     "width": 32,
     "height": 32,
     "rotation": 0,
     "visible": true,
     "properties": []
    },
    {
     "id": 1554,
     "name": "",
     "type": "",
     "x": 128,
     "y": 672,
     "width": 32,
     "height": 32,
     "rotation": 0,
     "visible": true,
     "properties": []
    },
    {
     "id": 1555,
     "name": "",
     "type": "",
     "x": 320,
     "y": 672,
     "width": 32,
     "height": 32,
     "rotation": 0,
     "visible": true,
     "properties": []
    },
    {
     "id": 1556,
     "name": "",
     "type": "",
     "x": 352,
     "y": 672,
     "width": 32,
     "height": 32,
     "rotation": 0,
     "visible": true,
     "properties": []
    },
    {
     "id": 1557,
     "name": "",
     "type": "",
     "x": 384,
     "y": 672,
     "width": 32,
     "height": 32,
     "rotation": 0,
     "visible": true,
     "properties": []
    },
    {
     "id": 1558,
     "name": "",
     "type": "",
     "x": 416,
     "y": 672,
     "width": 32,
     "height": 32,
     "rotation": 0,
     "visible": true,
     "properties": []
    },
    {
     "id": 1559,
     "name": "",
     "type": "",
     "x": 640,
     "y": 672,
     "width": 32,
     "height": 32,
     "rotation": 0,
     "visible": true,
     "properties": []
    },
    {
     "id": 1560,
     "name": "",
     "type": "",
     "x": 672,
     "y": 672,
     "width": 32,
     "height": 32,
     "rotation": 0,
     "visible": true,
     "properties": []
    },
    {
     "id": 1561,
     "name": "",
     "type": "",
     "x": 704,
     "y": 672,
     "width": 32,
     "height": 32,
     "rotation": 0,
     "visible": true,
     "properties": []
    },
    {
     "id": 1562,
     "name": "",
     "type": "",
     "x": 736,
     "y": 672,
     "width": 32,
     "height": 32,
     "rotation": 0,
     "visible": true,
     "properties": []
    },
    {
     "id": 1563,
     "name": "",
     "type": "",
     "x": 1408,
     "y": 672,
     "width": 32,
     "height": 32,
     "rotation": 0,
     "visible": true,
     "properties": []
    },
    {
     "id": 1564,
     "name": "",
     "type": "",
     "x": 1536,
     "y": 672,
     "width": 32,
     "height": 32,
     "rotation": 0,
     "visible": true,
     "properties": []
    },
    {
     "id": 1565,
     "name": "",
     "type": "",
     "x": 0,
     "y": 704,
     "width": 32,
     "height": 32,
     "rotation": 0,
     "visible": true,
     "properties": []
    },
    {
     "id": 1566,
     "name": "",
     "type": "",
     "x": 320,
     "y": 704,
     "width": 32,
     "height": 32,
     "rotation": 0,
     "visible": true,
     "properties": []
    },
    {
     "id": 1567,
     "name": "",
     "type": "",
     "x": 352,
     "y": 704,
     "width": 32,
     "height": 32,
     "rotation": 0,
     "visible": true,
     "properties": []
    },
    {
     "id": 1568,
     "name": "",
     "type": "",
     "x": 736,
     "y": 704,
     "width": 32,
     "height": 32,
     "rotation": 0,
     "visible": true,
     "properties": []
    },
    {
     "id": 1569,
     "name": "",
     "type": "",
     "x": 768,
     "y": 704,
     "width": 32,
     "height": 32,
     "rotation": 0,
     "visible": true,
     "properties": []
    },
    {
     "id": 1570,
     "name": "",
     "type": "",
     "x": 800,
     "y": 704,
     "width": 32,
     "height": 32,
     "rotation": 0,
     "visible": true,
     "properties": []
    },
    {
     "id": 1571,
     "name": "",
     "type": "",
     "x": 864,
     "y": 704,
     "width": 32,
     "height": 32,
     "rotation": 0,
     "visible": true,
     "properties": []
    },
    {
     "id": 1572,
     "name": "",
     "type": "",
     "x": 896,
     "y": 704,
     "width": 32,
     "height": 32,
     "rotation": 0,
     "visible": true,
     "properties": []
    },
    {
     "id": 1573,
     "name": "",
     "type": "",
     "x": 928,
     "y": 704,
     "width": 32,
     "height": 32,
     "rotation": 0,
     "visible": true,
     "properties": []
    },
    {
     "id": 1574,
     "name": "",
     "type": "",
     "x": 960,
     "y": 704,
     "width": 32,
     "height": 32,
     "rotation": 0,
     "visible": true,
     "properties": []
    },
    {
     "id": 1575,
     "name": "",
     "type": "",
     "x": 992,
     "y": 704,
     "width": 32,
     "height": 32,
     "rotation": 0,
     "visible": true,
     "properties": []
    },
    {
     "id": 1576,
     "name": "",
     "type": "",
     "x": 1024,
     "y": 704,
     "width": 32,
     "height": 32,
     "rotation": 0,
     "visible": true,
     "properties": []
    },
    {
     "id": 1577,
     "name": "",
     "type": "",
     "x": 1056,
     "y": 704,
     "width": 32,
     "height": 32,
     "rotation": 0,
     "visible": true,
     "properties": []
    },
    {
     "id": 1578,
     "name": "",
     "type": "",
     "x": 1088,
     "y": 704,
     "width": 32,
     "height": 32,
     "rotation": 0,
     "visible": true,
     "properties": []
    },
    {
     "id": 1579,
     "name": "",
     "type": "",
     "x": 1120,
     "y": 704,
     "width": 32,
     "height": 32,
     "rotation": 0,
     "visible": true,
     "properties": []
    },
    {
     "id": 1580,
     "name": "",
     "type": "",
     "x": 1152,
     "y": 704,
     "width": 32,
     "height": 32,
     "rotation": 0,
     "visible": true,
     "properties": []
    },
    {
     "id": 1581,
     "name": "",
     "type": "",
     "x": 1184,
     "y": 704,
     "width": 32,
     "height": 32,
     "rotation": 0,
     "visible": true,
     "properties": []
    },
    {
     "id": 1582,
     "name": "",
     "type": "",
     "x": 1216,
     "y": 704,
     "width": 32,
     "height": 32,
     "rotation": 0,
     "visible": true,
     "properties": []
    },
    {
     "id": 1583,
     "name": "",
     "type": "",
     "x": 1248,
     "y": 704,
     "width": 32,
     "height": 32,
     "rotation": 0,
     "visible": true,
     "properties": []
    },
    {
     "id": 1584,
     "name": "",
     "type": "",
     "x": 1408,
     "y": 704,
     "width": 32,
     "height": 32,
     "rotation": 0,
     "visible": true,
     "properties": []
    },
    {
     "id": 1585,
     "name": "",
     "type": "",
     "x": 1536,
     "y": 704,
     "width": 32,
     "height": 32,
     "rotation": 0,
     "visible": true,
     "properties": []
    },
    {
     "id": 1586,
     "name": "",
     "type": "",
     "x": 0,
     "y": 736,
     "width": 32,
     "height": 32,
     "rotation": 0,
     "visible": true,
     "properties": []
    },
    {
     "id": 1587,
     "name": "",
     "type": "",
     "x": 320,
     "y": 736,
     "width": 32,
     "height": 32,
     "rotation": 0,
     "visible": true,
     "properties": []
    },
    {
     "id": 1588,
     "name": "",
     "type": "",
     "x": 736,
     "y": 736,
     "width": 32,
     "height": 32,
     "rotation": 0,
     "visible": true,
     "properties": []
    },
    {
     "id": 1589,
     "name": "",
     "type": "",
     "x": 768,
     "y": 736,
     "width": 32,
     "height": 32,
     "rotation": 0,
     "visible": true,
     "properties": []
    },
    {
     "id": 1590,
     "name": "",
     "type": "",
     "x": 800,
     "y": 736,
     "width": 32,
     "height": 32,
     "rotation": 0,
     "visible": true,
     "properties": []
    },
    {
     "id": 1591,
     "name": "",
     "type": "",
     "x": 832,
     "y": 736,
     "width": 32,
     "height": 32,
     "rotation": 0,
     "visible": true,
     "properties": []
    },
    {
     "id": 1592,
     "name": "",
     "type": "",
     "x": 864,
     "y": 736,
     "width": 32,
     "height": 32,
     "rotation": 0,
     "visible": true,
     "properties": []
    },
    {
     "id": 1593,
     "name": "",
     "type": "",
     "x": 896,
     "y": 736,
     "width": 32,
     "height": 32,
     "rotation": 0,
     "visible": true,
     "properties": []
    },
    {
     "id": 1594,
     "name": "",
     "type": "",
     "x": 928,
     "y": 736,
     "width": 32,
     "height": 32,
     "rotation": 0,
     "visible": true,
     "properties": []
    },
    {
     "id": 1595,
     "name": "",
     "type": "",
     "x": 960,
     "y": 736,
     "width": 32,
     "height": 32,
     "rotation": 0,
     "visible": true,
     "properties": []
    },
    {
     "id": 1596,
     "name": "",
     "type": "",
     "x": 992,
     "y": 736,
     "width": 32,
     "height": 32,
     "rotation": 0,
     "visible": true,
     "properties": []
    },
    {
     "id": 1597,
     "name": "",
     "type": "",
     "x": 1024,
     "y": 736,
     "width": 32,
     "height": 32,
     "rotation": 0,
     "visible": true,
     "properties": []
    },
    {
     "id": 1598,
     "name": "",
     "type": "",
     "x": 1056,
     "y": 736,
     "width": 32,
     "height": 32,
     "rotation": 0,
     "visible": true,
     "properties": []
    },
    {
     "id": 1599,
     "name": "",
     "type": "",
     "x": 1088,
     "y": 736,
     "width": 32,
     "height": 32,
     "rotation": 0,
     "visible": true,
     "properties": []
    },
    {
     "id": 1600,
     "name": "",
     "type": "",
     "x": 1120,
     "y": 736,
     "width": 32,
     "height": 32,
     "rotation": 0,
     "visible": true,
     "properties": []
    },
    {
     "id": 1601,
     "name": "",
     "type": "",
     "x": 1152,
     "y": 736,
     "width": 32,
     "height": 32,
     "rotation": 0,
     "visible": true,
     "properties": []
    },
    {
     "id": 1602,
     "name": "",
     "type": "",
     "x": 1184,
     "y": 736,
     "width": 32,
     "height": 32,
     "rotation": 0,
     "visible": true,
     "properties": []
    },
    {
     "id": 1603,
     "name": "",
     "type": "",
     "x": 1216,
     "y": 736,
     "width": 32,
     "height": 32,
     "rotation": 0,
     "visible": true,
     "properties": []
    },
    {
     "id": 1604,
     "name": "",
     "type": "",
     "x": 1248,
     "y": 736,
     "width": 32,
     "height": 32,
     "rotation": 0,
     "visible": true,
     "properties": []
    },
    {
     "id": 1605,
     "name": "",
     "type": "",
     "x": 1280,
     "y": 736,
     "width": 32,
     "height": 32,
     "rotation": 0,
     "visible": true,
     "properties": []
    },
    {
     "id": 1606,
     "name": "",
     "type": "",
     "x": 1312,
     "y": 736,
     "width": 32,
     "height": 32,
     "rotation": 0,
     "visible": true,
     "properties": []
    },
    {
     "id": 1607,
     "name": "",
     "type": "",
     "x": 1408,
     "y": 736,
     "width": 32,
     "height": 32,
     "rotation": 0,
     "visible": true,
     "properties": []
    },
    {
     "id": 1608,
     "name": "",
     "type": "",
     "x": 1536,
     "y": 736,
     "width": 32,
     "height": 32,
     "rotation": 0,
     "visible": true,
     "properties": []
    },
    {
     "id": 1609,
     "name": "",
     "type": "",
     "x": 0,
     "y": 768,
     "width": 32,
     "height": 32,
     "rotation": 0,
     "visible": true,
     "properties": []
    },
    {
     "id": 1610,
     "name": "",
     "type": "",
     "x": 128,
     "y": 768,
     "width": 32,
     "height": 32,
     "rotation": 0,
     "visible": true,
     "properties": []
    },
    {
     "id": 1611,
     "name": "",
     "type": "",
     "x": 160,
     "y": 768,
     "width": 32,
     "height": 32,
     "rotation": 0,
     "visible": true,
     "properties": []
    },
    {
     "id": 1612,
     "name": "",
     "type": "",
     "x": 192,
     "y": 768,
     "width": 32,
     "height": 32,
     "rotation": 0,
     "visible": true,
     "properties": []
    },
    {
     "id": 1613,
     "name": "",
     "type": "",
     "x": 224,
     "y": 768,
     "width": 32,
     "height": 32,
     "rotation": 0,
     "visible": true,
     "properties": []
    },
    {
     "id": 1614,
     "name": "",
     "type": "",
     "x": 256,
     "y": 768,
     "width": 32,
     "height": 32,
     "rotation": 0,
     "visible": true,
     "properties": []
    },
    {
     "id": 1615,
     "name": "",
     "type": "",
     "x": 288,
     "y": 768,
     "width": 32,
     "height": 32,
     "rotation": 0,
     "visible": true,
     "properties": []
    },
    {
     "id": 1616,
     "name": "",
     "type": "",
     "x": 320,
     "y": 768,
     "width": 32,
     "height": 32,
     "rotation": 0,
     "visible": true,
     "properties": []
    },
    {
     "id": 1617,
     "name": "",
     "type": "",
     "x": 448,
     "y": 768,
     "width": 32,
     "height": 32,
     "rotation": 0,
     "visible": true,
     "properties": []
    },
    {
     "id": 1618,
     "name": "",
     "type": "",
     "x": 480,
     "y": 768,
     "width": 32,
     "height": 32,
     "rotation": 0,
     "visible": true,
     "properties": []
    },
    {
     "id": 1619,
     "name": "",
     "type": "",
     "x": 512,
     "y": 768,
     "width": 32,
     "height": 32,
     "rotation": 0,
     "visible": true,
     "properties": []
    },
    {
     "id": 1620,
     "name": "",
     "type": "",
     "x": 544,
     "y": 768,
     "width": 32,
     "height": 32,
     "rotation": 0,
     "visible": true,
     "properties": []
    },
    {
     "id": 1621,
     "name": "",
     "type": "",
     "x": 576,
     "y": 768,
     "width": 32,
     "height": 32,
     "rotation": 0,
     "visible": true,
     "properties": []
    },
    {
     "id": 1622,
     "name": "",
     "type": "",
     "x": 608,
     "y": 768,
     "width": 32,
     "height": 32,
     "rotation": 0,
     "visible": true,
     "properties": []
    },
    {
     "id": 1623,
     "name": "",
     "type": "",
     "x": 640,
     "y": 768,
     "width": 32,
     "height": 32,
     "rotation": 0,
     "visible": true,
     "properties": []
    },
    {
     "id": 1624,
     "name": "",
     "type": "",
     "x": 1408,
     "y": 768,
     "width": 32,
     "height": 32,
     "rotation": 0,
     "visible": true,
     "properties": []
    },
    {
     "id": 1625,
     "name": "",
     "type": "",
     "x": 1536,
     "y": 768,
     "width": 32,
     "height": 32,
     "rotation": 0,
     "visible": true,
     "properties": []
    },
    {
     "id": 1626,
     "name": "",
     "type": "",
     "x": 0,
     "y": 800,
     "width": 32,
     "height": 32,
     "rotation": 0,
     "visible": true,
     "properties": []
    },
    {
     "id": 1627,
     "name": "",
     "type": "",
     "x": 128,
     "y": 800,
     "width": 32,
     "height": 32,
     "rotation": 0,
     "visible": true,
     "properties": []
    },
    {
     "id": 1628,
     "name": "",
     "type": "",
     "x": 160,
     "y": 800,
     "width": 32,
     "height": 32,
     "rotation": 0,
     "visible": true,
     "properties": []
    },
    {
     "id": 1629,
     "name": "",
     "type": "",
     "x": 192,
     "y": 800,
     "width": 32,
     "height": 32,
     "rotation": 0,
     "visible": true,
     "properties": []
    },
    {
     "id": 1630,
     "name": "",
     "type": "",
     "x": 224,
     "y": 800,
     "width": 32,
     "height": 32,
     "rotation": 0,
     "visible": true,
     "properties": []
    },
    {
     "id": 1631,
     "name": "",
     "type": "",
     "x": 256,
     "y": 800,
     "width": 32,
     "height": 32,
     "rotation": 0,
     "visible": true,
     "properties": []
    },
    {
     "id": 1632,
     "name": "",
     "type": "",
     "x": 288,
     "y": 800,
     "width": 32,
     "height": 32,
     "rotation": 0,
     "visible": true,
     "properties": []
    },
    {
     "id": 1633,
     "name": "",
     "type": "",
     "x": 320,
     "y": 800,
     "width": 32,
     "height": 32,
     "rotation": 0,
     "visible": true,
     "properties": []
    },
    {
     "id": 1634,
     "name": "",
     "type": "",
     "x": 448,
     "y": 800,
     "width": 32,
     "height": 32,
     "rotation": 0,
     "visible": true,
     "properties": []
    },
    {
     "id": 1635,
     "name": "",
     "type": "",
     "x": 480,
     "y": 800,
     "width": 32,
     "height": 32,
     "rotation": 0,
     "visible": true,
     "properties": []
    },
    {
     "id": 1636,
     "name": "",
     "type": "",
     "x": 512,
     "y": 800,
     "width": 32,
     "height": 32,
     "rotation": 0,
     "visible": true,
     "properties": []
    },
    {
     "id": 1637,
     "name": "",
     "type": "",
     "x": 544,
     "y": 800,
     "width": 32,
     "height": 32,
     "rotation": 0,
     "visible": true,
     "properties": []
    },
    {
     "id": 1638,
     "name": "",
     "type": "",
     "x": 576,
     "y": 800,
     "width": 32,
     "height": 32,
     "rotation": 0,
     "visible": true,
     "properties": []
    },
    {
     "id": 1639,
     "name": "",
     "type": "",
     "x": 608,
     "y": 800,
     "width": 32,
     "height": 32,
     "rotation": 0,
     "visible": true,
     "properties": []
    },
    {
     "id": 1640,
     "name": "",
     "type": "",
     "x": 640,
     "y": 800,
     "width": 32,
     "height": 32,
     "rotation": 0,
     "visible": true,
     "properties": []
    },
    {
     "id": 1641,
     "name": "",
     "type": "",
     "x": 800,
     "y": 800,
     "width": 32,
     "height": 32,
     "rotation": 0,
     "visible": true,
     "properties": []
    },
    {
     "id": 1642,
     "name": "",
     "type": "",
     "x": 832,
     "y": 800,
     "width": 32,
     "height": 32,
     "rotation": 0,
     "visible": true,
     "properties": []
    },
    {
     "id": 1643,
     "name": "",
     "type": "",
     "x": 864,
     "y": 800,
     "width": 32,
     "height": 32,
     "rotation": 0,
     "visible": true,
     "properties": []
    },
    {
     "id": 1644,
     "name": "",
     "type": "",
     "x": 896,
     "y": 800,
     "width": 32,
     "height": 32,
     "rotation": 0,
     "visible": true,
     "properties": []
    },
    {
     "id": 1645,
     "name": "",
     "type": "",
     "x": 928,
     "y": 800,
     "width": 32,
     "height": 32,
     "rotation": 0,
     "visible": true,
     "properties": []
    },
    {
     "id": 1646,
     "name": "",
     "type": "",
     "x": 960,
     "y": 800,
     "width": 32,
     "height": 32,
     "rotation": 0,
     "visible": true,
     "properties": []
    },
    {
     "id": 1647,
     "name": "",
     "type": "",
     "x": 992,
     "y": 800,
     "width": 32,
     "height": 32,
     "rotation": 0,
     "visible": true,
     "properties": []
    },
    {
     "id": 1648,
     "name": "",
     "type": "",
     "x": 1024,
     "y": 800,
     "width": 32,
     "height": 32,
     "rotation": 0,
     "visible": true,
     "properties": []
    },
    {
     "id": 1649,
     "name": "",
     "type": "",
     "x": 1056,
     "y": 800,
     "width": 32,
     "height": 32,
     "rotation": 0,
     "visible": true,
     "properties": []
    },
    {
     "id": 1650,
     "name": "",
     "type": "",
     "x": 1088,
     "y": 800,
     "width": 32,
     "height": 32,
     "rotation": 0,
     "visible": true,
     "properties": []
    },
    {
     "id": 1651,
     "name": "",
     "type": "",
     "x": 1120,
     "y": 800,
     "width": 32,
     "height": 32,
     "rotation": 0,
     "visible": true,
     "properties": []
    },
    {
     "id": 1652,
     "name": "",
     "type": "",
     "x": 1152,
     "y": 800,
     "width": 32,
     "height": 32,
     "rotation": 0,
     "visible": true,
     "properties": []
    },
    {
     "id": 1653,
     "name": "",
     "type": "",
     "x": 1184,
     "y": 800,
     "width": 32,
     "height": 32,
     "rotation": 0,
     "visible": true,
     "properties": []
    },
    {
     "id": 1654,
     "name": "",
     "type": "",
     "x": 1216,
     "y": 800,
     "width": 32,
     "height": 32,
     "rotation": 0,
     "visible": true,
     "properties": []
    },
    {
     "id": 1655,
     "name": "",
     "type": "",
     "x": 1248,
     "y": 800,
     "width": 32,
     "height": 32,
     "rotation": 0,
     "visible": true,
     "properties": []
    },
    {
     "id": 1656,
     "name": "",
     "type": "",
     "x": 1280,
     "y": 800,
     "width": 32,
     "height": 32,
     "rotation": 0,
     "visible": true,
     "properties": []
    },
    {
     "id": 1657,
     "name": "",
     "type": "",
     "x": 1408,
     "y": 800,
     "width": 32,
     "height": 32,
     "rotation": 0,
     "visible": true,
     "properties": []
    },
    {
     "id": 1658,
     "name": "",
     "type": "",
     "x": 1536,
     "y": 800,
     "width": 32,
     "height": 32,
     "rotation": 0,
     "visible": true,
     "properties": []
    },
    {
     "id": 1659,
     "name": "",
     "type": "",
     "x": 0,
     "y": 832,
     "width": 32,
     "height": 32,
     "rotation": 0,
     "visible": true,
     "properties": []
    },
    {
     "id": 1660,
     "name": "",
     "type": "",
     "x": 224,
     "y": 832,
     "width": 32,
     "height": 32,
     "rotation": 0,
     "visible": true,
     "properties": []
    },
    {
     "id": 1661,
     "name": "",
     "type": "",
     "x": 256,
     "y": 832,
     "width": 32,
     "height": 32,
     "rotation": 0,
     "visible": true,
     "properties": []
    },
    {
     "id": 1662,
     "name": "",
     "type": "",
     "x": 288,
     "y": 832,
     "width": 32,
     "height": 32,
     "rotation": 0,
     "visible": true,
     "properties": []
    },
    {
     "id": 1663,
     "name": "",
     "type": "",
     "x": 320,
     "y": 832,
     "width": 32,
     "height": 32,
     "rotation": 0,
     "visible": true,
     "properties": []
    },
    {
     "id": 1664,
     "name": "",
     "type": "",
     "x": 640,
     "y": 832,
     "width": 32,
     "height": 32,
     "rotation": 0,
     "visible": true,
     "properties": []
    },
    {
     "id": 1665,
     "name": "",
     "type": "",
     "x": 1408,
     "y": 832,
     "width": 32,
     "height": 32,
     "rotation": 0,
     "visible": true,
     "properties": []
    },
    {
     "id": 1666,
     "name": "",
     "type": "",
     "x": 1536,
     "y": 832,
     "width": 32,
     "height": 32,
     "rotation": 0,
     "visible": true,
     "properties": []
    },
    {
     "id": 1667,
     "name": "",
     "type": "",
     "x": 0,
     "y": 864,
     "width": 32,
     "height": 32,
     "rotation": 0,
     "visible": true,
     "properties": []
    },
    {
     "id": 1668,
     "name": "",
     "type": "",
     "x": 256,
     "y": 864,
     "width": 32,
     "height": 32,
     "rotation": 0,
     "visible": true,
     "properties": []
    },
    {
     "id": 1669,
     "name": "",
     "type": "",
     "x": 288,
     "y": 864,
     "width": 32,
     "height": 32,
     "rotation": 0,
     "visible": true,
     "properties": []
    },
    {
     "id": 1670,
     "name": "",
     "type": "",
     "x": 320,
     "y": 864,
     "width": 32,
     "height": 32,
     "rotation": 0,
     "visible": true,
     "properties": []
    },
    {
     "id": 1671,
     "name": "",
     "type": "",
     "x": 640,
     "y": 864,
     "width": 32,
     "height": 32,
     "rotation": 0,
     "visible": true,
     "properties": []
    },
    {
     "id": 1672,
     "name": "",
     "type": "",
     "x": 1408,
     "y": 864,
     "width": 32,
     "height": 32,
     "rotation": 0,
     "visible": true,
     "properties": []
    },
    {
     "id": 1673,
     "name": "",
     "type": "",
     "x": 1536,
     "y": 864,
     "width": 32,
     "height": 32,
     "rotation": 0,
     "visible": true,
     "properties": []
    },
    {
     "id": 1674,
     "name": "",
     "type": "",
     "x": 0,
     "y": 896,
     "width": 32,
     "height": 32,
     "rotation": 0,
     "visible": true,
     "properties": []
    },
    {
     "id": 1675,
     "name": "",
     "type": "",
     "x": 256,
     "y": 896,
     "width": 32,
     "height": 32,
     "rotation": 0,
     "visible": true,
     "properties": []
    },
    {
     "id": 1676,
     "name": "",
     "type": "",
     "x": 288,
     "y": 896,
     "width": 32,
     "height": 32,
     "rotation": 0,
     "visible": true,
     "properties": []
    },
    {
     "id": 1677,
     "name": "",
     "type": "",
     "x": 320,
     "y": 896,
     "width": 32,
     "height": 32,
     "rotation": 0,
     "visible": true,
     "properties": []
    },
    {
     "id": 1678,
     "name": "",
     "type": "",
     "x": 640,
     "y": 896,
     "width": 32,
     "height": 32,
     "rotation": 0,
     "visible": true,
     "properties": []
    },
    {
     "id": 1679,
     "name": "",
     "type": "",
     "x": 672,
     "y": 896,
     "width": 32,
     "height": 32,
     "rotation": 0,
     "visible": true,
     "properties": []
    },
    {
     "id": 1680,
     "name": "",
     "type": "",
     "x": 704,
     "y": 896,
     "width": 32,
     "height": 32,
     "rotation": 0,
     "visible": true,
     "properties": []
    },
    {
     "id": 1681,
     "name": "",
     "type": "",
     "x": 736,
     "y": 896,
     "width": 32,
     "height": 32,
     "rotation": 0,
     "visible": true,
     "properties": []
    },
    {
     "id": 1682,
     "name": "",
     "type": "",
     "x": 768,
     "y": 896,
     "width": 32,
     "height": 32,
     "rotation": 0,
     "visible": true,
     "properties": []
    },
    {
     "id": 1683,
     "name": "",
     "type": "",
     "x": 800,
     "y": 896,
     "width": 32,
     "height": 32,
     "rotation": 0,
     "visible": true,
     "properties": []
    },
    {
     "id": 1684,
     "name": "",
     "type": "",
     "x": 832,
     "y": 896,
     "width": 32,
     "height": 32,
     "rotation": 0,
     "visible": true,
     "properties": []
    },
    {
     "id": 1685,
     "name": "",
     "type": "",
     "x": 864,
     "y": 896,
     "width": 32,
     "height": 32,
     "rotation": 0,
     "visible": true,
     "properties": []
    },
    {
     "id": 1686,
     "name": "",
     "type": "",
     "x": 896,
     "y": 896,
     "width": 32,
     "height": 32,
     "rotation": 0,
     "visible": true,
     "properties": []
    },
    {
     "id": 1687,
     "name": "",
     "type": "",
     "x": 928,
     "y": 896,
     "width": 32,
     "height": 32,
     "rotation": 0,
     "visible": true,
     "properties": []
    },
    {
     "id": 1688,
     "name": "",
     "type": "",
     "x": 960,
     "y": 896,
     "width": 32,
     "height": 32,
     "rotation": 0,
     "visible": true,
     "properties": []
    },
    {
     "id": 1689,
     "name": "",
     "type": "",
     "x": 992,
     "y": 896,
     "width": 32,
     "height": 32,
     "rotation": 0,
     "visible": true,
     "properties": []
    },
    {
     "id": 1690,
     "name": "",
     "type": "",
     "x": 1024,
     "y": 896,
     "width": 32,
     "height": 32,
     "rotation": 0,
     "visible": true,
     "properties": []
    },
    {
     "id": 1691,
     "name": "",
     "type": "",
     "x": 1056,
     "y": 896,
     "width": 32,
     "height": 32,
     "rotation": 0,
     "visible": true,
     "properties": []
    },
    {
     "id": 1692,
     "name": "",
     "type": "",
     "x": 1088,
     "y": 896,
     "width": 32,
     "height": 32,
     "rotation": 0,
     "visible": true,
     "properties": []
    },
    {
     "id": 1693,
     "name": "",
     "type": "",
     "x": 1120,
     "y": 896,
     "width": 32,
     "height": 32,
     "rotation": 0,
     "visible": true,
     "properties": []
    },
    {
     "id": 1694,
     "name": "",
     "type": "",
     "x": 1152,
     "y": 896,
     "width": 32,
     "height": 32,
     "rotation": 0,
     "visible": true,
     "properties": []
    },
    {
     "id": 1695,
     "name": "",
     "type": "",
     "x": 1184,
     "y": 896,
     "width": 32,
     "height": 32,
     "rotation": 0,
     "visible": true,
     "properties": []
    },
    {
     "id": 1696,
     "name": "",
     "type": "",
     "x": 1216,
     "y": 896,
     "width": 32,
     "height": 32,
     "rotation": 0,
     "visible": true,
     "properties": []
    },
    {
     "id": 1697,
     "name": "",
     "type": "",
     "x": 1248,
     "y": 896,
     "width": 32,
     "height": 32,
     "rotation": 0,
     "visible": true,
     "properties": []
    },
    {
     "id": 1698,
     "name": "",
     "type": "",
     "x": 1280,
     "y": 896,
     "width": 32,
     "height": 32,
     "rotation": 0,
     "visible": true,
     "properties": []
    },
    {
     "id": 1699,
     "name": "",
     "type": "",
     "x": 1312,
     "y": 896,
     "width": 32,
     "height": 32,
     "rotation": 0,
     "visible": true,
     "properties": []
    },
    {
     "id": 1700,
     "name": "",
     "type": "",
     "x": 1344,
     "y": 896,
     "width": 32,
     "height": 32,
     "rotation": 0,
     "visible": true,
     "properties": []
    },
    {
     "id": 1701,
     "name": "",
     "type": "",
     "x": 1376,
     "y": 896,
     "width": 32,
     "height": 32,
     "rotation": 0,
     "visible": true,
     "properties": []
    },
    {
     "id": 1702,
     "name": "",
     "type": "",
     "x": 1408,
     "y": 896,
     "width": 32,
     "height": 32,
     "rotation": 0,
     "visible": true,
     "properties": []
    },
    {
     "id": 1703,
     "name": "",
     "type": "",
     "x": 1536,
     "y": 896,
     "width": 32,
     "height": 32,
     "rotation": 0,
     "visible": true,
     "properties": []
    },
    {
     "id": 1704,
     "name": "",
     "type": "",
     "x": 0,
     "y": 928,
     "width": 32,
     "height": 32,
     "rotation": 0,
     "visible": true,
     "properties": []
    },
    {
     "id": 1705,
     "name": "",
     "type": "",
     "x": 32,
     "y": 928,
     "width": 32,
     "height": 32,
     "rotation": 0,
     "visible": true,
     "properties": []
    },
    {
     "id": 1706,
     "name": "",
     "type": "",
     "x": 64,
     "y": 928,
     "width": 32,
     "height": 32,
     "rotation": 0,
     "visible": true,
     "properties": []
    },
    {
     "id": 1707,
     "name": "",
     "type": "",
     "x": 96,
     "y": 928,
     "width": 32,
     "height": 32,
     "rotation": 0,
     "visible": true,
     "properties": []
    },
    {
     "id": 1708,
     "name": "",
     "type": "",
     "x": 128,
     "y": 928,
     "width": 32,
     "height": 32,
     "rotation": 0,
     "visible": true,
     "properties": []
    },
    {
     "id": 1709,
     "name": "",
     "type": "",
     "x": 160,
     "y": 928,
     "width": 32,
     "height": 32,
     "rotation": 0,
     "visible": true,
     "properties": []
    },
    {
     "id": 1710,
     "name": "",
     "type": "",
     "x": 256,
     "y": 928,
     "width": 32,
     "height": 32,
     "rotation": 0,
     "visible": true,
     "properties": []
    },
    {
     "id": 1711,
     "name": "",
     "type": "",
     "x": 288,
     "y": 928,
     "width": 32,
     "height": 32,
     "rotation": 0,
     "visible": true,
     "properties": []
    },
    {
     "id": 1712,
     "name": "",
     "type": "",
     "x": 320,
     "y": 928,
     "width": 32,
     "height": 32,
     "rotation": 0,
     "visible": true,
     "properties": []
    },
    {
     "id": 1713,
     "name": "",
     "type": "",
     "x": 352,
     "y": 928,
     "width": 32,
     "height": 32,
     "rotation": 0,
     "visible": true,
     "properties": []
    },
    {
     "id": 1714,
     "name": "",
     "type": "",
     "x": 384,
     "y": 928,
     "width": 32,
     "height": 32,
     "rotation": 0,
     "visible": true,
     "properties": []
    },
    {
     "id": 1715,
     "name": "",
     "type": "",
     "x": 416,
     "y": 928,
     "width": 32,
     "height": 32,
     "rotation": 0,
     "visible": true,
     "properties": []
    },
    {
     "id": 1716,
     "name": "",
     "type": "",
     "x": 448,
     "y": 928,
     "width": 32,
     "height": 32,
     "rotation": 0,
     "visible": true,
     "properties": []
    },
    {
     "id": 1717,
     "name": "",
     "type": "",
     "x": 480,
     "y": 928,
     "width": 32,
     "height": 32,
     "rotation": 0,
     "visible": true,
     "properties": []
    },
    {
     "id": 1718,
     "name": "",
     "type": "",
     "x": 512,
     "y": 928,
     "width": 32,
     "height": 32,
     "rotation": 0,
     "visible": true,
     "properties": []
    },
    {
     "id": 1719,
     "name": "",
     "type": "",
     "x": 640,
     "y": 928,
     "width": 32,
     "height": 32,
     "rotation": 0,
     "visible": true,
     "properties": []
    },
    {
     "id": 1720,
     "name": "",
     "type": "",
     "x": 672,
     "y": 928,
     "width": 32,
     "height": 32,
     "rotation": 0,
     "visible": true,
     "properties": []
    },
    {
     "id": 1721,
     "name": "",
     "type": "",
     "x": 704,
     "y": 928,
     "width": 32,
     "height": 32,
     "rotation": 0,
     "visible": true,
     "properties": []
    },
    {
     "id": 1722,
     "name": "",
     "type": "",
     "x": 736,
     "y": 928,
     "width": 32,
     "height": 32,
     "rotation": 0,
     "visible": true,
     "properties": []
    },
    {
     "id": 1723,
     "name": "",
     "type": "",
     "x": 768,
     "y": 928,
     "width": 32,
     "height": 32,
     "rotation": 0,
     "visible": true,
     "properties": []
    },
    {
     "id": 1724,
     "name": "",
     "type": "",
     "x": 800,
     "y": 928,
     "width": 32,
     "height": 32,
     "rotation": 0,
     "visible": true,
     "properties": []
    },
    {
     "id": 1725,
     "name": "",
     "type": "",
     "x": 832,
     "y": 928,
     "width": 32,
     "height": 32,
     "rotation": 0,
     "visible": true,
     "properties": []
    },
    {
     "id": 1726,
     "name": "",
     "type": "",
     "x": 864,
     "y": 928,
     "width": 32,
     "height": 32,
     "rotation": 0,
     "visible": true,
     "properties": []
    },
    {
     "id": 1727,
     "name": "",
     "type": "",
     "x": 896,
     "y": 928,
     "width": 32,
     "height": 32,
     "rotation": 0,
     "visible": true,
     "properties": []
    },
    {
     "id": 1728,
     "name": "",
     "type": "",
     "x": 928,
     "y": 928,
     "width": 32,
     "height": 32,
     "rotation": 0,
     "visible": true,
     "properties": []
    },
    {
     "id": 1729,
     "name": "",
     "type": "",
     "x": 960,
     "y": 928,
     "width": 32,
     "height": 32,
     "rotation": 0,
     "visible": true,
     "properties": []
    },
    {
     "id": 1730,
     "name": "",
     "type": "",
     "x": 992,
     "y": 928,
     "width": 32,
     "height": 32,
     "rotation": 0,
     "visible": true,
     "properties": []
    },
    {
     "id": 1731,
     "name": "",
     "type": "",
     "x": 1024,
     "y": 928,
     "width": 32,
     "height": 32,
     "rotation": 0,
     "visible": true,
     "properties": []
    },
    {
     "id": 1732,
     "name": "",
     "type": "",
     "x": 1056,
     "y": 928,
     "width": 32,
     "height": 32,
     "rotation": 0,
     "visible": true,
     "properties": []
    },
    {
     "id": 1733,
     "name": "",
     "type": "",
     "x": 1088,
     "y": 928,
     "width": 32,
     "height": 32,
     "rotation": 0,
     "visible": true,
     "properties": []
    },
    {
     "id": 1734,
     "name": "",
     "type": "",
     "x": 1120,
     "y": 928,
     "width": 32,
     "height": 32,
     "rotation": 0,
     "visible": true,
     "properties": []
    },
    {
     "id": 1735,
     "name": "",
     "type": "",
     "x": 1152,
     "y": 928,
     "width": 32,
     "height": 32,
     "rotation": 0,
     "visible": true,
     "properties": []
    },
    {
     "id": 1736,
     "name": "",
     "type": "",
     "x": 1184,
     "y": 928,
     "width": 32,
     "height": 32,
     "rotation": 0,
     "visible": true,
     "properties": []
    },
    {
     "id": 1737,
     "name": "",
     "type": "",
     "x": 1216,
     "y": 928,
     "width": 32,
     "height": 32,
     "rotation": 0,
     "visible": true,
     "properties": []
    },
    {
     "id": 1738,
     "name": "",
     "type": "",
     "x": 1248,
     "y": 928,
     "width": 32,
     "height": 32,
     "rotation": 0,
     "visible": true,
     "properties": []
    },
    {
     "id": 1739,
     "name": "",
     "type": "",
     "x": 1280,
     "y": 928,
     "width": 32,
     "height": 32,
     "rotation": 0,
     "visible": true,
     "properties": []
    },
    {
     "id": 1740,
     "name": "",
     "type": "",
     "x": 1312,
     "y": 928,
     "width": 32,
     "height": 32,
     "rotation": 0,
     "visible": true,
     "properties": []
    },
    {
     "id": 1741,
     "name": "",
     "type": "",
     "x": 1344,
     "y": 928,
     "width": 32,
     "height": 32,
     "rotation": 0,
     "visible": true,
     "properties": []
    },
    {
     "id": 1742,
     "name": "",
     "type": "",
     "x": 1376,
     "y": 928,
     "width": 32,
     "height": 32,
     "rotation": 0,
     "visible": true,
     "properties": []
    },
    {
     "id": 1743,
     "name": "",
     "type": "",
     "x": 1408,
     "y": 928,
     "width": 32,
     "height": 32,
     "rotation": 0,
     "visible": true,
     "properties": []
    },
    {
     "id": 1744,
     "name": "",
     "type": "",
     "x": 1504,
     "y": 928,
     "width": 32,
     "height": 32,
     "rotation": 0,
     "visible": true,
     "properties": []
    },
    {
     "id": 1745,
     "name": "",
     "type": "",
     "x": 1536,
     "y": 928,
     "width": 32,
     "height": 32,
     "rotation": 0,
     "visible": true,
     "properties": []
    },
    {
     "id": 1746,
     "name": "",
     "type": "",
     "x": 0,
     "y": 960,
     "width": 32,
     "height": 32,
     "rotation": 0,
     "visible": true,
     "properties": []
    },
    {
     "id": 1747,
     "name": "",
     "type": "",
     "x": 32,
     "y": 960,
     "width": 32,
     "height": 32,
     "rotation": 0,
     "visible": true,
     "properties": []
    },
    {
     "id": 1748,
     "name": "",
     "type": "",
     "x": 64,
     "y": 960,
     "width": 32,
     "height": 32,
     "rotation": 0,
     "visible": true,
     "properties": []
    },
    {
     "id": 1749,
     "name": "",
     "type": "",
     "x": 96,
     "y": 960,
     "width": 32,
     "height": 32,
     "rotation": 0,
     "visible": true,
     "properties": []
    },
    {
     "id": 1750,
     "name": "",
     "type": "",
     "x": 128,
     "y": 960,
     "width": 32,
     "height": 32,
     "rotation": 0,
     "visible": true,
     "properties": []
    },
    {
     "id": 1751,
     "name": "",
     "type": "",
     "x": 160,
     "y": 960,
     "width": 32,
     "height": 32,
     "rotation": 0,
     "visible": true,
     "properties": []
    },
    {
     "id": 1752,
     "name": "",
     "type": "",
     "x": 256,
     "y": 960,
     "width": 32,
     "height": 32,
     "rotation": 0,
     "visible": true,
     "properties": []
    },
    {
     "id": 1753,
     "name": "",
     "type": "",
     "x": 288,
     "y": 960,
     "width": 32,
     "height": 32,
     "rotation": 0,
     "visible": true,
     "properties": []
    },
    {
     "id": 1754,
     "name": "",
     "type": "",
     "x": 320,
     "y": 960,
     "width": 32,
     "height": 32,
     "rotation": 0,
     "visible": true,
     "properties": []
    },
    {
     "id": 1755,
     "name": "",
     "type": "",
     "x": 352,
     "y": 960,
     "width": 32,
     "height": 32,
     "rotation": 0,
     "visible": true,
     "properties": []
    },
    {
     "id": 1756,
     "name": "",
     "type": "",
     "x": 384,
     "y": 960,
     "width": 32,
     "height": 32,
     "rotation": 0,
     "visible": true,
     "properties": []
    },
    {
     "id": 1757,
     "name": "",
     "type": "",
     "x": 416,
     "y": 960,
     "width": 32,
     "height": 32,
     "rotation": 0,
     "visible": true,
     "properties": []
    },
    {
     "id": 1758,
     "name": "",
     "type": "",
     "x": 448,
     "y": 960,
     "width": 32,
     "height": 32,
     "rotation": 0,
     "visible": true,
     "properties": []
    },
    {
     "id": 1759,
     "name": "",
     "type": "",
     "x": 480,
     "y": 960,
     "width": 32,
     "height": 32,
     "rotation": 0,
     "visible": true,
     "properties": []
    },
    {
     "id": 1760,
     "name": "",
     "type": "",
     "x": 512,
     "y": 960,
     "width": 32,
     "height": 32,
     "rotation": 0,
     "visible": true,
     "properties": []
    },
    {
     "id": 1761,
     "name": "",
     "type": "",
     "x": 640,
     "y": 960,
     "width": 32,
     "height": 32,
     "rotation": 0,
     "visible": true,
     "properties": []
    },
    {
     "id": 1762,
     "name": "",
     "type": "",
     "x": 928,
     "y": 960,
     "width": 32,
     "height": 32,
     "rotation": 0,
     "visible": true,
     "properties": []
    },
    {
     "id": 1763,
     "name": "",
     "type": "",
     "x": 960,
     "y": 960,
     "width": 32,
     "height": 32,
     "rotation": 0,
     "visible": true,
     "properties": []
    },
    {
     "id": 1764,
     "name": "",
     "type": "",
     "x": 992,
     "y": 960,
     "width": 32,
     "height": 32,
     "rotation": 0,
     "visible": true,
     "properties": []
    },
    {
     "id": 1765,
     "name": "",
     "type": "",
     "x": 1024,
     "y": 960,
     "width": 32,
     "height": 32,
     "rotation": 0,
     "visible": true,
     "properties": []
    },
    {
     "id": 1766,
     "name": "",
     "type": "",
     "x": 1248,
     "y": 960,
     "width": 32,
     "height": 32,
     "rotation": 0,
     "visible": true,
     "properties": []
    },
    {
     "id": 1767,
     "name": "",
     "type": "",
     "x": 1504,
     "y": 960,
     "width": 32,
     "height": 32,
     "rotation": 0,
     "visible": true,
     "properties": []
    },
    {
     "id": 1768,
     "name": "",
     "type": "",
     "x": 1536,
     "y": 960,
     "width": 32,
     "height": 32,
     "rotation": 0,
     "visible": true,
     "properties": []
    },
    {
     "id": 1769,
     "name": "",
     "type": "",
     "x": 0,
     "y": 992,
     "width": 32,
     "height": 32,
     "rotation": 0,
     "visible": true,
     "properties": []
    },
    {
     "id": 1770,
     "name": "",
     "type": "",
     "x": 320,
     "y": 992,
     "width": 32,
     "height": 32,
     "rotation": 0,
     "visible": true,
     "properties": []
    },
    {
     "id": 1771,
     "name": "",
     "type": "",
     "x": 352,
     "y": 992,
     "width": 32,
     "height": 32,
     "rotation": 0,
     "visible": true,
     "properties": []
    },
    {
     "id": 1772,
     "name": "",
     "type": "",
     "x": 384,
     "y": 992,
     "width": 32,
     "height": 32,
     "rotation": 0,
     "visible": true,
     "properties": []
    },
    {
     "id": 1773,
     "name": "",
     "type": "",
     "x": 768,
     "y": 992,
     "width": 32,
     "height": 32,
     "rotation": 0,
     "visible": true,
     "properties": []
    },
    {
     "id": 1774,
     "name": "",
     "type": "",
     "x": 800,
     "y": 992,
     "width": 32,
     "height": 32,
     "rotation": 0,
     "visible": true,
     "properties": []
    },
    {
     "id": 1775,
     "name": "",
     "type": "",
     "x": 960,
     "y": 992,
     "width": 32,
     "height": 32,
     "rotation": 0,
     "visible": true,
     "properties": []
    },
    {
     "id": 1776,
     "name": "",
     "type": "",
     "x": 1120,
     "y": 992,
     "width": 32,
     "height": 32,
     "rotation": 0,
     "visible": true,
     "properties": []
    },
    {
     "id": 1777,
     "name": "",
     "type": "",
     "x": 1152,
     "y": 992,
     "width": 32,
     "height": 32,
     "rotation": 0,
     "visible": true,
     "properties": []
    },
    {
     "id": 1778,
     "name": "",
     "type": "",
     "x": 1472,
     "y": 992,
     "width": 32,
     "height": 32,
     "rotation": 0,
     "visible": true,
     "properties": []
    },
    {
     "id": 1779,
     "name": "",
     "type": "",
     "x": 1504,
     "y": 992,
     "width": 32,
     "height": 32,
     "rotation": 0,
     "visible": true,
     "properties": []
    },
    {
     "id": 1780,
     "name": "",
     "type": "",
     "x": 1536,
     "y": 992,
     "width": 32,
     "height": 32,
     "rotation": 0,
     "visible": true,
     "properties": []
    },
    {
     "id": 1781,
     "name": "",
     "type": "",
     "x": 0,
     "y": 1024,
     "width": 32,
     "height": 32,
     "rotation": 0,
     "visible": true,
     "properties": []
    },
    {
     "id": 1782,
     "name": "",
     "type": "",
     "x": 320,
     "y": 1024,
     "width": 32,
     "height": 32,
     "rotation": 0,
     "visible": true,
     "properties": []
    },
    {
     "id": 1783,
     "name": "",
     "type": "",
     "x": 768,
     "y": 1024,
     "width": 32,
     "height": 32,
     "rotation": 0,
     "visible": true,
     "properties": []
    },
    {
     "id": 1784,
     "name": "",
     "type": "",
     "x": 800,
     "y": 1024,
     "width": 32,
     "height": 32,
     "rotation": 0,
     "visible": true,
     "properties": []
    },
    {
     "id": 1785,
     "name": "",
     "type": "",
     "x": 1088,
     "y": 1024,
     "width": 32,
     "height": 32,
     "rotation": 0,
     "visible": true,
     "properties": []
    },
    {
     "id": 1786,
     "name": "",
     "type": "",
     "x": 1120,
     "y": 1024,
     "width": 32,
     "height": 32,
     "rotation": 0,
     "visible": true,
     "properties": []
    },
    {
     "id": 1787,
     "name": "",
     "type": "",
     "x": 1152,
     "y": 1024,
     "width": 32,
     "height": 32,
     "rotation": 0,
     "visible": true,
     "properties": []
    },
    {
     "id": 1788,
     "name": "",
     "type": "",
     "x": 1248,
     "y": 1024,
     "width": 32,
     "height": 32,
     "rotation": 0,
     "visible": true,
     "properties": []
    },
    {
     "id": 1789,
     "name": "",
     "type": "",
     "x": 1280,
     "y": 1024,
     "width": 32,
     "height": 32,
     "rotation": 0,
     "visible": true,
     "properties": []
    },
    {
     "id": 1790,
     "name": "",
     "type": "",
     "x": 1312,
     "y": 1024,
     "width": 32,
     "height": 32,
     "rotation": 0,
     "visible": true,
     "properties": []
    },
    {
     "id": 1791,
     "name": "",
     "type": "",
     "x": 1344,
     "y": 1024,
     "width": 32,
     "height": 32,
     "rotation": 0,
     "visible": true,
     "properties": []
    },
    {
     "id": 1792,
     "name": "",
     "type": "",
     "x": 1376,
     "y": 1024,
     "width": 32,
     "height": 32,
     "rotation": 0,
     "visible": true,
     "properties": []
    },
    {
     "id": 1793,
     "name": "",
     "type": "",
     "x": 1408,
     "y": 1024,
     "width": 32,
     "height": 32,
     "rotation": 0,
     "visible": true,
     "properties": []
    },
    {
     "id": 1794,
     "name": "",
     "type": "",
     "x": 1440,
     "y": 1024,
     "width": 32,
     "height": 32,
     "rotation": 0,
     "visible": true,
     "properties": []
    },
    {
     "id": 1795,
     "name": "",
     "type": "",
     "x": 1472,
     "y": 1024,
     "width": 32,
     "height": 32,
     "rotation": 0,
     "visible": true,
     "properties": []
    },
    {
     "id": 1796,
     "name": "",
     "type": "",
     "x": 1504,
     "y": 1024,
     "width": 32,
     "height": 32,
     "rotation": 0,
     "visible": true,
     "properties": []
    },
    {
     "id": 1797,
     "name": "",
     "type": "",
     "x": 1536,
     "y": 1024,
     "width": 32,
     "height": 32,
     "rotation": 0,
     "visible": true,
     "properties": []
    },
    {
     "id": 1798,
     "name": "",
     "type": "",
     "x": 0,
     "y": 1056,
     "width": 32,
     "height": 32,
     "rotation": 0,
     "visible": true,
     "properties": []
    },
    {
     "id": 1799,
     "name": "",
     "type": "",
     "x": 32,
     "y": 1056,
     "width": 32,
     "height": 32,
     "rotation": 0,
     "visible": true,
     "properties": []
    },
    {
     "id": 1800,
     "name": "",
     "type": "",
     "x": 256,
     "y": 1056,
     "width": 32,
     "height": 32,
     "rotation": 0,
     "visible": true,
     "properties": []
    },
    {
     "id": 1801,
     "name": "",
     "type": "",
     "x": 288,
     "y": 1056,
     "width": 32,
     "height": 32,
     "rotation": 0,
     "visible": true,
     "properties": []
    },
    {
     "id": 1802,
     "name": "",
     "type": "",
     "x": 320,
     "y": 1056,
     "width": 32,
     "height": 32,
     "rotation": 0,
     "visible": true,
     "properties": []
    },
    {
     "id": 1803,
     "name": "",
     "type": "",
     "x": 768,
     "y": 1056,
     "width": 32,
     "height": 32,
     "rotation": 0,
     "visible": true,
     "properties": []
    },
    {
     "id": 1804,
     "name": "",
     "type": "",
     "x": 800,
     "y": 1056,
     "width": 32,
     "height": 32,
     "rotation": 0,
     "visible": true,
     "properties": []
    },
    {
     "id": 1805,
     "name": "",
     "type": "",
     "x": 1088,
     "y": 1056,
     "width": 32,
     "height": 32,
     "rotation": 0,
     "visible": true,
     "properties": []
    },
    {
     "id": 1806,
     "name": "",
     "type": "",
     "x": 1120,
     "y": 1056,
     "width": 32,
     "height": 32,
     "rotation": 0,
     "visible": true,
     "properties": []
    },
    {
     "id": 1807,
     "name": "",
     "type": "",
     "x": 1152,
     "y": 1056,
     "width": 32,
     "height": 32,
     "rotation": 0,
     "visible": true,
     "properties": []
    },
    {
     "id": 1808,
     "name": "",
     "type": "",
     "x": 1184,
     "y": 1056,
     "width": 32,
     "height": 32,
     "rotation": 0,
     "visible": true,
     "properties": []
    },
    {
     "id": 1809,
     "name": "",
     "type": "",
     "x": 1248,
     "y": 1056,
     "width": 32,
     "height": 32,
     "rotation": 0,
     "visible": true,
     "properties": []
    },
    {
     "id": 1810,
     "name": "",
     "type": "",
     "x": 1280,
     "y": 1056,
     "width": 32,
     "height": 32,
     "rotation": 0,
     "visible": true,
     "properties": []
    },
    {
     "id": 1811,
     "name": "",
     "type": "",
     "x": 1312,
     "y": 1056,
     "width": 32,
     "height": 32,
     "rotation": 0,
     "visible": true,
     "properties": []
    },
    {
     "id": 1812,
     "name": "",
     "type": "",
     "x": 1344,
     "y": 1056,
     "width": 32,
     "height": 32,
     "rotation": 0,
     "visible": true,
     "properties": []
    },
    {
     "id": 1813,
     "name": "",
     "type": "",
     "x": 1376,
     "y": 1056,
     "width": 32,
     "height": 32,
     "rotation": 0,
     "visible": true,
     "properties": []
    },
    {
     "id": 1814,
     "name": "",
     "type": "",
     "x": 1408,
     "y": 1056,
     "width": 32,
     "height": 32,
     "rotation": 0,
     "visible": true,
     "properties": []
    },
    {
     "id": 1815,
     "name": "",
     "type": "",
     "x": 1440,
     "y": 1056,
     "width": 32,
     "height": 32,
     "rotation": 0,
     "visible": true,
     "properties": []
    },
    {
     "id": 1816,
     "name": "",
     "type": "",
     "x": 1472,
     "y": 1056,
     "width": 32,
     "height": 32,
     "rotation": 0,
     "visible": true,
     "properties": []
    },
    {
     "id": 1817,
     "name": "",
     "type": "",
     "x": 1504,
     "y": 1056,
     "width": 32,
     "height": 32,
     "rotation": 0,
     "visible": true,
     "properties": []
    },
    {
     "id": 1818,
     "name": "",
     "type": "",
     "x": 1536,
     "y": 1056,
     "width": 32,
     "height": 32,
     "rotation": 0,
     "visible": true,
     "properties": []
    },
    {
     "id": 1819,
     "name": "",
     "type": "",
     "x": 0,
     "y": 1088,
     "width": 32,
     "height": 32,
     "rotation": 0,
     "visible": true,
     "properties": []
    },
    {
     "id": 1820,
     "name": "",
     "type": "",
     "x": 32,
     "y": 1088,
     "width": 32,
     "height": 32,
     "rotation": 0,
     "visible": true,
     "properties": []
    },
    {
     "id": 1821,
     "name": "",
     "type": "",
     "x": 64,
     "y": 1088,
     "width": 32,
     "height": 32,
     "rotation": 0,
     "visible": true,
     "properties": []
    },
    {
     "id": 1822,
     "name": "",
     "type": "",
     "x": 256,
     "y": 1088,
     "width": 32,
     "height": 32,
     "rotation": 0,
     "visible": true,
     "properties": []
    },
    {
     "id": 1823,
     "name": "",
     "type": "",
     "x": 288,
     "y": 1088,
     "width": 32,
     "height": 32,
     "rotation": 0,
     "visible": true,
     "properties": []
    },
    {
     "id": 1824,
     "name": "",
     "type": "",
     "x": 320,
     "y": 1088,
     "width": 32,
     "height": 32,
     "rotation": 0,
     "visible": true,
     "properties": []
    },
    {
     "id": 1825,
     "name": "",
     "type": "",
     "x": 352,
     "y": 1088,
     "width": 32,
     "height": 32,
     "rotation": 0,
     "visible": true,
     "properties": []
    },
    {
     "id": 1826,
     "name": "",
     "type": "",
     "x": 384,
     "y": 1088,
     "width": 32,
     "height": 32,
     "rotation": 0,
     "visible": true,
     "properties": []
    },
    {
     "id": 1827,
     "name": "",
     "type": "",
     "x": 416,
     "y": 1088,
     "width": 32,
     "height": 32,
     "rotation": 0,
     "visible": true,
     "properties": []
    },
    {
     "id": 1828,
     "name": "",
     "type": "",
     "x": 512,
     "y": 1088,
     "width": 32,
     "height": 32,
     "rotation": 0,
     "visible": true,
     "properties": []
    },
    {
     "id": 1829,
     "name": "",
     "type": "",
     "x": 544,
     "y": 1088,
     "width": 32,
     "height": 32,
     "rotation": 0,
     "visible": true,
     "properties": []
    },
    {
     "id": 1830,
     "name": "",
     "type": "",
     "x": 576,
     "y": 1088,
     "width": 32,
     "height": 32,
     "rotation": 0,
     "visible": true,
     "properties": []
    },
    {
     "id": 1831,
     "name": "",
     "type": "",
     "x": 608,
     "y": 1088,
     "width": 32,
     "height": 32,
     "rotation": 0,
     "visible": true,
     "properties": []
    },
    {
     "id": 1832,
     "name": "",
     "type": "",
     "x": 640,
     "y": 1088,
     "width": 32,
     "height": 32,
     "rotation": 0,
     "visible": true,
     "properties": []
    },
    {
     "id": 1833,
     "name": "",
     "type": "",
     "x": 672,
     "y": 1088,
     "width": 32,
     "height": 32,
     "rotation": 0,
     "visible": true,
     "properties": []
    },
    {
     "id": 1834,
     "name": "",
     "type": "",
     "x": 704,
     "y": 1088,
     "width": 32,
     "height": 32,
     "rotation": 0,
     "visible": true,
     "properties": []
    },
    {
     "id": 1835,
     "name": "",
     "type": "",
     "x": 736,
     "y": 1088,
     "width": 32,
     "height": 32,
     "rotation": 0,
     "visible": true,
     "properties": []
    },
    {
     "id": 1836,
     "name": "",
     "type": "",
     "x": 768,
     "y": 1088,
     "width": 32,
     "height": 32,
     "rotation": 0,
     "visible": true,
     "properties": []
    },
    {
     "id": 1837,
     "name": "",
     "type": "",
     "x": 800,
     "y": 1088,
     "width": 32,
     "height": 32,
     "rotation": 0,
     "visible": true,
     "properties": []
    },
    {
     "id": 1838,
     "name": "",
     "type": "",
     "x": 832,
     "y": 1088,
     "width": 32,
     "height": 32,
     "rotation": 0,
     "visible": true,
     "properties": []
    },
    {
     "id": 1839,
     "name": "",
     "type": "",
     "x": 864,
     "y": 1088,
     "width": 32,
     "height": 32,
     "rotation": 0,
     "visible": true,
     "properties": []
    },
    {
     "id": 1840,
     "name": "",
     "type": "",
     "x": 896,
     "y": 1088,
     "width": 32,
     "height": 32,
     "rotation": 0,
     "visible": true,
     "properties": []
    },
    {
     "id": 1841,
     "name": "",
     "type": "",
     "x": 928,
     "y": 1088,
     "width": 32,
     "height": 32,
     "rotation": 0,
     "visible": true,
     "properties": []
    },
    {
     "id": 1842,
     "name": "",
     "type": "",
     "x": 960,
     "y": 1088,
     "width": 32,
     "height": 32,
     "rotation": 0,
     "visible": true,
     "properties": []
    },
    {
     "id": 1843,
     "name": "",
     "type": "",
     "x": 992,
     "y": 1088,
     "width": 32,
     "height": 32,
     "rotation": 0,
     "visible": true,
     "properties": []
    },
    {
     "id": 1844,
     "name": "",
     "type": "",
     "x": 1024,
     "y": 1088,
     "width": 32,
     "height": 32,
     "rotation": 0,
     "visible": true,
     "properties": []
    },
    {
     "id": 1845,
     "name": "",
     "type": "",
     "x": 1056,
     "y": 1088,
     "width": 32,
     "height": 32,
     "rotation": 0,
     "visible": true,
     "properties": []
    },
    {
     "id": 1846,
     "name": "",
     "type": "",
     "x": 1088,
     "y": 1088,
     "width": 32,
     "height": 32,
     "rotation": 0,
     "visible": true,
     "properties": []
    },
    {
     "id": 1847,
     "name": "",
     "type": "",
     "x": 1120,
     "y": 1088,
     "width": 32,
     "height": 32,
     "rotation": 0,
     "visible": true,
     "properties": []
    },
    {
     "id": 1848,
     "name": "",
     "type": "",
     "x": 1184,
     "y": 1088,
     "width": 32,
     "height": 32,
     "rotation": 0,
     "visible": true,
     "properties": []
    },
    {
     "id": 1849,
     "name": "",
     "type": "",
     "x": 1248,
     "y": 1088,
     "width": 32,
     "height": 32,
     "rotation": 0,
     "visible": true,
     "properties": []
    },
    {
     "id": 1850,
     "name": "",
     "type": "",
     "x": 1280,
     "y": 1088,
     "width": 32,
     "height": 32,
     "rotation": 0,
     "visible": true,
     "properties": []
    },
    {
     "id": 1851,
     "name": "",
     "type": "",
     "x": 1312,
     "y": 1088,
     "width": 32,
     "height": 32,
     "rotation": 0,
     "visible": true,
     "properties": []
    },
    {
     "id": 1852,
     "name": "",
     "type": "",
     "x": 1344,
     "y": 1088,
     "width": 32,
     "height": 32,
     "rotation": 0,
     "visible": true,
     "properties": []
    },
    {
     "id": 1853,
     "name": "",
     "type": "",
     "x": 1376,
     "y": 1088,
     "width": 32,
     "height": 32,
     "rotation": 0,
     "visible": true,
     "properties": []
    },
    {
     "id": 1854,
     "name": "",
     "type": "",
     "x": 1408,
     "y": 1088,
     "width": 32,
     "height": 32,
     "rotation": 0,
     "visible": true,
     "properties": []
    },
    {
     "id": 1855,
     "name": "",
     "type": "",
     "x": 1440,
     "y": 1088,
     "width": 32,
     "height": 32,
     "rotation": 0,
     "visible": true,
     "properties": []
    },
    {
     "id": 1856,
     "name": "",
     "type": "",
     "x": 1472,
     "y": 1088,
     "width": 32,
     "height": 32,
     "rotation": 0,
     "visible": true,
     "properties": []
    },
    {
     "id": 1857,
     "name": "",
     "type": "",
     "x": 1504,
     "y": 1088,
     "width": 32,
     "height": 32,
     "rotation": 0,
     "visible": true,
     "properties": []
    },
    {
     "id": 1858,
     "name": "",
     "type": "",
     "x": 1536,
     "y": 1088,
     "width": 32,
     "height": 32,
     "rotation": 0,
     "visible": true,
     "properties": []
    },
    {
     "id": 1859,
     "name": "",
     "type": "",
     "x": 0,
     "y": 1120,
     "width": 32,
     "height": 32,
     "rotation": 0,
     "visible": true,
     "properties": []
    },
    {
     "id": 1860,
     "name": "",
     "type": "",
     "x": 32,
     "y": 1120,
     "width": 32,
     "height": 32,
     "rotation": 0,
     "visible": true,
     "properties": []
    },
    {
     "id": 1861,
     "name": "",
     "type": "",
     "x": 64,
     "y": 1120,
     "width": 32,
     "height": 32,
     "rotation": 0,
     "visible": true,
     "properties": []
    },
    {
     "id": 1862,
     "name": "",
     "type": "",
     "x": 256,
     "y": 1120,
     "width": 32,
     "height": 32,
     "rotation": 0,
     "visible": true,
     "properties": []
    },
    {
     "id": 1863,
     "name": "",
     "type": "",
     "x": 288,
     "y": 1120,
     "width": 32,
     "height": 32,
     "rotation": 0,
     "visible": true,
     "properties": []
    },
    {
     "id": 1864,
     "name": "",
     "type": "",
     "x": 320,
     "y": 1120,
     "width": 32,
     "height": 32,
     "rotation": 0,
     "visible": true,
     "properties": []
    },
    {
     "id": 1865,
     "name": "",
     "type": "",
     "x": 352,
     "y": 1120,
     "width": 32,
     "height": 32,
     "rotation": 0,
     "visible": true,
     "properties": []
    },
    {
     "id": 1866,
     "name": "",
     "type": "",
     "x": 384,
     "y": 1120,
     "width": 32,
     "height": 32,
     "rotation": 0,
     "visible": true,
     "properties": []
    },
    {
     "id": 1867,
     "name": "",
     "type": "",
     "x": 416,
     "y": 1120,
     "width": 32,
     "height": 32,
     "rotation": 0,
     "visible": true,
     "properties": []
    },
    {
     "id": 1868,
     "name": "",
     "type": "",
     "x": 512,
     "y": 1120,
     "width": 32,
     "height": 32,
     "rotation": 0,
     "visible": true,
     "properties": []
    },
    {
     "id": 1869,
     "name": "",
     "type": "",
     "x": 544,
     "y": 1120,
     "width": 32,
     "height": 32,
     "rotation": 0,
     "visible": true,
     "properties": []
    },
    {
     "id": 1870,
     "name": "",
     "type": "",
     "x": 576,
     "y": 1120,
     "width": 32,
     "height": 32,
     "rotation": 0,
     "visible": true,
     "properties": []
    },
    {
     "id": 1871,
     "name": "",
     "type": "",
     "x": 608,
     "y": 1120,
     "width": 32,
     "height": 32,
     "rotation": 0,
     "visible": true,
     "properties": []
    },
    {
     "id": 1872,
     "name": "",
     "type": "",
     "x": 640,
     "y": 1120,
     "width": 32,
     "height": 32,
     "rotation": 0,
     "visible": true,
     "properties": []
    },
    {
     "id": 1873,
     "name": "",
     "type": "",
     "x": 672,
     "y": 1120,
     "width": 32,
     "height": 32,
     "rotation": 0,
     "visible": true,
     "properties": []
    },
    {
     "id": 1874,
     "name": "",
     "type": "",
     "x": 704,
     "y": 1120,
     "width": 32,
     "height": 32,
     "rotation": 0,
     "visible": true,
     "properties": []
    },
    {
     "id": 1875,
     "name": "",
     "type": "",
     "x": 736,
     "y": 1120,
     "width": 32,
     "height": 32,
     "rotation": 0,
     "visible": true,
     "properties": []
    },
    {
     "id": 1876,
     "name": "",
     "type": "",
     "x": 768,
     "y": 1120,
     "width": 32,
     "height": 32,
     "rotation": 0,
     "visible": true,
     "properties": []
    },
    {
     "id": 1877,
     "name": "",
     "type": "",
     "x": 800,
     "y": 1120,
     "width": 32,
     "height": 32,
     "rotation": 0,
     "visible": true,
     "properties": []
    },
    {
     "id": 1878,
     "name": "",
     "type": "",
     "x": 832,
     "y": 1120,
     "width": 32,
     "height": 32,
     "rotation": 0,
     "visible": true,
     "properties": []
    },
    {
     "id": 1879,
     "name": "",
     "type": "",
     "x": 864,
     "y": 1120,
     "width": 32,
     "height": 32,
     "rotation": 0,
     "visible": true,
     "properties": []
    },
    {
     "id": 1880,
     "name": "",
     "type": "",
     "x": 896,
     "y": 1120,
     "width": 32,
     "height": 32,
     "rotation": 0,
     "visible": true,
     "properties": []
    },
    {
     "id": 1881,
     "name": "",
     "type": "",
     "x": 928,
     "y": 1120,
     "width": 32,
     "height": 32,
     "rotation": 0,
     "visible": true,
     "properties": []
    },
    {
     "id": 1882,
     "name": "",
     "type": "",
     "x": 960,
     "y": 1120,
     "width": 32,
     "height": 32,
     "rotation": 0,
     "visible": true,
     "properties": []
    },
    {
     "id": 1883,
     "name": "",
     "type": "",
     "x": 992,
     "y": 1120,
     "width": 32,
     "height": 32,
     "rotation": 0,
     "visible": true,
     "properties": []
    },
    {
     "id": 1884,
     "name": "",
     "type": "",
     "x": 1024,
     "y": 1120,
     "width": 32,
     "height": 32,
     "rotation": 0,
     "visible": true,
     "properties": []
    },
    {
     "id": 1885,
     "name": "",
     "type": "",
     "x": 1056,
     "y": 1120,
     "width": 32,
     "height": 32,
     "rotation": 0,
     "visible": true,
     "properties": []
    },
    {
     "id": 1886,
     "name": "",
     "type": "",
     "x": 1088,
     "y": 1120,
     "width": 32,
     "height": 32,
     "rotation": 0,
     "visible": true,
     "properties": []
    },
    {
     "id": 1887,
     "name": "",
     "type": "",
     "x": 1120,
     "y": 1120,
     "width": 32,
     "height": 32,
     "rotation": 0,
     "visible": true,
     "properties": []
    },
    {
     "id": 1888,
     "name": "",
     "type": "",
     "x": 1248,
     "y": 1120,
     "width": 32,
     "height": 32,
     "rotation": 0,
     "visible": true,
     "properties": []
    },
    {
     "id": 1889,
     "name": "",
     "type": "",
     "x": 1280,
     "y": 1120,
     "width": 32,
     "height": 32,
     "rotation": 0,
     "visible": true,
     "properties": []
    },
    {
     "id": 1890,
     "name": "",
     "type": "",
     "x": 1312,
     "y": 1120,
     "width": 32,
     "height": 32,
     "rotation": 0,
     "visible": true,
     "properties": []
    },
    {
     "id": 1891,
     "name": "",
     "type": "",
     "x": 1344,
     "y": 1120,
     "width": 32,
     "height": 32,
     "rotation": 0,
     "visible": true,
     "properties": []
    },
    {
     "id": 1892,
     "name": "",
     "type": "",
     "x": 1376,
     "y": 1120,
     "width": 32,
     "height": 32,
     "rotation": 0,
     "visible": true,
     "properties": []
    },
    {
     "id": 1893,
     "name": "",
     "type": "",
     "x": 1408,
     "y": 1120,
     "width": 32,
     "height": 32,
     "rotation": 0,
     "visible": true,
     "properties": []
    },
    {
     "id": 1894,
     "name": "",
     "type": "",
     "x": 1440,
     "y": 1120,
     "width": 32,
     "height": 32,
     "rotation": 0,
     "visible": true,
     "properties": []
    },
    {
     "id": 1895,
     "name": "",
     "type": "",
     "x": 1472,
     "y": 1120,
     "width": 32,
     "height": 32,
     "rotation": 0,
     "visible": true,
     "properties": []
    },
    {
     "id": 1896,
     "name": "",
     "type": "",
     "x": 1504,
     "y": 1120,
     "width": 32,
     "height": 32,
     "rotation": 0,
     "visible": true,
     "properties": []
    },
    {
     "id": 1897,
     "name": "",
     "type": "",
     "x": 1536,
     "y": 1120,
     "width": 32,
     "height": 32,
     "rotation": 0,
     "visible": true,
     "properties": []
    },
    {
     "id": 1898,
     "name": "",
     "type": "",
     "x": 0,
     "y": 1152,
     "width": 32,
     "height": 32,
     "rotation": 0,
     "visible": true,
     "properties": []
    },
    {
     "id": 1899,
     "name": "",
     "type": "",
     "x": 32,
     "y": 1152,
     "width": 32,
     "height": 32,
     "rotation": 0,
     "visible": true,
     "properties": []
    },
    {
     "id": 1900,
     "name": "",
     "type": "",
     "x": 288,
     "y": 1152,
     "width": 32,
     "height": 32,
     "rotation": 0,
     "visible": true,
     "properties": []
    },
    {
     "id": 1901,
     "name": "",
     "type": "",
     "x": 320,
     "y": 1152,
     "width": 32,
     "height": 32,
     "rotation": 0,
     "visible": true,
     "properties": []
    },
    {
     "id": 1902,
     "name": "",
     "type": "",
     "x": 352,
     "y": 1152,
     "width": 32,
     "height": 32,
     "rotation": 0,
     "visible": true,
     "properties": []
    },
    {
     "id": 1903,
     "name": "",
     "type": "",
     "x": 384,
     "y": 1152,
     "width": 32,
     "height": 32,
     "rotation": 0,
     "visible": true,
     "properties": []
    },
    {
     "id": 1904,
     "name": "",
     "type": "",
     "x": 608,
     "y": 1152,
     "width": 32,
     "height": 32,
     "rotation": 0,
     "visible": true,
     "properties": []
    },
    {
     "id": 1905,
     "name": "",
     "type": "",
     "x": 640,
     "y": 1152,
     "width": 32,
     "height": 32,
     "rotation": 0,
     "visible": true,
     "properties": []
    },
    {
     "id": 1906,
     "name": "",
     "type": "",
     "x": 672,
     "y": 1152,
     "width": 32,
     "height": 32,
     "rotation": 0,
     "visible": true,
     "properties": []
    },
    {
     "id": 1907,
     "name": "",
     "type": "",
     "x": 704,
     "y": 1152,
     "width": 32,
     "height": 32,
     "rotation": 0,
     "visible": true,
     "properties": []
    },
    {
     "id": 1908,
     "name": "",
     "type": "",
     "x": 896,
     "y": 1152,
     "width": 32,
     "height": 32,
     "rotation": 0,
     "visible": true,
     "properties": []
    },
    {
     "id": 1909,
     "name": "",
     "type": "",
     "x": 928,
     "y": 1152,
     "width": 32,
     "height": 32,
     "rotation": 0,
     "visible": true,
     "properties": []
    },
    {
     "id": 1910,
     "name": "",
     "type": "",
     "x": 960,
     "y": 1152,
     "width": 32,
     "height": 32,
     "rotation": 0,
     "visible": true,
     "properties": []
    },
    {
     "id": 1911,
     "name": "",
     "type": "",
     "x": 992,
     "y": 1152,
     "width": 32,
     "height": 32,
     "rotation": 0,
     "visible": true,
     "properties": []
    },
    {
     "id": 1912,
     "name": "",
     "type": "",
     "x": 1024,
     "y": 1152,
     "width": 32,
     "height": 32,
     "rotation": 0,
     "visible": true,
     "properties": []
    },
    {
     "id": 1913,
     "name": "",
     "type": "",
     "x": 1408,
     "y": 1152,
     "width": 32,
     "height": 32,
     "rotation": 0,
     "visible": true,
     "properties": []
    },
    {
     "id": 1914,
     "name": "",
     "type": "",
     "x": 1440,
     "y": 1152,
     "width": 32,
     "height": 32,
     "rotation": 0,
     "visible": true,
     "properties": []
    },
    {
     "id": 1915,
     "name": "",
     "type": "",
     "x": 1472,
     "y": 1152,
     "width": 32,
     "height": 32,
     "rotation": 0,
     "visible": true,
     "properties": []
    },
    {
     "id": 1916,
     "name": "",
     "type": "",
     "x": 1504,
     "y": 1152,
     "width": 32,
     "height": 32,
     "rotation": 0,
     "visible": true,
     "properties": []
    },
    {
     "id": 1917,
     "name": "",
     "type": "",
     "x": 1536,
     "y": 1152,
     "width": 32,
     "height": 32,
     "rotation": 0,
     "visible": true,
     "properties": []
    },
    {
     "id": 1918,
     "name": "",
     "type": "",
     "x": 0,
     "y": 1184,
     "width": 32,
     "height": 32,
     "rotation": 0,
     "visible": true,
     "properties": []
    },
    {
     "id": 1919,
     "name": "",
     "type": "",
     "x": 320,
     "y": 1184,
     "width": 32,
     "height": 32,
     "rotation": 0,
     "visible": true,
     "properties": []
    },
    {
     "id": 1920,
     "name": "",
     "type": "",
     "x": 352,
     "y": 1184,
     "width": 32,
     "height": 32,
     "rotation": 0,
     "visible": true,
     "properties": []
    },
    {
     "id": 1921,
     "name": "",
     "type": "",
     "x": 576,
     "y": 1184,
     "width": 32,
     "height": 32,
     "rotation": 0,
     "visible": true,
     "properties": []
    },
    {
     "id": 1922,
     "name": "",
     "type": "",
     "x": 608,
     "y": 1184,
     "width": 32,
     "height": 32,
     "rotation": 0,
     "visible": true,
     "properties": []
    },
    {
     "id": 1923,
     "name": "",
     "type": "",
     "x": 640,
     "y": 1184,
     "width": 32,
     "height": 32,
     "rotation": 0,
     "visible": true,
     "properties": []
    },
    {
     "id": 1924,
     "name": "",
     "type": "",
     "x": 672,
     "y": 1184,
     "width": 32,
     "height": 32,
     "rotation": 0,
     "visible": true,
     "properties": []
    },
    {
     "id": 1925,
     "name": "",
     "type": "",
     "x": 896,
     "y": 1184,
     "width": 32,
     "height": 32,
     "rotation": 0,
     "visible": true,
     "properties": []
    },
    {
     "id": 1926,
     "name": "",
     "type": "",
     "x": 928,
     "y": 1184,
     "width": 32,
     "height": 32,
     "rotation": 0,
     "visible": true,
     "properties": []
    },
    {
     "id": 1927,
     "name": "",
     "type": "",
     "x": 960,
     "y": 1184,
     "width": 32,
     "height": 32,
     "rotation": 0,
     "visible": true,
     "properties": []
    },
    {
     "id": 1928,
     "name": "",
     "type": "",
     "x": 992,
     "y": 1184,
     "width": 32,
     "height": 32,
     "rotation": 0,
     "visible": true,
     "properties": []
    },
    {
     "id": 1929,
     "name": "",
     "type": "",
     "x": 1024,
     "y": 1184,
     "width": 32,
     "height": 32,
     "rotation": 0,
     "visible": true,
     "properties": []
    },
    {
     "id": 1930,
     "name": "",
     "type": "",
     "x": 1088,
     "y": 1184,
     "width": 32,
     "height": 32,
     "rotation": 0,
     "visible": true,
     "properties": []
    },
    {
     "id": 1931,
     "name": "",
     "type": "",
     "x": 1120,
     "y": 1184,
     "width": 32,
     "height": 32,
     "rotation": 0,
     "visible": true,
     "properties": []
    },
    {
     "id": 1932,
     "name": "",
     "type": "",
     "x": 1216,
     "y": 1184,
     "width": 32,
     "height": 32,
     "rotation": 0,
     "visible": true,
     "properties": []
    },
    {
     "id": 1933,
     "name": "",
     "type": "",
     "x": 1248,
     "y": 1184,
     "width": 32,
     "height": 32,
     "rotation": 0,
     "visible": true,
     "properties": []
    },
    {
     "id": 1934,
     "name": "",
     "type": "",
     "x": 1280,
     "y": 1184,
     "width": 32,
     "height": 32,
     "rotation": 0,
     "visible": true,
     "properties": []
    },
    {
     "id": 1935,
     "name": "",
     "type": "",
     "x": 1408,
     "y": 1184,
     "width": 32,
     "height": 32,
     "rotation": 0,
     "visible": true,
     "properties": []
    },
    {
     "id": 1936,
     "name": "",
     "type": "",
     "x": 1440,
     "y": 1184,
     "width": 32,
     "height": 32,
     "rotation": 0,
     "visible": true,
     "properties": []
    },
    {
     "id": 1937,
     "name": "",
     "type": "",
     "x": 1536,
     "y": 1184,
     "width": 32,
     "height": 32,
     "rotation": 0,
     "visible": true,
     "properties": []
    },
    {
     "id": 1938,
     "name": "",
     "type": "",
     "x": 0,
     "y": 1216,
     "width": 32,
     "height": 32,
     "rotation": 0,
     "visible": true,
     "properties": []
    },
    {
     "id": 1939,
     "name": "",
     "type": "",
     "x": 320,
     "y": 1216,
     "width": 32,
     "height": 32,
     "rotation": 0,
     "visible": true,
     "properties": []
    },
    {
     "id": 1940,
     "name": "",
     "type": "",
     "x": 1024,
     "y": 1216,
     "width": 32,
     "height": 32,
     "rotation": 0,
     "visible": true,
     "properties": []
    },
    {
     "id": 1941,
     "name": "",
     "type": "",
     "x": 1536,
     "y": 1216,
     "width": 32,
     "height": 32,
     "rotation": 0,
     "visible": true,
     "properties": []
    },
    {
     "id": 1942,
     "name": "",
     "type": "",
     "x": 0,
     "y": 1248,
     "width": 32,
     "height": 32,
     "rotation": 0,
     "visible": true,
     "properties": []
    },
    {
     "id": 1943,
     "name": "",
     "type": "",
     "x": 32,
     "y": 1248,
     "width": 32,
     "height": 32,
     "rotation": 0,
     "visible": true,
     "properties": []
    },
    {
     "id": 1944,
     "name": "",
     "type": "",
     "x": 64,
     "y": 1248,
     "width": 32,
     "height": 32,
     "rotation": 0,
     "visible": true,
     "properties": []
    },
    {
     "id": 1945,
     "name": "",
     "type": "",
     "x": 96,
     "y": 1248,
     "width": 32,
     "height": 32,
     "rotation": 0,
     "visible": true,
     "properties": []
    },
    {
     "id": 1946,
     "name": "",
     "type": "",
     "x": 128,
     "y": 1248,
     "width": 32,
     "height": 32,
     "rotation": 0,
     "visible": true,
     "properties": []
    },
    {
     "id": 1947,
     "name": "",
     "type": "",
     "x": 160,
     "y": 1248,
     "width": 32,
     "height": 32,
     "rotation": 0,
     "visible": true,
     "properties": []
    },
    {
     "id": 1948,
     "name": "",
     "type": "",
     "x": 192,
     "y": 1248,
     "width": 32,
     "height": 32,
     "rotation": 0,
     "visible": true,
     "properties": []
    },
    {
     "id": 1949,
     "name": "",
     "type": "",
     "x": 224,
     "y": 1248,
     "width": 32,
     "height": 32,
     "rotation": 0,
     "visible": true,
     "properties": []
    },
    {
     "id": 1950,
     "name": "",
     "type": "",
     "x": 256,
     "y": 1248,
     "width": 32,
     "height": 32,
     "rotation": 0,
     "visible": true,
     "properties": []
    },
    {
     "id": 1951,
     "name": "",
     "type": "",
     "x": 288,
     "y": 1248,
     "width": 32,
     "height": 32,
     "rotation": 0,
     "visible": true,
     "properties": []
    },
    {
     "id": 1952,
     "name": "",
     "type": "",
     "x": 320,
     "y": 1248,
     "width": 32,
     "height": 32,
     "rotation": 0,
     "visible": true,
     "properties": []
    },
    {
     "id": 1953,
     "name": "",
     "type": "",
     "x": 352,
     "y": 1248,
     "width": 32,
     "height": 32,
     "rotation": 0,
     "visible": true,
     "properties": []
    },
    {
     "id": 1954,
     "name": "",
     "type": "",
     "x": 384,
     "y": 1248,
     "width": 32,
     "height": 32,
     "rotation": 0,
     "visible": true,
     "properties": []
    },
    {
     "id": 1955,
     "name": "",
     "type": "",
     "x": 416,
     "y": 1248,
     "width": 32,
     "height": 32,
     "rotation": 0,
     "visible": true,
     "properties": []
    },
    {
     "id": 1956,
     "name": "",
     "type": "",
     "x": 448,
     "y": 1248,
     "width": 32,
     "height": 32,
     "rotation": 0,
     "visible": true,
     "properties": []
    },
    {
     "id": 1957,
     "name": "",
     "type": "",
     "x": 480,
     "y": 1248,
     "width": 32,
     "height": 32,
     "rotation": 0,
     "visible": true,
     "properties": []
    },
    {
     "id": 1958,
     "name": "",
     "type": "",
     "x": 512,
     "y": 1248,
     "width": 32,
     "height": 32,
     "rotation": 0,
     "visible": true,
     "properties": []
    },
    {
     "id": 1959,
     "name": "",
     "type": "",
     "x": 544,
     "y": 1248,
     "width": 32,
     "height": 32,
     "rotation": 0,
     "visible": true,
     "properties": []
    },
    {
     "id": 1960,
     "name": "",
     "type": "",
     "x": 576,
     "y": 1248,
     "width": 32,
     "height": 32,
     "rotation": 0,
     "visible": true,
     "properties": []
    },
    {
     "id": 1961,
     "name": "",
     "type": "",
     "x": 608,
     "y": 1248,
     "width": 32,
     "height": 32,
     "rotation": 0,
     "visible": true,
     "properties": []
    },
    {
     "id": 1962,
     "name": "",
     "type": "",
     "x": 640,
     "y": 1248,
     "width": 32,
     "height": 32,
     "rotation": 0,
     "visible": true,
     "properties": []
    },
    {
     "id": 1963,
     "name": "",
     "type": "",
     "x": 672,
     "y": 1248,
     "width": 32,
     "height": 32,
     "rotation": 0,
     "visible": true,
     "properties": []
    },
    {
     "id": 1964,
     "name": "",
     "type": "",
     "x": 704,
     "y": 1248,
     "width": 32,
     "height": 32,
     "rotation": 0,
     "visible": true,
     "properties": []
    },
    {
     "id": 1965,
     "name": "",
     "type": "",
     "x": 736,
     "y": 1248,
     "width": 32,
     "height": 32,
     "rotation": 0,
     "visible": true,
     "properties": []
    },
    {
     "id": 1966,
     "name": "",
     "type": "",
     "x": 768,
     "y": 1248,
     "width": 32,
     "height": 32,
     "rotation": 0,
     "visible": true,
     "properties": []
    },
    {
     "id": 1967,
     "name": "",
     "type": "",
     "x": 800,
     "y": 1248,
     "width": 32,
     "height": 32,
     "rotation": 0,
     "visible": true,
     "properties": []
    },
    {
     "id": 1968,
     "name": "",
     "type": "",
     "x": 832,
     "y": 1248,
     "width": 32,
     "height": 32,
     "rotation": 0,
     "visible": true,
     "properties": []
    },
    {
     "id": 1969,
     "name": "",
     "type": "",
     "x": 864,
     "y": 1248,
     "width": 32,
     "height": 32,
     "rotation": 0,
     "visible": true,
     "properties": []
    },
    {
     "id": 1970,
     "name": "",
     "type": "",
     "x": 896,
     "y": 1248,
     "width": 32,
     "height": 32,
     "rotation": 0,
     "visible": true,
     "properties": []
    },
    {
     "id": 1971,
     "name": "",
     "type": "",
     "x": 928,
     "y": 1248,
     "width": 32,
     "height": 32,
     "rotation": 0,
     "visible": true,
     "properties": []
    },
    {
     "id": 1972,
     "name": "",
     "type": "",
     "x": 960,
     "y": 1248,
     "width": 32,
     "height": 32,
     "rotation": 0,
     "visible": true,
     "properties": []
    },
    {
     "id": 1973,
     "name": "",
     "type": "",
     "x": 992,
     "y": 1248,
     "width": 32,
     "height": 32,
     "rotation": 0,
     "visible": true,
     "properties": []
    },
    {
     "id": 1974,
     "name": "",
     "type": "",
     "x": 1024,
     "y": 1248,
     "width": 32,
     "height": 32,
     "rotation": 0,
     "visible": true,
     "properties": []
    },
    {
     "id": 1975,
     "name": "",
     "type": "",
     "x": 1056,
     "y": 1248,
     "width": 32,
     "height": 32,
     "rotation": 0,
     "visible": true,
     "properties": []
    },
    {
     "id": 1976,
     "name": "",
     "type": "",
     "x": 1088,
     "y": 1248,
     "width": 32,
     "height": 32,
     "rotation": 0,
     "visible": true,
     "properties": []
    },
    {
     "id": 1977,
     "name": "",
     "type": "",
     "x": 1120,
     "y": 1248,
     "width": 32,
     "height": 32,
     "rotation": 0,
     "visible": true,
     "properties": []
    },
    {
     "id": 1978,
     "name": "",
     "type": "",
     "x": 1152,
     "y": 1248,
     "width": 32,
     "height": 32,
     "rotation": 0,
     "visible": true,
     "properties": []
    },
    {
     "id": 1979,
     "name": "",
     "type": "",
     "x": 1184,
     "y": 1248,
     "width": 32,
     "height": 32,
     "rotation": 0,
     "visible": true,
     "properties": []
    },
    {
     "id": 1980,
     "name": "",
     "type": "",
     "x": 1216,
     "y": 1248,
     "width": 32,
     "height": 32,
     "rotation": 0,
     "visible": true,
     "properties": []
    },
    {
     "id": 1981,
     "name": "",
     "type": "",
     "x": 1248,
     "y": 1248,
     "width": 32,
     "height": 32,
     "rotation": 0,
     "visible": true,
     "properties": []
    },
    {
     "id": 1982,
     "name": "",
     "type": "",
     "x": 1280,
     "y": 1248,
     "width": 32,
     "height": 32,
     "rotation": 0,
     "visible": true,
     "properties": []
    },
    {
     "id": 1983,
     "name": "",
     "type": "",
     "x": 1312,
     "y": 1248,
     "width": 32,
     "height": 32,
     "rotation": 0,
     "visible": true,
     "properties": []
    },
    {
     "id": 1984,
     "name": "",
     "type": "",
     "x": 1344,
     "y": 1248,
     "width": 32,
     "height": 32,
     "rotation": 0,
     "visible": true,
     "properties": []
    },
    {
     "id": 1985,
     "name": "",
     "type": "",
     "x": 1376,
     "y": 1248,
     "width": 32,
     "height": 32,
     "rotation": 0,
     "visible": true,
     "properties": []
    },
    {
     "id": 1986,
     "name": "",
     "type": "",
     "x": 1408,
     "y": 1248,
     "width": 32,
     "height": 32,
     "rotation": 0,
     "visible": true,
     "properties": []
    },
    {
     "id": 1987,
     "name": "",
     "type": "",
     "x": 1440,
     "y": 1248,
     "width": 32,
     "height": 32,
     "rotation": 0,
     "visible": true,
     "properties": []
    },
    {
     "id": 1988,
     "name": "",
     "type": "",
     "x": 1472,
     "y": 1248,
     "width": 32,
     "height": 32,
     "rotation": 0,
     "visible": true,
     "properties": []
    },
    {
     "id": 1989,
     "name": "",
     "type": "",
     "x": 1504,
     "y": 1248,
     "width": 32,
     "height": 32,
     "rotation": 0,
     "visible": true,
     "properties": []
    },
    {
     "id": 1990,
     "name": "",
     "type": "",
     "x": 1536,
     "y": 1248,
     "width": 32,
     "height": 32,
     "rotation": 0,
     "visible": true,
     "properties": []
    }
   ]
  },
  {
   "id": 5,
   "name": "eventi",
   "type": "objectgroup",
   "opacity": 1,
   "visible": true,
   "x": 0,
   "y": 0,
   "objects": [
    {
     "id": 1,
     "name": "npc_powerplant_1",
     "type": "",
     "point": true,
     "x": 240,
     "y": 896,
     "width": 0,
     "height": 0,
     "rotation": 0,
     "visible": true,
     "properties": [
      {
       "name": "type",
       "type": "string",
       "value": "npc"
      },
      {
       "name": "id",
       "type": "string",
       "value": "npc_powerplant_1"
      },
      {
       "name": "nota_origine",
       "type": "string",
       "value": "OBJ_EVENT_GFX_ITEM_BALL"
      }
     ]
    },
    {
     "id": 2,
     "name": "npc_powerplant_2",
     "type": "",
     "point": true,
     "x": 1296,
     "y": 736,
     "width": 0,
     "height": 0,
     "rotation": 0,
     "visible": true,
     "properties": [
      {
       "name": "type",
       "type": "string",
       "value": "npc"
      },
      {
       "name": "id",
       "type": "string",
       "value": "npc_powerplant_2"
      },
      {
       "name": "nota_origine",
       "type": "string",
       "value": "OBJ_EVENT_GFX_ITEM_BALL"
      }
     ]
    },
    {
     "id": 3,
     "name": "npc_powerplant_3",
     "type": "",
     "point": true,
     "x": 1488,
     "y": 1216,
     "width": 0,
     "height": 0,
     "rotation": 0,
     "visible": true,
     "properties": [
      {
       "name": "type",
       "type": "string",
       "value": "npc"
      },
      {
       "name": "id",
       "type": "string",
       "value": "npc_powerplant_3"
      },
      {
       "name": "nota_origine",
       "type": "string",
       "value": "OBJ_EVENT_GFX_ITEM_BALL"
      }
     ]
    },
    {
     "id": 4,
     "name": "npc_powerplant_4",
     "type": "",
     "point": true,
     "x": 1456,
     "y": 160,
     "width": 0,
     "height": 0,
     "rotation": 0,
     "visible": true,
     "properties": [
      {
       "name": "type",
       "type": "string",
       "value": "npc"
      },
      {
       "name": "id",
       "type": "string",
       "value": "npc_powerplant_4"
      },
      {
       "name": "nota_origine",
       "type": "string",
       "value": "OBJ_EVENT_GFX_ITEM_BALL"
      }
     ]
    },
    {
     "id": 5,
     "name": "npc_powerplant_5",
     "type": "",
     "point": true,
     "x": 848,
     "y": 736,
     "width": 0,
     "height": 0,
     "rotation": 0,
     "visible": true,
     "properties": [
      {
       "name": "type",
       "type": "string",
       "value": "npc"
      },
      {
       "name": "id",
       "type": "string",
       "value": "npc_powerplant_5"
      },
      {
       "name": "nota_origine",
       "type": "string",
       "value": "OBJ_EVENT_GFX_ITEM_BALL"
      }
     ]
    },
    {
     "id": 6,
     "name": "npc_powerplant_6",
     "type": "",
     "point": true,
     "x": 176,
     "y": 384,
     "width": 0,
     "height": 0,
     "rotation": 0,
     "visible": true,
     "properties": [
      {
       "name": "type",
       "type": "string",
       "value": "npc"
      },
      {
       "name": "id",
       "type": "string",
       "value": "npc_powerplant_6"
      },
      {
       "name": "nota_origine",
       "type": "string",
       "value": "OBJ_EVENT_GFX_ZAPDOS"
      }
     ]
    },
    {
     "id": 7,
     "name": "npc_powerplant_7",
     "type": "",
     "point": true,
     "x": 1168,
     "y": 192,
     "width": 0,
     "height": 0,
     "rotation": 0,
     "visible": true,
     "properties": [
      {
       "name": "type",
       "type": "string",
       "value": "npc"
      },
      {
       "name": "id",
       "type": "string",
       "value": "npc_powerplant_7"
      },
      {
       "name": "nota_origine",
       "type": "string",
       "value": "OBJ_EVENT_GFX_ITEM_BALL"
      }
     ]
    },
    {
     "id": 8,
     "name": "npc_powerplant_8",
     "type": "",
     "point": true,
     "x": 976,
     "y": 1248,
     "width": 0,
     "height": 0,
     "rotation": 0,
     "visible": true,
     "properties": [
      {
       "name": "type",
       "type": "string",
       "value": "npc"
      },
      {
       "name": "id",
       "type": "string",
       "value": "npc_powerplant_8"
      },
      {
       "name": "nota_origine",
       "type": "string",
       "value": "OBJ_EVENT_GFX_ITEM_BALL"
      }
     ]
    },
    {
     "id": 9,
     "name": "uscita_1",
     "type": "",
     "x": 128,
     "y": 1248,
     "width": 32,
     "height": 32,
     "rotation": 0,
     "visible": true,
     "properties": [
      {
       "name": "type",
       "type": "string",
       "value": "uscita"
      },
      {
       "name": "nota_origine",
       "type": "string",
       "value": "verso MAP_ROUTE10 (da ricollegare a una tua mappa)"
      }
     ]
    },
    {
     "id": 10,
     "name": "uscita_2",
     "type": "",
     "x": 160,
     "y": 1216,
     "width": 32,
     "height": 32,
     "rotation": 0,
     "visible": true,
     "properties": [
      {
       "name": "type",
       "type": "string",
       "value": "uscita"
      },
      {
       "name": "nota_origine",
       "type": "string",
       "value": "verso MAP_ROUTE10 (da ricollegare a una tua mappa)"
      }
     ]
    },
    {
     "id": 11,
     "name": "uscita_3",
     "type": "",
     "x": 192,
     "y": 1248,
     "width": 32,
     "height": 32,
     "rotation": 0,
     "visible": true,
     "properties": [
      {
       "name": "type",
       "type": "string",
       "value": "uscita"
      },
      {
       "name": "nota_origine",
       "type": "string",
       "value": "verso MAP_ROUTE10 (da ricollegare a una tua mappa)"
      }
     ]
    },
    {
     "id": 12,
     "name": "uscita_4",
     "type": "",
     "x": 32,
     "y": 352,
     "width": 32,
     "height": 32,
     "rotation": 0,
     "visible": true,
     "properties": [
      {
       "name": "type",
       "type": "string",
       "value": "uscita"
      },
      {
       "name": "nota_origine",
       "type": "string",
       "value": "verso MAP_ROUTE10 (da ricollegare a una tua mappa)"
      }
     ]
    },
    {
     "id": 13,
     "name": "uscita_5",
     "type": "",
     "x": 0,
     "y": 416,
     "width": 32,
     "height": 32,
     "rotation": 0,
     "visible": true,
     "properties": [
      {
       "name": "type",
       "type": "string",
       "value": "uscita"
      },
      {
       "name": "nota_origine",
       "type": "string",
       "value": "verso MAP_ROUTE10 (da ricollegare a una tua mappa)"
      }
     ]
    }
   ]
  }
 ]
}