{
 "compressionlevel": -1,
 "width": 13,
 "height": 16,
 "tilewidth": 32,
 "tileheight": 32,
 "infinite": false,
 "orientation": "orthogonal",
 "renderorder": "right-down",
 "type": "map",
 "version": "1.10",
 "tiledversion": "1.11.0",
 "nextlayerid": 6,
 "nextobjectid": 97,
 "tilesets": [
  {
   "firstgid": 1,
   "image": "saffroncity_dojo_tileset.png",
   "imagewidth": 512,
   "imageheight": 160,
   "columns": 16,
   "tilecount": 78,
   "tilewidth": 32,
   "tileheight": 32,
   "name": "saffroncity_dojo_tileset",
   "margin": 0,
   "spacing": 0
  }
 ],
 "layers": [
  {
   "id": 1,
   "name": "ground",
   "type": "tilelayer",
   "width": 13,
   "height": 16,
   "data": [
    1,
    1,
    1,
    1,
    1,
    1,
    1,
    1,
    1,
    1,
    1,
    1,
    1,
    1,
    3,
    5,
    3,
    7,
    9,
    3,
    9,
    7,
    3,
    5,
    3,
    1,
    1,
    11,
    13,
    11,
    15,
    17,
    19,
    17,
    15,
    11,
    13,
    11,
    1,
    1,
    21,
    21,
    23,
    15,
    25,
    27,
    25,
    15,
    21,
    21,
    25,
    1,
    1,
    21,
    29,
    29,
    15,
    31,
    29,
    29,
    15,
    31,
    29,
    29,
    1,
    1,
    21,
    33,
    29,
    35,
    31,
    29,
    37,
    35,
    31,
    33,
    29,
    1,
    1,
    21,
    29,
    29,
    39,
    31,
    29,
    29,
    39,
    31,
    29,
    29,
    1,
    1,
    25,
    29,
    33,
    41,
    43,
    43,
    43,
    45,
    29,
    29,
    33,
    1,
    1,
    21,
    29,
    29,
    47,
    49,
    49,
    49,
    51,
    29,
    29,
    29,
    1,
    1,
    23,
    29,
    29,
    47,
    49,
    49,
    49,
    51,
    29,
    33,
    29,
    1,
    1,
    21,
    33,
    29,
    47,
    49,
    49,
    49,
    51,
    29,
    29,
    29,
    1,
    1,
    21,
    29,
    29,
    53,
    55,
    55,
    55,
    57,
    29,
    29,
    33,
    1,
    1,
    23,
    29,
    59,
    29,
    29,
    33,
    29,
    29,
    59,
    29,
    29,
    1,
    1,
    21,
    29,
    61,
    31,
    29,
    29,
    29,
    37,
    61,
    31,
    29,
    1,
    1,
    23,
    29,
    63,
    65,
    67,
    69,
    71,
    29,
    63,
    65,
    29,
    1,
    1,
    1,
    1,
    1,
    1,
    73,
    75,
    77,
    1,
    1,
    1,
    1,
    1
   ],
   "opacity": 1,
   "visible": true,
   "x": 0,
   "y": 0
  },
  {
   "id": 2,
   "name": "deco_sotto",
   "type": "tilelayer",
   "width": 13,
   "height": 16,
   "data": [
    2,
    2,
    2,
    2,
    2,
    2,
    2,
    2,
    2,
    2,
    2,
    2,
    2,
    2,
    4,
    6,
    4,
    0,
    0,
    4,
    0,
    0,
    4,
    6,
    4,
    2,
    2,
    12,
    14,
    12,
    0,
    0,
    0,
    0,
    0,
    12,
    14,
    12,
    2,
    2,
    22,
    22,
    24,
    0,
    26,
    0,
    26,
    0,
    22,
    22,
    26,
    2,
    2,
    22,
    30,
    30,
    0,
    32,
    30,
    30,
    0,
    32,
    30,
    30,
    2,
    2,
    22,
    34,
    30,
    0,
    32,
    30,
    38,
    0,
    32,
    34,
    30,
    2,
    2,
    22,
    30,
    30,
    0,
    32,
    30,
    30,
    0,
    32,
    30,
    30,
    2,
    2,
    26,
    30,
    34,
    42,
    44,
    44,
    44,
    46,
    30,
    30,
    34,
    2,
    2,
    22,
    30,
    30,
    48,
    50,
    50,
    50,
    52,
    30,
    30,
    30,
    2,
    2,
    24,
    30,
    30,
    48,
    50,
    50,
    50,
    52,
    30,
    34,
    30,
    2,
    2,
    22,
    34,
    30,
    48,
    50,
    50,
    50,
    52,
    30,
    30,
    30,
    2,
    2,
    22,
    30,
    30,
    54,
    56,
    56,
    56,
    58,
    30,
    30,
    34,
    2,
    2,
    24,
    30,
    60,
    30,
    30,
    34,
    30,
    30,
    60,
    30,
    30,
    2,
    2,
    22,
    30,
    0,
    32,
    30,
    30,
    30,
    38,
    0,
    32,
    30,
    2,
    2,
    24,
    30,
    64,
    66,
    0,
    0,
    0,
    30,
    64,
    66,
    30,
    2,
    2,
    2,
    2,
    2,
    2,
    0,
    0,
    0,
    2,
    2,
    2,
    2,
    2
   ],
   "opacity": 1,
   "visible": true,
   "x": 0,
   "y": 0
  },
  {
   "id": 3,
   "name": "sopra_testa",
   "type": "tilelayer",
   "width": 13,
   "height": 16,
   "data": [
    0,
    0,
    0,
    0,
    0,
    0,
    0,
    0,
    0,
    0,
    0,
    0,
    0,
    0,
    0,
    0,
    0,
    8,
    10,
    0,
    10,
    8,
    0,
    0,
    0,
    0,
    0,
    0,
    0,
    0,
    16,
    18,
    20,
    18,
    16,
    0,
    0,
    0,
    0,
    0,
    0,
    0,
    0,
    16,
    0,
    28,
    0,
    16,
    0,
    0,
    0,
    0,
    0,
    0,
    0,
    0,
    16,
    0,
    0,
    0,
    16,
    0,
    0,
    0,
    0,
    0,
    0,
    0,
    0,
    36,
    0,
    0,
    0,
    36,
    0,
    0,
    0,
    0,
    0,
    0,
    0,
    0,
    40,
    0,
    0,
    0,
    40,
    0,
    0,
    0,
    0,
    0,
    0,
    0,
    0,
    0,
    0,
    0,
    0,
    0,
    0,
    0,
    0,
    0,
    0,
    0,
    0,
    0,
    0,
    0,
    0,
    0,
    0,
    0,
    0,
    0,
    0,
    0,
    0,
    0,
    0,
    0,
    0,
    0,
    0,
    0,
    0,
    0,
    0,
    0,
    0,
    0,
    0,
    0,
    0,
    0,
    0,
    0,
    0,
    0,
    0,
    0,
    0,
    0,
    0,
    0,
    0,
    0,
    0,
    0,
    0,
    0,
    0,
    0,
    0,
    0,
    0,
    0,
    0,
    0,
    0,
    0,
    0,
    0,
    0,
    0,
    0,
    0,
    0,
    0,
    0,
    0,
    62,
    0,
    0,
    0,
    0,
    0,
    62,
    0,
    0,
    0,
    0,
    0,
    0,
    0,
    0,
    68,
    70,
    72,
    0,
    0,
    0,
    0,
    0,
    0,
    0,
    0,
    0,
    0,
    74,
    76,
    78,
    0,
    0,
    0,
    0,
    0
   ],
   "opacity": 1,
   "visible": true,
   "x": 0,
   "y": 0
  },
  {
   "id": 4,
   "name": "collisioni",
   "type": "objectgroup",
   "opacity": 1,
   "visible": true,
   "x": 0,
   "y": 0,
   "objects": [
    {
     "id": 1000,
     "name": "",
     "type": "",
     "x": 0,
     "y": 0,
     "width": 32,
     "height": 32,
     "rotation": 0,
     "visible": true,
     "properties": []
    },
    {
     "id": 1001,
     "name": "",
     "type": "",
     "x": 32,
     "y": 0,
     "width": 32,
     "height": 32,
     "rotation": 0,
     "visible": true,
     "properties": []
    },
    {
     "id": 1002,
     "name": "",
     "type": "",
     "x": 64,
     "y": 0,
     "width": 32,
     "height": 32,
     "rotation": 0,
     "visible": true,
     "properties": []
    },
    {
     "id": 1003,
     "name": "",
     "type": "",
     "x": 96,
     "y": 0,
     "width": 32,
     "height": 32,
     "rotation": 0,
     "visible": true,
     "properties": []
    },
    {
     "id": 1004,
     "name": "",
     "type": "",
     "x": 128,
     "y": 0,
     "width": 32,
     "height": 32,
     "rotation": 0,
     "visible": true,
     "properties": []
    },
    {
     "id": 1005,
     "name": "",
     "type": "",
     "x": 160,
     "y": 0,
     "width": 32,
     "height": 32,
     "rotation": 0,
     "visible": true,
     "properties": []
    },
    {
     "id": 1006,
     "name": "",
     "type": "",
     "x": 192,
     "y": 0,
     "width": 32,
     "height": 32,
     "rotation": 0,
     "visible": true,
     "properties": []
    },
    {
     "id": 1007,
     "name": "",
     "type": "",
     "x": 224,
     "y": 0,
     "width": 32,
     "height": 32,
     "rotation": 0,
     "visible": true,
     "properties": []
    },
    {
     "id": 1008,
     "name": "",
     "type": "",
     "x": 256,
     "y": 0,
     "width": 32,
     "height": 32,
     "rotation": 0,
     "visible": true,
     "properties": []
    },
    {
     "id": 1009,
     "name": "",
     "type": "",
     "x": 288,
     "y": 0,
     "width": 32,
     "height": 32,
     "rotation": 0,
     "visible": true,
     "properties": []
    },
    {
     "id": 1010,
     "name": "",
     "type": "",
     "x": 320,
     "y": 0,
     "width": 32,
     "height": 32,
     "rotation": 0,
     "visible": true,
     "properties": []
    },
    {
     "id": 1011,
     "name": "",
     "type": "",
     "x": 352,
     "y": 0,
     "width": 32,
     "height": 32,
     "rotation": 0,
     "visible": true,
     "properties": []
    },
    {
     "id": 1012,
     "name": "",
     "type": "",
     "x": 384,
     "y": 0,
     "width": 32,
     "height": 32,
     "rotation": 0,
     "visible": true,
     "properties": []
    },
    {
     "id": 1013,
     "name": "",
     "type": "",
     "x": 0,
     "y": 32,
     "width": 32,
     "height": 32,
     "rotation": 0,
     "visible": true,
     "properties": []
    },
    {
     "id": 1014,
     "name": "",
     "type": "",
     "x": 32,
     "y": 32,
     "width": 32,
     "height": 32,
     "rotation": 0,
     "visible": true,
     "properties": []
    },
    {
     "id": 1015,
     "name": "",
     "type": "",
     "x": 64,
     "y": 32,
     "width": 32,
     "height": 32,
     "rotation": 0,
     "visible": true,
     "properties": []
    },
    {
     "id": 1016,
     "name": "",
     "type": "",
     "x": 96,
     "y": 32,
     "width": 32,
     "height": 32,
     "rotation": 0,
     "visible": true,
     "properties": []
    },
    {
     "id": 1017,
     "name": "",
     "type": "",
     "x": 128,
     "y": 32,
     "width": 32,
     "height": 32,
     "rotation": 0,
     "visible": true,
     "properties": []
    },
    {
     "id": 1018,
     "name": "",
     "type": "",
     "x": 160,
     "y": 32,
     "width": 32,
     "height": 32,
     "rotation": 0,
     "visible": true,
     "properties": []
    },
    {
     "id": 1019,
     "name": "",
     "type": "",
     "x": 192,
     "y": 32,
     "width": 32,
     "height": 32,
     "rotation": 0,
     "visible": true,
     "properties": []
    },
    {
     "id": 1020,
     "name": "",
     "type": "",
     "x": 224,
     "y": 32,
     "width": 32,
     "height": 32,
     "rotation": 0,
     "visible": true,
     "properties": []
    },
    {
     "id": 1021,
     "name": "",
     "type": "",
     "x": 256,
     "y": 32,
     "width": 32,
     "height": 32,
     "rotation": 0,
     "visible": true,
     "properties": []
    },
    {
     "id": 1022,
     "name": "",
     "type": "",
     "x": 288,
     "y": 32,
     "width": 32,
     "height": 32,
     "rotation": 0,
     "visible": true,
     "properties": []
    },
    {
     "id": 1023,
     "name": "",
     "type": "",
     "x": 320,
     "y": 32,
     "width": 32,
     "height": 32,
     "rotation": 0,
     "visible": true,
     "properties": []
    },
    {
     "id": 1024,
     "name": "",
     "type": "",
     "x": 352,
     "y": 32,
     "width": 32,
     "height": 32,
     "rotation": 0,
     "visible": true,
     "properties": []
    },
    {
     "id": 1025,
     "name": "",
     "type": "",
     "x": 384,
     "y": 32,
     "width": 32,
     "height": 32,
     "rotation": 0,
     "visible": true,
     "properties": []
    },
    {
     "id": 1026,
     "name": "",
     "type": "",
     "x": 0,
     "y": 64,
     "width": 32,
     "height": 32,
     "rotation": 0,
     "visible": true,
     "properties": []
    },
    {
     "id": 1027,
     "name": "",
     "type": "",
     "x": 32,
     "y": 64,
     "width": 32,
     "height": 32,
     "rotation": 0,
     "visible": true,
     "properties": []
    },
    {
     "id": 1028,
     "name": "",
     "type": "",
     "x": 64,
     "y": 64,
     "width": 32,
     "height": 32,
     "rotation": 0,
     "visible": true,
     "properties": []
    },
    {
     "id": 1029,
     "name": "",
     "type": "",
     "x": 96,
     "y": 64,
     "width": 32,
     "height": 32,
     "rotation": 0,
     "visible": true,
     "properties": []
    },
    {
     "id": 1030,
     "name": "",
     "type": "",
     "x": 128,
     "y": 64,
     "width": 32,
     "height": 32,
     "rotation": 0,
     "visible": true,
     "properties": []
    },
    {
     "id": 1031,
     "name": "",
     "type": "",
     "x": 160,
     "y": 64,
     "width": 32,
     "height": 32,
     "rotation": 0,
     "visible": true,
     "properties": []
    },
    {
     "id": 1032,
     "name": "",
     "type": "",
     "x": 192,
     "y": 64,
     "width": 32,
     "height": 32,
     "rotation": 0,
     "visible": true,
     "properties": []
    },
    {
     "id": 1033,
     "name": "",
     "type": "",
     "x": 224,
     "y": 64,
     "width": 32,
     "height": 32,
     "rotation": 0,
     "visible": true,
     "properties": []
    },
    {
     "id": 1034,
     "name": "",
     "type": "",
     "x": 256,
     "y": 64,
     "width": 32,
     "height": 32,
     "rotation": 0,
     "visible": true,
     "properties": []
    },
    {
     "id": 1035,
     "name": "",
     "type": "",
     "x": 288,
     "y": 64,
     "width": 32,
     "height": 32,
     "rotation": 0,
     "visible": true,
     "properties": []
    },
    {
     "id": 1036,
     "name": "",
     "type": "",
     "x": 320,
     "y": 64,
     "width": 32,
     "height": 32,
     "rotation": 0,
     "visible": true,
     "properties": []
    },
    {
     "id": 1037,
     "name": "",
     "type": "",
     "x": 352,
     "y": 64,
     "width": 32,
     "height": 32,
     "rotation": 0,
     "visible": true,
     "properties": []
    },
    {
     "id": 1038,
     "name": "",
     "type": "",
     "x": 384,
     "y": 64,
     "width": 32,
     "height": 32,
     "rotation": 0,
     "visible": true,
     "properties": []
    },
    {
     "id": 1039,
     "name": "",
     "type": "",
     "x": 0,
     "y": 96,
     "width": 32,
     "height": 32,
     "rotation": 0,
     "visible": true,
     "properties": []
    },
    {
     "id": 1040,
     "name": "",
     "type": "",
     "x": 128,
     "y": 96,
     "width": 32,
     "height": 32,
     "rotation": 0,
     "visible": true,
     "properties": []
    },
    {
     "id": 1041,
     "name": "",
     "type": "",
     "x": 256,
     "y": 96,
     "width": 32,
     "height": 32,
     "rotation": 0,
     "visible": true,
     "properties": []
    },
    {
     "id": 1042,
     "name": "",
     "type": "",
     "x": 384,
     "y": 96,
     "width": 32,
     "height": 32,
     "rotation": 0,
     "visible": true,
     "properties": []
    },
    {
     "id": 1043,
     "name": "",
     "type": "",
     "x": 0,
     "y": 128,
     "width": 32,
     "height": 32,
     "rotation": 0,
     "visible": true,
     "properties": []
    },
    {
     "id": 1044,
     "name": "",
     "type": "",
     "x": 128,
     "y": 128,
     "width": 32,
     "height": 32,
     "rotation": 0,
     "visible": true,
     "properties": []
    },
    {
     "id": 1045,
     "name": "",
     "type": "",
     "x": 256,
     "y": 128,
     "width": 32,
     "height": 32,
     "rotation": 0,
     "visible": true,
     "properties": []
    },
    {
     "id": 1046,
     "name": "",
     "type": "",
     "x": 384,
     "y": 128,
     "width": 32,
     "height": 32,
     "rotation": 0,
     "visible": true,
     "properties": []
    },
    {
     "id": 1047,
     "name": "",
     "type": "",
     "x": 0,
     "y": 160,
     "width": 32,
     "height": 32,
     "rotation": 0,
     "visible": true,
     "properties": []
    },
    {
     "id": 1048,
     "name": "",
     "type": "",
     "x": 128,
     "y": 160,
     "width": 32,
     "height": 32,
     "rotation": 0,
     "visible": true,
     "properties": []
    },
    {
     "id": 1049,
     "name": "",
     "type": "",
     "x": 256,
     "y": 160,
     "width": 32,
     "height": 32,
     "rotation": 0,
     "visible": true,
     "properties": []
    },
    {
     "id": 1050,
     "name": "",
     "type": "",
     "x": 384,
     "y": 160,
     "width": 32,
     "height": 32,
     "rotation": 0,
     "visible": true,
     "properties": []
    },
    {
     "id": 1051,
     "name": "",
     "type": "",
     "x": 0,
     "y": 192,
     "width": 32,
     "height": 32,
     "rotation": 0,
     "visible": true,
     "properties": []
    },
    {
     "id": 1052,
     "name": "",
     "type": "",
     "x": 128,
     "y": 192,
     "width": 32,
     "height": 32,
     "rotation": 0,
     "visible": true,
     "properties": []
    },
    {
     "id": 1053,
     "name": "",
     "type": "",
     "x": 256,
     "y": 192,
     "width": 32,
     "height": 32,
     "rotation": 0,
     "visible": true,
     "properties": []
    },
    {
     "id": 1054,
     "name": "",
     "type": "",
     "x": 384,
     "y": 192,
     "width": 32,
     "height": 32,
     "rotation": 0,
     "visible": true,
     "properties": []
    },
    {
     "id": 1055,
     "name": "",
     "type": "",
     "x": 0,
     "y": 224,
     "width": 32,
     "height": 32,
     "rotation": 0,
     "visible": true,
     "properties": []
    },
    {
     "id": 1056,
     "name": "",
     "type": "",
     "x": 384,
     "y": 224,
     "width": 32,
     "height": 32,
     "rotation": 0,
     "visible": true,
     "properties": []
    },
    {
     "id": 1057,
     "name": "",
     "type": "",
     "x": 0,
     "y": 256,
     "width": 32,
     "height": 32,
     "rotation": 0,
     "visible": true,
     "properties": []
    },
    {
     "id": 1058,
     "name": "",
     "type": "",
     "x": 384,
     "y": 256,
     "width": 32,
     "height": 32,
     "rotation": 0,
     "visible": true,
     "properties": []
    },
    {
     "id": 1059,
     "name": "",
     "type": "",
     "x": 0,
     "y": 288,
     "width": 32,
     "height": 32,
     "rotation": 0,
     "visible": true,
     "properties": []
    },
    {
     "id": 1060,
     "name": "",
     "type": "",
     "x": 384,
     "y": 288,
     "width": 32,
     "height": 32,
     "rotation": 0,
     "visible": true,
     "properties": []
    },
    {
     "id": 1061,
     "name": "",
     "type": "",
     "x": 0,
     "y": 320,
     "width": 32,
     "height": 32,
     "rotation": 0,
     "visible": true,
     "properties": []
    },
    {
     "id": 1062,
     "name": "",
     "type": "",
     "x": 384,
     "y": 320,
     "width": 32,
     "height": 32,
     "rotation": 0,
     "visible": true,
     "properties": []
    },
    {
     "id": 1063,
     "name": "",
     "type": "",
     "x": 0,
     "y": 352,
     "width": 32,
     "height": 32,
     "rotation": 0,
     "visible": true,
     "properties": []
    },
    {
     "id": 1064,
     "name": "",
     "type": "",
     "x": 384,
     "y": 352,
     "width": 32,
     "height": 32,
     "rotation": 0,
     "visible": true,
     "properties": []
    },
    {
     "id": 1065,
     "name": "",
     "type": "",
     "x": 0,
     "y": 384,
     "width": 32,
     "height": 32,
     "rotation": 0,
     "visible": true,
     "properties": []
    },
    {
     "id": 1066,
     "name": "",
     "type": "",
     "x": 384,
     "y": 384,
     "width": 32,
     "height": 32,
     "rotation": 0,
     "visible": true,
     "properties": []
    },
    {
     "id": 1067,
     "name": "",
     "type": "",
     "x": 0,
     "y": 416,
     "width": 32,
     "height": 32,
     "rotation": 0,
     "visible": true,
     "properties": []
    },
    {
     "id": 1068,
     "name": "",
     "type": "",
     "x": 96,
     "y": 416,
     "width": 32,
     "height": 32,
     "rotation": 0,
     "visible": true,
     "properties": []
    },
    {
     "id": 1069,
     "name": "",
     "type": "",
     "x": 288,
     "y": 416,
     "width": 32,
     "height": 32,
     "rotation": 0,
     "visible": true,
     "properties": []
    },
    {
     "id": 1070,
     "name": "",
     "type": "",
     "x": 384,
     "y": 416,
     "width": 32,
     "height": 32,
     "rotation": 0,
     "visible": true,
     "properties": []
    },
    {
     "id": 1071,
     "name": "",
     "type": "",
     "x": 0,
     "y": 448,
     "width": 32,
     "height": 32,
     "rotation": 0,
     "visible": true,
     "properties": []
    },
    {
     "id": 1072,
     "name": "",
     "type": "",
     "x": 384,
     "y": 448,
     "width": 32,
     "height": 32,
     "rotation": 0,
     "visible": true,
     "properties": []
    },
    {
     "id": 1073,
     "name": "",
     "type": "",
     "x": 0,
     "y": 480,
     "width": 32,
     "height": 32,
     "rotation": 0,
     "visible": true,
     "properties": []
    },
    {
     "id": 1074,
     "name": "",
     "type": "",
     "x": 32,
     "y": 480,
     "width": 32,
     "height": 32,
     "rotation": 0,
     "visible": true,
     "properties": []
    },
    {
     "id": 1075,
     "name": "",
     "type": "",
     "x": 64,
     "y": 480,
     "width": 32,
     "height": 32,
     "rotation": 0,
     "visible": true,
     "properties": []
    },
    {
     "id": 1076,
     "name": "",
     "type": "",
     "x": 96,
     "y": 480,
     "width": 32,
     "height": 32,
     "rotation": 0,
     "visible": true,
     "properties": []
    },
    {
     "id": 1077,
     "name": "",
     "type": "",
     "x": 128,
     "y": 480,
     "width": 32,
     "height": 32,
     "rotation": 0,
     "visible": true,
     "properties": []
    },
    {
     "id": 1078,
     "name": "",
     "type": "",
     "x": 160,
     "y": 480,
     "width": 32,
     "height": 32,
     "rotation": 0,
     "visible": true,
     "properties": []
    },
    {
     "id": 1079,
     "name": "",
     "type": "",
     "x": 192,
     "y": 480,
     "width": 32,
     "height": 32,
     "rotation": 0,
     "visible": true,
     "properties": []
    },
    {
     "id": 1080,
     "name": "",
     "type": "",
     "x": 224,
     "y": 480,
     "width": 32,
     "height": 32,
     "rotation": 0,
     "visible": true,
     "properties": []
    },
    {
     "id": 1081,
     "name": "",
     "type": "",
     "x": 256,
     "y": 480,
     "width": 32,
     "height": 32,
     "rotation": 0,
     "visible": true,
     "properties": []
    },
    {
     "id": 1082,
     "name": "",
     "type": "",
     "x": 288,
     "y": 480,
     "width": 32,
     "height": 32,
     "rotation": 0,
     "visible": true,
     "properties": []
    },
    {
     "id": 1083,
     "name": "",
     "type": "",
     "x": 320,
     "y": 480,
     "width": 32,
     "height": 32,
     "rotation": 0,
     "visible": true,
     "properties": []
    },
    {
     "id": 1084,
     "name": "",
     "type": "",
     "x": 352,
     "y": 480,
     "width": 32,
     "height": 32,
     "rotation": 0,
     "visible": true,
     "properties": []
    },
    {
     "id": 1085,
     "name": "",
     "type": "",
     "x": 384,
     "y": 480,
     "width": 32,
     "height": 32,
     "rotation": 0,
     "visible": true,
     "properties": []
    }
   ]
  },
  {
   "id": 5,
   "name": "eventi",
   "type": "objectgroup",
   "opacity": 1,
   "visible": true,
   "x": 0,
   "y": 0,
   "objects": [
    {
     "id": 1,
     "name": "npc_saffroncity_dojo_1",
     "type": "",
     "point": true,
     "x": 368,
     "y": 352,
     "width": 0,
     "height": 0,
     "rotation": 0,
     "visible": true,
     "properties": [
      {
       "name": "type",
       "type": "string",
       "value": "npc"
      },
      {
       "name": "id",
       "type": "string",
       "value": "npc_saffroncity_dojo_1"
      },
      {
       "name": "nota_origine",
       "type": "string",
       "value": "OBJ_EVENT_GFX_BLACK_BELT"
      }
     ]
    },
    {
     "id": 2,
     "name": "npc_saffroncity_dojo_2",
     "type": "",
     "point": true,
     "x": 48,
     "y": 352,
     "width": 0,
     "height": 0,
     "rotation": 0,
     "visible": true,
     "properties": [
      {
       "name": "type",
       "type": "string",
       "value": "npc"
      },
      {
       "name": "id",
       "type": "string",
       "value": "npc_saffroncity_dojo_2"
      },
      {
       "name": "nota_origine",
       "type": "string",
       "value": "OBJ_EVENT_GFX_BLACK_BELT"
      }
     ]
    },
    {
     "id": 3,
     "name": "npc_saffroncity_dojo_3",
     "type": "",
     "point": true,
     "x": 368,
     "y": 288,
     "width": 0,
     "height": 0,
     "rotation": 0,
     "visible": true,
     "properties": [
      {
       "name": "type",
       "type": "string",
       "value": "npc"
      },
      {
       "name": "id",
       "type": "string",
       "value": "npc_saffroncity_dojo_3"
      },
      {
       "name": "nota_origine",
       "type": "string",
       "value": "OBJ_EVENT_GFX_BLACK_BELT"
      }
     ]
    },
    {
     "id": 4,
     "name": "npc_saffroncity_dojo_4",
     "type": "",
     "point": true,
     "x": 48,
     "y": 288,
     "width": 0,
     "height": 0,
     "rotation": 0,
     "visible": true,
     "properties": [
      {
       "name": "type",
       "type": "string",
       "value": "npc"
      },
      {
       "name": "id",
       "type": "string",
       "value": "npc_saffroncity_dojo_4"
      },
      {
       "name": "nota_origine",
       "type": "string",
       "value": "OBJ_EVENT_GFX_BLACK_BELT"
      }
     ]
    },
    {
     "id": 5,
     "name": "npc_saffroncity_dojo_5",
     "type": "",
     "point": true,
     "x": 208,
     "y": 192,
     "width": 0,
     "height": 0,
     "rotation": 0,
     "visible": true,
     "properties": [
      {
       "name": "type",
       "type": "string",
       "value": "npc"
      },
      {
       "name": "id",
       "type": "string",
       "value": "npc_saffroncity_dojo_5"
      },
      {
       "name": "nota_origine",
       "type": "string",
       "value": "OBJ_EVENT_GFX_BLACK_BELT"
      }
     ]
    },
    {
     "id": 6,
     "name": "npc_saffroncity_dojo_6",
     "type": "",
     "point": true,
     "x": 176,
     "y": 128,
     "width": 0,
     "height": 0,
     "rotation": 0,
     "visible": true,
     "properties": [
      {
       "name": "type",
       "type": "string",
       "value": "npc"
      },
      {
       "name": "id",
       "type": "string",
       "value": "npc_saffroncity_dojo_6"
      },
      {
       "name": "nota_origine",
       "type": "string",
       "value": "OBJ_EVENT_GFX_ITEM_BALL"
      }
     ]
    },
    {
     "id": 7,
     "name": "npc_saffroncity_dojo_7",
     "type": "",
     "point": true,
     "x": 240,
     "y": 128,
     "width": 0,
     "height": 0,
     "rotation": 0,
     "visible": true,
     "properties": [
      {
       "name": "type",
       "type": "string",
       "value": "npc"
      },
      {
       "name": "id",
       "type": "string",
       "value": "npc_saffroncity_dojo_7"
      },
      {
       "name": "nota_origine",
       "type": "string",
       "value": "OBJ_EVENT_GFX_ITEM_BALL"
      }
     ]
    },
    {
     "id": 8,
     "name": "uscita_1",
     "type": "",
     "x": 160,
     "y": 448,
     "width": 32,
     "height": 32,
     "rotation": 0,
     "visible": true,
     "properties": [
      {
       "name": "type",
       "type": "string",
       "value": "uscita"
      },
      {
       "name": "nota_origine",
       "type": "string",
       "value": "verso MAP_SAFFRON_CITY (da ricollegare a una tua mappa)"
      }
     ]
    },
    {
     "id": 9,
     "name": "uscita_2",
     "type": "",
     "x": 192,
     "y": 448,
     "width": 32,
     "height": 32,
     "rotation": 0,
     "visible": true,
     "properties": [
      {
       "name": "type",
       "type": "string",
       "value": "uscita"
      },
      {
       "name": "nota_origine",
       "type": "string",
       "value": "verso MAP_SAFFRON_CITY (da ricollegare a una tua mappa)"
      }
     ]
    },
    {
     "id": 10,
     "name": "uscita_3",
     "type": "",
     "x": 224,
     "y": 448,
     "width": 32,
     "height": 32,
     "rotation": 0,
     "visible": true,
     "properties": [
      {
       "name": "type",
       "type": "string",
       "value": "uscita"
      },
      {
       "name": "nota_origine",
       "type": "string",
       "value": "verso MAP_SAFFRON_CITY (da ricollegare a una tua mappa)"
      }
     ]
    }
   ]
  }
 ]
}